(Created with grbl post processor 2024/12/13 12:46)
G21
(G-code Generated with Fabex and NC library)
G17G90
(Tool: D = 10.0 mm  type END flutes 2)
S12000M03
G00 Z10.0

G0X0Y0Z10
X33.82Y29.32
G1Z0F500
X33.798Y29.761Z-0.015F1000
X33.734Y30.198Z-0.03
X33.626Y30.627Z-0.046
X33.477Y31.042Z-0.061
X33.289Y31.442Z-0.077
X33.062Y31.82Z-0.092
X32.799Y32.175Z-0.107
X32.502Y32.502Z-0.123
X32.175Y32.799Z-0.138
X31.82Y33.062Z-0.154
X31.441Y33.289Z-0.169
X31.042Y33.478Z-0.185
X30.626Y33.626Z-0.2
X30.198Y33.734Z-0.215
X29.761Y33.799Z-0.231
X29.32Y33.82Z-0.246
X28.879Y33.799Z-0.262
X28.442Y33.734Z-0.277
X28.014Y33.626Z-0.293
X27.598Y33.478Z-0.308
X27.199Y33.289Z-0.323
X26.82Y33.062Z-0.339
X26.465Y32.799Z-0.354
X26.138Y32.502Z-0.37
X25.841Y32.175Z-0.385
X25.578Y31.82Z-0.401
X25.351Y31.442Z-0.416
X25.163Y31.042Z-0.431
X25.014Y30.627Z-0.447
X24.906Y30.198Z-0.462
X24.842Y29.761Z-0.478
X24.82Y29.32Z-0.493
X24.842Y28.879Z-0.509
X24.906Y28.442Z-0.524
X25.014Y28.014Z-0.539
X25.163Y27.598Z-0.555
X25.351Y27.199Z-0.57
X25.578Y26.82Z-0.586
X25.841Y26.465Z-0.601
X26.138Y26.138Z-0.617
X26.465Y25.842Z-0.632
X26.82Y25.579Z-0.647
X27.199Y25.352Z-0.663
X27.598Y25.163Z-0.678
X28.014Y25.014Z-0.694
X28.442Y24.907Z-0.709
X28.879Y24.842Z-0.725
X29.32Y24.82Z-0.74
X29.761Y24.842Z-0.755
X30.198Y24.907Z-0.771
X30.626Y25.014Z-0.786
X31.042Y25.163Z-0.802
X31.441Y25.352Z-0.817
X31.82Y25.579Z-0.833
X32.175Y25.842Z-0.848
X32.502Y26.138Z-0.863
X32.799Y26.465Z-0.879
X33.062Y26.82Z-0.894
X33.289Y27.199Z-0.91
X33.477Y27.598Z-0.925
X33.626Y28.014Z-0.941
X33.734Y28.442Z-0.956
X33.798Y28.879Z-0.971
X33.82Y29.32Z-0.987
X33.798Y29.761Z-1.002
X33.734Y30.198Z-1.018
X33.626Y30.627Z-1.033
X33.477Y31.042Z-1.049
X33.289Y31.442Z-1.064
X33.062Y31.82Z-1.079
X32.799Y32.175Z-1.095
X32.502Y32.502Z-1.11
X32.175Y32.799Z-1.126
X31.82Y33.062Z-1.141
X31.441Y33.289Z-1.157
X31.042Y33.478Z-1.172
X30.626Y33.626Z-1.187
X30.198Y33.734Z-1.203
X29.761Y33.799Z-1.218
X29.32Y33.82Z-1.234
X28.879Y33.799Z-1.249
X28.442Y33.734Z-1.265
X28.014Y33.626Z-1.28
X27.598Y33.478Z-1.295
X27.199Y33.289Z-1.311
X26.82Y33.062Z-1.326
X26.465Y32.799Z-1.342
X26.138Y32.502Z-1.357
X25.841Y32.175Z-1.373
X25.578Y31.82Z-1.388
X25.351Y31.442Z-1.403
X25.163Y31.042Z-1.419
X25.014Y30.627Z-1.434
X24.906Y30.198Z-1.45
X24.842Y29.761Z-1.465
X24.82Y29.32Z-1.481
X24.842Y28.879Z-1.496
X24.906Y28.442Z-1.511
X25.014Y28.014Z-1.527
X25.163Y27.598Z-1.542
X25.351Y27.199Z-1.558
X25.578Y26.82Z-1.573
X25.841Y26.465Z-1.589
X26.138Y26.138Z-1.604
X26.465Y25.842Z-1.619
X26.82Y25.579Z-1.635
X27.199Y25.352Z-1.65
X27.598Y25.163Z-1.666
X28.014Y25.014Z-1.681
X28.442Y24.907Z-1.697
X28.879Y24.842Z-1.712
X29.32Y24.82Z-1.727
X29.761Y24.842Z-1.743
X30.198Y24.907Z-1.758
X30.626Y25.014Z-1.774
X31.042Y25.163Z-1.789
X31.441Y25.352Z-1.805
X31.82Y25.579Z-1.82
X32.175Y25.842Z-1.835
X32.502Y26.138Z-1.851
X32.799Y26.465Z-1.866
X33.062Y26.82Z-1.882
X33.289Y27.199Z-1.897
X33.477Y27.598Z-1.913
X33.626Y28.014Z-1.928
X33.734Y28.442Z-1.943
X33.798Y28.879Z-1.959
X33.82Y29.32Z-1.974
X33.798Y29.761Z-1.99
X33.734Y30.198Z-2.005
X33.626Y30.627Z-2.021
X33.477Y31.042Z-2.036
X33.289Y31.442Z-2.051
X33.062Y31.82Z-2.067
X32.799Y32.175Z-2.082
X32.502Y32.502Z-2.098
X32.175Y32.799Z-2.113
X31.82Y33.062Z-2.128
X31.441Y33.289Z-2.144
X31.042Y33.478Z-2.159
X30.626Y33.626Z-2.175
X30.198Y33.734Z-2.19
X29.761Y33.799Z-2.206
X29.32Y33.82Z-2.221
X28.879Y33.799Z-2.236
X28.442Y33.734Z-2.252
X28.014Y33.626Z-2.267
X27.598Y33.478Z-2.283
X27.199Y33.289Z-2.298
X26.82Y33.062Z-2.314
X26.465Y32.799Z-2.329
X26.138Y32.502Z-2.344
X25.841Y32.175Z-2.36
X25.578Y31.82Z-2.375
X25.351Y31.442Z-2.391
X25.163Y31.042Z-2.406
X25.014Y30.627Z-2.422
X24.906Y30.198Z-2.437
X24.842Y29.761Z-2.452
X24.82Y29.32Z-2.468
X24.842Y28.879Z-2.483
X24.906Y28.442Z-2.499
X25.014Y28.014Z-2.514
X25.163Y27.598Z-2.53
X25.351Y27.199Z-2.545
X25.578Y26.82Z-2.56
X25.841Y26.465Z-2.576
X26.138Y26.138Z-2.591
X26.465Y25.842Z-2.607
X26.82Y25.579Z-2.622
X27.199Y25.352Z-2.638
X27.598Y25.163Z-2.653
X28.014Y25.014Z-2.668
X28.442Y24.907Z-2.684
X28.879Y24.842Z-2.699
X29.32Y24.82Z-2.715
X29.761Y24.842Z-2.73
X30.198Y24.907Z-2.746
X30.626Y25.014Z-2.761
X31.042Y25.163Z-2.776
X31.441Y25.352Z-2.792
X31.82Y25.579Z-2.807
X32.175Y25.842Z-2.823
X32.502Y26.138Z-2.838
X32.799Y26.465Z-2.854
X33.062Y26.82Z-2.869
X33.289Y27.199Z-2.884
X33.477Y27.598Z-2.9
X33.626Y28.014Z-2.915
X33.734Y28.442Z-2.931
X33.798Y28.879Z-2.946
X33.82Y29.32Z-2.962
X33.798Y29.761Z-2.977
X33.734Y30.198Z-2.992
X33.626Y30.627Z-3.008
X33.477Y31.042Z-3.023
X33.289Y31.442Z-3.039
X33.062Y31.82Z-3.054
X32.799Y32.175Z-3.07
X32.502Y32.502Z-3.085
X32.175Y32.799Z-3.1
X31.82Y33.062Z-3.116
X31.441Y33.289Z-3.131
X31.042Y33.478Z-3.147
X30.626Y33.626Z-3.162
X30.198Y33.734Z-3.178
X29.761Y33.799Z-3.193
X29.32Y33.82Z-3.208
X28.879Y33.799Z-3.224
X28.442Y33.734Z-3.239
X28.014Y33.626Z-3.255
X27.598Y33.478Z-3.27
X27.199Y33.289Z-3.286
X26.82Y33.062Z-3.301
X26.465Y32.799Z-3.316
X26.138Y32.502Z-3.332
X25.841Y32.175Z-3.347
X25.578Y31.82Z-3.363
X25.351Y31.442Z-3.378
X25.163Y31.042Z-3.394
X25.014Y30.627Z-3.409
X24.906Y30.198Z-3.424
X24.842Y29.761Z-3.44
X24.82Y29.32Z-3.455
X24.842Y28.879Z-3.471
X24.906Y28.442Z-3.486
X25.014Y28.014Z-3.502
X25.163Y27.598Z-3.517
X25.351Y27.199Z-3.532
X25.578Y26.82Z-3.548
X25.841Y26.465Z-3.563
X26.138Y26.138Z-3.579
X26.465Y25.842Z-3.594
X26.82Y25.579Z-3.61
X27.199Y25.352Z-3.625
X27.598Y25.163Z-3.64
X28.014Y25.014Z-3.656
X28.442Y24.907Z-3.671
X28.879Y24.842Z-3.687
X29.32Y24.82Z-3.702
X29.761Y24.842Z-3.718
X30.198Y24.907Z-3.733
X30.626Y25.014Z-3.748
X31.042Y25.163Z-3.764
X31.441Y25.352Z-3.779
X31.82Y25.579Z-3.795
X32.175Y25.842Z-3.81
X32.502Y26.138Z-3.826
X32.799Y26.465Z-3.841
X33.062Y26.82Z-3.856
X33.289Y27.199Z-3.872
X33.477Y27.598Z-3.887
X33.626Y28.014Z-3.903
X33.734Y28.442Z-3.918
X33.798Y28.879Z-3.934
X33.82Y29.32Z-3.949
X33.798Y29.761Z-3.964
X33.734Y30.198Z-3.98
X33.626Y30.627Z-3.995
X33.477Y31.042Z-4.011
X33.289Y31.442Z-4.026
X33.062Y31.82Z-4.042
X32.799Y32.175Z-4.057
X32.502Y32.502Z-4.072
X32.175Y32.799Z-4.088
X31.82Y33.062Z-4.103
X31.441Y33.289Z-4.119
X31.042Y33.478Z-4.134
X30.626Y33.626Z-4.15
X30.198Y33.734Z-4.165
X29.761Y33.799Z-4.18
X29.32Y33.82Z-4.196
X28.879Y33.799Z-4.211
X28.442Y33.734Z-4.227
X28.014Y33.626Z-4.242
X27.598Y33.478Z-4.257
X27.199Y33.289Z-4.273
X26.82Y33.062Z-4.288
X26.465Y32.799Z-4.304
X26.138Y32.502Z-4.319
X25.841Y32.175Z-4.335
X25.578Y31.82Z-4.35
X25.351Y31.442Z-4.365
X25.163Y31.042Z-4.381
X25.014Y30.627Z-4.396
X24.906Y30.198Z-4.412
X24.842Y29.761Z-4.427
X24.82Y29.32Z-4.443
X24.842Y28.879Z-4.458
X24.906Y28.442Z-4.473
X25.014Y28.014Z-4.489
X25.163Y27.598Z-4.504
X25.351Y27.199Z-4.52
X25.578Y26.82Z-4.535
X25.841Y26.465Z-4.551
X26.138Y26.138Z-4.566
X26.465Y25.842Z-4.581
X26.82Y25.579Z-4.597
X27.199Y25.352Z-4.612
X27.598Y25.163Z-4.628
X28.014Y25.014Z-4.643
X28.442Y24.907Z-4.659
X28.879Y24.842Z-4.674
X29.32Y24.82Z-4.689
X29.761Y24.842Z-4.705
X30.198Y24.907Z-4.72
X30.626Y25.014Z-4.736
X31.042Y25.163Z-4.751
X31.441Y25.352Z-4.767
X31.82Y25.579Z-4.782
X32.175Y25.842Z-4.797
X32.502Y26.138Z-4.813
X32.799Y26.465Z-4.828
X33.062Y26.82Z-4.844
X33.289Y27.199Z-4.859
X33.477Y27.598Z-4.875
X33.626Y28.014Z-4.89
X33.734Y28.442Z-4.905
X33.798Y28.879Z-4.921
X33.82Y29.32Z-4.936
X33.798Y29.761Z-4.952
X33.734Y30.198Z-4.967
X33.626Y30.627Z-4.983
X33.477Y31.042Z-5
X29.32Y29.32
X29.421Y29.231
X29.525Y29.161
X29.627Y29.11
X29.726Y29.075
X29.838Y29.052
X29.999Y29.042
X30.161Y29.052
X30.272Y29.075
X30.372Y29.11
X30.474Y29.161
X30.578Y29.231
X30.679Y29.32
X30.768Y29.421
X30.838Y29.525
X30.889Y29.627
X30.924Y29.726
X30.947Y29.839
X30.957Y29.999
X30.947Y30.161
X30.924Y30.272
X30.889Y30.372
X30.838Y30.474
X30.768Y30.578
X30.679Y30.679
X30.578Y30.768
X30.474Y30.838
X30.372Y30.889
X30.273Y30.924
X30.161Y30.947
X30Y30.957
X29.838Y30.947
X29.727Y30.924
X29.627Y30.889
X29.525Y30.838
X29.421Y30.768
X29.32Y30.679
X29.231Y30.578
X29.161Y30.474
X29.11Y30.372
X29.075Y30.273
X29.052Y30.16
X29.042Y30
X29.052Y29.838
X29.075Y29.727
X29.11Y29.627
X29.161Y29.525
X29.231Y29.421
X29.32Y29.32
X28.611Y28.612
X28.808Y28.438
X29.019Y28.296
X29.237Y28.187
X29.461Y28.109
X29.704Y28.059
X29.999Y28.039
X30.295Y28.059
X30.538Y28.109
X30.762Y28.187
X30.98Y28.296
X31.191Y28.438
X31.387Y28.612
X31.561Y28.808
X31.703Y29.019
X31.812Y29.237
X31.89Y29.461
X31.94Y29.704
X31.96Y29.999
X31.94Y30.295
X31.89Y30.538
X31.812Y30.762
X31.703Y30.98
X31.561Y31.191
X31.388Y31.387
X31.191Y31.561
X30.98Y31.703
X30.762Y31.812
X30.538Y31.89
X30.295Y31.94
X30Y31.96
X29.704Y31.94
X29.461Y31.89
X29.237Y31.812
X29.019Y31.703
X28.808Y31.561
X28.612Y31.387
X28.438Y31.191
X28.296Y30.98
X28.187Y30.762
X28.109Y30.538
X28.059Y30.295
X28.039Y30
X28.059Y29.704
X28.109Y29.461
X28.187Y29.237
X28.296Y29.019
X28.438Y28.808
X28.611Y28.612
X27.903Y27.903
X28.196Y27.645
X28.513Y27.431
X28.847Y27.264
X29.196Y27.142
X29.57Y27.066
X29.999Y27.037
X30.429Y27.066
X30.803Y27.142
X31.152Y27.264
X31.486Y27.431
X31.803Y27.646
X32.096Y27.903
X32.354Y28.196
X32.568Y28.513
X32.735Y28.847
X32.857Y29.195
X32.933Y29.57
X32.962Y29.999
X32.933Y30.429
X32.857Y30.803
X32.735Y31.152
X32.568Y31.486
X32.353Y31.803
X32.096Y32.096
X31.803Y32.354
X31.486Y32.568
X31.152Y32.735
X30.803Y32.857
X30.429Y32.933
X30Y32.962
X29.57Y32.933
X29.196Y32.857
X28.847Y32.735
X28.513Y32.568
X28.196Y32.353
X27.903Y32.096
X27.645Y31.803
X27.431Y31.486
X27.264Y31.152
X27.142Y30.804
X27.066Y30.429
X27.037Y30
X27.066Y29.57
X27.142Y29.196
X27.264Y28.847
X27.431Y28.513
X27.646Y28.196
X27.903Y27.903
X27.194Y27.195
X27.583Y26.853
X28.007Y26.566
X28.457Y26.341
X28.93Y26.176
X29.436Y26.073
X29.999Y26.035
X30.564Y26.073
X31.069Y26.176
X31.543Y26.341
X31.992Y26.566
X32.416Y26.853
X32.804Y27.194
X33.146Y27.583
X33.433Y28.007
X33.659Y28.457
X33.823Y28.93
X33.926Y29.436
X33.964Y29.999
X33.926Y30.564
X33.823Y31.069
X33.658Y31.542
X33.433Y31.992
X33.146Y32.416
X32.805Y32.804
X32.416Y33.146
X31.992Y33.433
X31.542Y33.659
X31.069Y33.823
X30.563Y33.926
X30Y33.964
X29.435Y33.926
X28.93Y33.823
X28.456Y33.658
X28.007Y33.433
X27.583Y33.146
X27.195Y32.805
X26.853Y32.416
X26.566Y31.992
X26.34Y31.542
X26.176Y31.069
X26.073Y30.563
X26.035Y30
X26.073Y29.435
X26.176Y28.93
X26.341Y28.457
X26.566Y28.007
X26.853Y27.583
X27.194Y27.195
X26.486Y26.486
X26.97Y26.06
X27.5Y25.702
X28.067Y25.417
X28.665Y25.21
X29.301Y25.079
X30Y25.032
X30.698Y25.079
X31.334Y25.21
X31.933Y25.418
X32.499Y25.702
X33.029Y26.06
X33.513Y26.486
X33.939Y26.97
X34.297Y27.5
X34.582Y28.067
X34.789Y28.665
X34.92Y29.301
X34.967Y30
X34.92Y30.698
X34.789Y31.334
X34.582Y31.933
X34.297Y32.499
X33.939Y33.029
X33.513Y33.513
X33.029Y33.939
X32.499Y34.297
X31.932Y34.582
X31.334Y34.789
X30.698Y34.92
X29.999Y34.967
X29.301Y34.92
X28.665Y34.789
X28.066Y34.581
X27.5Y34.297
X26.97Y33.939
X26.486Y33.513
X26.06Y33.029
X25.702Y32.499
X25.417Y31.932
X25.21Y31.334
X25.079Y30.698
X25.032Y29.999
X25.079Y29.301
X25.21Y28.665
X25.417Y28.066
X25.702Y27.5
X26.06Y26.97
X26.486Y26.486
X25.777Y25.778
X26.358Y25.267
X26.994Y24.837
X27.676Y24.494
X28.399Y24.243
X29.167Y24.086
X30Y24.03
X30.832Y24.086
X31.599Y24.243
X32.323Y24.494
X33.005Y24.837
X33.642Y25.267
X34.222Y25.777
X34.732Y26.357
X35.162Y26.994
X35.505Y27.677
X35.756Y28.399
X35.913Y29.167
X35.969Y30
X35.913Y30.832
X35.756Y31.6
X35.505Y32.323
X35.162Y33.005
X34.732Y33.642
X34.222Y34.222
X33.641Y34.732
X33.005Y35.162
X32.322Y35.505
X31.6Y35.756
X30.832Y35.913
X29.999Y35.969
X29.167Y35.913
X28.4Y35.756
X27.676Y35.505
X26.994Y35.162
X26.357Y34.732
X25.777Y34.222
X25.267Y33.642
X24.837Y33.005
X24.494Y32.322
X24.243Y31.6
X24.086Y30.832
X24.03Y29.999
X24.086Y29.167
X24.243Y28.399
X24.494Y27.676
X24.837Y26.994
X25.267Y26.357
X25.777Y25.778
X25.069Y25.069
X25.745Y24.474
X26.488Y23.972
X27.286Y23.571
X28.134Y23.277
X29.033Y23.093
X30Y23.028
X30.967Y23.093
X31.865Y23.277
X32.713Y23.571
X33.511Y23.972
X34.254Y24.474
X34.93Y25.069
X35.525Y25.745
X36.027Y26.488
X36.428Y27.286
X36.722Y28.134
X36.906Y29.033
X36.971Y30
X36.906Y30.967
X36.722Y31.865
X36.428Y32.713
X36.027Y33.511
X35.525Y34.254
X34.93Y34.93
X34.254Y35.525
X33.511Y36.027
X32.713Y36.428
X31.865Y36.722
X30.966Y36.906
X29.999Y36.971
X29.032Y36.906
X28.134Y36.722
X27.286Y36.428
X26.488Y36.027
X25.745Y35.525
X25.069Y34.93
X24.474Y34.254
X23.972Y33.511
X23.571Y32.713
X23.277Y31.865
X23.093Y30.966
X23.028Y29.999
X23.093Y29.032
X23.277Y28.134
X23.571Y27.286
X23.972Y26.488
X24.474Y25.745
X25.069Y25.069
X24.36Y24.36
X25.132Y23.681
X25.981Y23.107
X26.896Y22.648
X27.869Y22.31
X28.898Y22.1
X30Y22.026
X31.101Y22.1
X32.13Y22.31
X33.103Y22.648
X34.018Y23.107
X34.867Y23.681
X35.639Y24.36
X36.318Y25.132
X36.892Y25.981
X37.351Y26.896
X37.689Y27.868
X37.899Y28.898
X37.973Y30
X37.899Y31.101
X37.689Y32.13
X37.351Y33.103
X36.892Y34.018
X36.318Y34.867
X35.639Y35.639
X34.867Y36.318
X34.018Y36.892
X33.103Y37.351
X32.13Y37.689
X31.101Y37.899
X29.999Y37.973
X28.898Y37.899
X27.869Y37.689
X26.896Y37.351
X25.981Y36.892
X25.132Y36.318
X24.36Y35.639
X23.681Y34.867
X23.107Y34.018
X22.648Y33.103
X22.31Y32.131
X22.1Y31.101
X22.026Y29.999
X22.1Y28.898
X22.31Y27.869
X22.648Y26.896
X23.107Y25.981
X23.681Y25.132
X24.36Y24.36
X23.652Y23.652
X24.519Y22.888
X25.475Y22.242
X26.506Y21.725
X27.603Y21.344
X28.764Y21.107
X30Y21.023
X31.235Y21.107
X32.396Y21.344
X33.493Y21.725
X34.524Y22.243
X35.48Y22.888
X36.347Y23.652
X37.111Y24.519
X37.757Y25.475
X38.274Y26.506
X38.655Y27.603
X38.892Y28.764
X38.976Y30
X38.892Y31.235
X38.655Y32.396
X38.274Y33.493
X37.756Y34.524
X37.111Y35.48
X36.347Y36.347
X35.48Y37.111
X34.524Y37.757
X33.493Y38.274
X32.396Y38.655
X31.235Y38.892
X29.999Y38.976
X28.764Y38.892
X27.603Y38.655
X26.506Y38.274
X25.475Y37.756
X24.519Y37.111
X23.652Y36.347
X22.888Y35.48
X22.242Y34.524
X21.725Y33.493
X21.344Y32.396
X21.107Y31.235
X21.023Y29.999
X21.107Y28.764
X21.344Y27.603
X21.725Y26.506
X22.243Y25.475
X22.888Y24.519
X23.652Y23.652
X22.943Y22.943
X23.907Y22.095
X24.969Y21.378
X26.116Y20.802
X27.338Y20.377
X28.63Y20.113
X30Y20.021
X31.37Y20.113
X32.661Y20.377
X33.883Y20.802
X35.03Y21.378
X36.093Y22.096
X37.056Y22.943
X37.904Y23.906
X38.621Y24.969
X39.197Y26.116
X39.622Y27.338
X39.886Y28.63
X39.978Y30
X39.886Y31.37
X39.622Y32.661
X39.197Y33.883
X38.621Y35.03
X37.903Y36.093
X37.056Y37.056
X36.092Y37.904
X35.03Y38.621
X33.883Y39.197
X32.661Y39.622
X31.369Y39.886
X29.999Y39.978
X28.629Y39.886
X27.338Y39.622
X26.116Y39.197
X24.969Y38.621
X23.906Y37.903
X22.943Y37.056
X22.095Y36.093
X21.378Y35.03
X20.802Y33.883
X20.377Y32.661
X20.113Y31.369
X20.021Y29.999
X20.113Y28.629
X20.377Y27.338
X20.802Y26.116
X21.378Y24.969
X22.096Y23.906
X22.943Y22.943
X22.235Y22.235
X23.294Y21.302
X24.463Y20.513
X25.726Y19.879
X27.072Y19.411
X28.495Y19.12
X30Y19.019
X31.504Y19.12
X32.927Y19.411
X34.273Y19.879
X35.536Y20.513
X36.705Y21.303
X37.764Y22.235
X38.696Y23.294
X39.486Y24.463
X40.12Y25.726
X40.588Y27.072
X40.879Y28.495
X40.98Y30
X40.879Y31.504
X40.588Y32.927
X40.12Y34.273
X39.486Y35.536
X38.696Y36.705
X37.764Y37.764
X36.705Y38.697
X35.536Y39.486
X34.273Y40.12
X32.927Y40.588
X31.504Y40.879
X29.999Y40.98
X28.495Y40.879
X27.072Y40.588
X25.726Y40.12
X24.463Y39.486
X23.294Y38.696
X22.235Y37.764
X21.303Y36.705
X20.513Y35.536
X19.879Y34.273
X19.411Y32.927
X19.12Y31.504
X19.019Y29.999
X19.12Y28.495
X19.411Y27.072
X19.879Y25.726
X20.513Y24.463
X21.303Y23.294
X22.235Y22.235
X21.526Y21.526
X22.681Y20.51
X23.956Y19.648
X25.336Y18.956
X26.807Y18.445
X28.361Y18.127
X30Y18.017
X31.638Y18.127
X33.192Y18.445
X34.663Y18.956
X36.043Y19.648
X37.318Y20.51
X38.473Y21.526
X39.489Y22.681
X40.351Y23.956
X41.043Y25.336
X41.554Y26.807
X41.872Y28.361
X41.982Y30
X41.872Y31.638
X41.554Y33.192
X41.043Y34.663
X40.351Y36.043
X39.489Y37.318
X38.473Y38.473
X37.318Y39.489
X36.043Y40.351
X34.663Y41.043
X33.192Y41.554
X31.638Y41.872
X29.999Y41.982
X28.361Y41.872
X26.807Y41.554
X25.336Y41.043
X23.956Y40.351
X22.681Y39.489
X21.526Y38.473
X20.51Y37.318
X19.648Y36.043
X18.956Y34.663
X18.445Y33.192
X18.127Y31.638
X18.017Y29.999
X18.127Y28.361
X18.445Y26.807
X18.956Y25.336
X19.648Y23.956
X20.51Y22.681
X21.526Y21.526
X20.818Y20.818
X22.068Y19.717
X23.45Y18.783
X24.946Y18.033
X26.541Y17.478
X28.227Y17.134
X30Y17.014
X31.773Y17.134
X33.458Y17.478
X35.053Y18.033
X36.549Y18.783
X37.931Y19.717
X39.181Y20.818
X40.282Y22.068
X41.216Y23.45
X41.967Y24.946
X42.521Y26.541
X42.865Y28.227
X42.985Y30
X42.865Y31.773
X42.521Y33.458
X41.966Y35.053
X41.216Y36.549
X40.282Y37.931
X39.181Y39.181
X37.931Y40.282
X36.549Y41.216
X35.053Y41.967
X33.458Y42.521
X31.772Y42.865
X29.999Y42.985
X28.226Y42.865
X26.541Y42.521
X24.946Y41.966
X23.45Y41.216
X22.068Y40.282
X20.818Y39.181
X19.717Y37.931
X18.783Y36.549
X18.032Y35.053
X17.478Y33.458
X17.134Y31.772
X17.014Y29.999
X17.134Y28.226
X17.478Y26.541
X18.033Y24.946
X18.783Y23.45
X19.717Y22.068
X20.818Y20.818
X20.109Y20.109
X21.456Y18.924
X22.944Y17.919
X24.556Y17.109
X26.276Y16.512
X28.092Y16.14
X30Y16.012
X31.907Y16.14
X33.723Y16.512
X35.443Y17.11
X37.055Y17.919
X38.544Y18.924
X39.89Y20.109
X41.075Y21.456
X42.08Y22.944
X42.89Y24.556
X43.487Y26.276
X43.859Y28.092
X43.987Y30
X43.859Y31.907
X43.487Y33.723
X42.89Y35.443
X42.08Y37.055
X41.075Y38.544
X39.89Y39.89
X38.543Y41.075
X37.055Y42.08
X35.443Y42.89
X33.723Y43.487
X31.907Y43.859
X29.999Y43.987
X28.092Y43.859
X26.276Y43.487
X24.556Y42.889
X22.944Y42.08
X21.455Y41.075
X20.109Y39.89
X18.924Y38.543
X17.919Y37.055
X17.109Y35.443
X16.512Y33.723
X16.14Y31.907
X16.012Y29.999
X16.14Y28.092
X16.512Y26.276
X17.109Y24.556
X17.919Y22.944
X18.924Y21.455
X20.109Y20.109
X19.401Y19.401
X20.843Y18.131
X22.438Y17.054
X24.166Y16.186
X26.011Y15.545
X27.958Y15.147
X30Y15.01
X32.041Y15.147
X33.988Y15.545
X35.833Y16.186
X37.562Y17.054
X39.156Y18.131
X40.598Y19.401
X41.868Y20.843
X42.945Y22.437
X43.813Y24.166
X44.454Y26.011
X44.852Y27.958
X44.989Y30
X44.852Y32.041
X44.454Y33.988
X43.813Y35.833
X42.945Y37.562
X41.868Y39.156
X40.598Y40.598
X39.156Y41.868
X37.562Y42.945
X35.833Y43.813
X33.988Y44.454
X32.041Y44.852
X29.999Y44.989
X27.958Y44.852
X26.011Y44.454
X24.166Y43.813
X22.437Y42.945
X20.843Y41.868
X19.401Y40.598
X18.131Y39.156
X17.054Y37.562
X16.186Y35.833
X15.545Y33.988
X15.147Y32.041
X15.01Y29.999
X15.147Y27.958
X15.545Y26.011
X16.186Y24.166
X17.054Y22.437
X18.131Y20.843
X19.401Y19.401
G0Z10
X93.552Y29.838
G1Z0F500
X93.531Y30.279Z-0.015F1000
X93.466Y30.716Z-0.03
X93.359Y31.145Z-0.046
X93.21Y31.56Z-0.061
X93.021Y31.96Z-0.077
X92.794Y32.338Z-0.092
X92.531Y32.693Z-0.107
X92.234Y33.02Z-0.123
X91.907Y33.317Z-0.138
X91.552Y33.58Z-0.154
X91.174Y33.807Z-0.169
X90.774Y33.996Z-0.185
X90.359Y34.145Z-0.2
X89.93Y34.252Z-0.215
X89.493Y34.317Z-0.231
X89.052Y34.338Z-0.246
X88.611Y34.317Z-0.262
X88.174Y34.252Z-0.277
X87.746Y34.145Z-0.293
X87.33Y33.996Z-0.308
X86.931Y33.807Z-0.323
X86.552Y33.58Z-0.339
X86.198Y33.317Z-0.354
X85.87Y33.02Z-0.37
X85.574Y32.693Z-0.385
X85.311Y32.338Z-0.401
X85.084Y31.96Z-0.416
X84.895Y31.56Z-0.431
X84.746Y31.145Z-0.447
X84.639Y30.716Z-0.462
X84.574Y30.279Z-0.478
X84.552Y29.838Z-0.493
X84.574Y29.397Z-0.509
X84.639Y28.96Z-0.524
X84.746Y28.532Z-0.539
X84.895Y28.116Z-0.555
X85.084Y27.717Z-0.57
X85.311Y27.338Z-0.586
X85.574Y26.984Z-0.601
X85.87Y26.656Z-0.617
X86.198Y26.36Z-0.632
X86.552Y26.097Z-0.647
X86.931Y25.87Z-0.663
X87.33Y25.681Z-0.678
X87.746Y25.532Z-0.694
X88.174Y25.425Z-0.709
X88.611Y25.36Z-0.725
X89.052Y25.338Z-0.74
X89.493Y25.36Z-0.755
X89.93Y25.425Z-0.771
X90.359Y25.532Z-0.786
X90.774Y25.681Z-0.802
X91.174Y25.87Z-0.817
X91.552Y26.097Z-0.833
X91.907Y26.36Z-0.848
X92.234Y26.656Z-0.863
X92.531Y26.984Z-0.879
X92.794Y27.338Z-0.894
X93.021Y27.717Z-0.91
X93.21Y28.116Z-0.925
X93.359Y28.532Z-0.941
X93.466Y28.96Z-0.956
X93.531Y29.397Z-0.971
X93.552Y29.838Z-0.987
X93.531Y30.279Z-1.002
X93.466Y30.716Z-1.018
X93.359Y31.145Z-1.033
X93.21Y31.56Z-1.049
X93.021Y31.96Z-1.064
X92.794Y32.338Z-1.079
X92.531Y32.693Z-1.095
X92.234Y33.02Z-1.11
X91.907Y33.317Z-1.126
X91.552Y33.58Z-1.141
X91.174Y33.807Z-1.157
X90.774Y33.996Z-1.172
X90.359Y34.145Z-1.187
X89.93Y34.252Z-1.203
X89.493Y34.317Z-1.218
X89.052Y34.338Z-1.234
X88.611Y34.317Z-1.249
X88.174Y34.252Z-1.265
X87.746Y34.145Z-1.28
X87.33Y33.996Z-1.295
X86.931Y33.807Z-1.311
X86.552Y33.58Z-1.326
X86.198Y33.317Z-1.342
X85.87Y33.02Z-1.357
X85.574Y32.693Z-1.373
X85.311Y32.338Z-1.388
X85.084Y31.96Z-1.403
X84.895Y31.56Z-1.419
X84.746Y31.145Z-1.434
X84.639Y30.716Z-1.45
X84.574Y30.279Z-1.465
X84.552Y29.838Z-1.481
X84.574Y29.397Z-1.496
X84.639Y28.96Z-1.511
X84.746Y28.532Z-1.527
X84.895Y28.116Z-1.542
X85.084Y27.717Z-1.558
X85.311Y27.338Z-1.573
X85.574Y26.984Z-1.589
X85.87Y26.656Z-1.604
X86.198Y26.36Z-1.619
X86.552Y26.097Z-1.635
X86.931Y25.87Z-1.65
X87.33Y25.681Z-1.666
X87.746Y25.532Z-1.681
X88.174Y25.425Z-1.697
X88.611Y25.36Z-1.712
X89.052Y25.338Z-1.727
X89.493Y25.36Z-1.743
X89.93Y25.425Z-1.758
X90.359Y25.532Z-1.774
X90.774Y25.681Z-1.789
X91.174Y25.87Z-1.805
X91.552Y26.097Z-1.82
X91.907Y26.36Z-1.835
X92.234Y26.656Z-1.851
X92.531Y26.984Z-1.866
X92.794Y27.338Z-1.882
X93.021Y27.717Z-1.897
X93.21Y28.116Z-1.913
X93.359Y28.532Z-1.928
X93.466Y28.96Z-1.943
X93.531Y29.397Z-1.959
X93.552Y29.838Z-1.974
X93.531Y30.279Z-1.99
X93.466Y30.716Z-2.005
X93.359Y31.145Z-2.021
X93.21Y31.56Z-2.036
X93.021Y31.96Z-2.051
X92.794Y32.338Z-2.067
X92.531Y32.693Z-2.082
X92.234Y33.02Z-2.098
X91.907Y33.317Z-2.113
X91.552Y33.58Z-2.128
X91.174Y33.807Z-2.144
X90.774Y33.996Z-2.159
X90.359Y34.145Z-2.175
X89.93Y34.252Z-2.19
X89.493Y34.317Z-2.206
X89.052Y34.338Z-2.221
X88.611Y34.317Z-2.236
X88.174Y34.252Z-2.252
X87.746Y34.145Z-2.267
X87.33Y33.996Z-2.283
X86.931Y33.807Z-2.298
X86.552Y33.58Z-2.314
X86.198Y33.317Z-2.329
X85.87Y33.02Z-2.344
X85.574Y32.693Z-2.36
X85.311Y32.338Z-2.375
X85.084Y31.96Z-2.391
X84.895Y31.56Z-2.406
X84.746Y31.145Z-2.422
X84.639Y30.716Z-2.437
X84.574Y30.279Z-2.452
X84.552Y29.838Z-2.468
X84.574Y29.397Z-2.483
X84.639Y28.96Z-2.499
X84.746Y28.532Z-2.514
X84.895Y28.116Z-2.53
X85.084Y27.717Z-2.545
X85.311Y27.338Z-2.56
X85.574Y26.984Z-2.576
X85.87Y26.656Z-2.591
X86.198Y26.36Z-2.607
X86.552Y26.097Z-2.622
X86.931Y25.87Z-2.638
X87.33Y25.681Z-2.653
X87.746Y25.532Z-2.668
X88.174Y25.425Z-2.684
X88.611Y25.36Z-2.699
X89.052Y25.338Z-2.715
X89.493Y25.36Z-2.73
X89.93Y25.425Z-2.746
X90.359Y25.532Z-2.761
X90.774Y25.681Z-2.776
X91.174Y25.87Z-2.792
X91.552Y26.097Z-2.807
X91.907Y26.36Z-2.823
X92.234Y26.656Z-2.838
X92.531Y26.984Z-2.854
X92.794Y27.338Z-2.869
X93.021Y27.717Z-2.884
X93.21Y28.116Z-2.9
X93.359Y28.532Z-2.915
X93.466Y28.96Z-2.931
X93.531Y29.397Z-2.946
X93.552Y29.838Z-2.962
X93.531Y30.279Z-2.977
X93.466Y30.716Z-2.992
X93.359Y31.145Z-3.008
X93.21Y31.56Z-3.023
X93.021Y31.96Z-3.039
X92.794Y32.338Z-3.054
X92.531Y32.693Z-3.07
X92.234Y33.02Z-3.085
X91.907Y33.317Z-3.1
X91.552Y33.58Z-3.116
X91.174Y33.807Z-3.131
X90.774Y33.996Z-3.147
X90.359Y34.145Z-3.162
X89.93Y34.252Z-3.178
X89.493Y34.317Z-3.193
X89.052Y34.338Z-3.208
X88.611Y34.317Z-3.224
X88.174Y34.252Z-3.239
X87.746Y34.145Z-3.255
X87.33Y33.996Z-3.27
X86.931Y33.807Z-3.286
X86.552Y33.58Z-3.301
X86.198Y33.317Z-3.316
X85.87Y33.02Z-3.332
X85.574Y32.693Z-3.347
X85.311Y32.338Z-3.363
X85.084Y31.96Z-3.378
X84.895Y31.56Z-3.394
X84.746Y31.145Z-3.409
X84.639Y30.716Z-3.424
X84.574Y30.279Z-3.44
X84.552Y29.838Z-3.455
X84.574Y29.397Z-3.471
X84.639Y28.96Z-3.486
X84.746Y28.532Z-3.502
X84.895Y28.116Z-3.517
X85.084Y27.717Z-3.532
X85.311Y27.338Z-3.548
X85.574Y26.984Z-3.563
X85.87Y26.656Z-3.579
X86.198Y26.36Z-3.594
X86.552Y26.097Z-3.61
X86.931Y25.87Z-3.625
X87.33Y25.681Z-3.64
X87.746Y25.532Z-3.656
X88.174Y25.425Z-3.671
X88.611Y25.36Z-3.687
X89.052Y25.338Z-3.702
X89.493Y25.36Z-3.718
X89.93Y25.425Z-3.733
X90.359Y25.532Z-3.748
X90.774Y25.681Z-3.764
X91.174Y25.87Z-3.779
X91.552Y26.097Z-3.795
X91.907Y26.36Z-3.81
X92.234Y26.656Z-3.826
X92.531Y26.984Z-3.841
X92.794Y27.338Z-3.856
X93.021Y27.717Z-3.872
X93.21Y28.116Z-3.887
X93.359Y28.532Z-3.903
X93.466Y28.96Z-3.918
X93.531Y29.397Z-3.934
X93.552Y29.838Z-3.949
X93.531Y30.279Z-3.964
X93.466Y30.716Z-3.98
X93.359Y31.145Z-3.995
X93.21Y31.56Z-4.011
X93.021Y31.96Z-4.026
X92.794Y32.338Z-4.042
X92.531Y32.693Z-4.057
X92.234Y33.02Z-4.072
X91.907Y33.317Z-4.088
X91.552Y33.58Z-4.103
X91.174Y33.807Z-4.119
X90.774Y33.996Z-4.134
X90.359Y34.145Z-4.15
X89.93Y34.252Z-4.165
X89.493Y34.317Z-4.18
X89.052Y34.338Z-4.196
X88.611Y34.317Z-4.211
X88.174Y34.252Z-4.227
X87.746Y34.145Z-4.242
X87.33Y33.996Z-4.257
X86.931Y33.807Z-4.273
X86.552Y33.58Z-4.288
X86.198Y33.317Z-4.304
X85.87Y33.02Z-4.319
X85.574Y32.693Z-4.335
X85.311Y32.338Z-4.35
X85.084Y31.96Z-4.365
X84.895Y31.56Z-4.381
X84.746Y31.145Z-4.396
X84.639Y30.716Z-4.412
X84.574Y30.279Z-4.427
X84.552Y29.838Z-4.443
X84.574Y29.397Z-4.458
X84.639Y28.96Z-4.473
X84.746Y28.532Z-4.489
X84.895Y28.116Z-4.504
X85.084Y27.717Z-4.52
X85.311Y27.338Z-4.535
X85.574Y26.984Z-4.551
X85.87Y26.656Z-4.566
X86.198Y26.36Z-4.581
X86.552Y26.097Z-4.597
X86.931Y25.87Z-4.612
X87.33Y25.681Z-4.628
X87.746Y25.532Z-4.643
X88.174Y25.425Z-4.659
X88.611Y25.36Z-4.674
X89.052Y25.338Z-4.689
X89.493Y25.36Z-4.705
X89.93Y25.425Z-4.72
X90.359Y25.532Z-4.736
X90.774Y25.681Z-4.751
X91.174Y25.87Z-4.767
X91.552Y26.097Z-4.782
X91.907Y26.36Z-4.797
X92.234Y26.656Z-4.813
X92.531Y26.984Z-4.828
X92.794Y27.338Z-4.844
X93.021Y27.717Z-4.859
X93.21Y28.116Z-4.875
X93.359Y28.532Z-4.89
X93.466Y28.96Z-4.905
X93.531Y29.397Z-4.921
X93.552Y29.838Z-4.936
X93.531Y30.279Z-4.952
X93.466Y30.716Z-4.967
X93.359Y31.145Z-4.983
X93.21Y31.56Z-5
X89.052Y29.838
X89.075Y29.727
X89.11Y29.627
X89.161Y29.525
X89.231Y29.421
X89.32Y29.32
X89.421Y29.231
X89.525Y29.161
X89.627Y29.11
X89.726Y29.075
X89.838Y29.052
X89.999Y29.042
X90.161Y29.052
X90.272Y29.075
X90.372Y29.11
X90.474Y29.161
X90.578Y29.231
X90.679Y29.32
X90.768Y29.421
X90.838Y29.525
X90.889Y29.627
X90.924Y29.726
X90.947Y29.839
X90.957Y29.999
X90.947Y30.161
X90.924Y30.272
X90.889Y30.372
X90.838Y30.474
X90.768Y30.578
X90.679Y30.679
X90.578Y30.768
X90.474Y30.838
X90.372Y30.889
X90.273Y30.924
X90.161Y30.947
X90Y30.957
X89.838Y30.947
X89.727Y30.924
X89.627Y30.889
X89.525Y30.838
X89.421Y30.768
X89.32Y30.679
X89.231Y30.578
X89.161Y30.474
X89.11Y30.372
X89.075Y30.273
X89.052Y30.16
X89.042Y30
X89.052Y29.838
X88.059Y29.704
X88.109Y29.461
X88.187Y29.237
X88.296Y29.019
X88.438Y28.808
X88.611Y28.612
X88.808Y28.438
X89.019Y28.296
X89.237Y28.187
X89.461Y28.109
X89.704Y28.059
X89.999Y28.039
X90.295Y28.059
X90.538Y28.109
X90.762Y28.187
X90.98Y28.296
X91.191Y28.438
X91.387Y28.612
X91.561Y28.808
X91.703Y29.019
X91.812Y29.237
X91.89Y29.461
X91.94Y29.704
X91.96Y29.999
X91.94Y30.295
X91.89Y30.538
X91.812Y30.762
X91.703Y30.98
X91.561Y31.191
X91.388Y31.387
X91.191Y31.561
X90.98Y31.703
X90.762Y31.812
X90.538Y31.89
X90.295Y31.94
X90Y31.96
X89.704Y31.94
X89.461Y31.89
X89.237Y31.812
X89.019Y31.703
X88.808Y31.561
X88.612Y31.388
X88.438Y31.191
X88.296Y30.98
X88.187Y30.762
X88.109Y30.538
X88.059Y30.295
X88.039Y30
X88.059Y29.704
X87.066Y29.57
X87.142Y29.196
X87.264Y28.847
X87.431Y28.513
X87.646Y28.196
X87.903Y27.903
X88.196Y27.645
X88.513Y27.431
X88.847Y27.264
X89.196Y27.142
X89.57Y27.066
X89.999Y27.037
X90.429Y27.066
X90.803Y27.142
X91.152Y27.264
X91.486Y27.431
X91.803Y27.646
X92.096Y27.903
X92.354Y28.196
X92.568Y28.513
X92.735Y28.847
X92.857Y29.196
X92.933Y29.57
X92.962Y29.999
X92.933Y30.429
X92.857Y30.803
X92.735Y31.152
X92.568Y31.486
X92.353Y31.803
X92.096Y32.096
X91.803Y32.354
X91.486Y32.568
X91.152Y32.735
X90.803Y32.857
X90.429Y32.933
X90Y32.962
X89.57Y32.933
X89.196Y32.857
X88.847Y32.735
X88.513Y32.568
X88.196Y32.353
X87.903Y32.096
X87.645Y31.803
X87.431Y31.486
X87.264Y31.152
X87.142Y30.803
X87.066Y30.429
X87.037Y30
X87.066Y29.57
X86.073Y29.435
X86.176Y28.93
X86.341Y28.457
X86.566Y28.007
X86.853Y27.583
X87.194Y27.195
X87.583Y26.853
X88.007Y26.566
X88.457Y26.34
X88.93Y26.176
X89.436Y26.073
X89.999Y26.035
X90.564Y26.073
X91.069Y26.176
X91.543Y26.341
X91.992Y26.566
X92.416Y26.853
X92.804Y27.194
X93.146Y27.583
X93.433Y28.007
X93.659Y28.457
X93.823Y28.93
X93.926Y29.436
X93.964Y29.999
X93.926Y30.564
X93.823Y31.069
X93.658Y31.542
X93.433Y31.992
X93.146Y32.416
X92.805Y32.804
X92.416Y33.146
X91.992Y33.433
X91.542Y33.659
X91.069Y33.823
X90.563Y33.926
X90Y33.964
X89.435Y33.926
X88.93Y33.823
X88.456Y33.658
X88.007Y33.433
X87.583Y33.146
X87.195Y32.805
X86.853Y32.416
X86.566Y31.992
X86.34Y31.542
X86.176Y31.069
X86.073Y30.563
X86.035Y30
X86.073Y29.435
X85.079Y29.301
X85.21Y28.665
X85.417Y28.066
X85.702Y27.5
X86.06Y26.97
X86.486Y26.486
X86.97Y26.06
X87.5Y25.702
X88.067Y25.417
X88.665Y25.21
X89.301Y25.079
X90Y25.032
X90.698Y25.079
X91.334Y25.21
X91.933Y25.418
X92.499Y25.702
X93.029Y26.06
X93.513Y26.486
X93.939Y26.97
X94.297Y27.5
X94.582Y28.067
X94.789Y28.665
X94.92Y29.301
X94.967Y30
X94.92Y30.698
X94.789Y31.334
X94.582Y31.933
X94.297Y32.499
X93.939Y33.029
X93.513Y33.513
X93.029Y33.939
X92.499Y34.297
X91.932Y34.582
X91.334Y34.789
X90.698Y34.92
X90Y34.967
X89.301Y34.92
X88.665Y34.789
X88.066Y34.581
X87.5Y34.297
X86.97Y33.939
X86.486Y33.513
X86.06Y33.029
X85.702Y32.499
X85.417Y31.932
X85.21Y31.334
X85.079Y30.698
X85.032Y29.999
X85.079Y29.301
X84.086Y29.167
X84.243Y28.399
X84.494Y27.676
X84.837Y26.994
X85.267Y26.357
X85.777Y25.777
X86.358Y25.267
X86.994Y24.837
X87.677Y24.494
X88.399Y24.243
X89.167Y24.086
X90Y24.03
X90.832Y24.086
X91.599Y24.243
X92.323Y24.494
X93.005Y24.837
X93.642Y25.267
X94.222Y25.777
X94.732Y26.357
X95.162Y26.994
X95.505Y27.677
X95.756Y28.399
X95.913Y29.167
X95.969Y30
X95.913Y30.832
X95.756Y31.6
X95.505Y32.323
X95.162Y33.005
X94.732Y33.642
X94.222Y34.222
X93.641Y34.732
X93.005Y35.162
X92.322Y35.505
X91.6Y35.756
X90.832Y35.913
X89.999Y35.969
X89.167Y35.913
X88.4Y35.756
X87.676Y35.505
X86.994Y35.162
X86.357Y34.732
X85.777Y34.222
X85.267Y33.642
X84.837Y33.005
X84.494Y32.322
X84.243Y31.6
X84.086Y30.832
X84.03Y29.999
X84.086Y29.167
X83.093Y29.032
X83.277Y28.134
X83.571Y27.286
X83.972Y26.488
X84.474Y25.745
X85.069Y25.069
X85.745Y24.474
X86.488Y23.972
X87.286Y23.571
X88.134Y23.277
X89.033Y23.093
X90Y23.028
X90.967Y23.093
X91.865Y23.277
X92.713Y23.571
X93.511Y23.972
X94.254Y24.474
X94.93Y25.069
X95.525Y25.745
X96.027Y26.488
X96.428Y27.286
X96.722Y28.134
X96.906Y29.033
X96.971Y30
X96.906Y30.967
X96.722Y31.865
X96.428Y32.713
X96.027Y33.511
X95.525Y34.254
X94.93Y34.93
X94.254Y35.525
X93.511Y36.027
X92.712Y36.428
X91.865Y36.722
X90.966Y36.906
X89.999Y36.971
X89.032Y36.906
X88.134Y36.722
X87.286Y36.428
X86.488Y36.027
X85.745Y35.525
X85.069Y34.93
X84.474Y34.254
X83.972Y33.511
X83.571Y32.713
X83.277Y31.865
X83.093Y30.966
X83.028Y29.999
X83.093Y29.032
X82.1Y28.898
X82.31Y27.869
X82.648Y26.896
X83.107Y25.981
X83.681Y25.132
X84.36Y24.36
X85.132Y23.681
X85.981Y23.107
X86.896Y22.648
X87.869Y22.31
X88.898Y22.1
X90Y22.026
X91.101Y22.1
X92.13Y22.31
X93.103Y22.648
X94.018Y23.107
X94.867Y23.681
X95.639Y24.36
X96.318Y25.132
X96.892Y25.981
X97.351Y26.896
X97.689Y27.868
X97.899Y28.898
X97.973Y30
X97.899Y31.101
X97.689Y32.13
X97.351Y33.103
X96.892Y34.018
X96.318Y34.867
X95.639Y35.639
X94.867Y36.318
X94.018Y36.892
X93.103Y37.351
X92.13Y37.689
X91.101Y37.899
X89.999Y37.973
X88.898Y37.899
X87.869Y37.689
X86.896Y37.351
X85.981Y36.892
X85.132Y36.318
X84.36Y35.639
X83.681Y34.867
X83.107Y34.018
X82.648Y33.103
X82.31Y32.131
X82.1Y31.101
X82.026Y29.999
X82.1Y28.898
X81.107Y28.764
X81.344Y27.603
X81.725Y26.506
X82.243Y25.475
X82.888Y24.519
X83.652Y23.652
X84.519Y22.888
X85.475Y22.243
X86.506Y21.725
X87.603Y21.344
X88.764Y21.107
X90Y21.023
X91.235Y21.107
X92.396Y21.344
X93.493Y21.725
X94.524Y22.243
X95.48Y22.888
X96.347Y23.652
X97.111Y24.519
X97.757Y25.475
X98.274Y26.506
X98.655Y27.603
X98.892Y28.764
X98.976Y30
X98.892Y31.235
X98.655Y32.396
X98.274Y33.493
X97.756Y34.524
X97.111Y35.48
X96.347Y36.347
X95.48Y37.111
X94.524Y37.757
X93.493Y38.274
X92.396Y38.655
X91.235Y38.892
X89.999Y38.976
X88.764Y38.892
X87.603Y38.655
X86.506Y38.274
X85.475Y37.756
X84.519Y37.111
X83.652Y36.347
X82.888Y35.48
X82.242Y34.524
X81.725Y33.493
X81.344Y32.396
X81.107Y31.235
X81.023Y29.999
X81.107Y28.764
X80.113Y28.629
X80.377Y27.338
X80.802Y26.116
X81.378Y24.969
X82.096Y23.906
X82.943Y22.943
X83.907Y22.095
X84.969Y21.378
X86.116Y20.802
X87.338Y20.377
X88.63Y20.113
X90Y20.021
X91.37Y20.113
X92.661Y20.377
X93.883Y20.802
X95.03Y21.378
X96.093Y22.096
X97.056Y22.943
X97.904Y23.906
X98.621Y24.969
X99.197Y26.116
X99.622Y27.338
X99.886Y28.63
X99.978Y30
X99.886Y31.37
X99.622Y32.661
X99.197Y33.883
X98.621Y35.03
X97.903Y36.093
X97.056Y37.056
X96.092Y37.904
X95.03Y38.621
X93.883Y39.197
X92.661Y39.622
X91.369Y39.886
X89.999Y39.978
X88.629Y39.886
X87.338Y39.622
X86.116Y39.197
X84.969Y38.621
X83.906Y37.903
X82.943Y37.056
X82.095Y36.093
X81.378Y35.03
X80.802Y33.883
X80.377Y32.661
X80.113Y31.369
X80.021Y29.999
X80.113Y28.629
X79.12Y28.495
X79.411Y27.072
X79.879Y25.726
X80.513Y24.463
X81.303Y23.294
X82.235Y22.235
X83.294Y21.302
X84.463Y20.513
X85.726Y19.879
X87.072Y19.411
X88.495Y19.12
X90Y19.019
X91.504Y19.12
X92.927Y19.411
X94.273Y19.879
X95.536Y20.513
X96.705Y21.303
X97.764Y22.235
X98.696Y23.294
X99.486Y24.463
X100.12Y25.726
X100.588Y27.072
X100.879Y28.495
X100.98Y30
X100.879Y31.504
X100.588Y32.927
X100.12Y34.273
X99.486Y35.536
X98.696Y36.705
X97.764Y37.764
X96.705Y38.697
X95.536Y39.486
X94.273Y40.12
X92.927Y40.588
X91.504Y40.879
X89.999Y40.98
X88.495Y40.879
X87.072Y40.588
X85.726Y40.12
X84.463Y39.486
X83.294Y38.696
X82.235Y37.764
X81.303Y36.705
X80.513Y35.536
X79.879Y34.273
X79.411Y32.927
X79.12Y31.504
X79.019Y29.999
X79.12Y28.495
X78.127Y28.361
X78.445Y26.807
X78.956Y25.336
X79.648Y23.956
X80.51Y22.681
X81.526Y21.526
X82.681Y20.51
X83.956Y19.648
X85.336Y18.956
X86.807Y18.445
X88.361Y18.127
X90Y18.017
X91.638Y18.127
X93.192Y18.445
X94.663Y18.956
X96.043Y19.648
X97.318Y20.51
X98.473Y21.526
X99.489Y22.681
X100.351Y23.956
X101.043Y25.336
X101.554Y26.807
X101.872Y28.361
X101.982Y30
X101.872Y31.638
X101.554Y33.192
X101.043Y34.663
X100.351Y36.043
X99.489Y37.318
X98.473Y38.473
X97.318Y39.489
X96.043Y40.351
X94.663Y41.043
X93.192Y41.554
X91.638Y41.872
X89.999Y41.982
X88.361Y41.872
X86.807Y41.554
X85.336Y41.043
X83.956Y40.351
X82.681Y39.489
X81.526Y38.473
X80.51Y37.318
X79.648Y36.043
X78.956Y34.663
X78.445Y33.192
X78.127Y31.638
X78.017Y29.999
X78.127Y28.361
X77.134Y28.226
X77.478Y26.541
X78.033Y24.946
X78.783Y23.45
X79.717Y22.068
X80.818Y20.818
X82.068Y19.717
X83.45Y18.783
X84.946Y18.032
X86.541Y17.478
X88.227Y17.134
X90Y17.014
X91.773Y17.134
X93.458Y17.478
X95.053Y18.033
X96.549Y18.783
X97.931Y19.717
X99.181Y20.818
X100.282Y22.068
X101.216Y23.45
X101.967Y24.946
X102.521Y26.541
X102.865Y28.227
X102.985Y30
X102.865Y31.773
X102.521Y33.458
X101.966Y35.053
X101.216Y36.549
X100.282Y37.931
X99.181Y39.181
X97.931Y40.282
X96.549Y41.216
X95.053Y41.967
X93.458Y42.521
X91.772Y42.865
X89.999Y42.985
X88.226Y42.865
X86.541Y42.521
X84.946Y41.966
X83.45Y41.216
X82.068Y40.282
X80.818Y39.181
X79.717Y37.931
X78.783Y36.549
X78.032Y35.053
X77.478Y33.458
X77.134Y31.772
X77.014Y29.999
X77.134Y28.226
X76.14Y28.092
X76.512Y26.276
X77.109Y24.556
X77.919Y22.944
X78.924Y21.455
X80.109Y20.109
X81.456Y18.924
X82.944Y17.919
X84.556Y17.109
X86.276Y16.512
X88.092Y16.14
X90Y16.012
X91.907Y16.14
X93.723Y16.512
X95.443Y17.11
X97.055Y17.919
X98.544Y18.924
X99.89Y20.109
X101.075Y21.456
X102.08Y22.944
X102.89Y24.556
X103.487Y26.276
X103.859Y28.093
X103.987Y30
X103.859Y31.907
X103.487Y33.723
X102.89Y35.443
X102.08Y37.055
X101.075Y38.544
X99.89Y39.89
X98.543Y41.075
X97.055Y42.08
X95.443Y42.89
X93.723Y43.487
X91.907Y43.859
X89.999Y43.987
X88.092Y43.859
X86.276Y43.487
X84.556Y42.889
X82.944Y42.08
X81.455Y41.075
X80.109Y39.89
X78.924Y38.543
X77.919Y37.055
X77.109Y35.443
X76.512Y33.723
X76.14Y31.907
X76.012Y29.999
X76.14Y28.092
X75.147Y27.958
X75.545Y26.011
X76.186Y24.166
X77.054Y22.437
X78.131Y20.843
X79.401Y19.401
X80.843Y18.131
X82.437Y17.054
X84.166Y16.186
X86.011Y15.545
X87.958Y15.147
X90Y15.01
X92.041Y15.147
X93.988Y15.545
X95.833Y16.186
X97.562Y17.054
X99.156Y18.131
X100.598Y19.401
X101.868Y20.843
X102.945Y22.437
X103.813Y24.166
X104.454Y26.011
X104.852Y27.958
X104.989Y30
X104.852Y32.041
X104.454Y33.988
X103.813Y35.833
X102.945Y37.562
X101.868Y39.156
X100.598Y40.598
X99.156Y41.868
X97.562Y42.945
X95.833Y43.813
X93.988Y44.454
X92.041Y44.852
X89.999Y44.989
X87.958Y44.852
X86.011Y44.454
X84.166Y43.813
X82.437Y42.945
X80.843Y41.868
X79.401Y40.598
X78.131Y39.156
X77.054Y37.562
X76.186Y35.833
X75.545Y33.988
X75.147Y32.041
X75.01Y29.999
X75.147Y27.958
G0Z10
X94.226Y89.075
G1Z0F500
X94.205Y89.516Z-0.015F1000
X94.14Y89.953Z-0.03
X94.033Y90.382Z-0.046
X93.884Y90.797Z-0.061
X93.695Y91.197Z-0.077
X93.468Y91.575Z-0.092
X93.205Y91.93Z-0.107
X92.908Y92.257Z-0.123
X92.581Y92.554Z-0.138
X92.226Y92.817Z-0.154
X91.848Y93.044Z-0.169
X91.448Y93.233Z-0.185
X91.033Y93.381Z-0.2
X90.604Y93.489Z-0.215
X90.167Y93.554Z-0.231
X89.726Y93.575Z-0.246
X89.285Y93.554Z-0.262
X88.848Y93.489Z-0.277
X88.42Y93.381Z-0.293
X88.004Y93.233Z-0.308
X87.605Y93.044Z-0.323
X87.226Y92.817Z-0.339
X86.872Y92.554Z-0.354
X86.544Y92.257Z-0.37
X86.248Y91.93Z-0.385
X85.985Y91.575Z-0.401
X85.758Y91.197Z-0.416
X85.569Y90.797Z-0.431
X85.42Y90.382Z-0.447
X85.313Y89.953Z-0.462
X85.248Y89.516Z-0.478
X85.226Y89.075Z-0.493
X85.248Y88.634Z-0.509
X85.313Y88.197Z-0.524
X85.42Y87.769Z-0.539
X85.569Y87.353Z-0.555
X85.758Y86.954Z-0.57
X85.985Y86.575Z-0.586
X86.248Y86.22Z-0.601
X86.544Y85.893Z-0.617
X86.872Y85.597Z-0.632
X87.226Y85.334Z-0.647
X87.605Y85.107Z-0.663
X88.004Y84.918Z-0.678
X88.42Y84.769Z-0.694
X88.848Y84.662Z-0.709
X89.285Y84.597Z-0.725
X89.726Y84.575Z-0.74
X90.167Y84.597Z-0.755
X90.604Y84.662Z-0.771
X91.033Y84.769Z-0.786
X91.448Y84.918Z-0.802
X91.848Y85.107Z-0.817
X92.226Y85.334Z-0.833
X92.581Y85.597Z-0.848
X92.908Y85.893Z-0.863
X93.205Y86.22Z-0.879
X93.468Y86.575Z-0.894
X93.695Y86.954Z-0.91
X93.884Y87.353Z-0.925
X94.033Y87.769Z-0.941
X94.14Y88.197Z-0.956
X94.205Y88.634Z-0.971
X94.226Y89.075Z-0.987
X94.205Y89.516Z-1.002
X94.14Y89.953Z-1.018
X94.033Y90.382Z-1.033
X93.884Y90.797Z-1.049
X93.695Y91.197Z-1.064
X93.468Y91.575Z-1.079
X93.205Y91.93Z-1.095
X92.908Y92.257Z-1.11
X92.581Y92.554Z-1.126
X92.226Y92.817Z-1.141
X91.848Y93.044Z-1.157
X91.448Y93.233Z-1.172
X91.033Y93.381Z-1.187
X90.604Y93.489Z-1.203
X90.167Y93.554Z-1.218
X89.726Y93.575Z-1.234
X89.285Y93.554Z-1.249
X88.848Y93.489Z-1.265
X88.42Y93.381Z-1.28
X88.004Y93.233Z-1.295
X87.605Y93.044Z-1.311
X87.226Y92.817Z-1.326
X86.872Y92.554Z-1.342
X86.544Y92.257Z-1.357
X86.248Y91.93Z-1.373
X85.985Y91.575Z-1.388
X85.758Y91.197Z-1.403
X85.569Y90.797Z-1.419
X85.42Y90.382Z-1.434
X85.313Y89.953Z-1.45
X85.248Y89.516Z-1.465
X85.226Y89.075Z-1.481
X85.248Y88.634Z-1.496
X85.313Y88.197Z-1.511
X85.42Y87.769Z-1.527
X85.569Y87.353Z-1.542
X85.758Y86.954Z-1.558
X85.985Y86.575Z-1.573
X86.248Y86.22Z-1.589
X86.544Y85.893Z-1.604
X86.872Y85.597Z-1.619
X87.226Y85.334Z-1.635
X87.605Y85.107Z-1.65
X88.004Y84.918Z-1.666
X88.42Y84.769Z-1.681
X88.848Y84.662Z-1.697
X89.285Y84.597Z-1.712
X89.726Y84.575Z-1.727
X90.167Y84.597Z-1.743
X90.604Y84.662Z-1.758
X91.033Y84.769Z-1.774
X91.448Y84.918Z-1.789
X91.848Y85.107Z-1.805
X92.226Y85.334Z-1.82
X92.581Y85.597Z-1.835
X92.908Y85.893Z-1.851
X93.205Y86.22Z-1.866
X93.468Y86.575Z-1.882
X93.695Y86.954Z-1.897
X93.884Y87.353Z-1.913
X94.033Y87.769Z-1.928
X94.14Y88.197Z-1.943
X94.205Y88.634Z-1.959
X94.226Y89.075Z-1.974
X94.205Y89.516Z-1.99
X94.14Y89.953Z-2.005
X94.033Y90.382Z-2.021
X93.884Y90.797Z-2.036
X93.695Y91.197Z-2.051
X93.468Y91.575Z-2.067
X93.205Y91.93Z-2.082
X92.908Y92.257Z-2.098
X92.581Y92.554Z-2.113
X92.226Y92.817Z-2.128
X91.848Y93.044Z-2.144
X91.448Y93.233Z-2.159
X91.033Y93.381Z-2.175
X90.604Y93.489Z-2.19
X90.167Y93.554Z-2.206
X89.726Y93.575Z-2.221
X89.285Y93.554Z-2.236
X88.848Y93.489Z-2.252
X88.42Y93.381Z-2.267
X88.004Y93.233Z-2.283
X87.605Y93.044Z-2.298
X87.226Y92.817Z-2.314
X86.872Y92.554Z-2.329
X86.544Y92.257Z-2.344
X86.248Y91.93Z-2.36
X85.985Y91.575Z-2.375
X85.758Y91.197Z-2.391
X85.569Y90.797Z-2.406
X85.42Y90.382Z-2.422
X85.313Y89.953Z-2.437
X85.248Y89.516Z-2.452
X85.226Y89.075Z-2.468
X85.248Y88.634Z-2.483
X85.313Y88.197Z-2.499
X85.42Y87.769Z-2.514
X85.569Y87.353Z-2.53
X85.758Y86.954Z-2.545
X85.985Y86.575Z-2.56
X86.248Y86.22Z-2.576
X86.544Y85.893Z-2.591
X86.872Y85.597Z-2.607
X87.226Y85.334Z-2.622
X87.605Y85.107Z-2.638
X88.004Y84.918Z-2.653
X88.42Y84.769Z-2.668
X88.848Y84.662Z-2.684
X89.285Y84.597Z-2.699
X89.726Y84.575Z-2.715
X90.167Y84.597Z-2.73
X90.604Y84.662Z-2.746
X91.033Y84.769Z-2.761
X91.448Y84.918Z-2.776
X91.848Y85.107Z-2.792
X92.226Y85.334Z-2.807
X92.581Y85.597Z-2.823
X92.908Y85.893Z-2.838
X93.205Y86.22Z-2.854
X93.468Y86.575Z-2.869
X93.695Y86.954Z-2.884
X93.884Y87.353Z-2.9
X94.033Y87.769Z-2.915
X94.14Y88.197Z-2.931
X94.205Y88.634Z-2.946
X94.226Y89.075Z-2.962
X94.205Y89.516Z-2.977
X94.14Y89.953Z-2.992
X94.033Y90.382Z-3.008
X93.884Y90.797Z-3.023
X93.695Y91.197Z-3.039
X93.468Y91.575Z-3.054
X93.205Y91.93Z-3.07
X92.908Y92.257Z-3.085
X92.581Y92.554Z-3.1
X92.226Y92.817Z-3.116
X91.848Y93.044Z-3.131
X91.448Y93.233Z-3.147
X91.033Y93.381Z-3.162
X90.604Y93.489Z-3.178
X90.167Y93.554Z-3.193
X89.726Y93.575Z-3.208
X89.285Y93.554Z-3.224
X88.848Y93.489Z-3.239
X88.42Y93.381Z-3.255
X88.004Y93.233Z-3.27
X87.605Y93.044Z-3.286
X87.226Y92.817Z-3.301
X86.872Y92.554Z-3.316
X86.544Y92.257Z-3.332
X86.248Y91.93Z-3.347
X85.985Y91.575Z-3.363
X85.758Y91.197Z-3.378
X85.569Y90.797Z-3.394
X85.42Y90.382Z-3.409
X85.313Y89.953Z-3.424
X85.248Y89.516Z-3.44
X85.226Y89.075Z-3.455
X85.248Y88.634Z-3.471
X85.313Y88.197Z-3.486
X85.42Y87.769Z-3.502
X85.569Y87.353Z-3.517
X85.758Y86.954Z-3.532
X85.985Y86.575Z-3.548
X86.248Y86.22Z-3.563
X86.544Y85.893Z-3.579
X86.872Y85.597Z-3.594
X87.226Y85.334Z-3.61
X87.605Y85.107Z-3.625
X88.004Y84.918Z-3.64
X88.42Y84.769Z-3.656
X88.848Y84.662Z-3.671
X89.285Y84.597Z-3.687
X89.726Y84.575Z-3.702
X90.167Y84.597Z-3.718
X90.604Y84.662Z-3.733
X91.033Y84.769Z-3.748
X91.448Y84.918Z-3.764
X91.848Y85.107Z-3.779
X92.226Y85.334Z-3.795
X92.581Y85.597Z-3.81
X92.908Y85.893Z-3.826
X93.205Y86.22Z-3.841
X93.468Y86.575Z-3.856
X93.695Y86.954Z-3.872
X93.884Y87.353Z-3.887
X94.033Y87.769Z-3.903
X94.14Y88.197Z-3.918
X94.205Y88.634Z-3.934
X94.226Y89.075Z-3.949
X94.205Y89.516Z-3.964
X94.14Y89.953Z-3.98
X94.033Y90.382Z-3.995
X93.884Y90.797Z-4.011
X93.695Y91.197Z-4.026
X93.468Y91.575Z-4.042
X93.205Y91.93Z-4.057
X92.908Y92.257Z-4.072
X92.581Y92.554Z-4.088
X92.226Y92.817Z-4.103
X91.848Y93.044Z-4.119
X91.448Y93.233Z-4.134
X91.033Y93.381Z-4.15
X90.604Y93.489Z-4.165
X90.167Y93.554Z-4.18
X89.726Y93.575Z-4.196
X89.285Y93.554Z-4.211
X88.848Y93.489Z-4.227
X88.42Y93.381Z-4.242
X88.004Y93.233Z-4.257
X87.605Y93.044Z-4.273
X87.226Y92.817Z-4.288
X86.872Y92.554Z-4.304
X86.544Y92.257Z-4.319
X86.248Y91.93Z-4.335
X85.985Y91.575Z-4.35
X85.758Y91.197Z-4.365
X85.569Y90.797Z-4.381
X85.42Y90.382Z-4.396
X85.313Y89.953Z-4.412
X85.248Y89.516Z-4.427
X85.226Y89.075Z-4.443
X85.248Y88.634Z-4.458
X85.313Y88.197Z-4.473
X85.42Y87.769Z-4.489
X85.569Y87.353Z-4.504
X85.758Y86.954Z-4.52
X85.985Y86.575Z-4.535
X86.248Y86.22Z-4.551
X86.544Y85.893Z-4.566
X86.872Y85.597Z-4.581
X87.226Y85.334Z-4.597
X87.605Y85.107Z-4.612
X88.004Y84.918Z-4.628
X88.42Y84.769Z-4.643
X88.848Y84.662Z-4.659
X89.285Y84.597Z-4.674
X89.726Y84.575Z-4.689
X90.167Y84.597Z-4.705
X90.604Y84.662Z-4.72
X91.033Y84.769Z-4.736
X91.448Y84.918Z-4.751
X91.848Y85.107Z-4.767
X92.226Y85.334Z-4.782
X92.581Y85.597Z-4.797
X92.908Y85.893Z-4.813
X93.205Y86.22Z-4.828
X93.468Y86.575Z-4.844
X93.695Y86.954Z-4.859
X93.884Y87.353Z-4.875
X94.033Y87.769Z-4.89
X94.14Y88.197Z-4.905
X94.205Y88.634Z-4.921
X94.226Y89.075Z-4.936
X94.205Y89.516Z-4.952
X94.14Y89.953Z-4.967
X94.033Y90.382Z-4.983
X93.884Y90.797Z-5
X89.726Y89.075
X89.838Y89.052
X89.999Y89.042
X90.161Y89.052
X90.272Y89.075
X90.372Y89.11
X90.474Y89.161
X90.578Y89.231
X90.679Y89.32
X90.768Y89.421
X90.838Y89.525
X90.889Y89.627
X90.924Y89.726
X90.947Y89.839
X90.957Y89.999
X90.947Y90.161
X90.924Y90.272
X90.889Y90.372
X90.838Y90.474
X90.768Y90.578
X90.679Y90.679
X90.578Y90.768
X90.474Y90.838
X90.372Y90.889
X90.273Y90.924
X90.16Y90.947
X90Y90.957
X89.838Y90.947
X89.727Y90.924
X89.627Y90.889
X89.525Y90.838
X89.421Y90.768
X89.32Y90.679
X89.231Y90.578
X89.161Y90.474
X89.11Y90.372
X89.075Y90.273
X89.052Y90.16
X89.042Y90
X89.052Y89.838
X89.075Y89.727
X89.11Y89.627
X89.161Y89.525
X89.231Y89.421
X89.32Y89.32
X89.421Y89.231
X89.525Y89.161
X89.627Y89.11
X89.726Y89.075
X89.461Y88.109
X89.704Y88.059
X89.999Y88.039
X90.295Y88.059
X90.538Y88.109
X90.762Y88.187
X90.98Y88.296
X91.191Y88.438
X91.387Y88.612
X91.561Y88.808
X91.703Y89.019
X91.812Y89.237
X91.89Y89.461
X91.94Y89.704
X91.96Y89.999
X91.94Y90.295
X91.89Y90.538
X91.812Y90.762
X91.703Y90.98
X91.561Y91.191
X91.388Y91.387
X91.191Y91.561
X90.98Y91.703
X90.762Y91.812
X90.538Y91.89
X90.295Y91.94
X90Y91.96
X89.704Y91.94
X89.461Y91.89
X89.237Y91.812
X89.019Y91.703
X88.808Y91.561
X88.612Y91.388
X88.438Y91.191
X88.296Y90.98
X88.187Y90.762
X88.109Y90.538
X88.059Y90.295
X88.039Y90
X88.059Y89.704
X88.109Y89.461
X88.187Y89.237
X88.296Y89.019
X88.438Y88.808
X88.611Y88.612
X88.808Y88.438
X89.019Y88.296
X89.237Y88.187
X89.461Y88.109
X89.196Y87.142
X89.57Y87.066
X89.999Y87.037
X90.429Y87.066
X90.803Y87.142
X91.152Y87.264
X91.486Y87.431
X91.803Y87.646
X92.096Y87.903
X92.354Y88.196
X92.568Y88.513
X92.735Y88.847
X92.857Y89.196
X92.933Y89.57
X92.962Y89.999
X92.933Y90.429
X92.857Y90.803
X92.735Y91.152
X92.568Y91.486
X92.353Y91.803
X92.096Y92.096
X91.803Y92.354
X91.486Y92.568
X91.152Y92.735
X90.803Y92.857
X90.429Y92.933
X90Y92.962
X89.57Y92.933
X89.196Y92.857
X88.846Y92.735
X88.513Y92.568
X88.196Y92.353
X87.903Y92.096
X87.645Y91.803
X87.431Y91.486
X87.264Y91.152
X87.142Y90.803
X87.066Y90.429
X87.037Y90
X87.066Y89.57
X87.142Y89.196
X87.264Y88.847
X87.431Y88.513
X87.646Y88.196
X87.903Y87.903
X88.196Y87.645
X88.513Y87.431
X88.847Y87.264
X89.196Y87.142
X88.93Y86.176
X89.436Y86.073
X89.999Y86.035
X90.564Y86.073
X91.069Y86.176
X91.543Y86.341
X91.992Y86.566
X92.416Y86.853
X92.804Y87.194
X93.146Y87.583
X93.433Y88.007
X93.659Y88.457
X93.823Y88.93
X93.926Y89.436
X93.964Y89.999
X93.926Y90.564
X93.823Y91.069
X93.658Y91.542
X93.433Y91.992
X93.146Y92.416
X92.805Y92.804
X92.416Y93.146
X91.992Y93.433
X91.542Y93.659
X91.069Y93.823
X90.563Y93.926
X90Y93.964
X89.435Y93.926
X88.93Y93.823
X88.456Y93.658
X88.007Y93.433
X87.583Y93.146
X87.195Y92.805
X86.853Y92.416
X86.566Y91.992
X86.34Y91.542
X86.176Y91.069
X86.073Y90.563
X86.035Y90
X86.073Y89.435
X86.176Y88.93
X86.341Y88.457
X86.566Y88.007
X86.853Y87.583
X87.194Y87.195
X87.583Y86.853
X88.007Y86.566
X88.457Y86.34
X88.93Y86.176
X88.665Y85.21
X89.301Y85.079
X90Y85.032
X90.698Y85.079
X91.334Y85.209
X91.933Y85.418
X92.499Y85.702
X93.029Y86.06
X93.513Y86.486
X93.939Y86.97
X94.297Y87.5
X94.582Y88.067
X94.789Y88.665
X94.92Y89.301
X94.967Y90
X94.92Y90.698
X94.789Y91.334
X94.582Y91.933
X94.297Y92.499
X93.939Y93.029
X93.513Y93.513
X93.029Y93.939
X92.499Y94.297
X91.932Y94.582
X91.334Y94.789
X90.698Y94.92
X90Y94.967
X89.301Y94.92
X88.665Y94.789
X88.066Y94.581
X87.5Y94.297
X86.97Y93.939
X86.486Y93.513
X86.06Y93.029
X85.702Y92.499
X85.417Y91.932
X85.21Y91.334
X85.079Y90.698
X85.032Y90
X85.079Y89.301
X85.21Y88.665
X85.417Y88.066
X85.702Y87.5
X86.06Y86.97
X86.486Y86.486
X86.97Y86.06
X87.5Y85.702
X88.067Y85.417
X88.665Y85.21
X88.399Y84.243
X89.167Y84.086
X90Y84.03
X90.832Y84.086
X91.599Y84.243
X92.323Y84.494
X93.005Y84.837
X93.642Y85.267
X94.222Y85.777
X94.732Y86.357
X95.162Y86.994
X95.505Y87.677
X95.756Y88.399
X95.913Y89.167
X95.969Y90
X95.913Y90.832
X95.756Y91.6
X95.505Y92.323
X95.162Y93.005
X94.732Y93.642
X94.222Y94.221
X93.641Y94.732
X93.005Y95.162
X92.322Y95.505
X91.6Y95.756
X90.832Y95.913
X89.999Y95.969
X89.167Y95.913
X88.4Y95.756
X87.676Y95.505
X86.994Y95.162
X86.357Y94.732
X85.777Y94.222
X85.267Y93.642
X84.837Y93.005
X84.494Y92.322
X84.243Y91.6
X84.086Y90.832
X84.03Y89.999
X84.086Y89.167
X84.243Y88.399
X84.494Y87.676
X84.837Y86.994
X85.267Y86.357
X85.777Y85.777
X86.358Y85.267
X86.994Y84.837
X87.677Y84.494
X88.399Y84.243
X88.134Y83.277
X89.033Y83.093
X90Y83.028
X90.967Y83.093
X91.865Y83.277
X92.713Y83.571
X93.511Y83.972
X94.254Y84.474
X94.93Y85.069
X95.525Y85.745
X96.027Y86.488
X96.428Y87.286
X96.722Y88.134
X96.906Y89.033
X96.971Y90
X96.906Y90.967
X96.722Y91.865
X96.428Y92.713
X96.027Y93.511
X95.525Y94.254
X94.93Y94.93
X94.254Y95.525
X93.511Y96.027
X92.713Y96.428
X91.865Y96.722
X90.966Y96.906
X89.999Y96.971
X89.032Y96.906
X88.134Y96.722
X87.286Y96.428
X86.488Y96.027
X85.745Y95.525
X85.069Y94.93
X84.474Y94.254
X83.972Y93.511
X83.571Y92.712
X83.277Y91.865
X83.093Y90.966
X83.028Y89.999
X83.093Y89.032
X83.277Y88.134
X83.571Y87.286
X83.972Y86.488
X84.474Y85.745
X85.069Y85.069
X85.745Y84.474
X86.488Y83.972
X87.287Y83.571
X88.134Y83.277
X87.869Y82.31
X88.898Y82.1
X90Y82.026
X91.101Y82.1
X92.13Y82.31
X93.103Y82.648
X94.018Y83.107
X94.867Y83.681
X95.639Y84.36
X96.318Y85.132
X96.892Y85.981
X97.351Y86.896
X97.689Y87.868
X97.899Y88.898
X97.973Y90
X97.899Y91.101
X97.689Y92.13
X97.351Y93.103
X96.892Y94.018
X96.318Y94.867
X95.639Y95.639
X94.867Y96.318
X94.018Y96.892
X93.103Y97.351
X92.13Y97.689
X91.101Y97.899
X89.999Y97.973
X88.898Y97.899
X87.869Y97.689
X86.896Y97.351
X85.981Y96.892
X85.132Y96.318
X84.36Y95.639
X83.681Y94.867
X83.107Y94.018
X82.648Y93.103
X82.31Y92.131
X82.1Y91.101
X82.026Y89.999
X82.1Y88.898
X82.31Y87.869
X82.648Y86.896
X83.107Y85.981
X83.681Y85.132
X84.36Y84.36
X85.132Y83.681
X85.981Y83.107
X86.896Y82.648
X87.869Y82.31
X87.603Y81.344
X88.764Y81.107
X90Y81.023
X91.235Y81.107
X92.396Y81.344
X93.493Y81.725
X94.524Y82.243
X95.48Y82.888
X96.347Y83.652
X97.111Y84.519
X97.757Y85.475
X98.274Y86.506
X98.655Y87.603
X98.892Y88.764
X98.976Y90
X98.892Y91.235
X98.655Y92.396
X98.274Y93.493
X97.756Y94.524
X97.111Y95.48
X96.347Y96.347
X95.48Y97.111
X94.524Y97.757
X93.493Y98.274
X92.396Y98.655
X91.235Y98.892
X89.999Y98.976
X88.764Y98.892
X87.603Y98.655
X86.506Y98.274
X85.475Y97.756
X84.519Y97.111
X83.652Y96.347
X82.888Y95.48
X82.242Y94.524
X81.725Y93.493
X81.344Y92.396
X81.107Y91.235
X81.023Y89.999
X81.107Y88.764
X81.344Y87.603
X81.725Y86.506
X82.243Y85.475
X82.888Y84.519
X83.652Y83.652
X84.519Y82.888
X85.475Y82.242
X86.506Y81.725
X87.603Y81.344
X87.338Y80.377
X88.63Y80.113
X90Y80.021
X91.37Y80.113
X92.661Y80.377
X93.883Y80.802
X95.03Y81.378
X96.093Y82.096
X97.056Y82.943
X97.904Y83.906
X98.621Y84.969
X99.197Y86.116
X99.622Y87.338
X99.886Y88.63
X99.978Y90
X99.886Y91.37
X99.622Y92.661
X99.197Y93.883
X98.621Y95.03
X97.903Y96.093
X97.056Y97.056
X96.092Y97.904
X95.03Y98.621
X93.883Y99.197
X92.661Y99.622
X91.369Y99.886
X89.999Y99.978
X88.629Y99.886
X87.338Y99.622
X86.116Y99.197
X84.969Y98.621
X83.906Y97.903
X82.943Y97.056
X82.095Y96.093
X81.378Y95.03
X80.802Y93.883
X80.377Y92.661
X80.113Y91.369
X80.021Y89.999
X80.113Y88.629
X80.377Y87.338
X80.802Y86.116
X81.378Y84.969
X82.096Y83.906
X82.943Y82.943
X83.907Y82.095
X84.969Y81.378
X86.116Y80.802
X87.338Y80.377
X87.072Y79.411
X88.495Y79.12
X90Y79.019
X91.504Y79.12
X92.927Y79.411
X94.273Y79.879
X95.536Y80.513
X96.705Y81.303
X97.764Y82.235
X98.696Y83.294
X99.486Y84.463
X100.12Y85.726
X100.588Y87.072
X100.879Y88.495
X100.98Y90
X100.879Y91.504
X100.588Y92.927
X100.12Y94.273
X99.486Y95.536
X98.696Y96.705
X97.764Y97.764
X96.705Y98.697
X95.536Y99.486
X94.273Y100.12
X92.927Y100.588
X91.504Y100.879
X89.999Y100.98
X88.495Y100.879
X87.072Y100.588
X85.726Y100.12
X84.463Y99.486
X83.294Y98.696
X82.235Y97.764
X81.303Y96.705
X80.513Y95.536
X79.879Y94.273
X79.411Y92.927
X79.12Y91.504
X79.019Y89.999
X79.12Y88.495
X79.411Y87.072
X79.879Y85.726
X80.513Y84.463
X81.303Y83.294
X82.235Y82.235
X83.294Y81.302
X84.463Y80.513
X85.726Y79.879
X87.072Y79.411
X86.807Y78.445
X88.361Y78.127
X90Y78.017
X91.638Y78.127
X93.192Y78.445
X94.663Y78.956
X96.043Y79.648
X97.318Y80.51
X98.473Y81.526
X99.489Y82.681
X100.351Y83.956
X101.043Y85.336
X101.554Y86.807
X101.872Y88.361
X101.982Y90
X101.872Y91.638
X101.554Y93.192
X101.043Y94.663
X100.351Y96.043
X99.489Y97.318
X98.473Y98.473
X97.318Y99.489
X96.043Y100.351
X94.663Y101.043
X93.192Y101.554
X91.638Y101.872
X89.999Y101.982
X88.361Y101.872
X86.807Y101.554
X85.336Y101.043
X83.956Y100.351
X82.681Y99.489
X81.526Y98.473
X80.51Y97.318
X79.648Y96.043
X78.956Y94.663
X78.445Y93.192
X78.127Y91.638
X78.017Y89.999
X78.127Y88.361
X78.445Y86.807
X78.956Y85.336
X79.648Y83.956
X80.51Y82.681
X81.526Y81.526
X82.681Y80.51
X83.956Y79.648
X85.336Y78.956
X86.807Y78.445
X86.541Y77.478
X88.227Y77.134
X90Y77.014
X91.773Y77.134
X93.457Y77.478
X95.053Y78.033
X96.549Y78.783
X97.931Y79.717
X99.181Y80.818
X100.282Y82.068
X101.216Y83.45
X101.967Y84.946
X102.521Y86.541
X102.865Y88.227
X102.985Y90
X102.865Y91.773
X102.521Y93.458
X101.966Y95.053
X101.216Y96.549
X100.282Y97.931
X99.181Y99.181
X97.931Y100.282
X96.549Y101.216
X95.053Y101.967
X93.458Y102.521
X91.772Y102.865
X89.999Y102.985
X88.226Y102.865
X86.541Y102.521
X84.946Y101.966
X83.45Y101.216
X82.068Y100.282
X80.818Y99.181
X79.717Y97.931
X78.783Y96.549
X78.032Y95.053
X77.478Y93.458
X77.134Y91.772
X77.014Y89.999
X77.134Y88.226
X77.478Y86.541
X78.033Y84.946
X78.783Y83.45
X79.717Y82.068
X80.818Y80.818
X82.068Y79.717
X83.45Y78.783
X84.946Y78.032
X86.541Y77.478
X86.276Y76.512
X88.092Y76.14
X90Y76.012
X91.907Y76.14
X93.723Y76.512
X95.443Y77.11
X97.055Y77.919
X98.544Y78.924
X99.89Y80.109
X101.075Y81.456
X102.08Y82.944
X102.89Y84.556
X103.487Y86.276
X103.859Y88.092
X103.987Y90
X103.859Y91.907
X103.487Y93.723
X102.89Y95.443
X102.08Y97.055
X101.075Y98.544
X99.89Y99.89
X98.543Y101.075
X97.055Y102.08
X95.443Y102.89
X93.723Y103.487
X91.907Y103.859
X89.999Y103.987
X88.092Y103.859
X86.276Y103.487
X84.556Y102.889
X82.944Y102.08
X81.455Y101.075
X80.109Y99.89
X78.924Y98.543
X77.919Y97.055
X77.109Y95.443
X76.512Y93.723
X76.14Y91.907
X76.012Y89.999
X76.14Y88.092
X76.512Y86.276
X77.11Y84.556
X77.919Y82.944
X78.924Y81.455
X80.109Y80.109
X81.456Y78.924
X82.944Y77.919
X84.556Y77.109
X86.276Y76.512
X86.011Y75.545
X87.958Y75.147
X90Y75.01
X92.041Y75.147
X93.988Y75.545
X95.833Y76.186
X97.562Y77.054
X99.156Y78.131
X100.598Y79.401
X101.868Y80.843
X102.945Y82.437
X103.813Y84.166
X104.454Y86.011
X104.852Y87.958
X104.989Y90
X104.852Y92.041
X104.454Y93.988
X103.813Y95.833
X102.945Y97.562
X101.868Y99.156
X100.598Y100.598
X99.156Y101.868
X97.562Y102.945
X95.833Y103.813
X93.988Y104.454
X92.041Y104.852
X89.999Y104.989
X87.958Y104.852
X86.011Y104.454
X84.166Y103.813
X82.437Y102.945
X80.843Y101.868
X79.401Y100.598
X78.131Y99.156
X77.054Y97.562
X76.186Y95.833
X75.545Y93.988
X75.147Y92.041
X75.01Y89.999
X75.147Y87.958
X75.545Y86.011
X76.186Y84.166
X77.054Y82.437
X78.131Y80.843
X79.401Y79.401
X80.843Y78.131
X82.437Y77.054
X84.166Y76.186
X86.011Y75.545
G0Z10
X35.424Y89.726
G1Z0F500
X35.402Y90.167Z-0.015F1000
X35.337Y90.604Z-0.03
X35.23Y91.033Z-0.046
X35.081Y91.448Z-0.061
X34.892Y91.848Z-0.077
X34.665Y92.226Z-0.092
X34.402Y92.581Z-0.107
X34.106Y92.908Z-0.123
X33.778Y93.205Z-0.138
X33.424Y93.468Z-0.154
X33.045Y93.695Z-0.169
X32.646Y93.884Z-0.185
X32.23Y94.033Z-0.2
X31.802Y94.14Z-0.215
X31.365Y94.205Z-0.231
X30.924Y94.226Z-0.246
X30.483Y94.205Z-0.262
X30.046Y94.14Z-0.277
X29.617Y94.033Z-0.293
X29.202Y93.884Z-0.308
X28.802Y93.695Z-0.323
X28.424Y93.468Z-0.339
X28.069Y93.205Z-0.354
X27.742Y92.908Z-0.37
X27.445Y92.581Z-0.385
X27.182Y92.226Z-0.401
X26.955Y91.848Z-0.416
X26.766Y91.448Z-0.431
X26.617Y91.033Z-0.447
X26.51Y90.604Z-0.462
X26.445Y90.167Z-0.478
X26.424Y89.726Z-0.493
X26.445Y89.285Z-0.509
X26.51Y88.848Z-0.524
X26.617Y88.42Z-0.539
X26.766Y88.004Z-0.555
X26.955Y87.605Z-0.57
X27.182Y87.226Z-0.586
X27.445Y86.872Z-0.601
X27.742Y86.544Z-0.617
X28.069Y86.248Z-0.632
X28.424Y85.985Z-0.647
X28.802Y85.758Z-0.663
X29.202Y85.569Z-0.678
X29.617Y85.42Z-0.694
X30.046Y85.313Z-0.709
X30.483Y85.248Z-0.725
X30.924Y85.226Z-0.74
X31.365Y85.248Z-0.755
X31.802Y85.313Z-0.771
X32.23Y85.42Z-0.786
X32.646Y85.569Z-0.802
X33.045Y85.758Z-0.817
X33.424Y85.985Z-0.833
X33.778Y86.248Z-0.848
X34.106Y86.544Z-0.863
X34.402Y86.872Z-0.879
X34.665Y87.226Z-0.894
X34.892Y87.605Z-0.91
X35.081Y88.004Z-0.925
X35.23Y88.42Z-0.941
X35.337Y88.848Z-0.956
X35.402Y89.285Z-0.971
X35.424Y89.726Z-0.987
X35.402Y90.167Z-1.002
X35.337Y90.604Z-1.018
X35.23Y91.033Z-1.033
X35.081Y91.448Z-1.049
X34.892Y91.848Z-1.064
X34.665Y92.226Z-1.079
X34.402Y92.581Z-1.095
X34.106Y92.908Z-1.11
X33.778Y93.205Z-1.126
X33.424Y93.468Z-1.141
X33.045Y93.695Z-1.157
X32.646Y93.884Z-1.172
X32.23Y94.033Z-1.187
X31.802Y94.14Z-1.203
X31.365Y94.205Z-1.218
X30.924Y94.226Z-1.234
X30.483Y94.205Z-1.249
X30.046Y94.14Z-1.265
X29.617Y94.033Z-1.28
X29.202Y93.884Z-1.295
X28.802Y93.695Z-1.311
X28.424Y93.468Z-1.326
X28.069Y93.205Z-1.342
X27.742Y92.908Z-1.357
X27.445Y92.581Z-1.373
X27.182Y92.226Z-1.388
X26.955Y91.848Z-1.403
X26.766Y91.448Z-1.419
X26.617Y91.033Z-1.434
X26.51Y90.604Z-1.45
X26.445Y90.167Z-1.465
X26.424Y89.726Z-1.481
X26.445Y89.285Z-1.496
X26.51Y88.848Z-1.511
X26.617Y88.42Z-1.527
X26.766Y88.004Z-1.542
X26.955Y87.605Z-1.558
X27.182Y87.226Z-1.573
X27.445Y86.872Z-1.589
X27.742Y86.544Z-1.604
X28.069Y86.248Z-1.619
X28.424Y85.985Z-1.635
X28.802Y85.758Z-1.65
X29.202Y85.569Z-1.666
X29.617Y85.42Z-1.681
X30.046Y85.313Z-1.697
X30.483Y85.248Z-1.712
X30.924Y85.226Z-1.727
X31.365Y85.248Z-1.743
X31.802Y85.313Z-1.758
X32.23Y85.42Z-1.774
X32.646Y85.569Z-1.789
X33.045Y85.758Z-1.805
X33.424Y85.985Z-1.82
X33.778Y86.248Z-1.835
X34.106Y86.544Z-1.851
X34.402Y86.872Z-1.866
X34.665Y87.226Z-1.882
X34.892Y87.605Z-1.897
X35.081Y88.004Z-1.913
X35.23Y88.42Z-1.928
X35.337Y88.848Z-1.943
X35.402Y89.285Z-1.959
X35.424Y89.726Z-1.974
X35.402Y90.167Z-1.99
X35.337Y90.604Z-2.005
X35.23Y91.033Z-2.021
X35.081Y91.448Z-2.036
X34.892Y91.848Z-2.051
X34.665Y92.226Z-2.067
X34.402Y92.581Z-2.082
X34.106Y92.908Z-2.098
X33.778Y93.205Z-2.113
X33.424Y93.468Z-2.128
X33.045Y93.695Z-2.144
X32.646Y93.884Z-2.159
X32.23Y94.033Z-2.175
X31.802Y94.14Z-2.19
X31.365Y94.205Z-2.206
X30.924Y94.226Z-2.221
X30.483Y94.205Z-2.236
X30.046Y94.14Z-2.252
X29.617Y94.033Z-2.267
X29.202Y93.884Z-2.283
X28.802Y93.695Z-2.298
X28.424Y93.468Z-2.314
X28.069Y93.205Z-2.329
X27.742Y92.908Z-2.344
X27.445Y92.581Z-2.36
X27.182Y92.226Z-2.375
X26.955Y91.848Z-2.391
X26.766Y91.448Z-2.406
X26.617Y91.033Z-2.422
X26.51Y90.604Z-2.437
X26.445Y90.167Z-2.452
X26.424Y89.726Z-2.468
X26.445Y89.285Z-2.483
X26.51Y88.848Z-2.499
X26.617Y88.42Z-2.514
X26.766Y88.004Z-2.53
X26.955Y87.605Z-2.545
X27.182Y87.226Z-2.56
X27.445Y86.872Z-2.576
X27.742Y86.544Z-2.591
X28.069Y86.248Z-2.607
X28.424Y85.985Z-2.622
X28.802Y85.758Z-2.638
X29.202Y85.569Z-2.653
X29.617Y85.42Z-2.668
X30.046Y85.313Z-2.684
X30.483Y85.248Z-2.699
X30.924Y85.226Z-2.715
X31.365Y85.248Z-2.73
X31.802Y85.313Z-2.746
X32.23Y85.42Z-2.761
X32.646Y85.569Z-2.776
X33.045Y85.758Z-2.792
X33.424Y85.985Z-2.807
X33.778Y86.248Z-2.823
X34.106Y86.544Z-2.838
X34.402Y86.872Z-2.854
X34.665Y87.226Z-2.869
X34.892Y87.605Z-2.884
X35.081Y88.004Z-2.9
X35.23Y88.42Z-2.915
X35.337Y88.848Z-2.931
X35.402Y89.285Z-2.946
X35.424Y89.726Z-2.962
X35.402Y90.167Z-2.977
X35.337Y90.604Z-2.992
X35.23Y91.033Z-3.008
X35.081Y91.448Z-3.023
X34.892Y91.848Z-3.039
X34.665Y92.226Z-3.054
X34.402Y92.581Z-3.07
X34.106Y92.908Z-3.085
X33.778Y93.205Z-3.1
X33.424Y93.468Z-3.116
X33.045Y93.695Z-3.131
X32.646Y93.884Z-3.147
X32.23Y94.033Z-3.162
X31.802Y94.14Z-3.178
X31.365Y94.205Z-3.193
X30.924Y94.226Z-3.208
X30.483Y94.205Z-3.224
X30.046Y94.14Z-3.239
X29.617Y94.033Z-3.255
X29.202Y93.884Z-3.27
X28.802Y93.695Z-3.286
X28.424Y93.468Z-3.301
X28.069Y93.205Z-3.316
X27.742Y92.908Z-3.332
X27.445Y92.581Z-3.347
X27.182Y92.226Z-3.363
X26.955Y91.848Z-3.378
X26.766Y91.448Z-3.394
X26.617Y91.033Z-3.409
X26.51Y90.604Z-3.424
X26.445Y90.167Z-3.44
X26.424Y89.726Z-3.455
X26.445Y89.285Z-3.471
X26.51Y88.848Z-3.486
X26.617Y88.42Z-3.502
X26.766Y88.004Z-3.517
X26.955Y87.605Z-3.532
X27.182Y87.226Z-3.548
X27.445Y86.872Z-3.563
X27.742Y86.544Z-3.579
X28.069Y86.248Z-3.594
X28.424Y85.985Z-3.61
X28.802Y85.758Z-3.625
X29.202Y85.569Z-3.64
X29.617Y85.42Z-3.656
X30.046Y85.313Z-3.671
X30.483Y85.248Z-3.687
X30.924Y85.226Z-3.702
X31.365Y85.248Z-3.718
X31.802Y85.313Z-3.733
X32.23Y85.42Z-3.748
X32.646Y85.569Z-3.764
X33.045Y85.758Z-3.779
X33.424Y85.985Z-3.795
X33.778Y86.248Z-3.81
X34.106Y86.544Z-3.826
X34.402Y86.872Z-3.841
X34.665Y87.226Z-3.856
X34.892Y87.605Z-3.872
X35.081Y88.004Z-3.887
X35.23Y88.42Z-3.903
X35.337Y88.848Z-3.918
X35.402Y89.285Z-3.934
X35.424Y89.726Z-3.949
X35.402Y90.167Z-3.964
X35.337Y90.604Z-3.98
X35.23Y91.033Z-3.995
X35.081Y91.448Z-4.011
X34.892Y91.848Z-4.026
X34.665Y92.226Z-4.042
X34.402Y92.581Z-4.057
X34.106Y92.908Z-4.072
X33.778Y93.205Z-4.088
X33.424Y93.468Z-4.103
X33.045Y93.695Z-4.119
X32.646Y93.884Z-4.134
X32.23Y94.033Z-4.15
X31.802Y94.14Z-4.165
X31.365Y94.205Z-4.18
X30.924Y94.226Z-4.196
X30.483Y94.205Z-4.211
X30.046Y94.14Z-4.227
X29.617Y94.033Z-4.242
X29.202Y93.884Z-4.257
X28.802Y93.695Z-4.273
X28.424Y93.468Z-4.288
X28.069Y93.205Z-4.304
X27.742Y92.908Z-4.319
X27.445Y92.581Z-4.335
X27.182Y92.226Z-4.35
X26.955Y91.848Z-4.365
X26.766Y91.448Z-4.381
X26.617Y91.033Z-4.396
X26.51Y90.604Z-4.412
X26.445Y90.167Z-4.427
X26.424Y89.726Z-4.443
X26.445Y89.285Z-4.458
X26.51Y88.848Z-4.473
X26.617Y88.42Z-4.489
X26.766Y88.004Z-4.504
X26.955Y87.605Z-4.52
X27.182Y87.226Z-4.535
X27.445Y86.872Z-4.551
X27.742Y86.544Z-4.566
X28.069Y86.248Z-4.581
X28.424Y85.985Z-4.597
X28.802Y85.758Z-4.612
X29.202Y85.569Z-4.628
X29.617Y85.42Z-4.643
X30.046Y85.313Z-4.659
X30.483Y85.248Z-4.674
X30.924Y85.226Z-4.689
X31.365Y85.248Z-4.705
X31.802Y85.313Z-4.72
X32.23Y85.42Z-4.736
X32.646Y85.569Z-4.751
X33.045Y85.758Z-4.767
X33.424Y85.985Z-4.782
X33.778Y86.248Z-4.797
X34.106Y86.544Z-4.813
X34.402Y86.872Z-4.828
X34.665Y87.226Z-4.844
X34.892Y87.605Z-4.859
X35.081Y88.004Z-4.875
X35.23Y88.42Z-4.89
X35.337Y88.848Z-4.905
X35.402Y89.285Z-4.921
X35.424Y89.726Z-4.936
X35.402Y90.167Z-4.952
X35.337Y90.604Z-4.967
X35.23Y91.033Z-4.983
X35.081Y91.448Z-5
X30.924Y89.726
X30.947Y89.839
X30.957Y89.999
X30.947Y90.161
X30.924Y90.272
X30.889Y90.372
X30.838Y90.474
X30.768Y90.578
X30.679Y90.679
X30.578Y90.768
X30.474Y90.838
X30.372Y90.889
X30.273Y90.924
X30.16Y90.947
X30Y90.957
X29.838Y90.947
X29.727Y90.924
X29.627Y90.889
X29.525Y90.838
X29.421Y90.768
X29.32Y90.679
X29.231Y90.578
X29.161Y90.474
X29.11Y90.372
X29.075Y90.273
X29.052Y90.16
X29.042Y90
X29.052Y89.838
X29.075Y89.727
X29.11Y89.627
X29.161Y89.525
X29.231Y89.421
X29.32Y89.32
X29.421Y89.231
X29.525Y89.161
X29.627Y89.11
X29.726Y89.075
X29.838Y89.052
X29.999Y89.042
X30.161Y89.052
X30.272Y89.075
X30.372Y89.11
X30.474Y89.161
X30.578Y89.231
X30.679Y89.32
X30.768Y89.421
X30.838Y89.525
X30.889Y89.627
X30.924Y89.726
X31.89Y89.461
X31.94Y89.704
X31.96Y89.999
X31.94Y90.295
X31.89Y90.538
X31.812Y90.762
X31.703Y90.98
X31.561Y91.191
X31.388Y91.387
X31.191Y91.561
X30.98Y91.703
X30.762Y91.812
X30.538Y91.89
X30.295Y91.94
X30Y91.96
X29.704Y91.94
X29.461Y91.89
X29.237Y91.812
X29.019Y91.703
X28.808Y91.561
X28.612Y91.387
X28.438Y91.191
X28.296Y90.98
X28.187Y90.762
X28.109Y90.538
X28.059Y90.295
X28.039Y90
X28.059Y89.704
X28.109Y89.461
X28.187Y89.237
X28.296Y89.019
X28.438Y88.808
X28.611Y88.612
X28.808Y88.438
X29.019Y88.296
X29.237Y88.187
X29.461Y88.109
X29.704Y88.059
X29.999Y88.039
X30.295Y88.059
X30.538Y88.109
X30.762Y88.187
X30.98Y88.296
X31.191Y88.438
X31.387Y88.612
X31.561Y88.808
X31.703Y89.019
X31.812Y89.237
X31.89Y89.461
X32.857Y89.195
X32.933Y89.57
X32.962Y89.999
X32.933Y90.429
X32.857Y90.803
X32.735Y91.152
X32.568Y91.486
X32.353Y91.803
X32.096Y92.096
X31.803Y92.354
X31.486Y92.568
X31.152Y92.735
X30.803Y92.857
X30.429Y92.933
X30Y92.962
X29.57Y92.933
X29.196Y92.857
X28.847Y92.735
X28.513Y92.568
X28.196Y92.353
X27.903Y92.096
X27.645Y91.803
X27.431Y91.486
X27.264Y91.152
X27.142Y90.804
X27.066Y90.429
X27.037Y90
X27.066Y89.57
X27.142Y89.196
X27.264Y88.847
X27.431Y88.513
X27.646Y88.196
X27.903Y87.903
X28.196Y87.645
X28.513Y87.431
X28.847Y87.264
X29.196Y87.142
X29.57Y87.066
X29.999Y87.037
X30.429Y87.066
X30.803Y87.142
X31.152Y87.264
X31.486Y87.431
X31.803Y87.646
X32.096Y87.903
X32.354Y88.196
X32.568Y88.513
X32.735Y88.847
X32.857Y89.195
X33.823Y88.93
X33.926Y89.436
X33.964Y89.999
X33.926Y90.564
X33.823Y91.069
X33.658Y91.542
X33.433Y91.992
X33.146Y92.416
X32.805Y92.804
X32.416Y93.146
X31.992Y93.433
X31.542Y93.659
X31.069Y93.823
X30.563Y93.926
X30Y93.964
X29.435Y93.926
X28.93Y93.823
X28.456Y93.658
X28.007Y93.433
X27.583Y93.146
X27.195Y92.805
X26.853Y92.416
X26.566Y91.992
X26.34Y91.542
X26.176Y91.069
X26.073Y90.563
X26.035Y90
X26.073Y89.435
X26.176Y88.93
X26.341Y88.457
X26.566Y88.007
X26.853Y87.583
X27.194Y87.195
X27.583Y86.853
X28.007Y86.566
X28.457Y86.341
X28.93Y86.176
X29.436Y86.073
X29.999Y86.035
X30.564Y86.073
X31.069Y86.176
X31.543Y86.341
X31.992Y86.566
X32.416Y86.853
X32.804Y87.194
X33.146Y87.583
X33.433Y88.007
X33.659Y88.457
X33.823Y88.93
X34.789Y88.665
X34.92Y89.301
X34.967Y90
X34.92Y90.698
X34.789Y91.334
X34.582Y91.933
X34.297Y92.499
X33.939Y93.029
X33.513Y93.513
X33.029Y93.939
X32.499Y94.297
X31.932Y94.582
X31.334Y94.789
X30.698Y94.92
X29.999Y94.967
X29.301Y94.92
X28.665Y94.789
X28.066Y94.581
X27.5Y94.297
X26.97Y93.939
X26.486Y93.513
X26.06Y93.029
X25.702Y92.499
X25.417Y91.932
X25.21Y91.334
X25.079Y90.698
X25.032Y90
X25.079Y89.301
X25.21Y88.665
X25.417Y88.066
X25.702Y87.5
X26.06Y86.97
X26.486Y86.486
X26.97Y86.06
X27.5Y85.702
X28.067Y85.417
X28.665Y85.21
X29.301Y85.079
X30Y85.032
X30.698Y85.079
X31.334Y85.209
X31.933Y85.418
X32.499Y85.702
X33.029Y86.06
X33.513Y86.486
X33.939Y86.97
X34.297Y87.5
X34.582Y88.067
X34.789Y88.665
X35.756Y88.399
X35.913Y89.167
X35.969Y90
X35.913Y90.832
X35.756Y91.6
X35.505Y92.323
X35.162Y93.005
X34.732Y93.642
X34.222Y94.221
X33.641Y94.732
X33.005Y95.162
X32.322Y95.505
X31.6Y95.756
X30.832Y95.913
X29.999Y95.969
X29.167Y95.913
X28.4Y95.756
X27.676Y95.505
X26.994Y95.162
X26.357Y94.732
X25.777Y94.222
X25.267Y93.642
X24.837Y93.005
X24.494Y92.322
X24.243Y91.6
X24.086Y90.832
X24.03Y89.999
X24.086Y89.167
X24.243Y88.399
X24.494Y87.676
X24.837Y86.994
X25.267Y86.357
X25.777Y85.778
X26.358Y85.267
X26.994Y84.837
X27.677Y84.494
X28.399Y84.243
X29.167Y84.086
X30Y84.03
X30.832Y84.086
X31.599Y84.243
X32.323Y84.494
X33.005Y84.837
X33.642Y85.267
X34.222Y85.777
X34.732Y86.357
X35.162Y86.994
X35.505Y87.677
X35.756Y88.399
X36.722Y88.134
X36.906Y89.033
X36.971Y90
X36.906Y90.967
X36.722Y91.865
X36.428Y92.713
X36.027Y93.511
X35.525Y94.254
X34.93Y94.93
X34.254Y95.525
X33.511Y96.027
X32.713Y96.428
X31.865Y96.722
X30.966Y96.906
X29.999Y96.971
X29.032Y96.906
X28.134Y96.722
X27.286Y96.428
X26.488Y96.027
X25.745Y95.525
X25.069Y94.93
X24.474Y94.254
X23.972Y93.511
X23.571Y92.712
X23.277Y91.865
X23.093Y90.966
X23.028Y89.999
X23.093Y89.032
X23.277Y88.134
X23.571Y87.286
X23.972Y86.488
X24.474Y85.745
X25.069Y85.069
X25.745Y84.474
X26.488Y83.972
X27.286Y83.571
X28.134Y83.277
X29.033Y83.093
X30Y83.028
X30.967Y83.093
X31.865Y83.277
X32.713Y83.571
X33.511Y83.972
X34.254Y84.474
X34.93Y85.069
X35.525Y85.745
X36.027Y86.488
X36.428Y87.286
X36.722Y88.134
X37.689Y87.868
X37.899Y88.898
X37.973Y90
X37.899Y91.101
X37.689Y92.13
X37.351Y93.103
X36.892Y94.018
X36.318Y94.867
X35.639Y95.639
X34.867Y96.318
X34.018Y96.892
X33.103Y97.351
X32.13Y97.689
X31.101Y97.899
X29.999Y97.973
X28.898Y97.899
X27.869Y97.689
X26.896Y97.351
X25.981Y96.892
X25.132Y96.318
X24.36Y95.639
X23.681Y94.867
X23.107Y94.018
X22.648Y93.103
X22.31Y92.131
X22.1Y91.101
X22.026Y89.999
X22.1Y88.898
X22.31Y87.869
X22.648Y86.896
X23.107Y85.981
X23.681Y85.132
X24.36Y84.36
X25.132Y83.681
X25.981Y83.107
X26.896Y82.648
X27.869Y82.31
X28.898Y82.1
X30Y82.026
X31.101Y82.1
X32.13Y82.31
X33.103Y82.648
X34.018Y83.107
X34.867Y83.681
X35.639Y84.36
X36.318Y85.132
X36.892Y85.981
X37.351Y86.896
X37.689Y87.868
X38.655Y87.603
X38.892Y88.764
X38.976Y90
X38.892Y91.235
X38.655Y92.396
X38.274Y93.493
X37.756Y94.524
X37.111Y95.48
X36.347Y96.347
X35.48Y97.111
X34.524Y97.757
X33.493Y98.274
X32.396Y98.655
X31.235Y98.892
X29.999Y98.976
X28.764Y98.892
X27.603Y98.655
X26.506Y98.274
X25.475Y97.756
X24.519Y97.111
X23.652Y96.347
X22.888Y95.48
X22.242Y94.524
X21.725Y93.493
X21.344Y92.396
X21.107Y91.235
X21.023Y89.999
X21.107Y88.764
X21.344Y87.603
X21.725Y86.506
X22.243Y85.475
X22.888Y84.519
X23.652Y83.652
X24.519Y82.888
X25.475Y82.242
X26.506Y81.725
X27.603Y81.344
X28.764Y81.107
X30Y81.023
X31.235Y81.107
X32.396Y81.344
X33.493Y81.725
X34.524Y82.243
X35.48Y82.888
X36.347Y83.652
X37.111Y84.519
X37.757Y85.475
X38.274Y86.506
X38.655Y87.603
X39.622Y87.338
X39.886Y88.63
X39.978Y90
X39.886Y91.37
X39.622Y92.661
X39.197Y93.883
X38.621Y95.03
X37.903Y96.093
X37.056Y97.056
X36.092Y97.904
X35.03Y98.621
X33.883Y99.197
X32.661Y99.622
X31.369Y99.886
X29.999Y99.978
X28.629Y99.886
X27.338Y99.622
X26.116Y99.197
X24.969Y98.621
X23.906Y97.903
X22.943Y97.056
X22.095Y96.093
X21.378Y95.03
X20.802Y93.883
X20.377Y92.661
X20.113Y91.369
X20.021Y89.999
X20.113Y88.629
X20.377Y87.338
X20.802Y86.116
X21.378Y84.969
X22.096Y83.906
X22.943Y82.943
X23.907Y82.095
X24.969Y81.378
X26.116Y80.802
X27.338Y80.377
X28.63Y80.113
X30Y80.021
X31.37Y80.113
X32.661Y80.377
X33.883Y80.802
X35.03Y81.378
X36.093Y82.096
X37.056Y82.943
X37.904Y83.906
X38.621Y84.969
X39.197Y86.116
X39.622Y87.338
X40.588Y87.072
X40.879Y88.495
X40.98Y90
X40.879Y91.504
X40.588Y92.927
X40.12Y94.273
X39.486Y95.536
X38.696Y96.705
X37.764Y97.764
X36.705Y98.697
X35.536Y99.486
X34.273Y100.12
X32.927Y100.588
X31.504Y100.879
X29.999Y100.98
X28.495Y100.879
X27.072Y100.588
X25.726Y100.12
X24.463Y99.486
X23.294Y98.696
X22.235Y97.764
X21.303Y96.705
X20.513Y95.536
X19.879Y94.273
X19.411Y92.927
X19.12Y91.504
X19.019Y89.999
X19.12Y88.495
X19.411Y87.072
X19.879Y85.726
X20.513Y84.463
X21.303Y83.294
X22.235Y82.235
X23.294Y81.302
X24.463Y80.513
X25.726Y79.879
X27.072Y79.411
X28.495Y79.12
X30Y79.019
X31.504Y79.12
X32.927Y79.411
X34.273Y79.879
X35.536Y80.513
X36.705Y81.303
X37.764Y82.235
X38.696Y83.294
X39.486Y84.463
X40.12Y85.726
X40.588Y87.072
X41.554Y86.807
X41.872Y88.361
X41.982Y90
X41.872Y91.638
X41.554Y93.192
X41.043Y94.663
X40.351Y96.043
X39.489Y97.318
X38.473Y98.473
X37.318Y99.489
X36.043Y100.351
X34.663Y101.043
X33.192Y101.554
X31.638Y101.872
X29.999Y101.982
X28.361Y101.872
X26.807Y101.554
X25.336Y101.043
X23.956Y100.351
X22.681Y99.489
X21.526Y98.473
X20.51Y97.318
X19.648Y96.043
X18.956Y94.663
X18.445Y93.192
X18.127Y91.638
X18.017Y89.999
X18.127Y88.361
X18.445Y86.807
X18.956Y85.336
X19.648Y83.956
X20.51Y82.681
X21.526Y81.526
X22.681Y80.51
X23.956Y79.648
X25.336Y78.956
X26.807Y78.445
X28.361Y78.127
X30Y78.017
X31.638Y78.127
X33.192Y78.445
X34.663Y78.956
X36.043Y79.648
X37.318Y80.51
X38.473Y81.526
X39.489Y82.681
X40.351Y83.956
X41.043Y85.336
X41.554Y86.807
X42.521Y86.541
X42.865Y88.227
X42.985Y90
X42.865Y91.773
X42.521Y93.458
X41.966Y95.053
X41.216Y96.549
X40.282Y97.931
X39.181Y99.181
X37.931Y100.282
X36.549Y101.216
X35.053Y101.967
X33.458Y102.521
X31.772Y102.865
X29.999Y102.985
X28.226Y102.865
X26.542Y102.521
X24.946Y101.966
X23.45Y101.216
X22.068Y100.282
X20.818Y99.181
X19.717Y97.931
X18.783Y96.549
X18.032Y95.053
X17.478Y93.458
X17.134Y91.772
X17.014Y89.999
X17.134Y88.226
X17.478Y86.541
X18.033Y84.946
X18.783Y83.45
X19.717Y82.068
X20.818Y80.818
X22.068Y79.717
X23.45Y78.783
X24.946Y78.033
X26.541Y77.478
X28.227Y77.134
X30Y77.014
X31.773Y77.134
X33.458Y77.478
X35.053Y78.033
X36.549Y78.783
X37.931Y79.717
X39.181Y80.818
X40.282Y82.068
X41.216Y83.45
X41.967Y84.946
X42.521Y86.541
X43.487Y86.276
X43.859Y88.092
X43.987Y90
X43.859Y91.907
X43.487Y93.723
X42.89Y95.443
X42.08Y97.055
X41.075Y98.544
X39.89Y99.89
X38.543Y101.075
X37.055Y102.08
X35.443Y102.89
X33.723Y103.487
X31.907Y103.859
X29.999Y103.987
X28.092Y103.859
X26.276Y103.487
X24.556Y102.889
X22.944Y102.08
X21.455Y101.075
X20.109Y99.89
X18.924Y98.543
X17.919Y97.055
X17.109Y95.443
X16.512Y93.723
X16.14Y91.907
X16.012Y89.999
X16.14Y88.092
X16.512Y86.276
X17.109Y84.556
X17.919Y82.944
X18.924Y81.455
X20.109Y80.109
X21.456Y78.924
X22.944Y77.919
X24.556Y77.109
X26.276Y76.512
X28.092Y76.14
X30Y76.012
X31.907Y76.14
X33.723Y76.512
X35.443Y77.11
X37.055Y77.919
X38.544Y78.924
X39.89Y80.109
X41.075Y81.456
X42.08Y82.944
X42.89Y84.556
X43.487Y86.276
X44.454Y86.011
X44.852Y87.958
X44.989Y90
X44.852Y92.041
X44.454Y93.988
X43.813Y95.833
X42.945Y97.562
X41.868Y99.156
X40.598Y100.598
X39.156Y101.868
X37.562Y102.945
X35.833Y103.813
X33.988Y104.454
X32.041Y104.852
X29.999Y104.989
X27.958Y104.852
X26.011Y104.454
X24.166Y103.813
X22.437Y102.945
X20.843Y101.868
X19.401Y100.598
X18.131Y99.156
X17.054Y97.562
X16.186Y95.833
X15.545Y93.988
X15.147Y92.041
X15.01Y89.999
X15.147Y87.958
X15.545Y86.011
X16.186Y84.166
X17.054Y82.437
X18.131Y80.843
X19.401Y79.401
X20.843Y78.131
X22.438Y77.054
X24.166Y76.186
X26.011Y75.545
X27.958Y75.147
X30Y75.01
X32.041Y75.147
X33.988Y75.545
X35.833Y76.186
X37.562Y77.054
X39.156Y78.131
X40.598Y79.401
X41.868Y80.843
X42.945Y82.437
X43.813Y84.166
X44.454Y86.011
G0Z10
X34.772Y149.075
G1Z0F500
X34.751Y149.516Z-0.015F1000
X34.686Y149.953Z-0.03
X34.579Y150.381Z-0.046
X34.43Y150.797Z-0.061
X34.241Y151.196Z-0.077
X34.014Y151.575Z-0.092
X33.751Y151.93Z-0.107
X33.454Y152.257Z-0.123
X33.127Y152.554Z-0.138
X32.772Y152.817Z-0.154
X32.394Y153.044Z-0.169
X31.994Y153.233Z-0.185
X31.579Y153.381Z-0.2
X31.15Y153.489Z-0.215
X30.713Y153.554Z-0.231
X30.272Y153.575Z-0.246
X29.831Y153.554Z-0.262
X29.394Y153.489Z-0.277
X28.966Y153.381Z-0.293
X28.55Y153.233Z-0.308
X28.151Y153.044Z-0.323
X27.772Y152.817Z-0.339
X27.418Y152.554Z-0.354
X27.09Y152.257Z-0.37
X26.794Y151.93Z-0.385
X26.531Y151.575Z-0.401
X26.304Y151.196Z-0.416
X26.115Y150.797Z-0.431
X25.966Y150.381Z-0.447
X25.859Y149.953Z-0.462
X25.794Y149.516Z-0.478
X25.772Y149.075Z-0.493
X25.794Y148.634Z-0.509
X25.859Y148.197Z-0.524
X25.966Y147.769Z-0.539
X26.115Y147.353Z-0.555
X26.304Y146.954Z-0.57
X26.531Y146.575Z-0.586
X26.794Y146.22Z-0.601
X27.09Y145.893Z-0.617
X27.418Y145.597Z-0.632
X27.772Y145.334Z-0.647
X28.151Y145.107Z-0.663
X28.55Y144.918Z-0.678
X28.966Y144.769Z-0.694
X29.394Y144.662Z-0.709
X29.831Y144.597Z-0.725
X30.272Y144.575Z-0.74
X30.713Y144.597Z-0.755
X31.15Y144.662Z-0.771
X31.579Y144.769Z-0.786
X31.994Y144.918Z-0.802
X32.394Y145.107Z-0.817
X32.772Y145.334Z-0.833
X33.127Y145.597Z-0.848
X33.454Y145.893Z-0.863
X33.751Y146.22Z-0.879
X34.014Y146.575Z-0.894
X34.241Y146.954Z-0.91
X34.43Y147.353Z-0.925
X34.579Y147.769Z-0.941
X34.686Y148.197Z-0.956
X34.751Y148.634Z-0.971
X34.772Y149.075Z-0.987
X34.751Y149.516Z-1.002
X34.686Y149.953Z-1.018
X34.579Y150.381Z-1.033
X34.43Y150.797Z-1.049
X34.241Y151.196Z-1.064
X34.014Y151.575Z-1.079
X33.751Y151.93Z-1.095
X33.454Y152.257Z-1.11
X33.127Y152.554Z-1.126
X32.772Y152.817Z-1.141
X32.394Y153.044Z-1.157
X31.994Y153.233Z-1.172
X31.579Y153.381Z-1.187
X31.15Y153.489Z-1.203
X30.713Y153.554Z-1.218
X30.272Y153.575Z-1.234
X29.831Y153.554Z-1.249
X29.394Y153.489Z-1.265
X28.966Y153.381Z-1.28
X28.55Y153.233Z-1.295
X28.151Y153.044Z-1.311
X27.772Y152.817Z-1.326
X27.418Y152.554Z-1.342
X27.09Y152.257Z-1.357
X26.794Y151.93Z-1.373
X26.531Y151.575Z-1.388
X26.304Y151.196Z-1.403
X26.115Y150.797Z-1.419
X25.966Y150.381Z-1.434
X25.859Y149.953Z-1.45
X25.794Y149.516Z-1.465
X25.772Y149.075Z-1.481
X25.794Y148.634Z-1.496
X25.859Y148.197Z-1.511
X25.966Y147.769Z-1.527
X26.115Y147.353Z-1.542
X26.304Y146.954Z-1.558
X26.531Y146.575Z-1.573
X26.794Y146.22Z-1.589
X27.09Y145.893Z-1.604
X27.418Y145.597Z-1.619
X27.772Y145.334Z-1.635
X28.151Y145.107Z-1.65
X28.55Y144.918Z-1.666
X28.966Y144.769Z-1.681
X29.394Y144.662Z-1.697
X29.831Y144.597Z-1.712
X30.272Y144.575Z-1.727
X30.713Y144.597Z-1.743
X31.15Y144.662Z-1.758
X31.579Y144.769Z-1.774
X31.994Y144.918Z-1.789
X32.394Y145.107Z-1.805
X32.772Y145.334Z-1.82
X33.127Y145.597Z-1.835
X33.454Y145.893Z-1.851
X33.751Y146.22Z-1.866
X34.014Y146.575Z-1.882
X34.241Y146.954Z-1.897
X34.43Y147.353Z-1.913
X34.579Y147.769Z-1.928
X34.686Y148.197Z-1.943
X34.751Y148.634Z-1.959
X34.772Y149.075Z-1.974
X34.751Y149.516Z-1.99
X34.686Y149.953Z-2.005
X34.579Y150.381Z-2.021
X34.43Y150.797Z-2.036
X34.241Y151.196Z-2.051
X34.014Y151.575Z-2.067
X33.751Y151.93Z-2.082
X33.454Y152.257Z-2.098
X33.127Y152.554Z-2.113
X32.772Y152.817Z-2.128
X32.394Y153.044Z-2.144
X31.994Y153.233Z-2.159
X31.579Y153.381Z-2.175
X31.15Y153.489Z-2.19
X30.713Y153.554Z-2.206
X30.272Y153.575Z-2.221
X29.831Y153.554Z-2.236
X29.394Y153.489Z-2.252
X28.966Y153.381Z-2.267
X28.55Y153.233Z-2.283
X28.151Y153.044Z-2.298
X27.772Y152.817Z-2.314
X27.418Y152.554Z-2.329
X27.09Y152.257Z-2.344
X26.794Y151.93Z-2.36
X26.531Y151.575Z-2.375
X26.304Y151.196Z-2.391
X26.115Y150.797Z-2.406
X25.966Y150.381Z-2.422
X25.859Y149.953Z-2.437
X25.794Y149.516Z-2.452
X25.772Y149.075Z-2.468
X25.794Y148.634Z-2.483
X25.859Y148.197Z-2.499
X25.966Y147.769Z-2.514
X26.115Y147.353Z-2.53
X26.304Y146.954Z-2.545
X26.531Y146.575Z-2.56
X26.794Y146.22Z-2.576
X27.09Y145.893Z-2.591
X27.418Y145.597Z-2.607
X27.772Y145.334Z-2.622
X28.151Y145.107Z-2.638
X28.55Y144.918Z-2.653
X28.966Y144.769Z-2.668
X29.394Y144.662Z-2.684
X29.831Y144.597Z-2.699
X30.272Y144.575Z-2.715
X30.713Y144.597Z-2.73
X31.15Y144.662Z-2.746
X31.579Y144.769Z-2.761
X31.994Y144.918Z-2.776
X32.394Y145.107Z-2.792
X32.772Y145.334Z-2.807
X33.127Y145.597Z-2.823
X33.454Y145.893Z-2.838
X33.751Y146.22Z-2.854
X34.014Y146.575Z-2.869
X34.241Y146.954Z-2.884
X34.43Y147.353Z-2.9
X34.579Y147.769Z-2.915
X34.686Y148.197Z-2.931
X34.751Y148.634Z-2.946
X34.772Y149.075Z-2.962
X34.751Y149.516Z-2.977
X34.686Y149.953Z-2.992
X34.579Y150.381Z-3.008
X34.43Y150.797Z-3.023
X34.241Y151.196Z-3.039
X34.014Y151.575Z-3.054
X33.751Y151.93Z-3.07
X33.454Y152.257Z-3.085
X33.127Y152.554Z-3.1
X32.772Y152.817Z-3.116
X32.394Y153.044Z-3.131
X31.994Y153.233Z-3.147
X31.579Y153.381Z-3.162
X31.15Y153.489Z-3.178
X30.713Y153.554Z-3.193
X30.272Y153.575Z-3.208
X29.831Y153.554Z-3.224
X29.394Y153.489Z-3.239
X28.966Y153.381Z-3.255
X28.55Y153.233Z-3.27
X28.151Y153.044Z-3.286
X27.772Y152.817Z-3.301
X27.418Y152.554Z-3.316
X27.09Y152.257Z-3.332
X26.794Y151.93Z-3.347
X26.531Y151.575Z-3.363
X26.304Y151.196Z-3.378
X26.115Y150.797Z-3.394
X25.966Y150.381Z-3.409
X25.859Y149.953Z-3.424
X25.794Y149.516Z-3.44
X25.772Y149.075Z-3.455
X25.794Y148.634Z-3.471
X25.859Y148.197Z-3.486
X25.966Y147.769Z-3.502
X26.115Y147.353Z-3.517
X26.304Y146.954Z-3.532
X26.531Y146.575Z-3.548
X26.794Y146.22Z-3.563
X27.09Y145.893Z-3.579
X27.418Y145.597Z-3.594
X27.772Y145.334Z-3.61
X28.151Y145.107Z-3.625
X28.55Y144.918Z-3.64
X28.966Y144.769Z-3.656
X29.394Y144.662Z-3.671
X29.831Y144.597Z-3.687
X30.272Y144.575Z-3.702
X30.713Y144.597Z-3.718
X31.15Y144.662Z-3.733
X31.579Y144.769Z-3.748
X31.994Y144.918Z-3.764
X32.394Y145.107Z-3.779
X32.772Y145.334Z-3.795
X33.127Y145.597Z-3.81
X33.454Y145.893Z-3.826
X33.751Y146.22Z-3.841
X34.014Y146.575Z-3.856
X34.241Y146.954Z-3.872
X34.43Y147.353Z-3.887
X34.579Y147.769Z-3.903
X34.686Y148.197Z-3.918
X34.751Y148.634Z-3.934
X34.772Y149.075Z-3.949
X34.751Y149.516Z-3.964
X34.686Y149.953Z-3.98
X34.579Y150.381Z-3.995
X34.43Y150.797Z-4.011
X34.241Y151.196Z-4.026
X34.014Y151.575Z-4.042
X33.751Y151.93Z-4.057
X33.454Y152.257Z-4.072
X33.127Y152.554Z-4.088
X32.772Y152.817Z-4.103
X32.394Y153.044Z-4.119
X31.994Y153.233Z-4.134
X31.579Y153.381Z-4.15
X31.15Y153.489Z-4.165
X30.713Y153.554Z-4.18
X30.272Y153.575Z-4.196
X29.831Y153.554Z-4.211
X29.394Y153.489Z-4.227
X28.966Y153.381Z-4.242
X28.55Y153.233Z-4.257
X28.151Y153.044Z-4.273
X27.772Y152.817Z-4.288
X27.418Y152.554Z-4.304
X27.09Y152.257Z-4.319
X26.794Y151.93Z-4.335
X26.531Y151.575Z-4.35
X26.304Y151.196Z-4.365
X26.115Y150.797Z-4.381
X25.966Y150.381Z-4.396
X25.859Y149.953Z-4.412
X25.794Y149.516Z-4.427
X25.772Y149.075Z-4.443
X25.794Y148.634Z-4.458
X25.859Y148.197Z-4.473
X25.966Y147.769Z-4.489
X26.115Y147.353Z-4.504
X26.304Y146.954Z-4.52
X26.531Y146.575Z-4.535
X26.794Y146.22Z-4.551
X27.09Y145.893Z-4.566
X27.418Y145.597Z-4.581
X27.772Y145.334Z-4.597
X28.151Y145.107Z-4.612
X28.55Y144.918Z-4.628
X28.966Y144.769Z-4.643
X29.394Y144.662Z-4.659
X29.831Y144.597Z-4.674
X30.272Y144.575Z-4.689
X30.713Y144.597Z-4.705
X31.15Y144.662Z-4.72
X31.579Y144.769Z-4.736
X31.994Y144.918Z-4.751
X32.394Y145.107Z-4.767
X32.772Y145.334Z-4.782
X33.127Y145.597Z-4.797
X33.454Y145.893Z-4.813
X33.751Y146.22Z-4.828
X34.014Y146.575Z-4.844
X34.241Y146.954Z-4.859
X34.43Y147.353Z-4.875
X34.579Y147.769Z-4.89
X34.686Y148.197Z-4.905
X34.751Y148.634Z-4.921
X34.772Y149.075Z-4.936
X34.751Y149.516Z-4.952
X34.686Y149.953Z-4.967
X34.579Y150.381Z-4.983
X34.43Y150.797Z-5
X30.272Y149.075
X30.372Y149.11
X30.474Y149.161
X30.578Y149.231
X30.679Y149.32
X30.768Y149.421
X30.838Y149.525
X30.889Y149.627
X30.924Y149.726
X30.947Y149.839
X30.957Y149.999
X30.947Y150.161
X30.924Y150.272
X30.889Y150.372
X30.838Y150.474
X30.768Y150.578
X30.679Y150.679
X30.578Y150.768
X30.474Y150.838
X30.372Y150.889
X30.273Y150.924
X30.16Y150.947
X30Y150.958
X29.838Y150.947
X29.727Y150.924
X29.627Y150.889
X29.525Y150.838
X29.421Y150.768
X29.32Y150.679
X29.231Y150.578
X29.161Y150.474
X29.11Y150.372
X29.075Y150.273
X29.052Y150.16
X29.042Y150
X29.052Y149.838
X29.075Y149.727
X29.11Y149.627
X29.161Y149.525
X29.231Y149.421
X29.32Y149.32
X29.421Y149.231
X29.525Y149.161
X29.627Y149.11
X29.726Y149.075
X29.839Y149.052
X29.999Y149.041
X30.161Y149.052
X30.272Y149.075
X30.538Y148.109
X30.762Y148.187
X30.98Y148.296
X31.191Y148.438
X31.387Y148.612
X31.561Y148.808
X31.703Y149.019
X31.812Y149.237
X31.89Y149.461
X31.94Y149.704
X31.96Y149.999
X31.94Y150.295
X31.89Y150.538
X31.812Y150.762
X31.703Y150.98
X31.561Y151.191
X31.388Y151.387
X31.191Y151.561
X30.98Y151.703
X30.762Y151.812
X30.538Y151.89
X30.295Y151.94
X30Y151.96
X29.704Y151.94
X29.461Y151.89
X29.237Y151.812
X29.019Y151.703
X28.808Y151.561
X28.612Y151.387
X28.438Y151.191
X28.296Y150.98
X28.187Y150.762
X28.109Y150.538
X28.059Y150.295
X28.039Y150
X28.059Y149.704
X28.109Y149.461
X28.187Y149.237
X28.296Y149.019
X28.438Y148.808
X28.611Y148.612
X28.809Y148.438
X29.019Y148.296
X29.237Y148.187
X29.461Y148.109
X29.704Y148.059
X29.999Y148.039
X30.295Y148.059
X30.538Y148.109
X30.803Y147.142
X31.153Y147.264
X31.486Y147.431
X31.803Y147.646
X32.096Y147.903
X32.354Y148.196
X32.568Y148.513
X32.735Y148.847
X32.857Y149.195
X32.933Y149.57
X32.962Y149.999
X32.933Y150.429
X32.857Y150.803
X32.735Y151.152
X32.568Y151.486
X32.353Y151.803
X32.096Y152.096
X31.803Y152.354
X31.486Y152.568
X31.152Y152.735
X30.803Y152.857
X30.429Y152.933
X30Y152.962
X29.57Y152.933
X29.196Y152.857
X28.847Y152.735
X28.513Y152.568
X28.196Y152.353
X27.903Y152.096
X27.645Y151.803
X27.431Y151.486
X27.264Y151.152
X27.142Y150.803
X27.066Y150.429
X27.037Y150
X27.066Y149.57
X27.142Y149.196
X27.264Y148.847
X27.431Y148.513
X27.646Y148.196
X27.903Y147.903
X28.196Y147.645
X28.513Y147.431
X28.847Y147.264
X29.196Y147.142
X29.57Y147.066
X29.999Y147.037
X30.429Y147.066
X30.803Y147.142
X31.069Y146.176
X31.543Y146.341
X31.992Y146.566
X32.416Y146.853
X32.804Y147.194
X33.146Y147.583
X33.433Y148.007
X33.659Y148.457
X33.823Y148.93
X33.926Y149.436
X33.964Y150
X33.926Y150.564
X33.823Y151.069
X33.658Y151.542
X33.433Y151.992
X33.146Y152.416
X32.805Y152.804
X32.416Y153.146
X31.992Y153.433
X31.542Y153.659
X31.069Y153.823
X30.563Y153.926
X30Y153.964
X29.435Y153.926
X28.93Y153.823
X28.456Y153.658
X28.007Y153.433
X27.583Y153.146
X27.195Y152.805
X26.853Y152.416
X26.566Y151.992
X26.34Y151.542
X26.176Y151.069
X26.073Y150.563
X26.035Y150
X26.073Y149.435
X26.176Y148.93
X26.341Y148.457
X26.566Y148.007
X26.853Y147.583
X27.194Y147.195
X27.583Y146.853
X28.007Y146.566
X28.457Y146.34
X28.93Y146.176
X29.436Y146.073
X29.999Y146.035
X30.564Y146.073
X31.069Y146.176
X31.334Y145.209
X31.933Y145.418
X32.499Y145.702
X33.029Y146.06
X33.513Y146.486
X33.939Y146.97
X34.297Y147.5
X34.582Y148.067
X34.789Y148.665
X34.92Y149.301
X34.967Y150
X34.92Y150.698
X34.789Y151.334
X34.582Y151.933
X34.297Y152.499
X33.939Y153.029
X33.513Y153.513
X33.029Y153.939
X32.499Y154.297
X31.932Y154.582
X31.334Y154.789
X30.698Y154.92
X29.999Y154.967
X29.301Y154.92
X28.665Y154.789
X28.066Y154.581
X27.5Y154.297
X26.97Y153.939
X26.486Y153.513
X26.06Y153.029
X25.702Y152.499
X25.417Y151.932
X25.21Y151.334
X25.079Y150.698
X25.032Y150
X25.079Y149.301
X25.21Y148.665
X25.417Y148.066
X25.702Y147.5
X26.06Y146.97
X26.486Y146.486
X26.97Y146.06
X27.5Y145.702
X28.067Y145.417
X28.665Y145.21
X29.301Y145.079
X30Y145.032
X30.698Y145.079
X31.334Y145.209
X31.6Y144.243
X32.323Y144.494
X33.005Y144.837
X33.642Y145.267
X34.222Y145.777
X34.732Y146.357
X35.162Y146.994
X35.505Y147.677
X35.756Y148.399
X35.913Y149.167
X35.969Y150
X35.913Y150.832
X35.756Y151.6
X35.505Y152.323
X35.162Y153.005
X34.732Y153.642
X34.222Y154.221
X33.641Y154.732
X33.005Y155.162
X32.322Y155.505
X31.6Y155.756
X30.832Y155.913
X29.999Y155.969
X29.167Y155.913
X28.399Y155.756
X27.676Y155.505
X26.994Y155.162
X26.357Y154.732
X25.777Y154.222
X25.267Y153.642
X24.837Y153.005
X24.494Y152.322
X24.243Y151.6
X24.086Y150.832
X24.03Y149.999
X24.086Y149.167
X24.243Y148.399
X24.494Y147.676
X24.837Y146.994
X25.267Y146.357
X25.777Y145.777
X26.358Y145.267
X26.994Y144.837
X27.677Y144.494
X28.399Y144.243
X29.167Y144.086
X30Y144.03
X30.832Y144.086
X31.6Y144.243
X31.865Y143.277
X32.713Y143.571
X33.511Y143.972
X34.254Y144.474
X34.93Y145.069
X35.525Y145.745
X36.027Y146.488
X36.428Y147.286
X36.722Y148.134
X36.906Y149.033
X36.971Y150
X36.906Y150.967
X36.722Y151.865
X36.428Y152.713
X36.027Y153.511
X35.525Y154.254
X34.93Y154.93
X34.254Y155.525
X33.511Y156.027
X32.713Y156.428
X31.865Y156.722
X30.966Y156.906
X29.999Y156.971
X29.032Y156.906
X28.134Y156.722
X27.286Y156.428
X26.488Y156.027
X25.745Y155.525
X25.069Y154.93
X24.474Y154.254
X23.972Y153.511
X23.571Y152.713
X23.277Y151.865
X23.093Y150.966
X23.028Y149.999
X23.093Y149.032
X23.277Y148.134
X23.571Y147.286
X23.972Y146.488
X24.474Y145.745
X25.069Y145.069
X25.745Y144.474
X26.488Y143.972
X27.286Y143.571
X28.134Y143.277
X29.033Y143.093
X30Y143.028
X30.967Y143.093
X31.865Y143.277
X32.13Y142.31
X33.103Y142.648
X34.018Y143.107
X34.867Y143.681
X35.639Y144.36
X36.318Y145.132
X36.892Y145.981
X37.351Y146.896
X37.689Y147.868
X37.899Y148.898
X37.973Y150
X37.899Y151.101
X37.689Y152.13
X37.351Y153.103
X36.892Y154.018
X36.318Y154.867
X35.639Y155.639
X34.867Y156.318
X34.018Y156.892
X33.103Y157.351
X32.13Y157.689
X31.101Y157.899
X29.999Y157.973
X28.898Y157.899
X27.869Y157.689
X26.896Y157.351
X25.981Y156.892
X25.132Y156.318
X24.36Y155.639
X23.681Y154.867
X23.107Y154.018
X22.648Y153.103
X22.31Y152.131
X22.1Y151.101
X22.026Y149.999
X22.1Y148.898
X22.31Y147.869
X22.648Y146.896
X23.107Y145.981
X23.681Y145.132
X24.36Y144.36
X25.132Y143.681
X25.981Y143.107
X26.896Y142.648
X27.869Y142.31
X28.898Y142.1
X30Y142.026
X31.101Y142.1
X32.13Y142.31
X32.396Y141.344
X33.493Y141.725
X34.524Y142.242
X35.48Y142.888
X36.347Y143.652
X37.111Y144.519
X37.757Y145.475
X38.274Y146.506
X38.655Y147.603
X38.892Y148.764
X38.976Y150
X38.892Y151.235
X38.655Y152.396
X38.274Y153.493
X37.756Y154.524
X37.111Y155.48
X36.347Y156.347
X35.48Y157.111
X34.524Y157.757
X33.493Y158.274
X32.396Y158.655
X31.235Y158.892
X29.999Y158.976
X28.764Y158.892
X27.603Y158.655
X26.506Y158.274
X25.475Y157.756
X24.519Y157.111
X23.652Y156.347
X22.888Y155.48
X22.243Y154.524
X21.725Y153.493
X21.344Y152.396
X21.107Y151.235
X21.023Y149.999
X21.107Y148.764
X21.344Y147.603
X21.725Y146.506
X22.243Y145.475
X22.888Y144.519
X23.652Y143.652
X24.519Y142.888
X25.475Y142.243
X26.506Y141.725
X27.603Y141.344
X28.764Y141.107
X30Y141.023
X31.235Y141.107
X32.396Y141.344
X32.661Y140.377
X33.883Y140.802
X35.03Y141.378
X36.093Y142.096
X37.056Y142.943
X37.904Y143.906
X38.621Y144.969
X39.197Y146.116
X39.622Y147.338
X39.886Y148.63
X39.978Y150
X39.886Y151.37
X39.622Y152.661
X39.197Y153.883
X38.621Y155.03
X37.903Y156.093
X37.056Y157.056
X36.092Y157.904
X35.03Y158.621
X33.883Y159.197
X32.661Y159.622
X31.369Y159.886
X29.999Y159.978
X28.629Y159.886
X27.338Y159.622
X26.116Y159.197
X24.969Y158.621
X23.906Y157.903
X22.943Y157.056
X22.095Y156.093
X21.378Y155.03
X20.802Y153.883
X20.377Y152.661
X20.113Y151.369
X20.021Y149.999
X20.113Y148.629
X20.377Y147.338
X20.802Y146.116
X21.378Y144.969
X22.096Y143.906
X22.943Y142.943
X23.907Y142.095
X24.969Y141.378
X26.116Y140.802
X27.338Y140.377
X28.63Y140.113
X30Y140.021
X31.37Y140.113
X32.661Y140.377
X32.927Y139.411
X34.273Y139.879
X35.536Y140.513
X36.705Y141.303
X37.764Y142.235
X38.696Y143.294
X39.486Y144.463
X40.12Y145.726
X40.588Y147.072
X40.879Y148.495
X40.98Y150
X40.879Y151.504
X40.588Y152.927
X40.12Y154.273
X39.486Y155.536
X38.696Y156.705
X37.764Y157.764
X36.705Y158.697
X35.536Y159.486
X34.273Y160.12
X32.927Y160.588
X31.504Y160.879
X29.999Y160.98
X28.495Y160.879
X27.072Y160.588
X25.726Y160.12
X24.463Y159.486
X23.294Y158.696
X22.235Y157.764
X21.303Y156.705
X20.513Y155.536
X19.879Y154.273
X19.411Y152.927
X19.12Y151.504
X19.019Y149.999
X19.12Y148.495
X19.411Y147.072
X19.879Y145.726
X20.513Y144.463
X21.303Y143.294
X22.235Y142.235
X23.294Y141.302
X24.463Y140.513
X25.726Y139.879
X27.072Y139.411
X28.495Y139.12
X30Y139.019
X31.504Y139.12
X32.927Y139.411
X33.192Y138.445
X34.663Y138.956
X36.043Y139.648
X37.318Y140.51
X38.473Y141.526
X39.489Y142.681
X40.351Y143.956
X41.043Y145.336
X41.554Y146.807
X41.872Y148.361
X41.982Y150
X41.872Y151.638
X41.554Y153.192
X41.043Y154.663
X40.351Y156.043
X39.489Y157.318
X38.473Y158.473
X37.318Y159.489
X36.043Y160.351
X34.663Y161.043
X33.192Y161.554
X31.638Y161.872
X29.999Y161.982
X28.361Y161.872
X26.807Y161.554
X25.336Y161.043
X23.956Y160.351
X22.681Y159.489
X21.526Y158.473
X20.51Y157.318
X19.648Y156.043
X18.956Y154.663
X18.445Y153.192
X18.127Y151.638
X18.017Y149.999
X18.127Y148.361
X18.445Y146.807
X18.956Y145.336
X19.648Y143.956
X20.51Y142.681
X21.526Y141.526
X22.681Y140.51
X23.956Y139.648
X25.336Y138.956
X26.807Y138.445
X28.361Y138.127
X30Y138.017
X31.638Y138.127
X33.192Y138.445
X33.458Y137.478
X35.053Y138.033
X36.549Y138.783
X37.931Y139.717
X39.181Y140.818
X40.282Y142.068
X41.216Y143.45
X41.967Y144.946
X42.521Y146.541
X42.865Y148.227
X42.985Y150
X42.865Y151.773
X42.521Y153.458
X41.966Y155.053
X41.216Y156.549
X40.282Y157.931
X39.181Y159.181
X37.931Y160.282
X36.549Y161.216
X35.053Y161.967
X33.458Y162.521
X31.772Y162.865
X29.999Y162.985
X28.226Y162.865
X26.541Y162.521
X24.946Y161.966
X23.45Y161.216
X22.068Y160.282
X20.818Y159.181
X19.717Y157.931
X18.783Y156.549
X18.032Y155.053
X17.478Y153.458
X17.134Y151.772
X17.014Y149.999
X17.134Y148.226
X17.478Y146.541
X18.033Y144.946
X18.783Y143.45
X19.717Y142.068
X20.818Y140.818
X22.068Y139.717
X23.45Y138.783
X24.946Y138.032
X26.541Y137.478
X28.227Y137.134
X30Y137.014
X31.773Y137.134
X33.458Y137.478
X33.723Y136.512
X35.443Y137.11
X37.055Y137.919
X38.544Y138.924
X39.89Y140.109
X41.075Y141.456
X42.08Y142.944
X42.89Y144.556
X43.487Y146.276
X43.859Y148.092
X43.987Y150
X43.859Y151.907
X43.487Y153.723
X42.89Y155.443
X42.08Y157.055
X41.075Y158.544
X39.89Y159.89
X38.543Y161.075
X37.055Y162.08
X35.443Y162.89
X33.723Y163.487
X31.907Y163.859
X29.999Y163.987
X28.092Y163.859
X26.276Y163.487
X24.556Y162.889
X22.944Y162.08
X21.455Y161.075
X20.109Y159.89
X18.924Y158.543
X17.919Y157.055
X17.109Y155.443
X16.512Y153.723
X16.14Y151.906
X16.012Y149.999
X16.14Y148.092
X16.512Y146.276
X17.109Y144.556
X17.919Y142.944
X18.924Y141.455
X20.109Y140.109
X21.456Y138.924
X22.944Y137.919
X24.556Y137.109
X26.276Y136.512
X28.092Y136.14
X30Y136.012
X31.907Y136.14
X33.723Y136.512
X33.988Y135.545
X35.833Y136.186
X37.562Y137.054
X39.156Y138.131
X40.598Y139.401
X41.868Y140.843
X42.945Y142.437
X43.813Y144.166
X44.454Y146.011
X44.852Y147.958
X44.989Y150
X44.852Y152.041
X44.454Y153.988
X43.813Y155.833
X42.945Y157.562
X41.868Y159.156
X40.598Y160.598
X39.156Y161.868
X37.562Y162.945
X35.833Y163.813
X33.988Y164.454
X32.041Y164.852
X29.999Y164.989
X27.958Y164.852
X26.011Y164.454
X24.166Y163.813
X22.437Y162.945
X20.843Y161.868
X19.401Y160.598
X18.131Y159.156
X17.054Y157.562
X16.186Y155.833
X15.545Y153.988
X15.147Y152.041
X15.01Y149.999
X15.147Y147.958
X15.545Y146.011
X16.186Y144.166
X17.054Y142.437
X18.131Y140.843
X19.401Y139.401
X20.843Y138.131
X22.437Y137.054
X24.166Y136.186
X26.011Y135.545
X27.958Y135.147
X30Y135.01
X32.041Y135.147
X33.988Y135.545
G0Z10
X93.575Y149.727
G1Z0F500
X93.554Y150.168Z-0.015F1000
X93.489Y150.605Z-0.03
X93.381Y151.033Z-0.046
X93.233Y151.449Z-0.061
X93.044Y151.848Z-0.077
X92.817Y152.227Z-0.092
X92.554Y152.581Z-0.107
X92.257Y152.909Z-0.123
X91.93Y153.205Z-0.138
X91.575Y153.468Z-0.154
X91.196Y153.695Z-0.169
X90.797Y153.884Z-0.185
X90.381Y154.033Z-0.2
X89.953Y154.14Z-0.215
X89.516Y154.205Z-0.231
X89.075Y154.227Z-0.246
X88.634Y154.205Z-0.262
X88.197Y154.14Z-0.277
X87.769Y154.033Z-0.293
X87.353Y153.884Z-0.308
X86.954Y153.695Z-0.323
X86.575Y153.468Z-0.339
X86.22Y153.205Z-0.354
X85.893Y152.909Z-0.37
X85.597Y152.581Z-0.385
X85.334Y152.227Z-0.401
X85.107Y151.848Z-0.416
X84.918Y151.449Z-0.431
X84.769Y151.033Z-0.447
X84.662Y150.605Z-0.462
X84.597Y150.168Z-0.478
X84.575Y149.727Z-0.493
X84.597Y149.286Z-0.509
X84.662Y148.849Z-0.524
X84.769Y148.42Z-0.539
X84.918Y148.005Z-0.555
X85.107Y147.605Z-0.57
X85.334Y147.227Z-0.586
X85.597Y146.872Z-0.601
X85.893Y146.545Z-0.617
X86.22Y146.248Z-0.632
X86.575Y145.985Z-0.647
X86.954Y145.758Z-0.663
X87.353Y145.569Z-0.678
X87.769Y145.42Z-0.694
X88.197Y145.313Z-0.709
X88.634Y145.248Z-0.725
X89.075Y145.227Z-0.74
X89.516Y145.248Z-0.755
X89.953Y145.313Z-0.771
X90.381Y145.42Z-0.786
X90.797Y145.569Z-0.802
X91.196Y145.758Z-0.817
X91.575Y145.985Z-0.833
X91.93Y146.248Z-0.848
X92.257Y146.545Z-0.863
X92.554Y146.872Z-0.879
X92.817Y147.227Z-0.894
X93.044Y147.605Z-0.91
X93.233Y148.005Z-0.925
X93.381Y148.42Z-0.941
X93.489Y148.849Z-0.956
X93.554Y149.286Z-0.971
X93.575Y149.727Z-0.987
X93.554Y150.168Z-1.002
X93.489Y150.605Z-1.018
X93.381Y151.033Z-1.033
X93.233Y151.449Z-1.049
X93.044Y151.848Z-1.064
X92.817Y152.227Z-1.079
X92.554Y152.581Z-1.095
X92.257Y152.909Z-1.11
X91.93Y153.205Z-1.126
X91.575Y153.468Z-1.141
X91.196Y153.695Z-1.157
X90.797Y153.884Z-1.172
X90.381Y154.033Z-1.187
X89.953Y154.14Z-1.203
X89.516Y154.205Z-1.218
X89.075Y154.227Z-1.234
X88.634Y154.205Z-1.249
X88.197Y154.14Z-1.265
X87.769Y154.033Z-1.28
X87.353Y153.884Z-1.295
X86.954Y153.695Z-1.311
X86.575Y153.468Z-1.326
X86.22Y153.205Z-1.342
X85.893Y152.909Z-1.357
X85.597Y152.581Z-1.373
X85.334Y152.227Z-1.388
X85.107Y151.848Z-1.403
X84.918Y151.449Z-1.419
X84.769Y151.033Z-1.434
X84.662Y150.605Z-1.45
X84.597Y150.168Z-1.465
X84.575Y149.727Z-1.481
X84.597Y149.286Z-1.496
X84.662Y148.849Z-1.511
X84.769Y148.42Z-1.527
X84.918Y148.005Z-1.542
X85.107Y147.605Z-1.558
X85.334Y147.227Z-1.573
X85.597Y146.872Z-1.589
X85.893Y146.545Z-1.604
X86.22Y146.248Z-1.619
X86.575Y145.985Z-1.635
X86.954Y145.758Z-1.65
X87.353Y145.569Z-1.666
X87.769Y145.42Z-1.681
X88.197Y145.313Z-1.697
X88.634Y145.248Z-1.712
X89.075Y145.227Z-1.727
X89.516Y145.248Z-1.743
X89.953Y145.313Z-1.758
X90.381Y145.42Z-1.774
X90.797Y145.569Z-1.789
X91.196Y145.758Z-1.805
X91.575Y145.985Z-1.82
X91.93Y146.248Z-1.835
X92.257Y146.545Z-1.851
X92.554Y146.872Z-1.866
X92.817Y147.227Z-1.882
X93.044Y147.605Z-1.897
X93.233Y148.005Z-1.913
X93.381Y148.42Z-1.928
X93.489Y148.849Z-1.943
X93.554Y149.286Z-1.959
X93.575Y149.727Z-1.974
X93.554Y150.168Z-1.99
X93.489Y150.605Z-2.005
X93.381Y151.033Z-2.021
X93.233Y151.449Z-2.036
X93.044Y151.848Z-2.051
X92.817Y152.227Z-2.067
X92.554Y152.581Z-2.082
X92.257Y152.909Z-2.098
X91.93Y153.205Z-2.113
X91.575Y153.468Z-2.128
X91.196Y153.695Z-2.144
X90.797Y153.884Z-2.159
X90.381Y154.033Z-2.175
X89.953Y154.14Z-2.19
X89.516Y154.205Z-2.206
X89.075Y154.227Z-2.221
X88.634Y154.205Z-2.236
X88.197Y154.14Z-2.252
X87.769Y154.033Z-2.267
X87.353Y153.884Z-2.283
X86.954Y153.695Z-2.298
X86.575Y153.468Z-2.314
X86.22Y153.205Z-2.329
X85.893Y152.909Z-2.344
X85.597Y152.581Z-2.36
X85.334Y152.227Z-2.375
X85.107Y151.848Z-2.391
X84.918Y151.449Z-2.406
X84.769Y151.033Z-2.422
X84.662Y150.605Z-2.437
X84.597Y150.168Z-2.452
X84.575Y149.727Z-2.468
X84.597Y149.286Z-2.483
X84.662Y148.849Z-2.499
X84.769Y148.42Z-2.514
X84.918Y148.005Z-2.53
X85.107Y147.605Z-2.545
X85.334Y147.227Z-2.56
X85.597Y146.872Z-2.576
X85.893Y146.545Z-2.591
X86.22Y146.248Z-2.607
X86.575Y145.985Z-2.622
X86.954Y145.758Z-2.638
X87.353Y145.569Z-2.653
X87.769Y145.42Z-2.668
X88.197Y145.313Z-2.684
X88.634Y145.248Z-2.699
X89.075Y145.227Z-2.715
X89.516Y145.248Z-2.73
X89.953Y145.313Z-2.746
X90.381Y145.42Z-2.761
X90.797Y145.569Z-2.776
X91.196Y145.758Z-2.792
X91.575Y145.985Z-2.807
X91.93Y146.248Z-2.823
X92.257Y146.545Z-2.838
X92.554Y146.872Z-2.854
X92.817Y147.227Z-2.869
X93.044Y147.605Z-2.884
X93.233Y148.005Z-2.9
X93.381Y148.42Z-2.915
X93.489Y148.849Z-2.931
X93.554Y149.286Z-2.946
X93.575Y149.727Z-2.962
X93.554Y150.168Z-2.977
X93.489Y150.605Z-2.992
X93.381Y151.033Z-3.008
X93.233Y151.449Z-3.023
X93.044Y151.848Z-3.039
X92.817Y152.227Z-3.054
X92.554Y152.581Z-3.07
X92.257Y152.909Z-3.085
X91.93Y153.205Z-3.1
X91.575Y153.468Z-3.116
X91.196Y153.695Z-3.131
X90.797Y153.884Z-3.147
X90.381Y154.033Z-3.162
X89.953Y154.14Z-3.178
X89.516Y154.205Z-3.193
X89.075Y154.227Z-3.208
X88.634Y154.205Z-3.224
X88.197Y154.14Z-3.239
X87.769Y154.033Z-3.255
X87.353Y153.884Z-3.27
X86.954Y153.695Z-3.286
X86.575Y153.468Z-3.301
X86.22Y153.205Z-3.316
X85.893Y152.909Z-3.332
X85.597Y152.581Z-3.347
X85.334Y152.227Z-3.363
X85.107Y151.848Z-3.378
X84.918Y151.449Z-3.394
X84.769Y151.033Z-3.409
X84.662Y150.605Z-3.424
X84.597Y150.168Z-3.44
X84.575Y149.727Z-3.455
X84.597Y149.286Z-3.471
X84.662Y148.849Z-3.486
X84.769Y148.42Z-3.502
X84.918Y148.005Z-3.517
X85.107Y147.605Z-3.532
X85.334Y147.227Z-3.548
X85.597Y146.872Z-3.563
X85.893Y146.545Z-3.579
X86.22Y146.248Z-3.594
X86.575Y145.985Z-3.61
X86.954Y145.758Z-3.625
X87.353Y145.569Z-3.64
X87.769Y145.42Z-3.656
X88.197Y145.313Z-3.671
X88.634Y145.248Z-3.687
X89.075Y145.227Z-3.702
X89.516Y145.248Z-3.718
X89.953Y145.313Z-3.733
X90.381Y145.42Z-3.748
X90.797Y145.569Z-3.764
X91.196Y145.758Z-3.779
X91.575Y145.985Z-3.795
X91.93Y146.248Z-3.81
X92.257Y146.545Z-3.826
X92.554Y146.872Z-3.841
X92.817Y147.227Z-3.856
X93.044Y147.605Z-3.872
X93.233Y148.005Z-3.887
X93.381Y148.42Z-3.903
X93.489Y148.849Z-3.918
X93.554Y149.286Z-3.934
X93.575Y149.727Z-3.949
X93.554Y150.168Z-3.964
X93.489Y150.605Z-3.98
X93.381Y151.033Z-3.995
X93.233Y151.449Z-4.011
X93.044Y151.848Z-4.026
X92.817Y152.227Z-4.042
X92.554Y152.581Z-4.057
X92.257Y152.909Z-4.072
X91.93Y153.205Z-4.088
X91.575Y153.468Z-4.103
X91.196Y153.695Z-4.119
X90.797Y153.884Z-4.134
X90.381Y154.033Z-4.15
X89.953Y154.14Z-4.165
X89.516Y154.205Z-4.18
X89.075Y154.227Z-4.196
X88.634Y154.205Z-4.211
X88.197Y154.14Z-4.227
X87.769Y154.033Z-4.242
X87.353Y153.884Z-4.257
X86.954Y153.695Z-4.273
X86.575Y153.468Z-4.288
X86.22Y153.205Z-4.304
X85.893Y152.909Z-4.319
X85.597Y152.581Z-4.335
X85.334Y152.227Z-4.35
X85.107Y151.848Z-4.365
X84.918Y151.449Z-4.381
X84.769Y151.033Z-4.396
X84.662Y150.605Z-4.412
X84.597Y150.168Z-4.427
X84.575Y149.727Z-4.443
X84.597Y149.286Z-4.458
X84.662Y148.849Z-4.473
X84.769Y148.42Z-4.489
X84.918Y148.005Z-4.504
X85.107Y147.605Z-4.52
X85.334Y147.227Z-4.535
X85.597Y146.872Z-4.551
X85.893Y146.545Z-4.566
X86.22Y146.248Z-4.581
X86.575Y145.985Z-4.597
X86.954Y145.758Z-4.612
X87.353Y145.569Z-4.628
X87.769Y145.42Z-4.643
X88.197Y145.313Z-4.659
X88.634Y145.248Z-4.674
X89.075Y145.227Z-4.689
X89.516Y145.248Z-4.705
X89.953Y145.313Z-4.72
X90.381Y145.42Z-4.736
X90.797Y145.569Z-4.751
X91.196Y145.758Z-4.767
X91.575Y145.985Z-4.782
X91.93Y146.248Z-4.797
X92.257Y146.545Z-4.813
X92.554Y146.872Z-4.828
X92.817Y147.227Z-4.844
X93.044Y147.605Z-4.859
X93.233Y148.005Z-4.875
X93.381Y148.42Z-4.89
X93.489Y148.849Z-4.905
X93.554Y149.286Z-4.921
X93.575Y149.727Z-4.936
X93.554Y150.168Z-4.952
X93.489Y150.605Z-4.967
X93.381Y151.033Z-4.983
X93.233Y151.449Z-5
X89.075Y149.727
X89.11Y149.627
X89.161Y149.525
X89.231Y149.421
X89.32Y149.32
X89.421Y149.231
X89.525Y149.161
X89.627Y149.11
X89.726Y149.075
X89.838Y149.052
X89.999Y149.041
X90.161Y149.052
X90.272Y149.075
X90.372Y149.11
X90.474Y149.161
X90.578Y149.231
X90.679Y149.32
X90.768Y149.421
X90.838Y149.525
X90.889Y149.627
X90.924Y149.726
X90.947Y149.839
X90.957Y149.999
X90.947Y150.161
X90.924Y150.272
X90.889Y150.372
X90.838Y150.474
X90.768Y150.578
X90.679Y150.679
X90.578Y150.768
X90.474Y150.838
X90.372Y150.889
X90.273Y150.924
X90.16Y150.947
X90Y150.958
X89.838Y150.947
X89.727Y150.924
X89.627Y150.889
X89.525Y150.838
X89.421Y150.768
X89.32Y150.679
X89.231Y150.578
X89.161Y150.474
X89.11Y150.372
X89.075Y150.273
X89.052Y150.16
X89.042Y150
X89.052Y149.838
X89.075Y149.727
X88.109Y149.461
X88.187Y149.237
X88.296Y149.019
X88.438Y148.808
X88.611Y148.612
X88.808Y148.438
X89.019Y148.296
X89.237Y148.187
X89.461Y148.109
X89.704Y148.059
X89.999Y148.039
X90.295Y148.059
X90.538Y148.109
X90.762Y148.187
X90.98Y148.296
X91.191Y148.438
X91.387Y148.612
X91.561Y148.808
X91.703Y149.019
X91.812Y149.237
X91.89Y149.461
X91.94Y149.704
X91.96Y149.999
X91.94Y150.295
X91.89Y150.538
X91.812Y150.762
X91.703Y150.98
X91.561Y151.191
X91.388Y151.387
X91.191Y151.561
X90.98Y151.703
X90.762Y151.812
X90.538Y151.89
X90.295Y151.94
X90Y151.96
X89.704Y151.94
X89.461Y151.89
X89.237Y151.812
X89.019Y151.703
X88.808Y151.561
X88.612Y151.387
X88.438Y151.191
X88.296Y150.98
X88.187Y150.762
X88.109Y150.538
X88.059Y150.295
X88.039Y150
X88.059Y149.704
X88.109Y149.461
X87.142Y149.196
X87.264Y148.847
X87.431Y148.513
X87.646Y148.196
X87.903Y147.903
X88.196Y147.645
X88.513Y147.431
X88.847Y147.264
X89.196Y147.142
X89.57Y147.066
X89.999Y147.037
X90.429Y147.066
X90.803Y147.142
X91.153Y147.264
X91.486Y147.431
X91.803Y147.646
X92.096Y147.903
X92.354Y148.196
X92.568Y148.513
X92.735Y148.847
X92.857Y149.195
X92.933Y149.57
X92.962Y149.999
X92.933Y150.429
X92.857Y150.803
X92.735Y151.152
X92.568Y151.486
X92.353Y151.803
X92.096Y152.096
X91.803Y152.354
X91.486Y152.568
X91.152Y152.735
X90.803Y152.857
X90.429Y152.933
X90Y152.962
X89.57Y152.933
X89.196Y152.857
