(Created with grbl post processor 2024/09/04 22:57)
G21
(G-code Generated with BlenderCAM and NC library)
G17G90
(Tool: D = 3.0 mm  type END flutes 2)
S12000M03
G00 Z10.0

G0X0Y0Z10
X100.999Y102
G1Z-0.1F500
Y100.999Z-0.677
X100.354Z-1.05F1000
X100.999Z-1.422
Y102Z-2F500
Y100.999F1000
X99
Y99
X103.999
Y103.999
X98.999
X98.733Z-5.1F500
X96F1000
Y98.246
Y98Z-2.501
Y97.5Z-2
Y96
X106.999
Y106.999
X98.999
X98.733Z-5.1F500
X93F1000
Y95.27
Y95Z-2
Y93
X109.999
Y109.999
X98.499
X98.233Z-5.1F500
X90F1000
Y94.273
Y94Z-2
Y90
X112.999
Y98
Y98.255Z-5.1F500
Y112.999F1000
X112.51
X111.999Z-2
X96.999
X96.732Z-5.1F500
X87F1000
Y93.775
Y93.5Z-2
Y87
X115.999
Y95.5
Y95.752Z-5.1F500
Y115.999F1000
X115.505
X115Z-2
X93.999
X93.729Z-5.1F500
X84F1000
Y93.778
Y93.5Z-2
Y84
X118.999
Y94
Y94.25Z-5.1F500
Y117.749F1000
Y118Z-2
Y118.999
X81
Y117.5
Y117.218Z-5.1F500
Y94.781F1000
Y94.5Z-2
Y81
X121.999
Y93.5
Y93.748Z-5.1F500
Y118.251F1000
Y118.5Z-2
Y121.999
X78
Y115.5
Y115.216Z-5.1F500
Y96.783F1000
Y96.5Z-2
Y78
X125
Y93.5
Y93.746Z-5.1F500
Y118.253F1000
Y118.5Z-2
Y125
X75
Y111.5
Y111.213Z-5.1F500
Y100.786F1000
Y100.5Z-2
Y75
X127.999
Y94.5
Y94.744Z-5.1F500
Y117.255F1000
Y117.5Z-2
Y127.999
X72
Y72
X130.999
Y96.5
Y96.742Z-5.1F500
Y115.257F1000
Y115.5Z-2
Y130.999
X69
Y69
X134
Y100
Y100.5Z-3.952F500
Y100.627Z-5.1
Y111.372F1000
Y111.5Z-3.951
Y112Z-2
Y134
X66
Y66
X136.999
Y136.999
X63
Y63
X140
Y140
X60
Y113.5
Y113.198Z-5.1F500
Y98.801F1000
Y98.5Z-2
Y60
X78.499
X78.782Z-5.1F500
X93.729F1000
X93.999Z-2
X115
X115.253Z-5.1F500
X130.256F1000
X130.5Z-2
X142.999
Y142.999
X57
Y116.5
Y116.195Z-5.1F500
Y95.804F1000
Y95.5Z-2
Y60.5
Y60.195Z-5.1F500
Y57F1000
X60.198
X60.499Z-2
X75.999
X76.285Z-5.1F500
X96.732F1000
X96.999Z-2
X111.999
X112.255Z-5.1F500
X133.258F1000
X133.499Z-2
X145.999
Y145.999
X54
Y118
Y117.692Z-5.1F500
Y94.307F1000
Y94Z-2
Y62
Y61.692Z-5.1F500
Y54F1000
X61.7
X61.999Z-2
X74.499
X74.786Z-5.1F500
X98.233F1000
X98.499Z-2
X110.5
X110.756Z-5.1F500
X134.759F1000
X135Z-2
X147
X147.232Z-5.1F500
X149F1000
Y57.268
Y57.5Z-2
Y98.5
Y98.731Z-5.1F500
Y113.268F1000
Y113.5Z-2
Y149
X51
Y118.5
Y118.189Z-5.1F500
Y93.81F1000
Y93.5Z-2
Y62.5
Y62.189Z-5.1F500
Y51F1000
X62.201
X62.499Z-2
X73.5
X73.787Z-5.1F500
X98.733F1000
X98.999Z-2
X109.999
X110.257Z-5.1F500
X135.26F1000
X135.499Z-2
X146.5
X146.732Z-5.1F500
X151.999F1000
Y60.27
Y60.5Z-2
Y95.5
Y95.729Z-5.1F500
Y116.27F1000
Y116.5Z-2
Y151.5
Y151.729Z-5.1F500
Y151.999F1000
X151.458
X151Z-2
X130.5
X130.256Z-5.1F500
X115.253F1000
X115Z-2
X93.999
X93.729Z-5.1F500
X78.782F1000
X78.499Z-2
X57.499
X57.195Z-5.1F500
X48F1000
Y149.813
Y149.5Z-2
Y118.5
Y118.186Z-5.1F500
Y93.813F1000
Y93.5Z-2
Y62.5
Y62.186Z-5.1F500
Y48F1000
X62.201
X62.499Z-2
X73.999
X74.286Z-5.1F500
X98.733F1000
X98.999Z-2
X109.999
X110.257Z-5.1F500
X135.26F1000
X135.499Z-2
X146.5
X146.732Z-5.1F500
X155F1000
Y61.772
Y62Z-2
Y94
Y94.227Z-5.1F500
Y117.772F1000
Y118Z-2
Y150
Y150.227Z-5.1F500
Y155F1000
X148.731
X148.499Z-2
X133.499
X133.258Z-5.1F500
X112.255F1000
X111.999Z-2
X96.999
X96.732Z-5.1F500
X76.285F1000
X75.999Z-2
X60.499
X60.198Z-5.1F500
X45F1000
Y150.817
Y150.5Z-2
Y117.5
Y117.182Z-5.1F500
Y94.817F1000
Y94.5Z-2
Y61.5
Y61.182Z-5.1F500
Y45F1000
X61.199
X61.499Z-2
X74.499
X74.786Z-5.1F500
X97.732F1000
X97.999Z-2
X111
X111.256Z-5.1F500
X134.259F1000
X134.499Z-2
X147.499
X147.731Z-5.1F500
X157.999F1000
Y62.274
Y62.5Z-2
Y93.5
Y93.725Z-5.1F500
Y118.274F1000
Y118.5Z-2
Y149.5
Y149.725Z-5.1F500
Y157.999F1000
X147.232
X147Z-2
X135
X134.759Z-5.1F500
X110.756F1000
X110.5Z-2
X98.499
X98.233Z-5.1F500
X74.786F1000
X74.499Z-2
X61.999
X61.7Z-5.1F500
X42F1000
Y152.32
Y152Z-2
Y116
Y115.679Z-5.1F500
Y96.32F1000
Y96Z-2
Y60
Y59.679Z-5.1F500
Y42F1000
X59.698
X59.999Z-2
X76.499
X76.784Z-5.1F500
X95.753F1000
X96Z-2.502
X96.499Z-2
X112.999
X113.254Z-5.1F500
X132.258F1000
X132.499Z-2
X149.499
X149.73Z-5.1F500
X160.999F1000
Y62.275
Y62.5Z-2
Y93.5
Y93.724Z-5.1F500
Y118.275F1000
Y118.5Z-2
Y149.5
Y149.724Z-5.1F500
Y160.999F1000
X146.732
X146.5Z-2
X135.499
X135.26Z-5.1F500
X110.257F1000
X109.999Z-2
X98.999
X98.733Z-5.1F500
X73.787F1000
X73.5Z-2
X62.499
X62.201Z-5.1F500
X39F1000
Y156.324
Y156Z-2
Y112
Y111.675Z-5.1F500
Y100.324F1000
Y100Z-2
Y56
Y55.675Z-5.1F500
Y44.324F1000
Y44Z-2
Y39
X43.999
X44.317Z-5.1F500
X55.694F1000
X55.999Z-2
X79.999
X80.281Z-5.1F500
X92.228F1000
X92.5Z-2
X116.499
X116.752Z-5.1F500
X128.755F1000
X128.999Z-2
X152.999
X153.228Z-5.1F500
X164F1000
Y61.752
Y62Z-2
Y94
Y94.247Z-5.1F500
Y117.752F1000
Y118Z-2
Y150
Y150.247Z-5.1F500
Y164F1000
X146.732
X146.5Z-2
X135.499
X135.26Z-5.1F500
X110.257F1000
X109.999Z-2
X98.999
X98.733Z-5.1F500
X74.286F1000
X73.999Z-2
X62.499
X62.201Z-5.1F500
X37.825F1000
X37.499Z-2
X36
Y36
X166.999
Y40
Y40.22Z-5.1F500
Y59.779F1000
Y60Z-2
Y96
Y96.22Z-5.1F500
Y115.779F1000
Y116Z-2
Y152
Y152.22Z-5.1F500
Y166.999F1000
X147.731
X147.499Z-2
X134.499
X134.259Z-5.1F500
X111.256F1000
X111Z-2
X97.999
X97.732Z-5.1F500
X74.786F1000
X74.499Z-2
X61.499
X61.199Z-5.1F500
X38.824F1000
X38.499Z-2
X33
Y33
X170
Y43.5
Y43.719Z-5.1F500
Y56.28F1000
Y56.5Z-2
Y99.5
Y99.719Z-5.1F500
Y112.28F1000
Y112.5Z-2
Y155.5
Y155.719Z-5.1F500
Y168.28F1000
Y168.5Z-2
Y170
X169
X168.779Z-5.1F500
X149.73F1000
X149.499Z-2
X132.499
X132.258Z-5.1F500
X113.254F1000
X112.999Z-2
X96.499
X96Z-2.502F500
X95.753Z-5.1
X76.784F1000
X76.499Z-2
X59.999
X59.698Z-5.1F500
X40.322F1000
X39.999Z-2
X30
Y30
X173
Y173
X165.5
X165.278Z-5.1F500
X153.228F1000
X152.999Z-2
X128.999
X128.755Z-5.1F500
X116.752F1000
X116.499Z-2
X92.5
X92.228Z-5.1F500
X80.281F1000
X79.999Z-2
X55.999
X55.694Z-5.1F500
X44.317F1000
X43.999Z-2
X27
Y27
X175.999
Y175.999
X24
Y24
X179
Y179
X21
Y21
X181.999
Y181.999
X18
Y18
X185
Y185
X15
Y15
X188
Y188
X12
Y12
X191
Y191
X9
Y9
X194
Y194
X6
Y6
X196.999
Y196.999
X3
Y3
X198.5
X196.854Z-1.05
X198.5Z-0.1
G0Z10
X96.732Y112.999
G1Z-5.1F500
X96.499Z-7.786
X87Z-7.62F1000
Y94
Y93.775Z-5.1
Y98.105Z-2.6
Y93.775Z-0.1
G0Z10
X125Y93.746
G1Z-5.1F500
Y94Z-8.283
Y118F1000
Y118.253Z-5.1
Y113.923Z-2.6
Y118.253Z-0.1
G0Z10
X134Y100.627
G1Z-5.1F500
Y101Z-8.44
Y111F1000
Y111.372Z-5.1
Y107.041Z-2.6
Y111.372Z-0.1
G0Z10
X60Y113.198
G1Z-5.1F500
Y113Z-7.149
Y99F1000
Y98.801Z-5.1
Y103.131Z-2.6
Y98.801Z-0.1
G0Z10
X76.285Y57
G1Z-5.1F500
X76.499Z-7.437
X96.499Z-7.786F1000
X96.732Z-5.1
X92.401Z-2.6
X96.732Z-0.1
G0Z10
X112.255
G1Z-5.1F500
X112.499Z-8.065
X133Z-8.423F1000
X133.258Z-5.1
X128.928Z-2.6
X133.258Z-0.1
G0Z10
X149Y98.731
G1Z-5.1F500
Y99Z-8.702
Y113F1000
Y113.268Z-5.1
Y108.938Z-2.6
Y113.268Z-0.1
G0Z10
X48Y118.186
G1Z-5.1F500
Y118Z-6.939
Y94F1000
Y93.813Z-5.1
Y98.143Z-2.6
Y93.813Z-0.1
G0Z10
Y62.186
G1Z-5.1F500
Y62Z-6.939
Y48F1000
X61.999Z-7.184
X62.201Z-5.1
X57.87Z-2.6
X62.201Z-0.1
G0Z10
X96.732Y155
G1Z-5.1F500
X96.499Z-7.786
X76.499Z-7.437F1000
X76.285Z-5.1
X80.615Z-2.6
X76.285Z-0.1
G0Z10
X60.198
G1Z-5.1F500
X59.999Z-7.149
X45Z-6.887F1000
Y151
Y150.817Z-5.1
Y155Z-2.685
X45.147Z-2.6
X45Z-2.514
Y150.817Z-0.1
G0Z10
Y117.182
G1Z-5.1F500
Y117Z-6.887
Y95F1000
Y94.817Z-5.1
Y99.147Z-2.6
Y94.817Z-0.1
G0Z10
Y61.182
G1Z-5.1F500
Y61Z-6.887
Y45F1000
X60.999Z-7.166
X61.199Z-5.1
X56.869Z-2.6
X61.199Z-0.1
G0Z10
X147.731
G1Z-5.1F500
X148Z-8.685
X157.999Z-8.859F1000
Y62
Y62.274Z-5.1
Y57.943Z-2.6
Y62.274Z-0.1
G0Z10
X80.281Y39
G1Z-5.1F500
X80.499Z-7.506
X92Z-7.707F1000
X92.228Z-5.1
X87.898Z-2.6
X92.228Z-0.1
G0Z10
X97.732Y166.999
G1Z-5.1F500
X97.499Z-7.803
X74.999Z-7.41F1000
X74.786Z-5.1
X79.116Z-2.6
X74.786Z-0.1
G0Z10
X61.199
G1Z-5.1F500
X60.999Z-7.166
X38.999Z-6.782F1000
X38.824Z-5.1
X43.154Z-2.6
X38.824Z-0.1
G0Z10
X170Y43.719
G1Z-5.1F500
Y44Z-9.069
Y56F1000
Y56.28Z-5.1
Y51.95Z-2.6
Y56.28Z-0.1
G0Z10
Y99.719
G1Z-5.1F500
Y100Z-9.069
Y112F1000
Y112.28Z-5.1
Y107.95Z-2.6
Y112.28Z-0.1
G0Z10
Y155.719
G1Z-5.1F500
Y156Z-9.069
Y168F1000
Y168.28Z-5.1
Y163.95Z-2.6
Y168.28Z-0.1
G0Z10
X132.258Y170
G1Z-5.1F500
X131.999Z-8.405
X113.499Z-8.082F1000
X113.254Z-5.1
X117.584Z-2.6
X113.254Z-0.1
G0Z10
X59.698
G1Z-5.1F500
X59.499Z-7.14
X40.499Z-6.808F1000
X40.322Z-5.1
X44.652Z-2.6
X40.322Z-0.1
G0Z10
 
