(Created with grbl post processor 2024/12/13 12:46)
G21
(G-code Generated with Fabex and NC library)
G17G90
(Tool: D = 3.0 mm  type END flutes 2)
S12000M03
G00 Z10.0

G0X0Y0Z10
X100Y100
G1Z0F500
X98.999Z-0.577
X99.019Y99.801Z-0.692F1000
X99.078Y99.61Z-0.807F500
X99.174Y99.435Z-0.923
X99.26Y99.333Z-1F1000
X99.174Y99.435Z-1.076
X99.078Y99.61Z-1.192F500
X99.019Y99.801Z-1.307
X98.999Y100Z-1.422
X100Z-2F1000
X98.999
X99.019Y99.801
X99.078Y99.61
X99.174Y99.435
X99.303Y99.282
X99.459Y99.158
X99.637Y99.067
X99.83Y99.014
X100.029Y99
X100.227Y99.026
X100.416Y99.09
X100.588Y99.191
X100.737Y99.324
X100.856Y99.484
X100.942Y99.665
X100.989Y99.858
X100.998Y100.058
X100.966Y100.255
X100.896Y100.442
X100.79Y100.611
X100.653Y100.756
X100.49Y100.871
X100.307Y100.951
X100.112Y100.993
X99.912Y100.996
X99.716Y100.958
X99.531Y100.883
X99.365Y100.772
X99.224Y100.631
X99.114Y100.464
X99.039Y100.279
X98.999Y100
X98
X98.009Y99.8
X98.039Y99.602
X98.089Y99.408
X98.157Y99.221
X98.244Y99.041
X98.349Y98.87
X98.47Y98.711
X98.606Y98.565
X98.756Y98.433
X98.919Y98.317
X99.092Y98.217
X99.275Y98.135
X99.465Y98.072
X99.66Y98.029
X99.858Y98.005
X100.058Y98
X100.257Y98.016
X100.454Y98.052
X100.646Y98.107
X100.832Y98.181
X101.009Y98.273
X101.177Y98.383
X101.332Y98.508
X101.474Y98.649
X101.602Y98.803
X101.713Y98.968
X101.808Y99.145
X101.884Y99.33
X101.941Y99.521
X101.979Y99.717
X101.998Y99.916
X101.996Y100.116
X101.974Y100.315
X101.933Y100.511
X101.872Y100.701
X101.793Y100.885
X101.696Y101.059
X101.581Y101.223
X101.451Y101.375
X101.307Y101.513
X101.149Y101.636
X100.98Y101.743
X100.801Y101.832
X100.614Y101.903
X100.421Y101.955
X100.224Y101.987
X100.024Y101.999
X99.825Y101.992
X99.626Y101.964
X99.432Y101.917
X99.244Y101.851
X99.062Y101.766
X98.891Y101.664
X98.73Y101.545
X98.582Y101.411
X98.448Y101.262
X98.33Y101.101
X98.228Y100.929
X98.145Y100.747
X98.079Y100.558
X98.033Y100.364
X98Y100
X97.4
X97.296Z-5F500
X97F1000
X97.006Y99.8
X97.026Y99.601
X97.042Y99.506
X97.059Y99.403Z-2
X97.106Y99.209
X97.165Y99.018
X97.236Y98.831
X97.32Y98.65
X97.416Y98.474
X97.523Y98.306
X97.642Y98.144
X97.771Y97.991
X97.909Y97.847
X98.057Y97.713
X98.214Y97.589
X98.379Y97.475
X98.55Y97.373
X98.729Y97.282
X98.912Y97.203
X99.101Y97.137
X99.294Y97.084
X99.49Y97.043
X99.688Y97.016
X99.887Y97.002
X100.087Y97.001
X100.287Y97.013
X100.485Y97.039
X100.681Y97.078
X100.874Y97.13
X101.063Y97.194
X101.248Y97.272
X101.427Y97.361
X101.6Y97.462
X101.765Y97.574
X101.923Y97.697
X102.072Y97.83
X102.212Y97.973
X102.342Y98.125
X102.461Y98.285
X102.57Y98.453
X102.667Y98.628
X102.753Y98.808
X102.826Y98.995
X102.887Y99.185
X102.935Y99.379
X102.969Y99.576
X102.991Y99.775
X102.999Y99.975
X102.994Y100.175
X102.976Y100.374
X102.945Y100.571
X102.9Y100.766
X102.842Y100.958
X102.772Y101.145
X102.69Y101.327
X102.595Y101.503
X102.489Y101.673
X102.372Y101.835
X102.245Y101.989
X102.107Y102.134
X101.96Y102.27
X101.805Y102.395
X101.641Y102.51
X101.47Y102.614
X101.293Y102.706
X101.11Y102.787
X100.922Y102.854
X100.729Y102.909
X100.534Y102.952
X100.336Y102.981
X100.137Y102.996
X99.937Y102.999
X99.737Y102.988
X99.539Y102.964
X99.342Y102.927
X99.149Y102.876
X98.959Y102.813
X98.774Y102.738
X98.594Y102.65
X98.421Y102.55
X98.335Y102.493Z-5F500
X98.254Y102.439F1000
X98.095Y102.318
X97.945Y102.186
X97.804Y102.044
X97.673Y101.893
X97.552Y101.734
X97.442Y101.567
X97.343Y101.393
X97.256Y101.213
X97.181Y101.028
X97.119Y100.838
X97.07Y100.644
X97.033Y100.447
X97.01Y100.249
X97Y100
X96
X96.005Y99.8
X96.019Y99.6
X96.044Y99.402
X96.079Y99.205
X96.124Y99.01
X96.178Y98.817
X96.242Y98.628
X96.305Y98.469
X96.315Y98.442Z-4.523
X96.398Y98.26Z-2
X96.489Y98.082
X96.589Y97.909
X96.698Y97.741
X96.815Y97.579
X96.94Y97.423
X97.073Y97.273
X97.213Y97.13
X97.36Y96.994
X97.513Y96.866
X97.673Y96.746
X97.838Y96.634
X98.009Y96.53
X98.185Y96.435
X98.366Y96.348
X98.55Y96.271
X98.738Y96.204
X98.93Y96.145
X99.123Y96.097
X99.32Y96.058
X99.517Y96.029
X99.717Y96.01
X99.916Y96
X100.116Y96.001
X100.316Y96.012
X100.515Y96.033
X100.712Y96.064
X100.908Y96.104
X101.102Y96.154
X101.293Y96.214
X101.48Y96.284
X101.664Y96.362
X101.844Y96.45
X102.019Y96.547
X102.189Y96.652
X102.354Y96.766
X102.512Y96.887
X102.665Y97.017
X102.81Y97.154
X102.949Y97.298
X103.08Y97.448
X103.204Y97.606
X103.32Y97.769
X103.427Y97.937
X103.526Y98.111
X103.616Y98.29
X103.697Y98.473
X103.768Y98.66
X103.831Y98.85
X103.883Y99.043
X103.926Y99.238
X103.959Y99.435
X103.983Y99.634
X103.996Y99.833
X103.999Y100.033
X103.993Y100.233
X103.976Y100.432
X103.949Y100.63
X103.913Y100.827
X103.867Y101.022
X103.811Y101.214
X103.745Y101.403
X103.671Y101.588
X103.587Y101.77
X103.494Y101.947
X103.392Y102.119
X103.282Y102.286
X103.163Y102.447
X103.037Y102.602
X102.903Y102.751
X102.762Y102.892
X102.614Y103.027
X102.46Y103.154
X102.299Y103.273
X102.132Y103.383
X101.961Y103.486
X101.784Y103.579
X101.603Y103.664
X101.418Y103.74
X101.229Y103.806
X101.037Y103.863
X100.843Y103.91
X100.646Y103.947
X100.448Y103.974
X100.249Y103.992
X100.049Y103.999
X99.849Y103.997
X99.65Y103.984
X99.451Y103.962
X99.253Y103.929
X99.058Y103.887
X98.865Y103.835
X98.675Y103.774Z-3.653F500
X98.614Y103.751Z-5
X98.488Y103.703F1000
X98.304Y103.623
X98.125Y103.533
X97.951Y103.435
X97.782Y103.329
X97.618Y103.214
X97.461Y103.091
X97.309Y102.96
X97.165Y102.822
X97.027Y102.676
X96.897Y102.525
X96.775Y102.366
X96.661Y102.202
X96.555Y102.033
X96.457Y101.858
X96.369Y101.679
X96.29Y101.495
X96.219Y101.308
X96.159Y101.117
X96.108Y100.924
X96.066Y100.728
X96.035Y100.531
X96.013Y100.332
X96Y100
X94.999
X95.004Y99.8
X95.015Y99.6
X95.035Y99.401
X95.063Y99.203
X95.099Y99.006
X95.143Y98.811
X95.194Y98.618
X95.253Y98.427
X95.32Y98.238
X95.394Y98.052
X95.476Y97.87
X95.565Y97.691
X95.611Y97.606
X95.66Y97.515Z-2
X95.763Y97.344
X95.873Y97.176
X95.989Y97.014
X96.112Y96.856
X96.24Y96.703
X96.375Y96.555
X96.516Y96.413
X96.662Y96.276
X96.814Y96.146
X96.97Y96.021
X97.132Y95.904
X97.298Y95.792
X97.468Y95.687
X97.643Y95.59
X97.821Y95.499
X98.003Y95.415
X98.188Y95.339
X98.376Y95.271
X98.566Y95.209
X98.759Y95.156
X98.953Y95.11
X99.15Y95.072
X99.347Y95.042
X99.546Y95.02
X99.746Y95.006
X99.946Y95
X100.145Y95.002
X100.345Y95.011
X100.544Y95.029
X100.743Y95.055
X100.94Y95.089
X101.136Y95.13
X101.329Y95.18
X101.521Y95.237
X101.71Y95.301
X101.897Y95.373
X102.08Y95.453
X102.26Y95.54
X102.437Y95.634
X102.61Y95.735
X102.778Y95.843
X102.942Y95.957
X103.101Y96.078
X103.256Y96.205
X103.405Y96.338
X103.548Y96.477
X103.686Y96.622
X103.819Y96.772
X103.945Y96.928
X104.064Y97.088
X104.177Y97.253
X104.284Y97.422
X104.384Y97.595
X104.476Y97.773
X104.562Y97.953
X104.64Y98.138
X104.711Y98.325
X104.774Y98.514
X104.829Y98.706
X104.877Y98.901
X104.917Y99.097
X104.949Y99.294
X104.974Y99.492
X104.99Y99.692
X104.998Y99.892
X104.999Y100.092
X104.991Y100.291
X104.975Y100.491
X104.952Y100.689
X104.92Y100.887
X104.881Y101.083
X104.833Y101.277
X104.779Y101.469
X104.716Y101.659
X104.646Y101.847
X104.568Y102.031
X104.483Y102.212
X104.391Y102.39
X104.292Y102.563
X104.186Y102.733
X104.074Y102.898
X103.954Y103.059
X103.829Y103.214
X103.697Y103.365
X103.56Y103.51
X103.416Y103.65
X103.268Y103.784
X103.114Y103.911
X102.955Y104.033
X102.791Y104.148
X102.623Y104.256
X102.451Y104.357
X102.275Y104.452
X102.095Y104.539
X101.911Y104.619
X101.725Y104.692
X101.536Y104.758
X101.345Y104.815
X101.151Y104.865
X100.956Y104.907
X100.759Y104.942
X100.56Y104.968
X100.361Y104.986
X100.161Y104.997
X99.961Y104.999
X99.762Y104.994
X99.562Y104.98
X99.363Y104.959
X99.165Y104.929
X98.969Y104.892
X98.838Y104.862Z-5F500
X98.774Y104.847F1000
X98.581Y104.794
X98.391Y104.734
X98.203Y104.665
X98.017Y104.59
X97.835Y104.507
X97.657Y104.417
X97.482Y104.32
X97.311Y104.215
X97.145Y104.105
X96.983Y103.987
X96.826Y103.863
X96.674Y103.733
X96.527Y103.597
X96.386Y103.456
X96.251Y103.308
X96.122Y103.156
X95.999Y102.998
X95.882Y102.836
X95.772Y102.669
X95.668Y102.498
X95.572Y102.323
X95.483Y102.144
X95.4Y101.961
X95.326Y101.776
X95.258Y101.587
X95.199Y101.397
X95.147Y101.203
X95.102Y101.008
X95.066Y100.812
X95.037Y100.614
X95.017Y100.415
X95.004Y100.215
X94.999Y100
X94
X94.003Y99.8
X94.013Y99.6
X94.029Y99.401
X94.053Y99.202
X94.083Y99.004
X94.119Y98.807
X94.162Y98.612
X94.212Y98.418
X94.267Y98.226
X94.33Y98.036
X94.398Y97.848
X94.473Y97.663
X94.554Y97.48
X94.641Y97.3
X94.734Y97.123
X94.833Y96.949
X94.883Y96.867
X94.937Y96.779Z-2
X95.047Y96.612
X95.163Y96.448
X95.284Y96.289
X95.41Y96.134
X95.542Y95.983
X95.678Y95.837
X95.819Y95.695
X95.965Y95.558
X96.115Y95.426
X96.27Y95.3
X96.429Y95.178
X96.591Y95.062
X96.758Y94.951
X96.928Y94.845
X97.101Y94.746
X97.278Y94.652
X97.458Y94.565
X97.64Y94.483
X97.825Y94.407
X98.013Y94.338
X98.203Y94.275
X98.395Y94.218
X98.588Y94.168
X98.783Y94.124
X98.98Y94.087
X99.177Y94.056
X99.376Y94.032
X99.575Y94.015
X99.775Y94.004
X99.975Y94
X100.175Y94.002
X100.374Y94.011
X100.574Y94.027
X100.773Y94.05
X100.97Y94.079
X101.167Y94.114
X101.363Y94.156
X101.557Y94.205
X101.749Y94.26
X101.939Y94.322
X102.127Y94.39
X102.313Y94.464
X102.496Y94.544
X102.677Y94.63
X102.854Y94.722
X103.029Y94.82
X103.2Y94.924
X103.367Y95.034
X103.531Y95.149
X103.69Y95.269
X103.846Y95.395
X103.997Y95.525
X104.144Y95.661
X104.286Y95.802
X104.424Y95.947
X104.556Y96.096
X104.684Y96.25
X104.806Y96.409
X104.923Y96.571
X105.035Y96.737
X105.141Y96.906
X105.241Y97.08
X105.335Y97.256
X105.424Y97.435
X105.506Y97.617
X105.583Y97.802
X105.653Y97.99
X105.717Y98.179
X105.774Y98.371
X105.825Y98.564
X105.87Y98.759
X105.908Y98.955
X105.939Y99.153
X105.964Y99.351
X105.983Y99.55
X105.994Y99.75
X105.999Y99.95
X105.998Y100.15
X105.989Y100.35
X105.974Y100.549
X105.953Y100.748
X105.924Y100.946
X105.89Y101.143
X105.848Y101.339
X105.8Y101.533
X105.746Y101.725
X105.685Y101.916
X105.618Y102.104
X105.545Y102.29
X105.466Y102.474
X105.38Y102.655
X105.289Y102.832
X105.191Y103.007
X105.088Y103.179
X104.979Y103.346
X104.865Y103.51
X104.745Y103.671
X104.62Y103.827
X104.49Y103.979
X104.355Y104.126
X104.215Y104.269
X104.071Y104.407
X103.921Y104.54
X103.768Y104.668
X103.61Y104.791
X103.448Y104.909
X103.283Y105.021
X103.114Y105.128
X102.941Y105.229
X102.765Y105.324
X102.586Y105.413
X102.404Y105.496
X102.22Y105.574
X102.033Y105.644
X101.843Y105.709
X101.652Y105.767
X101.459Y105.819
X101.264Y105.865
X101.068Y105.904
X100.871Y105.936
X100.672Y105.962
X100.473Y105.981
X100.274Y105.993
X100.074Y105.999
X99.874Y105.998
X99.674Y105.991
X99.475Y105.976
X99.276Y105.956
X99.078Y105.928
X98.88Y105.894Z-3.358F500
X98.808Y105.879Z-5
X98.685Y105.854F1000
X98.49Y105.807
X98.298Y105.753
X98.107Y105.693
X97.918Y105.627
X97.732Y105.554
X97.548Y105.476
X97.367Y105.391
X97.188Y105.3
X97.013Y105.204
X96.842Y105.101
X96.673Y104.993
X96.509Y104.879
X96.348Y104.76
X96.191Y104.636
X96.039Y104.507
X95.891Y104.372
X95.747Y104.233
X95.609Y104.089
X95.475Y103.94
X95.346Y103.787
X95.222Y103.63
X95.104Y103.469
X94.991Y103.304
X94.884Y103.135
X94.782Y102.963
X94.686Y102.787
X94.596Y102.608
X94.512Y102.427
X94.435Y102.243
X94.363Y102.056
X94.298Y101.867
X94.238Y101.676
X94.186Y101.483
X94.14Y101.288
X94.1Y101.092
X94.067Y100.895
X94.04Y100.697
X94.02Y100.498
X94.007Y100.298
X94Y100
X93
X93.002Y99.8
X93.011Y99.6
X93.025Y99.4
X93.045Y99.201
X93.071Y99.003
X93.102Y98.805
X93.139Y98.609
X93.182Y98.413
X93.23Y98.219
X93.283Y98.027
X93.342Y97.836
X93.407Y97.646
X93.477Y97.459
X93.552Y97.274
X93.633Y97.09
X93.718Y96.91
X93.809Y96.732
X93.905Y96.556
X94.006Y96.383
X94.112Y96.214
X94.135Y96.179
X94.222Y96.047Z-2
X94.337Y95.884
X94.457Y95.724
X94.582Y95.567
X94.711Y95.414
X94.844Y95.265
X94.981Y95.119
X95.123Y94.978
X95.268Y94.841
X95.417Y94.708
X95.57Y94.579
X95.727Y94.455
X95.887Y94.335
X96.051Y94.22
X96.217Y94.109
X96.387Y94.004
X96.56Y93.903
X96.736Y93.807
X96.914Y93.716
X97.095Y93.631
X97.278Y93.55
X97.463Y93.475
X97.65Y93.405
X97.84Y93.341
X98.031Y93.282
X98.224Y93.229
X98.418Y93.181
X98.613Y93.138
X98.81Y93.101
X99.007Y93.07
X99.206Y93.045
X99.405Y93.025
X99.604Y93.011
X99.804Y93.002
X100.004Y92.999
X100.204Y93.002
X100.404Y93.011
X100.603Y93.026
X100.802Y93.046
X101Y93.071
X101.198Y93.103
X101.395Y93.14
X101.59Y93.183
X101.784Y93.231
X101.977Y93.285
X102.168Y93.344
X102.357Y93.408
X102.544Y93.478
X102.73Y93.554
X102.913Y93.634
X103.093Y93.72
X103.271Y93.811
X103.447Y93.907
X103.619Y94.008
X103.789Y94.114
X103.956Y94.225
X104.119Y94.34
X104.279Y94.46
X104.436Y94.585
X104.588Y94.713
X104.738Y94.847
X104.883Y94.984
X105.024Y95.126
X105.161Y95.271
X105.294Y95.421
X105.423Y95.574
X105.547Y95.73
X105.667Y95.891
X105.782Y96.054
X105.892Y96.221
X105.998Y96.391
X106.098Y96.564
X106.194Y96.739
X106.285Y96.918
X106.37Y97.099
X106.45Y97.282
X106.525Y97.467
X106.595Y97.655
X106.659Y97.844
X106.718Y98.035
X106.772Y98.228
X106.819Y98.422
X106.862Y98.617
X106.898Y98.814
X106.929Y99.012
X106.955Y99.21
X106.975Y99.409
X106.989Y99.609
X106.997Y99.808
X107Y100.008
X106.996Y100.208
X106.988Y100.408
X106.973Y100.608
X106.953Y100.807
X106.927Y101.005
X106.895Y101.202
X106.858Y101.399
X106.815Y101.594
X106.767Y101.788
X106.713Y101.981
X106.654Y102.172
X106.589Y102.361
X106.519Y102.548
X106.444Y102.734
X106.363Y102.917
X106.277Y103.097
X106.186Y103.275
X106.09Y103.451
X105.989Y103.623
X105.883Y103.793
X105.772Y103.959
X105.656Y104.123
X105.536Y104.283
X105.412Y104.439
X105.283Y104.592
X105.149Y104.741
X105.012Y104.886
X104.87Y105.027
X104.724Y105.164
X104.575Y105.297
X104.422Y105.426
X104.265Y105.55
X104.105Y105.669
X103.941Y105.784
X103.774Y105.895
X103.604Y106
X103.431Y106.101
X103.256Y106.196
X103.077Y106.287
X102.896Y106.372
X102.713Y106.452
X102.528Y106.527
X102.34Y106.597
X102.151Y106.661
X101.96Y106.719
X101.767Y106.773
X101.573Y106.82
X101.377Y106.863
X101.181Y106.899
X100.983Y106.93
X100.785Y106.955
X100.586Y106.975
X100.386Y106.989
X100.186Y106.997
X99.986Y107
X99.786Y106.996
X99.586Y106.987
X99.387Y106.973
X99.188Y106.952
X98.99Y106.926
X98.858Y106.905Z-5F500
X98.792Y106.895F1000
X98.596Y106.857
X98.4Y106.814
X98.206Y106.766
X98.014Y106.712
X97.823Y106.653
X97.634Y106.588
X97.447Y106.517
X97.261Y106.442
X97.078Y106.361
X96.898Y106.275
X96.72Y106.184
X96.545Y106.087
X96.372Y105.986
X96.202Y105.88
X96.036Y105.769
X95.873Y105.654
X95.713Y105.534
X95.557Y105.409
X95.404Y105.28
X95.255Y105.146
X95.11Y105.009
X94.969Y104.867
X94.832Y104.721
X94.699Y104.572
X94.571Y104.418
X94.447Y104.261
X94.327Y104.101
X94.212Y103.937
X94.102Y103.77
X93.997Y103.6
X93.896Y103.427
X93.801Y103.252
X93.71Y103.073
X93.625Y102.892
X93.545Y102.709
X93.47Y102.524
X93.401Y102.336
X93.337Y102.147
X93.278Y101.955
X93.225Y101.763
X93.178Y101.568
X93.136Y101.373
X93.099Y101.176
X93.068Y100.979
X93.043Y100.78
X93.024Y100.581
X93.01Y100.382
X93Y100
X92
X92.002Y99.8
X92.009Y99.6
X92.022Y99.4
X92.039Y99.201
X92.062Y99.002
X92.089Y98.804
X92.122Y98.607
X92.159Y98.41
X92.201Y98.215
X92.248Y98.02
X92.3Y97.827
X92.357Y97.635
X92.418Y97.445
X92.485Y97.256
X92.555Y97.069
X92.631Y96.884
X92.711Y96.701
X92.796Y96.52
X92.885Y96.341
X92.979Y96.164
X93.077Y95.99
X93.179Y95.818
X93.286Y95.649
X93.339Y95.57
X93.397Y95.482Z-2
X93.512Y95.319
X93.631Y95.158
X93.754Y95
X93.881Y94.846
X94.012Y94.694
X94.146Y94.546
X94.284Y94.402
X94.426Y94.261
X94.571Y94.123
X94.72Y93.989
X94.872Y93.859
X95.027Y93.733
X95.185Y93.611
X95.346Y93.492
X95.51Y93.378
X95.677Y93.268
X95.847Y93.162
X96.019Y93.06
X96.194Y92.963
X96.371Y92.87
X96.55Y92.781
X96.732Y92.697
X96.915Y92.618
X97.101Y92.543
X97.288Y92.473
X97.477Y92.408
X97.667Y92.347
X97.86Y92.291
X98.053Y92.24
X98.247Y92.194
X98.443Y92.152
X98.64Y92.116
X98.837Y92.084
X99.035Y92.058
X99.234Y92.036
X99.434Y92.02
X99.633Y92.008
X99.833Y92.001
X100.033Y92
X100.233Y92.003
X100.433Y92.011
X100.632Y92.025
X100.832Y92.043
X101.03Y92.066
X101.228Y92.094
X101.425Y92.128
X101.622Y92.166
X101.817Y92.209
X102.011Y92.257
X102.204Y92.309
X102.396Y92.367
X102.586Y92.429
X102.774Y92.496
X102.961Y92.568
X103.146Y92.644
X103.329Y92.725
X103.509Y92.811
X103.688Y92.901
X103.864Y92.995
X104.038Y93.094
X104.21Y93.197
X104.378Y93.304
X104.544Y93.416
X104.708Y93.532
X104.868Y93.651
X105.025Y93.775
X105.179Y93.902
X105.33Y94.034
X105.477Y94.169
X105.621Y94.308
X105.762Y94.45
X105.899Y94.596
X106.032Y94.745
X106.161Y94.897
X106.287Y95.053
X106.409Y95.212
X106.526Y95.373
X106.64Y95.538
X106.749Y95.705
X106.855Y95.876
X106.956Y96.048
X107.052Y96.223
X107.144Y96.401
X107.232Y96.58
X107.315Y96.762
X107.394Y96.946
X107.468Y97.132
X107.537Y97.32
X107.602Y97.509
X107.662Y97.7
X107.717Y97.892
X107.767Y98.086
X107.813Y98.28
X107.853Y98.476
X107.889Y98.673
X107.919Y98.871
X107.945Y99.069
X107.966Y99.268
X107.982Y99.467
X107.993Y99.667
X107.998Y99.867
X107.999Y100.067
X107.995Y100.267
X107.986Y100.466
X107.972Y100.666
X107.953Y100.865
X107.928Y101.064
X107.899Y101.261
X107.865Y101.459
X107.826Y101.655
X107.783Y101.85
X107.734Y102.044
X107.68Y102.237
X107.622Y102.428
X107.559Y102.618
X107.491Y102.806
X107.419Y102.992
X107.342Y103.177
X107.26Y103.359
X107.174Y103.54
X107.083Y103.718
X106.988Y103.894
X106.888Y104.067
X106.784Y104.238
X106.676Y104.406
X106.564Y104.572
X106.448Y104.735
X106.327Y104.894
X106.203Y105.051
X106.075Y105.204
X105.943Y105.355
X105.807Y105.502
X105.668Y105.645
X105.525Y105.785
X105.378Y105.921
X105.229Y106.054
X105.076Y106.183
X104.92Y106.308
X104.76Y106.429
X104.598Y106.546
X104.433Y106.659
X104.265Y106.767
X104.095Y106.872
X103.922Y106.972
X103.746Y107.068
X103.568Y107.159
X103.388Y107.246
X103.206Y107.329
X103.022Y107.407
X102.836Y107.48
X102.648Y107.548
X102.458Y107.612
X102.267Y107.671
X102.075Y107.726
X101.881Y107.775
X101.686Y107.82
X101.49Y107.859
X101.293Y107.894
X101.095Y107.924
X100.897Y107.949
X100.698Y107.969
X100.498Y107.984
X100.299Y107.994
X100.099Y107.999
X99.899
X99.699Y107.994
X99.499Y107.984
X99.3Y107.969
X99.101Y107.949
X98.902Y107.924
X98.719Y107.896Z-5F500
X98.704Y107.894F1000
X98.507Y107.859
X98.311Y107.819
X98.116Y107.775
X97.923Y107.725
X97.73Y107.671
X97.539Y107.612
X97.35Y107.548
X97.162Y107.479
X96.976Y107.406
X96.791Y107.328
X96.609Y107.246
X96.429Y107.159
X96.251Y107.067
X96.076Y106.971
X95.903Y106.871
X95.732Y106.766
X95.565Y106.658
X95.399Y106.545
X95.237Y106.428
X95.078Y106.307
X94.922Y106.182
X94.769Y106.053
X94.619Y105.92
X94.473Y105.784
X94.33Y105.644
X94.191Y105.5
X94.055Y105.353
X93.923Y105.203
X93.795Y105.05
X93.671Y104.893
X93.55Y104.733
X93.434Y104.571
X93.322Y104.405
X93.214Y104.237
X93.11Y104.066
X93.011Y103.892
X92.915Y103.716
X92.825Y103.538
X92.738Y103.358
X92.657Y103.175
X92.58Y102.991
X92.507Y102.804
X92.439Y102.616
X92.376Y102.426
X92.318Y102.235
X92.265Y102.042
X92.216Y101.848
X92.172Y101.653
X92.133Y101.457
X92.099Y101.26
X92.07Y101.062
X92.046Y100.863
X92.027Y100.664
X92.013Y100.465
X92.004Y100.265
X92Y100
X90.999
X91.002Y99.8
X91.008Y99.6
X91.019Y99.4
X91.035Y99.201
X91.055Y99.002
X91.079Y98.803
X91.108Y98.605
X91.141Y98.408
X91.179Y98.211
X91.221Y98.016
X91.267Y97.821
X91.318Y97.628
X91.372Y97.436
X91.432Y97.244
X91.495Y97.055
X91.562Y96.866
X91.634Y96.68
X91.71Y96.495
X91.79Y96.311
X91.874Y96.13
X91.962Y95.95
X92.054Y95.773
X92.15Y95.597
X92.249Y95.424
X92.353Y95.253
X92.425Y95.14
X92.46Y95.084Z-3.651
X92.571Y94.918Z-2
X92.686Y94.754
X92.805Y94.593
X92.927Y94.434
X93.052Y94.278
X93.181Y94.125
X93.313Y93.975
X93.448Y93.828
X93.587Y93.684
X93.729Y93.543
X93.874Y93.406
X94.022Y93.271
X94.173Y93.14
X94.327Y93.012
X94.484Y92.888
X94.643Y92.767
X94.805Y92.65
X94.97Y92.536
X95.137Y92.426
X95.306Y92.32
X95.478Y92.218
X95.652Y92.119
X95.828Y92.024
X96.006Y91.934
X96.187Y91.847
X96.369Y91.764
X96.553Y91.686
X96.738Y91.611
X96.925Y91.541
X97.114Y91.475
X97.304Y91.413
X97.496Y91.355
X97.689Y91.301
X97.882Y91.252
X98.077Y91.207
X98.273Y91.167
X98.47Y91.13
X98.667Y91.099
X98.865Y91.071
X99.064Y91.048
X99.263Y91.03
X99.463Y91.016
X99.662Y91.006
X99.862Y91.001
X100.062Y91
X100.262Y91.003
X100.462Y91.011
X100.662Y91.024
X100.861Y91.041
X101.06Y91.062
X101.258Y91.088
X101.456Y91.118
X101.653Y91.153
X101.849Y91.192
X102.044Y91.235
X102.239Y91.282
X102.432Y91.334
X102.624Y91.391
X102.814Y91.451
X103.004Y91.516
X103.191Y91.584
X103.378Y91.657
X103.562Y91.735
X103.745Y91.816
X103.926Y91.901
X104.105Y91.99
X104.282Y92.083
X104.457Y92.181
X104.629Y92.282
X104.8Y92.386
X104.967Y92.495
X105.133Y92.607
X105.296Y92.723
X105.456Y92.842
X105.614Y92.966
X105.769Y93.092
X105.921Y93.222
X106.07Y93.355
X106.216Y93.492
X106.359Y93.631
X106.499Y93.774
X106.636Y93.92
X106.77Y94.069
X106.9Y94.221
X107.026Y94.376
X107.15Y94.533
X107.269Y94.694
X107.385Y94.857
X107.498Y95.022
X107.607Y95.19
X107.712Y95.36
X107.813Y95.532
X107.91Y95.707
X108.003Y95.884
X108.093Y96.063
X108.178Y96.244
X108.26Y96.426
X108.337Y96.611
X108.41Y96.797
X108.48Y96.985
X108.544Y97.174
X108.605Y97.364
X108.662Y97.556
X108.714Y97.749
X108.762Y97.943
X108.805Y98.139
X108.844Y98.335
X108.879Y98.532
X108.909Y98.729
X108.935Y98.928
X108.957Y99.127
X108.974Y99.326
X108.987Y99.525
X108.995Y99.725
X108.999Y99.925
Y100.125
X108.994Y100.325
X108.984Y100.525
X108.97Y100.724
X108.952Y100.924
X108.929Y101.122
X108.902Y101.32
X108.871Y101.518
X108.835Y101.715
X108.794Y101.911
X108.75Y102.105
X108.701Y102.299
X108.647Y102.492
X108.59Y102.684
X108.528Y102.874
X108.462Y103.063
X108.392Y103.25
X108.318Y103.436
X108.239Y103.62
X108.157Y103.802
X108.07Y103.982
X107.98Y104.161
X107.885Y104.337
X107.787Y104.511
X107.685Y104.683
X107.579Y104.853
X107.469Y105.02
X107.356Y105.185
X107.239Y105.347
X107.118Y105.506
X106.994Y105.663
X106.867Y105.817
X106.736Y105.968
X106.601Y106.116
X106.464Y106.262
X106.323Y106.404
X106.179Y106.543
X106.032Y106.678
X105.882Y106.811
X105.73Y106.94
X105.574Y107.065
X105.416Y107.188
X105.254Y107.306
X105.091Y107.421
X104.925Y107.532
X104.756Y107.64
X104.585Y107.744
X104.412Y107.844
X104.236Y107.94
X104.059Y108.032
X103.88Y108.12
X103.698Y108.204
X103.515Y108.285
X103.33Y108.361
X103.143Y108.433
X102.955Y108.5
X102.766Y108.564
X102.575Y108.623
X102.382Y108.678
X102.189Y108.729
X101.994Y108.776
X101.799Y108.818
X101.602Y108.856
X101.405Y108.889
X101.207Y108.918
X101.009Y108.943
X100.81Y108.963
X100.611Y108.979
X100.411Y108.99
X100.211Y108.997
X100.011Y109
X99.811Y108.998
X99.611Y108.991
X99.411Y108.98
X99.212Y108.965
X99.013Y108.945
X98.814Y108.921
X98.617Y108.893
X98.515Y108.876Z-5F500
X98.419Y108.86F1000
X98.223Y108.822
X98.027Y108.781
X97.833Y108.735
X97.639Y108.684
X97.447Y108.63
X97.255Y108.571
X97.066Y108.508
X96.877Y108.441
X96.69Y108.369
X96.505Y108.294
X96.322Y108.214
X96.14Y108.13
X95.961Y108.042
X95.783Y107.951
X95.607Y107.855
X95.434Y107.755
X95.263Y107.652
X95.094Y107.545
X94.927Y107.434
X94.763Y107.32
X94.602Y107.201
X94.443Y107.08
X94.287Y106.954
X94.134Y106.826
X93.984Y106.694
X93.837Y106.558
X93.692Y106.42
X93.551Y106.278
X93.413Y106.133
X93.279Y105.985
X93.147Y105.835
X93.019Y105.681
X92.895Y105.524
X92.774Y105.365
X92.656Y105.203
X92.543Y105.039
X92.432Y104.872
X92.326Y104.703
X92.223Y104.531
X92.125Y104.357
X92.03Y104.181
X91.939Y104.003
X91.852Y103.823
X91.769Y103.641
X91.69Y103.457
X91.615Y103.271
X91.545Y103.084
X91.478Y102.896
X91.416Y102.706
X91.358Y102.514
X91.304Y102.322
X91.255Y102.128
X91.21Y101.933
X91.169Y101.737
X91.132Y101.541
X91.1Y101.343
X91.073Y101.145
X91.049Y100.946
X91.031Y100.747
X91.016Y100.548
X91.006Y100.348
X90.999Y100
X90
X90.002Y99.8
X90.007Y99.6
X90.017Y99.4
X90.031Y99.2
X90.049Y99.001
X90.071Y98.802
X90.097Y98.604
X90.127Y98.406
X90.161Y98.209
X90.199Y98.013
X90.241Y97.817
X90.286Y97.622
X90.336Y97.429
X90.389Y97.236
X90.446Y97.044
X90.507Y96.854
X90.572Y96.665
X90.641Y96.477
X90.713Y96.29
X90.789Y96.105
X90.869Y95.922
X90.952Y95.74
X91.039Y95.56
X91.13Y95.382
X91.224Y95.205
X91.321Y95.031
X91.422Y94.858
X91.527Y94.688
X91.578Y94.608
X91.635Y94.519Z-2
X91.746Y94.353
X91.861Y94.189
X91.979Y94.028
X92.1Y93.868
X92.224Y93.712
X92.351Y93.557
X92.481Y93.406
X92.615Y93.257
X92.751Y93.11
X92.89Y92.967
X93.032Y92.826
X93.177Y92.688
X93.325Y92.553
X93.475Y92.421
X93.628Y92.292
X93.783Y92.166
X93.941Y92.043
X94.102Y91.924
X94.264Y91.808
X94.429Y91.695
X94.596Y91.585
X94.766Y91.478
X94.937Y91.375
X95.111Y91.276
X95.286Y91.18
X95.464Y91.087
X95.643Y90.998
X95.824Y90.913
X96.006Y90.831
X96.19Y90.753
X96.376Y90.679
X96.563Y90.608
X96.752Y90.542
X96.941Y90.479
X97.132Y90.419
X97.325Y90.364
X97.518Y90.312
X97.712Y90.265
X97.907Y90.221
X98.103Y90.181
X98.3Y90.145
X98.497Y90.113
X98.695Y90.085
X98.894Y90.061
X99.093Y90.041
X99.292Y90.025
X99.492Y90.012
X99.692Y90.004
X99.892Y90
X100.092
X100.291Y90.004
X100.491Y90.012
X100.691Y90.023
X100.89Y90.039
X101.089Y90.059
X101.288Y90.083
X101.486Y90.111
X101.683Y90.142
X101.88Y90.178
X102.076Y90.218
X102.272Y90.261
X102.466Y90.308
X102.659Y90.36
X102.851Y90.415
X103.043Y90.474
X103.232Y90.536
X103.421Y90.603
X103.608Y90.673
X103.794Y90.747
X103.978Y90.825
X104.161Y90.907
X104.342Y90.992
X104.521Y91.08
X104.699Y91.172
X104.874Y91.268
X105.048Y91.367
X105.22Y91.47
X105.389Y91.576
X105.557Y91.686
X105.722Y91.798
X105.885Y91.915
X106.045Y92.034
X106.203Y92.156
X106.359Y92.282
X106.512Y92.411
X106.662Y92.542
X106.81Y92.677
X106.955Y92.815
X107.097Y92.955
X107.237Y93.099
X107.373Y93.245
X107.507Y93.394
X107.638Y93.545
X107.765Y93.699
X107.89Y93.856
X108.011Y94.015
X108.129Y94.176
X108.244Y94.34
X108.355Y94.506
X108.464Y94.674
X108.568Y94.844
X108.67Y95.017
X108.768Y95.191
X108.862Y95.368
X108.953Y95.546
X109.04Y95.726
X109.124Y95.907
X109.204Y96.091
X109.28Y96.275
X109.353Y96.462
X109.422Y96.65
X109.487Y96.839
X109.548Y97.029
X109.606Y97.221
X109.659Y97.413
X109.709Y97.607
X109.755Y97.802
X109.797Y97.997
X109.835Y98.194
X109.869Y98.391
X109.899Y98.588
X109.926Y98.787
X109.948Y98.985
X109.966Y99.184
X109.981Y99.384
X109.991Y99.584
X109.997Y99.784
X110Y99.984
X109.998Y100.184
X109.992Y100.383
X109.982Y100.583
X109.969Y100.783
X109.951Y100.982
X109.93Y101.181
X109.904Y101.379
X109.874Y101.577
X109.841Y101.774
X109.803Y101.971
X109.762Y102.166
X109.717Y102.361
X109.668Y102.555
X109.614Y102.748
X109.558Y102.939
X109.497Y103.13
X109.432Y103.319
X109.364Y103.507
X109.292Y103.694
X109.216Y103.879
X109.137Y104.063
X109.054Y104.244
X108.967Y104.425
X108.877Y104.603
X108.783Y104.78
X108.686Y104.954
X108.585Y105.127
X108.481Y105.298
X108.373Y105.466
X108.262Y105.633
X108.148Y105.797
X108.03Y105.959
X107.909Y106.118
X107.785Y106.275
X107.658Y106.43
X107.528Y106.581
X107.395Y106.731
X107.259Y106.877
X107.12Y107.021
X106.978Y107.162
X106.833Y107.3
X106.686Y107.435
X106.536Y107.568
X106.383Y107.697
X106.228Y107.823
X106.07Y107.946
X105.91Y108.066
X105.748Y108.182
X105.583Y108.296
X105.416Y108.406
X105.247Y108.512
X105.075Y108.616
X104.902Y108.715
X104.727Y108.812
X104.55Y108.904
X104.371Y108.994
X104.19Y109.079
X104.008Y109.161
X103.823Y109.24
X103.638Y109.314
X103.451Y109.385
X103.263Y109.452
X103.073Y109.516
X102.882Y109.575
X102.69Y109.631
X102.497Y109.683
X102.303Y109.731
X102.107Y109.775
X101.912Y109.815
X101.715Y109.851
X101.518Y109.884
X101.32Y109.912
X101.121Y109.936
X100.922Y109.957
X100.723Y109.973
X100.523Y109.986
X100.323Y109.994
X100.123Y109.999
X99.923
X99.723Y109.996
X99.524Y109.988
X99.324Y109.977
X99.125Y109.961
X98.925Y109.942
X98.727Y109.918
X98.529Y109.891
X98.331Y109.859
X98.23Y109.841Z-5F500
X98.134Y109.824F1000
X97.938Y109.785
X97.743Y109.742
X97.549Y109.695
X97.355Y109.644
X97.163Y109.589
X96.972Y109.53
X96.782Y109.468
X96.593Y109.401
X96.406Y109.331
X96.22Y109.258
X96.035Y109.18
X95.853Y109.099
X95.671Y109.014
X95.492Y108.926
X95.314Y108.834
X95.139Y108.739
X94.965Y108.64
X94.793Y108.537
X94.623Y108.431
X94.456Y108.322
X94.29Y108.21
X94.127Y108.094
X93.967Y107.975
X93.808Y107.853
X93.653Y107.727
X93.499Y107.599
X93.349Y107.467
X93.201Y107.333
X93.055Y107.195
X92.913Y107.055
X92.773Y106.912
X92.636Y106.766
X92.502Y106.617
X92.372Y106.466
X92.244Y106.312
X92.119Y106.156
X91.998Y105.997
X91.879Y105.836
X91.764Y105.672
X91.652Y105.506
X91.544Y105.338
X91.439Y105.168
X91.337Y104.996
X91.239Y104.822
X91.144Y104.646
X91.053Y104.468
X90.966Y104.288
X90.882Y104.106
X90.801Y103.923
X90.725Y103.738
X90.652Y103.552
X90.583Y103.364
X90.517Y103.175
X90.456Y102.985
X90.398Y102.794
X90.344Y102.601
X90.294Y102.407
X90.247Y102.213
X90.205Y102.017
X90.167Y101.821
X90.132Y101.624
X90.102Y101.426
X90.075Y101.228
X90.053Y101.03
X90.034Y100.83
X90.019Y100.631
X90.009Y100.431
X90.002Y100.231
X90Y100
X89
X89.001Y99.8
X89.007Y99.6
X89.016Y99.4
X89.029Y99.2
X89.045Y99.001
X89.065Y98.802
X89.088Y98.603
X89.116Y98.405
X89.146Y98.208
X89.181Y98.011
X89.219Y97.814
X89.26Y97.618
X89.305Y97.424
X89.354Y97.23
X89.406Y97.037
X89.462Y96.844
X89.521Y96.653
X89.583Y96.463
X89.649Y96.275
X89.719Y96.087
X89.792Y95.901
X89.868Y95.716
X89.947Y95.532
X90.03Y95.35
X90.116Y95.17
X90.206Y94.991
X90.299Y94.814
X90.394Y94.638
X90.493Y94.465
X90.596Y94.293
X90.645Y94.212
X90.701Y94.123Z-2
X90.809Y93.955
X90.921Y93.788
X91.035Y93.624
X91.153Y93.462
X91.273Y93.303
X91.396Y93.145
X91.522Y92.99
X91.651Y92.837
X91.783Y92.686
X91.917Y92.538
X92.054Y92.392
X92.194Y92.249
X92.336Y92.109
X92.48Y91.971
X92.628Y91.835
X92.777Y91.703
X92.929Y91.573
X93.084Y91.445
X93.24Y91.321
X93.399Y91.2
X93.56Y91.081
X93.724Y90.966
X93.889Y90.853
X94.056Y90.743
X94.225Y90.637
X94.397Y90.533
X94.57Y90.433
X94.744Y90.336
X94.921Y90.242
X95.099Y90.151
X95.279Y90.064
X95.461Y89.98
X95.643Y89.899
X95.828Y89.821
X96.014Y89.747
X96.201Y89.676
X96.389Y89.609
X96.578Y89.545
X96.769Y89.485
X96.961Y89.428
X97.153Y89.374
X97.347Y89.324
X97.542Y89.278
X97.737Y89.235
X97.933Y89.195
X98.13Y89.16
X98.327Y89.127
X98.525Y89.099
X98.724Y89.074
X98.922Y89.052
X99.122Y89.035
X99.321Y89.02
X99.521Y89.01
X99.721Y89.003
X99.921Y89
X100.121
X100.321Y89.004
X100.521Y89.012
X100.72Y89.023
X100.92Y89.038
X101.119Y89.057
X101.318Y89.079
X101.516Y89.105
X101.714Y89.134
X101.911Y89.167
X102.108Y89.203
X102.304Y89.244
X102.499Y89.287
X102.693Y89.334
X102.887Y89.385
X103.079Y89.439
X103.271Y89.497
X103.461Y89.558
X103.65Y89.623
X103.838Y89.691
X104.025Y89.763
X104.21Y89.837
X104.395Y89.916
X104.577Y89.997
X104.758Y90.082
X104.938Y90.17
X105.116Y90.262
X105.292Y90.356
X105.466Y90.454
X105.639Y90.555
X105.81Y90.659
X105.979Y90.766
X106.145Y90.877
X106.31Y90.99
X106.473Y91.106
X106.634Y91.225
X106.792Y91.347
X106.948Y91.472
X107.102Y91.6
X107.254Y91.73
X107.403Y91.864
X107.549Y92
X107.694Y92.138
X107.835Y92.279
X107.974Y92.423
X108.111Y92.569
X108.245Y92.718
X108.376Y92.869
X108.504Y93.023
X108.629Y93.178
X108.752Y93.336
X108.872Y93.497
X108.988Y93.659
X109.102Y93.824
X109.213Y93.99
X109.321Y94.159
X109.425Y94.329
X109.527Y94.501
X109.625Y94.675
X109.72Y94.851
X109.812Y95.029
X109.901Y95.208
X109.987Y95.389
X110.069Y95.571
X110.148Y95.755
X110.223Y95.94
X110.295Y96.127
X110.364Y96.315
X110.429Y96.504
X110.491Y96.694
X110.549Y96.885
X110.604Y97.077
X110.656Y97.271
X110.704Y97.465
X110.748Y97.66
X110.789Y97.856
X110.826Y98.052
X110.859Y98.249
X110.889Y98.447
X110.916Y98.645
X110.939Y98.844
X110.958Y99.043
X110.973Y99.243
X110.985Y99.442
X110.994Y99.642
X110.998Y99.842
X110.999Y100.042
X110.997Y100.242
X110.991Y100.442
X110.981Y100.642
X110.967Y100.841
X110.95Y101.04
X110.929Y101.239
X110.905Y101.438
X110.877Y101.636
X110.846Y101.833
X110.81Y102.03
X110.772Y102.226
X110.729Y102.422
X110.684Y102.617
X110.634Y102.81
X110.581Y103.003
X110.525Y103.195
X110.465Y103.386
X110.402Y103.576
X110.335Y103.764
X110.265Y103.952
X110.191Y104.138
X110.115Y104.322
X110.034Y104.505
X109.951Y104.687
X109.864Y104.867
X109.774Y105.046
X109.68Y105.223
X109.584Y105.398
X109.484Y105.571
X109.381Y105.743
X109.275Y105.912
X109.166Y106.08
X109.054Y106.246
X108.939Y106.409
X108.821Y106.571
X108.7Y106.73
X108.576Y106.887
X108.45Y107.042
X108.32Y107.194
X108.188Y107.344
X108.053Y107.492
X107.916Y107.637
X107.775Y107.78
X107.633Y107.92
X107.487Y108.057
X107.34Y108.192
X107.19Y108.324
X107.037Y108.454
X106.882Y108.58
X106.725Y108.704
X106.566Y108.825
X106.404Y108.943
X106.24Y109.058
X106.075Y109.17
X105.907Y109.279
X105.737Y109.384
X105.566Y109.487
X105.392Y109.587
X105.217Y109.683
X105.04Y109.777
X104.862Y109.867
X104.681Y109.953
X104.5Y110.037
X104.317Y110.117
X104.132Y110.194
X103.946Y110.267
X103.758Y110.337
X103.57Y110.404
X103.38Y110.467
X103.189Y110.527
X102.997Y110.583
X102.804Y110.636
X102.611Y110.685
X102.416Y110.731
X102.22Y110.773
X102.024Y110.812
X101.827Y110.847
X101.63Y110.878
X101.432Y110.906
X101.233Y110.93
X101.034Y110.951
X100.835Y110.968
X100.635Y110.981
X100.436Y110.991
X100.236Y110.997
X100.036Y110.999
X99.836Y110.998
X99.636Y110.993
X99.436Y110.985
X99.236Y110.973
X99.037Y110.957
X98.838Y110.938
X98.639Y110.915
X98.441Y110.889
X98.243Y110.858
X98.046Y110.825
X97.945Y110.805Z-5F500
X97.85Y110.787F1000
X97.654Y110.747
X97.459Y110.702
X97.265Y110.654
X97.072Y110.603
X96.879Y110.548
X96.688Y110.489
X96.498Y110.427
X96.309Y110.362
X96.121Y110.293
X95.935Y110.221
X95.749Y110.145
X95.566Y110.066
X95.383Y109.984
X95.203Y109.898
X95.023Y109.81
X94.846Y109.718
X94.67Y109.622
X94.496Y109.524
X94.324Y109.422
X94.153Y109.317
X93.985Y109.21
X93.818Y109.099
X93.654Y108.985
X93.492Y108.868
X93.332Y108.748
X93.174Y108.625
X93.018Y108.5
X92.864Y108.372
X92.713Y108.24
X92.565Y108.107
X92.419Y107.97
X92.275Y107.831
X92.134Y107.689
X91.995Y107.545
X91.86Y107.398
X91.726Y107.249
X91.596Y107.097
X91.468Y106.943
X91.343Y106.787
X91.221Y106.629
X91.102Y106.468
X90.986Y106.305
X90.873Y106.14
X90.763Y105.973
X90.656Y105.804
X90.552Y105.634
X90.451Y105.461
X90.353Y105.286
X90.259Y105.11
X90.167Y104.932
X90.079Y104.753
X89.995Y104.571
X89.913Y104.389
X89.835Y104.205
X89.76Y104.019
X89.689Y103.832
X89.621Y103.644
X89.556Y103.455
X89.495Y103.265
X89.438Y103.073
X89.383Y102.881
X89.333Y102.687
X89.286Y102.493
X89.242Y102.297
X89.202Y102.102
X89.166Y101.905
X89.133Y101.708
X89.104Y101.51
X89.078Y101.311
X89.056Y101.113
X89.038Y100.913
X89.023Y100.714
X89.012Y100.514
X89.004Y100.314
X89Y100
X88
X88.001Y99.8
X88.006Y99.6
X88.014Y99.4
X88.026Y99.2
X88.041Y99.001
X88.059Y98.802
X88.081Y98.603
X88.106Y98.404
X88.134Y98.206
X88.166Y98.009
X88.201Y97.812
X88.239Y97.615
X88.28Y97.42
X88.325Y97.225
X88.373Y97.031
X88.424Y96.837
X88.478Y96.645
X88.535Y96.453
X88.596Y96.263
X88.66Y96.073
X88.727Y95.885
X88.797Y95.697
X88.87Y95.511
X88.947Y95.326
X89.026Y95.143
X89.109Y94.961
X89.194Y94.78
X89.283Y94.601
X89.374Y94.423
X89.469Y94.246
X89.566Y94.072
X89.613Y93.99
X89.666Y93.899Z-2
X89.769Y93.727
X89.875Y93.558
X89.984Y93.39
X90.095Y93.224
X90.21Y93.06
X90.327Y92.897
X90.446Y92.737
X90.569Y92.579
X90.694Y92.423
X90.821Y92.269
X90.952Y92.117
X91.084Y91.967
X91.219Y91.82
X91.357Y91.675
X91.497Y91.532
X91.639Y91.391
X91.784Y91.253
X91.931Y91.117
X92.08Y90.984
X92.231Y90.853
X92.385Y90.725
X92.54Y90.6
X92.698Y90.477
X92.858Y90.356
X93.019Y90.239
X93.183Y90.124
X93.348Y90.011
X93.516Y89.902
X93.685Y89.795
X93.856Y89.691
X94.029Y89.59
X94.203Y89.492
X94.379Y89.397
X94.556Y89.305
X94.735Y89.216
X94.916Y89.13
X95.098Y89.046
X95.281Y88.966
X95.465Y88.889
X95.651Y88.815
X95.838Y88.744
X96.026Y88.676
X96.216Y88.612
X96.406Y88.55
X96.597Y88.492
X96.79Y88.437
X96.983Y88.385
X97.177Y88.336
X97.371Y88.291
X97.567Y88.249
X97.763Y88.21
X97.96Y88.174
X98.157Y88.142
X98.355Y88.113
X98.553Y88.087
X98.752Y88.064
X98.951Y88.045
X99.151Y88.03
X99.35Y88.017
X99.55Y88.008
X99.75Y88.002
X99.95Y88
X100.15
X100.35Y88.005
X100.55Y88.012
X100.749Y88.023
X100.949Y88.037
X101.148Y88.055
X101.347Y88.075
X101.546Y88.1
X101.744Y88.127
X101.941Y88.158
X102.138Y88.192
X102.335Y88.229
X102.531Y88.27
X102.726Y88.313
X102.92Y88.36
X103.114Y88.411
X103.307Y88.464
X103.498Y88.521
X103.689Y88.581
X103.879Y88.644
X104.068Y88.71
X104.255Y88.779
X104.442Y88.852
X104.627Y88.928
X104.811Y89.006
X104.993Y89.088
X105.174Y89.173
X105.354Y89.26
X105.532Y89.351
X105.709Y89.445
X105.884Y89.541
X106.058Y89.641
X106.229Y89.743
X106.4Y89.849
X106.568Y89.957
X106.734Y90.068
X106.899Y90.181
X107.062Y90.298
X107.222Y90.417
X107.381Y90.538
X107.538Y90.663
X107.692Y90.79
X107.845Y90.919
X107.995Y91.051
X108.143Y91.186
X108.289Y91.322
X108.432Y91.462
X108.573Y91.604
X108.712Y91.748
X108.848Y91.894
X108.982Y92.043
X109.113Y92.193
X109.242Y92.346
X109.369Y92.501
X109.492Y92.659
X109.613Y92.818
X109.732Y92.979
X109.847Y93.142
X109.96Y93.307
X110.07Y93.474
X110.178Y93.643
X110.282Y93.813
X110.384Y93.986
X110.483Y94.16
X110.579Y94.335
X110.671Y94.512
X110.761Y94.691
X110.848Y94.871
X110.932Y95.052
X111.013Y95.235
X111.091Y95.42
X111.166Y95.605
X111.238Y95.792
X111.306Y95.98
X111.372Y96.169
X111.434Y96.359
X111.493Y96.55
X111.549Y96.742
X111.602Y96.935
X111.651Y97.129
X111.697Y97.323
X111.74Y97.518
X111.78Y97.714
X111.816Y97.911
X111.85Y98.108
X111.879Y98.306
X111.906Y98.504
X111.929Y98.703
X111.949Y98.902
X111.966Y99.101
X111.979Y99.301
X111.989Y99.501
X111.996Y99.7
X111.997Y99.799Z-5F500
X111.999Y99.9F1000
Y100.1
X111.996Y100.3
X111.989Y100.5
X111.979Y100.7
X111.966Y100.9
X111.949Y101.099
X111.929Y101.298
X111.906Y101.496
X111.879Y101.695
X111.849Y101.892
X111.816Y102.09
X111.78Y102.286
X111.74Y102.482
X111.697Y102.678
X111.651Y102.872
X111.601Y103.066
X111.548Y103.259
X111.492Y103.451
X111.433Y103.642
X111.371Y103.832
X111.306Y104.021
X111.237Y104.209
X111.165Y104.396
X111.09Y104.581
X111.013Y104.765
X110.932Y104.948
X110.848Y105.13
X110.761Y105.31
X110.671Y105.488
X110.578Y105.665
X110.482Y105.841
X110.383Y106.015
X110.332Y106.101
X110.281Y106.187Z-2
X110.177Y106.358
X110.069Y106.526
X109.959Y106.693
X109.846Y106.858
X109.731Y107.021
X109.612Y107.183
X109.491Y107.342
X109.367Y107.499
X109.241Y107.654
X109.112Y107.807
X108.981Y107.958
X108.847Y108.106
X108.711Y108.253
X108.572Y108.397
X108.431Y108.538
X108.287Y108.678
X108.142Y108.815
X107.994Y108.949
X107.843Y109.081
X107.691Y109.211
X107.536Y109.338
X107.38Y109.462
X107.221Y109.584
X107.06Y109.703
X106.897Y109.819
X106.733Y109.932
X106.566Y110.043
X106.398Y110.151
X106.228Y110.257
X106.056Y110.359
X105.883Y110.458
X105.708Y110.555
X105.531Y110.649
X105.353Y110.739
X105.173Y110.827
X104.992Y110.912
X104.809Y110.994
X104.625Y111.072
X104.44Y111.148
X104.254Y111.22
X104.066Y111.29
X103.877Y111.356
X103.688Y111.419
X103.497Y111.479
X103.305Y111.535
X103.112Y111.589
X102.919Y111.639
X102.724Y111.686
X102.529Y111.73
X102.333Y111.77
X102.137Y111.808
X101.94Y111.842
X101.742Y111.872
X101.544Y111.9
X101.345Y111.924
X101.146Y111.945
X100.947Y111.962
X100.748Y111.976
X100.548Y111.987
X100.348Y111.994
X100.148Y111.999
X99.948
X99.748Y111.997
X99.548Y111.991
X99.348Y111.982
X99.149Y111.969
X98.95Y111.954
X98.75Y111.934
X98.552Y111.912
X98.353Y111.886
X98.156Y111.857
X97.958Y111.825
X97.761Y111.789
X97.565Y111.75
X97.464Y111.728Z-5F500
X97.37Y111.708F1000
X97.175Y111.662
X96.981Y111.614
X96.788Y111.562
X96.596Y111.507
X96.404Y111.448
X96.214Y111.387
X96.025Y111.322
X95.837Y111.254
X95.65Y111.183
X95.464Y111.109
X95.279Y111.032
X95.096Y110.952
X94.914Y110.869
X94.734Y110.782
X94.555Y110.693
X94.377Y110.601
X94.201Y110.506
X94.027Y110.408
X93.854Y110.307
X93.684Y110.203
X93.514Y110.096
X93.347Y109.987
X93.181Y109.874
X93.018Y109.759
X92.856Y109.642
X92.696Y109.521
X92.539Y109.398
X92.383Y109.273
X92.23Y109.144
X92.078Y109.014
X91.929Y108.88
X91.782Y108.745
X91.638Y108.607
X91.495Y108.466
X91.356Y108.323
X91.218Y108.178
X91.083Y108.03
X90.95Y107.881
X90.82Y107.729
X90.693Y107.575
X90.568Y107.419
X90.445Y107.26
X90.326Y107.1
X90.209Y106.938
X90.094Y106.774
X89.983Y106.608
X89.874Y106.44
X89.768Y106.27
X89.665Y106.099
X89.565Y105.926
X89.468Y105.751
X89.373Y105.575
X89.282Y105.397
X89.193Y105.218
X89.108Y105.037
X89.025Y104.854
X88.946Y104.671
X88.87Y104.486
X88.797Y104.3
X88.726Y104.113
X88.659Y103.924
X88.596Y103.735
X88.535Y103.544
X88.477Y103.353
X88.423Y103.16
X88.372Y102.967
X88.324Y102.772
X88.28Y102.577
X88.238Y102.382
X88.2Y102.185
X88.165Y101.989
X88.134Y101.791
X88.106Y101.593
X88.081Y101.395
X88.059Y101.196
X88.041Y100.997
X88.026Y100.797
X88.014Y100.597
X88.006Y100.398
X88Y100
X86.999
X87.001Y99.8
X87.006Y99.6
X87.013Y99.4
X87.024Y99.2
X87.038Y99
X87.055Y98.801
X87.075Y98.602
X87.098Y98.404
X87.124Y98.205
X87.153Y98.007
X87.185Y97.81
X87.22Y97.613
X87.259Y97.417
X87.3Y97.221
X87.344Y97.026
X87.391Y96.832
X87.442Y96.638
X87.495Y96.445
X87.551Y96.253
X87.61Y96.062
X87.672Y95.872
X87.737Y95.683
X87.805Y95.495
X87.876Y95.308
X87.949Y95.122
X88.026Y94.937
X88.105Y94.753
X88.187Y94.571
X88.272Y94.39
X88.36Y94.21
X88.45Y94.032
X88.543Y93.855
X88.588Y93.773
X88.639Y93.679Z-2
X88.738Y93.505
X88.839Y93.333
X88.943Y93.162
X89.049Y92.993
X89.158Y92.825
X89.27Y92.659
X89.384Y92.495
X89.501Y92.333
X89.62Y92.172
X89.742Y92.013
X89.866Y91.856
X89.992Y91.701
X90.121Y91.548
X90.252Y91.397
X90.386Y91.249
X90.522Y91.102
X90.66Y90.957
X90.8Y90.814
X90.942Y90.674
X91.087Y90.536
X91.233Y90.4
X91.382Y90.266
X91.533Y90.135
X91.686Y90.005
X91.84Y89.879
X91.997Y89.754
X92.156Y89.632
X92.316Y89.513
X92.478Y89.396
X92.642Y89.282
X92.808Y89.17
X92.976Y89.06
X93.145Y88.954
X93.315Y88.849
X93.488Y88.748
X93.662Y88.649
X93.837Y88.553
X94.014Y88.459
X94.192Y88.369
X94.372Y88.281
X94.553Y88.196
X94.735Y88.113
X94.918Y88.034
X95.103Y87.957
X95.289Y87.883
X95.476Y87.812
X95.664Y87.744
X95.853Y87.679
X96.043Y87.616
X96.234Y87.557
X96.426Y87.5
X96.618Y87.447
X96.812Y87.396
X97.006Y87.349
X97.201Y87.304
X97.397Y87.263
X97.593Y87.224
X97.79Y87.189
X97.987Y87.156
X98.185Y87.127
X98.383Y87.1
X98.582Y87.077
X98.781Y87.057
X98.98Y87.039
X99.18Y87.025
X99.379Y87.014
X99.579Y87.006
X99.779Y87.001
X99.979Y86.999
X100.179Y87.001
X100.379Y87.005
X100.579Y87.012
X100.779Y87.023
X100.978Y87.036
X101.178Y87.053
X101.377Y87.073
X101.575Y87.095
X101.774Y87.121
X101.972Y87.15
X102.169Y87.182
X102.366Y87.217
X102.562Y87.255
X102.758Y87.296
X102.953Y87.339
X103.148Y87.386
X103.341Y87.436
X103.534Y87.489
X103.726Y87.545
X103.917Y87.604
X104.108Y87.666
X104.297Y87.73
X104.485Y87.798
X104.672Y87.868
X104.858Y87.942
X105.043Y88.018
X105.227Y88.097
X105.409Y88.179
X105.591Y88.263
X105.771Y88.351
X105.949Y88.441
X106.126Y88.534
X106.302Y88.629
X106.476Y88.728
X106.649Y88.829
X106.82Y88.932
X106.989Y89.038
X107.157Y89.147
X107.323Y89.259
X107.487Y89.373
X107.65Y89.489
X107.811Y89.608
X107.97Y89.729
X108.127Y89.853
X108.282Y89.979
X108.435Y90.108
X108.586Y90.239
X108.735Y90.372
X108.883Y90.508
X109.027Y90.646
X109.17Y90.786
X109.311Y90.928
X109.449Y91.072
X109.586Y91.218
X109.72Y91.367
X109.851Y91.518
X109.981Y91.67
X110.108Y91.825
X110.232Y91.981
X110.354Y92.139
X110.474Y92.3
X110.591Y92.462
X110.706Y92.626
X110.818Y92.791
X110.928Y92.958
X111.035Y93.127
X111.139Y93.298
X111.241Y93.47
X111.34Y93.644
X111.436Y93.819
X111.53Y93.996
X111.621Y94.174
X111.709Y94.353
X111.795Y94.534
X111.878Y94.716
X111.957Y94.9
X112.034Y95.084
X112.109Y95.27
X112.18Y95.457
X112.248Y95.645
X112.314Y95.834
X112.377Y96.024
X112.436Y96.214
X112.493Y96.406
X112.547Y96.599
X112.598Y96.792
X112.646Y96.986
X112.69Y97.181
X112.732Y97.377
X112.771Y97.573
X112.807Y97.77
X112.84Y97.967
X112.869Y98.165
X112.896Y98.363
X112.908Y98.461Z-5F500
X112.92Y98.562F1000
X112.94Y98.761
X112.958Y98.96
X112.972Y99.159
X112.984Y99.359
X112.992Y99.559
X112.997Y99.759
X113Y99.959
X112.999Y100.159
X112.995Y100.359
X112.988Y100.559
X112.977Y100.758
X112.964Y100.958
X112.948Y101.157
X112.929Y101.356
X112.906Y101.555
X112.881Y101.753
X112.852Y101.951
X112.821Y102.149
X112.786Y102.346
X112.748Y102.542
X112.708Y102.738
X112.664Y102.933
X112.618Y103.128
X112.568Y103.322
X112.515Y103.515
X112.46Y103.707
X112.401Y103.898
X112.34Y104.088
X112.275Y104.278
X112.208Y104.466
X112.138Y104.653
X112.065Y104.839
X111.989Y105.024
X111.91Y105.208
X111.829Y105.391
X111.745Y105.572
X111.657Y105.752
X111.568Y105.931
X111.475Y106.108
X111.38Y106.284
X111.282Y106.458
X111.181Y106.631
X111.078Y106.802
X110.972Y106.972
X110.863Y107.14
X110.752Y107.306
X110.638Y107.471
X110.522Y107.634
X110.462Y107.714
X110.403Y107.795Z-2
X110.282Y107.954
X110.159Y108.111
X110.033Y108.266
X109.904Y108.42
X109.774Y108.571
X109.64Y108.72
X109.505Y108.868
X109.368Y109.013
X109.228Y109.156
X109.086Y109.297
X108.942Y109.435
X108.796Y109.572
X108.647Y109.706
X108.497Y109.838
X108.345Y109.968
X108.19Y110.095
X108.034Y110.22
X107.876Y110.342
X107.716Y110.462
X107.554Y110.579
X107.39Y110.694
X107.225Y110.807
X107.058Y110.917
X106.889Y111.024
X106.719Y111.129
X106.546Y111.231
X106.373Y111.33
X106.198Y111.427
X106.021Y111.521
X105.843Y111.612
X105.664Y111.701
X105.483Y111.786
X105.301Y111.869
X105.118Y111.949
X104.934Y112.027
X104.748Y112.101
X104.561Y112.173
X104.374Y112.242
X104.185Y112.307
X103.995Y112.37
X103.804Y112.43
X103.612Y112.487
X103.42Y112.542
X103.227Y112.593
X103.032Y112.641
X102.838Y112.686
X102.642Y112.728
X102.446Y112.767
X102.249Y112.803
X102.052Y112.837
X101.854Y112.867
X101.656Y112.894
X101.458Y112.918
X101.259Y112.938
X101.059Y112.956
X100.86Y112.971
X100.66Y112.983
X100.46Y112.991
X100.261Y112.997
X100.061Y112.999
X99.861
X99.661Y112.995
X99.461Y112.988
X99.261Y112.979
X99.061Y112.966
X98.862Y112.95
X98.663Y112.931
X98.464Y112.909
X98.266Y112.883
X98.068Y112.855
X97.87Y112.824
X97.673Y112.79
X97.477Y112.752
X97.281Y112.712
X97.086Y112.669
X96.985Y112.645Z-5F500
X96.891Y112.622F1000
X96.697Y112.573
X96.504Y112.521
X96.312Y112.466
X96.121Y112.407
X95.93Y112.346
X95.741Y112.282
X95.552Y112.215
X95.365Y112.145
X95.178Y112.073
X94.993Y111.997
X94.809Y111.919
X94.627Y111.837
X94.445Y111.753
X94.265Y111.666
X94.086Y111.577
X93.909Y111.485
X93.733Y111.389
X93.558Y111.292
X93.385Y111.191
X93.214Y111.088
X93.044Y110.982
X92.876Y110.874
X92.71Y110.763
X92.545Y110.65
X92.382Y110.534
X92.221Y110.416
X92.061Y110.295
X91.904Y110.171
X91.748Y110.046
X91.595Y109.917
X91.443Y109.787
X91.294Y109.654
X91.146Y109.519
X91.001Y109.382
X90.858Y109.242
X90.716Y109.1
X90.578Y108.957
X90.441Y108.811
X90.306Y108.662
X90.174Y108.512
X90.045Y108.36
X89.917Y108.206
X89.792Y108.05
X89.669Y107.892
X89.549Y107.732
X89.431Y107.57
X89.316Y107.407
X89.204Y107.242
X89.093Y107.075
X88.986Y106.906
X88.881Y106.736
X88.779Y106.564
X88.679Y106.391
X88.582Y106.216
X88.488Y106.039
X88.396Y105.862
X88.307Y105.682
X88.221Y105.502
X88.138Y105.32
X88.058Y105.137
X87.98Y104.953
X87.905Y104.767
X87.833Y104.58
X87.764Y104.393
X87.698Y104.204
X87.635Y104.014
X87.575Y103.824
X87.517Y103.632
X87.463Y103.439
X87.411Y103.246
X87.363Y103.052
X87.317Y102.857
X87.275Y102.662
X87.235Y102.466
X87.199Y102.269
X87.166Y102.072
X87.135Y101.874
X87.108Y101.676
X87.084Y101.478
X87.062Y101.279
X87.044Y101.08
X87.029Y100.88
X87.017Y100.681
X87.008Y100.481
X87.002Y100.281
X86.999Y100
X86
X86.001Y99.8
X86.005Y99.6
X86.012Y99.4
X86.022Y99.2
X86.035Y99
X86.051Y98.801
X86.069Y98.602
X86.091Y98.403
X86.115Y98.204
X86.142Y98.006
X86.172Y97.809
X86.205Y97.611
X86.24Y97.414
X86.279Y97.218
X86.32Y97.022
X86.364Y96.827
X86.41Y96.633
X86.46Y96.439
X86.512Y96.246
X86.567Y96.054
X86.625Y95.862
X86.685Y95.672
X86.748Y95.482
X86.814Y95.293
X86.883Y95.105
X86.954Y94.918
X87.028Y94.732
X87.105Y94.548
X87.184Y94.364
X87.266Y94.182
X87.35Y94
X87.437Y93.82
X87.527Y93.641
X87.57Y93.558
X87.619Y93.464Z-2
X87.713Y93.288
X87.81Y93.113
X87.91Y92.939
X88.012Y92.767
X88.117Y92.597
X88.224Y92.428
X88.333Y92.26
X88.445Y92.095
X88.559Y91.93
X88.675Y91.768
X88.794Y91.607
X88.915Y91.448
X89.038Y91.29
X89.164Y91.134
X89.292Y90.98
X89.422Y90.828
X89.554Y90.678
X89.688Y90.53
X89.824Y90.384
X89.963Y90.239
X90.103Y90.097
X90.246Y89.957
X90.39Y89.818
X90.536Y89.682
X90.685Y89.548
X90.835Y89.416
X90.987Y89.286
X91.141Y89.158
X91.297Y89.033
X91.455Y88.91
X91.614Y88.789
X91.775Y88.67
X91.937Y88.554
X92.102Y88.44
X92.268Y88.328
X92.435Y88.219
X92.604Y88.112
X92.775Y88.008
X92.947Y87.906
X93.12Y87.806
X93.295Y87.709
X93.472Y87.615
X93.649Y87.523
X93.828Y87.433
X94.008Y87.346
X94.19Y87.262
X94.372Y87.18
X94.556Y87.101
X94.741Y87.025
X94.926Y86.951
X95.113Y86.88
X95.301Y86.811
X95.49Y86.746
X95.68Y86.683
X95.871Y86.622
X96.062Y86.565
X96.255Y86.51
X96.448Y86.458
X96.641Y86.408
X96.836Y86.362
X97.031Y86.318
X97.227Y86.277
X97.423Y86.239
X97.62Y86.203
X97.817Y86.171
X98.015Y86.141
X98.213Y86.114
X98.412Y86.09
X98.611Y86.069
X98.81Y86.05
X99.009Y86.035
X99.209Y86.022
X99.409Y86.012
X99.608Y86.005
X99.808Y86.001
X100.008Y86
X100.208Y86.001
X100.408Y86.005
X100.608Y86.013
X100.808Y86.023
X101.007Y86.036
X101.207Y86.052
X101.406Y86.07
X101.605Y86.092
X101.803Y86.116
X102.001Y86.143
X102.199Y86.173
X102.396Y86.206
X102.593Y86.242
X102.79Y86.28
X102.985Y86.322
X103.18Y86.366
X103.375Y86.412
X103.569Y86.462
X103.762Y86.514
X103.954Y86.57
X104.145Y86.627
X104.336Y86.688
X104.526Y86.751
X104.714Y86.817
X104.902Y86.886
X105.089Y86.957
X105.275Y87.031
X105.46Y87.108
X105.643Y87.187
X105.826Y87.269
X106.007Y87.354
X106.187Y87.441
X106.366Y87.531
X106.543Y87.623
X106.719Y87.718
X106.894Y87.815
X107.067Y87.915
X107.239Y88.017
X107.41Y88.121
X107.579Y88.228
X107.746Y88.338
X107.912Y88.45
X108.076Y88.564
X108.239Y88.681
X108.399Y88.799
X108.559Y88.921
X108.716Y89.044
X108.872Y89.17
X109.025Y89.297
X109.177Y89.427
X109.327Y89.56
X109.476Y89.694
X109.622Y89.83
X109.766Y89.969
X109.908Y90.109
X110.049Y90.252
X110.187Y90.397
X110.323Y90.543
X110.457Y90.691
X110.589Y90.842
X110.719Y90.994
X110.846Y91.148
X110.972Y91.304
X111.095Y91.462
X111.216Y91.621
X111.334Y91.782
X111.45Y91.945
X111.564Y92.109
X111.676Y92.275
X111.785Y92.443
X111.892Y92.612
X111.996Y92.782
X112.098Y92.955
X112.197Y93.128
X112.294Y93.303
X112.389Y93.479
X112.48Y93.657
X112.57Y93.836
X112.657Y94.016
X112.741Y94.198
X112.822Y94.38
X112.901Y94.564
X112.978Y94.749
X113.051Y94.935
X113.122Y95.122
X113.191Y95.31
X113.256Y95.499
X113.319Y95.688
X113.379Y95.879
X113.437Y96.071
X113.492Y96.263
X113.544Y96.456
X113.593Y96.65
X113.639Y96.845
X113.683Y97.04
X113.724Y97.235
X113.743Y97.332Z-5F500
X113.762Y97.432F1000
X113.797Y97.629
X113.83Y97.826
X113.859Y98.024
X113.886Y98.222
X113.91Y98.421
X113.931Y98.619
X113.95Y98.819
X113.965Y99.018
X113.978Y99.218
X113.987Y99.417
X113.994Y99.617
X113.998Y99.817
X113.999Y100.017
X113.998Y100.217
X113.993Y100.417
X113.986Y100.617
X113.976Y100.817
X113.963Y101.016
X113.947Y101.216
X113.928Y101.415
X113.906Y101.614
X113.882Y101.812
X113.854Y102.01
X113.824Y102.208
X113.791Y102.405
X113.755Y102.602
X113.717Y102.798
X113.676Y102.994
X113.631Y103.189
X113.584Y103.383
X113.535Y103.577
X113.482Y103.77
X113.427Y103.962
X113.369Y104.154
X113.308Y104.344
X113.245Y104.534
X113.179Y104.723
X113.11Y104.91
X113.038Y105.097
X112.964Y105.283
X112.887Y105.468
X112.808Y105.651
X112.726Y105.834
X112.641Y106.015
X112.554Y106.195
X112.464Y106.373
X112.372Y106.551
X112.277Y106.727
X112.18Y106.902
X112.08Y107.075
X111.978Y107.247
X111.873Y107.417
X111.766Y107.586
X111.656Y107.753
X111.544Y107.919
X111.43Y108.083
X111.313Y108.246
X111.194Y108.406
X111.073Y108.566
X110.95Y108.723
X110.824Y108.878
X110.696Y109.032
X110.63Y109.108
X110.566Y109.184Z-2
X110.433Y109.334
X110.299Y109.482
X110.163Y109.628
X110.024Y109.772
X109.883Y109.915
X109.741Y110.055
X109.596Y110.193
X109.449Y110.329
X109.301Y110.463
X109.151Y110.595
X108.998Y110.724
X108.844Y110.852
X108.688Y110.977
X108.53Y111.1
X108.371Y111.221
X108.21Y111.339
X108.047Y111.455
X107.883Y111.569
X107.716Y111.681
X107.549Y111.79
X107.38Y111.896
X107.209Y112
X107.037Y112.102
X106.863Y112.202
X106.688Y112.298
X106.512Y112.393
X106.334Y112.484
X106.155Y112.574
X105.975Y112.66
X105.793Y112.744
X105.611Y112.826
X105.427Y112.905
X105.242Y112.981
X105.056Y113.054
X104.869Y113.125
X104.681Y113.194
X104.492Y113.259
X104.302Y113.322
X104.111Y113.382
X103.92Y113.439
X103.727Y113.494
X103.534Y113.546
X103.34Y113.595
X103.146Y113.641
X102.951Y113.685
X102.755Y113.726
X102.558Y113.764
X102.362Y113.799
X102.164Y113.831
X101.966Y113.861
X101.768Y113.887
X101.57Y113.911
X101.371Y113.932
X101.172Y113.95
X100.972Y113.966
X100.773Y113.978
X100.573Y113.988
X100.373Y113.995
X100.173Y113.998
X99.973Y113.999
X99.773Y113.998
X99.573Y113.993
X99.373Y113.985
X99.173Y113.975
X98.974Y113.962
X98.775Y113.946
X98.575Y113.927
X98.377Y113.905
X98.178Y113.88
X97.98Y113.853
X97.782Y113.823
X97.585Y113.79
X97.388Y113.754
X97.192Y113.715
X96.996Y113.674
X96.801Y113.629
X96.607Y113.582
X96.413Y113.532
X96.313Y113.505Z-5F500
X96.22Y113.48F1000
X96.028Y113.424
X95.837Y113.366
X95.646Y113.306
X95.457Y113.242
X95.268Y113.176
X95.08Y113.107
X94.894Y113.035
X94.708Y112.961
X94.523Y112.884
X94.34Y112.804
X94.157Y112.722
X93.976Y112.638
X93.796Y112.55
X93.618Y112.46
X93.44Y112.368
X93.264Y112.273
X93.09Y112.175
X92.916Y112.075
X92.745Y111.973
X92.574Y111.868
X92.406Y111.761
X92.238Y111.651
X92.073Y111.539
X91.909Y111.425
X91.746Y111.308
X91.585Y111.189
X91.427Y111.068
X91.269Y110.944
X91.114Y110.818
X90.96Y110.69
X90.808Y110.56
X90.658Y110.428
X90.51Y110.293
X90.364Y110.156
X90.22Y110.018
X90.078Y109.877
X89.938Y109.734
X89.8Y109.59
X89.664Y109.443
X89.53Y109.294
X89.399Y109.144
X89.269Y108.991
X89.142Y108.837
X89.016Y108.681
X88.894Y108.523
X88.773Y108.364
X88.655Y108.203
X88.539Y108.04
X88.425Y107.875
X88.314Y107.709
X88.205Y107.541
X88.098Y107.372
X87.994Y107.201
X87.892Y107.029
X87.793Y106.855
X87.696Y106.68
X87.602Y106.504
X87.511Y106.326
X87.421Y106.147
X87.335Y105.967
X87.251Y105.785
X87.17Y105.603
X87.091Y105.419
X87.015Y105.234
X86.941Y105.048
X86.871Y104.861
X86.802Y104.673
X86.737Y104.484
X86.674Y104.294
X86.614Y104.103
X86.557Y103.911
X86.503Y103.719
X86.451Y103.526
X86.402Y103.332
X86.356Y103.137
X86.312Y102.942
X86.272Y102.746
X86.234Y102.55
X86.199Y102.353
X86.167Y102.155
X86.137Y101.958
X86.111Y101.759
X86.087Y101.561
X86.066Y101.362
X86.048Y101.163
X86.033Y100.963
X86.02Y100.764
X86.011Y100.564
X86.004Y100.364
X86Y100
X85
X85.001Y99.8
X85.005Y99.6
X85.011Y99.4
X85.021Y99.2
X85.033Y99
X85.047Y98.801
X85.065Y98.602
X85.085Y98.403
X85.107Y98.204
X85.133Y98.005
X85.161Y97.807
X85.191Y97.61
X85.224Y97.413
X85.26Y97.216
X85.299Y97.019
X85.34Y96.824
X85.383Y96.629
X85.429Y96.434
X85.478Y96.24
X85.53Y96.047
X85.584Y95.854
X85.64Y95.662
X85.699Y95.471
X85.761Y95.281
X85.825Y95.092
X85.892Y94.903
X85.961Y94.715
X86.033Y94.529
X86.107Y94.343
X86.184Y94.158
X86.263Y93.975
X86.344Y93.792
X86.428Y93.61
X86.468Y93.526
X86.515Y93.43Z-2
X86.603Y93.251
X86.695Y93.073
X86.788Y92.896
X86.884Y92.721
X86.982Y92.546
X87.083Y92.373
X87.186Y92.202
X87.291Y92.032
X87.398Y91.863
X87.508Y91.696
X87.619Y91.53
X87.733Y91.366
X87.85Y91.203
X87.968Y91.042
X88.089Y90.882
X88.211Y90.724
X88.336Y90.568
X88.463Y90.413
X88.592Y90.26
X88.722Y90.109
X88.855Y89.959
X88.99Y89.812
X89.127Y89.666
X89.266Y89.522
X89.406Y89.379
X89.549Y89.239
X89.693Y89.101
X89.84Y88.964
X89.988Y88.83
X90.137Y88.697
X90.289Y88.567
X90.442Y88.438
X90.597Y88.312
X90.754Y88.188
X90.912Y88.065
X91.072Y87.945
X91.234Y87.827
X91.397Y87.712
X91.561Y87.598
X91.727Y87.487
X91.895Y87.377
X92.064Y87.27
X92.234Y87.166
X92.406Y87.063
X92.579Y86.963
X92.754Y86.866
X92.93Y86.77
X93.107Y86.677
X93.285Y86.586
X93.464Y86.498
X93.645Y86.412
X93.827Y86.329
X94.009Y86.247
X94.193Y86.169
X94.378Y86.093
X94.564Y86.019
X94.751Y85.948
X94.939Y85.879
X95.128Y85.813
X95.317Y85.749
X95.508Y85.688
X95.699Y85.629
X95.891Y85.573
X96.083Y85.52
X96.277Y85.469
X96.471Y85.42
X96.666Y85.375
X96.861Y85.332
X97.057Y85.291
X97.253Y85.253
X97.45Y85.218
X97.647Y85.185
X97.845Y85.155
X98.043Y85.128
X98.242Y85.103
X98.44Y85.081
X98.639Y85.061
X98.839Y85.044
X99.038Y85.03
X99.238Y85.019
X99.438Y85.01
X99.638Y85.004
X99.838Y85
X100.038
X100.238Y85.001
X100.437Y85.006
X100.637Y85.013
X100.837Y85.023
X101.037Y85.035
X101.236Y85.051
X101.435Y85.068
X101.634Y85.089
X101.833Y85.112
X102.031Y85.138
X102.229Y85.166
X102.427Y85.197
X102.624Y85.231
X102.821Y85.267
X103.017Y85.306
X103.212Y85.348
X103.408Y85.392
X103.602Y85.438
X103.796Y85.488
X103.989Y85.54
X104.181Y85.594
X104.373Y85.651
X104.564Y85.711
X104.754Y85.773
X104.943Y85.838
X105.132Y85.905
X105.319Y85.974
X105.506Y86.047
X105.691Y86.121
X105.876Y86.198
X106.059Y86.278
X106.242Y86.36
X106.423Y86.444
X106.603Y86.531
X106.782Y86.621
X106.96Y86.712
X107.136Y86.806
X107.312Y86.902
X107.486Y87.001
X107.658Y87.102
X107.83Y87.205
X108Y87.311
X108.168Y87.419
X108.335Y87.529
X108.501Y87.641
X108.665Y87.755
X108.827Y87.872
X108.988Y87.991
X109.147Y88.112
X109.305Y88.235
X109.461Y88.36
X109.615Y88.487
X109.768Y88.616
X109.919Y88.748
X110.068Y88.881
X110.215Y89.016
X110.361Y89.153
X110.505Y89.292
X110.646Y89.433
X110.786Y89.576
X110.924Y89.721
X111.06Y89.868
X111.195Y90.016
X111.327Y90.166
X111.457Y90.318
X111.585Y90.472
X111.711Y90.627
X111.835Y90.784
X111.957Y90.942
X112.076Y91.103
X112.194Y91.265
X112.309Y91.428
X112.422Y91.593
X112.533Y91.759
X112.642Y91.927
X112.749Y92.096
X112.853Y92.267
X112.955Y92.439
X113.054Y92.612
X113.152Y92.787
X113.247Y92.963
X113.339Y93.14
X113.43Y93.319
X113.518Y93.499
X113.603Y93.679
X113.686Y93.861
X113.767Y94.044
X113.845Y94.228
X113.921Y94.413
X113.994Y94.6
X114.065Y94.787
X114.133Y94.975
X114.199Y95.164
X114.262Y95.353
X114.323Y95.544
X114.381Y95.735
X114.436Y95.927
X114.489Y96.12
X114.54Y96.314
X114.588Y96.508
X114.61Y96.604Z-5F500
X114.633Y96.703F1000
X114.675Y96.898
X114.715Y97.094
X114.753Y97.291
X114.788Y97.487
X114.82Y97.685
X114.849Y97.883
X114.876Y98.081
X114.901Y98.279
X114.922Y98.478
X114.941Y98.677
X114.957Y98.877
X114.971Y99.076
X114.982Y99.276
X114.99Y99.476
X114.996Y99.676
X114.999Y99.876
Y100.076
X114.997Y100.276
X114.992Y100.476
X114.984Y100.675
X114.974Y100.875
X114.961Y101.075
X114.945Y101.274
X114.927Y101.473
X114.906Y101.672
X114.882Y101.871
X114.856Y102.069
X114.827Y102.267
X114.796Y102.464
X114.761Y102.661
X114.725Y102.858
X114.685Y103.054
X114.643Y103.25
X114.599Y103.445
X114.551Y103.639
X114.502Y103.833
X114.449Y104.026
X114.394Y104.218
X114.337Y104.409
X114.277Y104.6
X114.214Y104.79
X114.149Y104.979
X114.081Y105.168
X114.011Y105.355
X113.938Y105.541
X113.863Y105.726
X113.786Y105.911
X113.706Y106.094
X113.623Y106.276
X113.538Y106.457
X113.451Y106.637
X113.361Y106.816
X113.269Y106.994
X113.175Y107.17
X113.078Y107.345
X112.979Y107.519
X112.877Y107.691
X112.774Y107.862
X112.668Y108.032
X112.56Y108.2
X112.449Y108.367
X112.336Y108.532
X112.222Y108.696
X112.105Y108.858
X111.985Y109.018
X111.864Y109.177
X111.741Y109.335
X111.615Y109.491
X111.488Y109.645
X111.358Y109.797
X111.226Y109.947
X111.093Y110.096
X111.024Y110.17
X110.957Y110.243Z-2
X110.82Y110.388
X110.68Y110.532
X110.539Y110.673
X110.395Y110.813
X110.25Y110.95
X110.103Y111.086
X109.955Y111.22
X109.804Y111.352
X109.652Y111.481
X109.498Y111.609
X109.342Y111.735
X109.185Y111.858
X109.026Y111.98
X108.866Y112.099
X108.704Y112.216
X108.54Y112.331
X108.375Y112.444
X108.208Y112.554
X108.04Y112.663
X107.87Y112.769
X107.699Y112.872
X107.527Y112.974
X107.353Y113.073
X107.178Y113.17
X107.002Y113.265
X106.825Y113.357
X106.646Y113.447
X106.466Y113.534
X106.285Y113.619
X106.103Y113.702
X105.92Y113.782
X105.735Y113.86
X105.55Y113.935
X105.364Y114.008
X105.177Y114.078
X104.988Y114.146
X104.799Y114.211
X104.61Y114.274
X104.419Y114.334
X104.227Y114.391
X104.035Y114.447
X103.842Y114.499
X103.648Y114.549
X103.454Y114.596
X103.259Y114.641
X103.064Y114.683
X102.868Y114.723
X102.671Y114.76
X102.474Y114.794
X102.277Y114.826
X102.079Y114.855
X101.88Y114.881
X101.682Y114.905
X101.483Y114.926
X101.284Y114.945
X101.084Y114.96
X100.885Y114.973
X100.685Y114.984
X100.485Y114.992
X100.285Y114.997
X100.085Y114.999
X99.885
X99.685Y114.996
X99.485Y114.991
X99.286Y114.983
X99.086Y114.972
X98.886Y114.958
X98.687Y114.942
X98.488Y114.923
X98.289Y114.902
X98.091Y114.878
X97.892Y114.851
X97.694Y114.821
X97.497Y114.789
X97.3Y114.755
X97.104Y114.717
X96.908Y114.677
X96.712Y114.635
X96.517Y114.59
X96.323Y114.542
X96.13Y114.492
X95.937Y114.439
X95.745Y114.383
X95.645Y114.353Z-5F500
X95.553Y114.325F1000
X95.363Y114.265
X95.173Y114.202
X94.984Y114.136
X94.796Y114.068
X94.609Y113.997
X94.423Y113.924
X94.237Y113.849
X94.053Y113.771
X93.87Y113.69
X93.688Y113.607
X93.507Y113.522
X93.328Y113.434
X93.149Y113.344
X92.972Y113.251
X92.796Y113.157
X92.621Y113.059
X92.447Y112.96
X92.275Y112.858
X92.105Y112.754
X91.935Y112.647
X91.767Y112.539
X91.601Y112.428
X91.436Y112.315
X91.272Y112.2
X91.111Y112.082
X90.95Y111.962
X90.792Y111.841
X90.634Y111.717
X90.479Y111.591
X90.325Y111.463
X90.173Y111.333
X90.023Y111.201
X89.875Y111.067
X89.728Y110.931
X89.583Y110.793
X89.44Y110.653
X89.299Y110.512
X89.16Y110.368
X89.023Y110.223
X88.887Y110.075
X88.754Y109.926
X88.623Y109.775
X88.493Y109.623
X88.366Y109.469
X88.241Y109.313
X88.118Y109.155
X87.997Y108.996
X87.878Y108.835
X87.761Y108.673
X87.646Y108.509
X87.534Y108.343
X87.424Y108.176
X87.316Y108.008
X87.21Y107.838
X87.107Y107.667
X87.006Y107.494
X86.907Y107.32
X86.811Y107.145
X86.717Y106.969
X86.625Y106.791
X86.536Y106.612
X86.449Y106.432
X86.364Y106.251
X86.282Y106.068
X86.202Y105.885
X86.125Y105.7
X86.05Y105.515
X85.978Y105.328
X85.908Y105.141
X85.841Y104.953
X85.776Y104.763
X85.714Y104.573
X85.654Y104.382
X85.597Y104.191
X85.542Y103.998
X85.49Y103.805
X85.441Y103.611
X85.394Y103.417
X85.35Y103.222
X85.308Y103.026
X85.269Y102.83
X85.232Y102.634
X85.199Y102.436
X85.167Y102.239
X85.139Y102.041
X85.113Y101.843
X85.09Y101.644
X85.069Y101.445
X85.051Y101.246
X85.036Y101.046
X85.023Y100.847
X85.013Y100.647
X85.006Y100.447
X85.001Y100.247
X85Y100
X83.999
X84.001Y99.8
X84.004Y99.6
X84.011Y99.4
X84.019Y99.2
X84.031Y99
X84.044Y98.801
X84.061Y98.601
X84.079Y98.402
X84.101Y98.203
X84.124Y98.005
X84.151Y97.806
X84.179Y97.608
X84.21Y97.411
X84.244Y97.214
X84.28Y97.017
X84.318Y96.821
X84.359Y96.625
X84.403Y96.43
X84.449Y96.235
X84.497Y96.041
X84.548Y95.848
X84.601Y95.655
X84.656Y95.463
X84.714Y95.271
X84.774Y95.08
X84.837Y94.891
X84.902Y94.701
X84.97Y94.513
X85.039Y94.326
X85.111Y94.139
X85.186Y93.954
X85.263Y93.769
X85.342Y93.585
X85.379Y93.5
X85.423Y93.402Z-2
X85.506Y93.221
X85.592Y93.04
X85.68Y92.861
X85.771Y92.682
X85.863Y92.505
X85.958Y92.329
X86.055Y92.154
X86.154Y91.98
X86.256Y91.808
X86.359Y91.637
X86.465Y91.467
X86.572Y91.298
X86.682Y91.131
X86.794Y90.965
X86.908Y90.801
X87.024Y90.638
X87.142Y90.476
X87.262Y90.317
X87.384Y90.158
X87.508Y90.001
X87.634Y89.846
X87.762Y89.692
X87.892Y89.54
X88.024Y89.389
X88.157Y89.24
X88.292Y89.093
X88.43Y88.948
X88.569Y88.804
X88.71Y88.662
X88.852Y88.522
X88.997Y88.383
X89.143Y88.247
X89.29Y88.112
X89.44Y87.979
X89.591Y87.848
X89.744Y87.719
X89.898Y87.592
X90.054Y87.466
X90.211Y87.343
X90.37Y87.222
X90.531Y87.102
X90.693Y86.985
X90.856Y86.87
X91.021Y86.756
X91.187Y86.645
X91.355Y86.536
X91.524Y86.429
X91.694Y86.324
X91.866Y86.221
X92.038Y86.121
X92.212Y86.022
X92.388Y85.926
X92.564Y85.832
X92.742Y85.74
X92.921Y85.651
X93.101Y85.563
X93.282Y85.478
X93.464Y85.395
X93.647Y85.315
X93.831Y85.236
X94.016Y85.161
X94.202Y85.087
X94.389Y85.016
X94.576Y84.947
X94.765Y84.88
X94.954Y84.816
X95.145Y84.754
X95.335Y84.694
X95.527Y84.637
X95.72Y84.583
X95.913Y84.53
X96.106Y84.48
X96.301Y84.433
X96.495Y84.388
X96.691Y84.345
X96.887Y84.305
X97.083Y84.268
X97.28Y84.232
X97.477Y84.2
X97.675Y84.169
X97.873Y84.141
X98.071Y84.116
X98.27Y84.093
X98.469Y84.073
X98.668Y84.055
X98.868Y84.04
X99.067Y84.027
X99.267Y84.016
X99.467Y84.008
X99.667Y84.003
X99.867Y84
X100.067
X100.267Y84.002
X100.467Y84.006
X100.667Y84.013
X100.866Y84.023
X101.066Y84.035
X101.265Y84.05
X101.465Y84.067
X101.664Y84.086
X101.863Y84.108
X102.061Y84.133
X102.259Y84.16
X102.457Y84.189
X102.654Y84.221
X102.851Y84.256
X103.048Y84.293
X103.244Y84.332
X103.44Y84.374
X103.635Y84.418
X103.829Y84.465
X104.023Y84.514
X104.216Y84.565
X104.409Y84.619
X104.601Y84.675
X104.792Y84.734
X104.982Y84.795
X105.172Y84.859
X105.361Y84.925
X105.549Y84.993
X105.736Y85.063
X105.922Y85.136
X106.108Y85.211
X106.292Y85.289
X106.475Y85.369
X106.658Y85.451
X106.839Y85.535
X107.019Y85.622
X107.199Y85.711
X107.377Y85.802
X107.554Y85.895
X107.729Y85.991
X107.904Y86.088
X108.077Y86.188
X108.249Y86.29
X108.42Y86.394
X108.589Y86.501
X108.757Y86.609
X108.924Y86.72
X109.089Y86.832
X109.253Y86.947
X109.416Y87.064
X109.576Y87.182
X109.736Y87.303
X109.894Y87.426
X110.05Y87.55
X110.205Y87.677
X110.358Y87.805
X110.51Y87.936
X110.66Y88.068
X110.808Y88.202
X110.955Y88.338
X111.1Y88.476
X111.243Y88.616
X111.384Y88.757
X111.524Y88.901
X111.662Y89.045
X111.798Y89.192
X111.932Y89.34
X112.064Y89.49
X112.195Y89.642
X112.323Y89.795
X112.45Y89.95
X112.574Y90.107
X112.697Y90.264
X112.818Y90.424
X112.936Y90.585
X113.053Y90.747
X113.168Y90.911
X113.28Y91.077
X113.391Y91.243
X113.499Y91.411
X113.606Y91.581
X113.71Y91.751
X113.812Y91.924
X113.912Y92.097
X114.009Y92.271
X114.105Y92.447
X114.198Y92.624
X114.289Y92.802
X114.378Y92.981
X114.465Y93.161
X114.549Y93.343
X114.631Y93.525
X114.711Y93.709
X114.788Y93.893
X114.863Y94.078
X114.936Y94.265
X115.007Y94.452
X115.075Y94.64
X115.141Y94.829
X115.204Y95.018
X115.265Y95.209
X115.324Y95.4
X115.38Y95.592
X115.434Y95.784
X115.46Y95.879Z-5F500
X115.486Y95.978F1000
X115.535Y96.172
X115.581Y96.366
X115.626Y96.561
X115.667Y96.757
X115.707Y96.953
X115.744Y97.149
X115.778Y97.346
X115.81Y97.544
X115.839Y97.742
X115.866Y97.94
X115.891Y98.138
X115.913Y98.337
X115.932Y98.536
X115.949Y98.735
X115.964Y98.935
X115.976Y99.134
X115.986Y99.334
X115.993Y99.534
X115.997Y99.734
X115.999Y99.934
Y100.134
X115.996Y100.334
X115.991Y100.534
X115.983Y100.734
X115.972Y100.933
X115.959Y101.133
X115.944Y101.332
X115.926Y101.532
X115.906Y101.731
X115.883Y101.929
X115.857Y102.128
X115.829Y102.326
X115.799Y102.523
X115.766Y102.721
X115.731Y102.918
X115.693Y103.114
X115.653Y103.31
X115.611Y103.505
X115.566Y103.7
X115.518Y103.894
X115.468Y104.088
X115.416Y104.281
X115.361Y104.474
X115.304Y104.665
X115.245Y104.856
X115.183Y105.046
X115.118Y105.236
X115.052Y105.424
X114.983Y105.612
X114.911Y105.799
X114.838Y105.985
X114.762Y106.17
X114.684Y106.354
X114.603Y106.537
X114.52Y106.719
X114.435Y106.9
X114.348Y107.08
X114.258Y107.259
X114.166Y107.436
X114.072Y107.613
X113.976Y107.788
X113.877Y107.962
X113.777Y108.135
X113.674Y108.307
X113.569Y108.477
X113.462Y108.646
X113.353Y108.813
X113.242Y108.98
X113.128Y109.144
X113.013Y109.308
X112.896Y109.47
X112.776Y109.63
X112.655Y109.789
X112.532Y109.947
X112.406Y110.102
X112.279Y110.257
X112.15Y110.409
X112.019Y110.561
X111.886Y110.71
X111.751Y110.858
X111.614Y111.004
X111.476Y111.148
X111.405Y111.22
X111.336Y111.291Z-2
X111.194Y111.431
X111.05Y111.57
X110.904Y111.708
X110.757Y111.843
X110.608Y111.977
X110.458Y112.108
X110.306Y112.238
X110.152Y112.366
X109.996Y112.492
X109.84Y112.616
X109.681Y112.738
X109.521Y112.858
X109.36Y112.976
X109.197Y113.092
X109.032Y113.206
X108.867Y113.318
X108.699Y113.427
X108.531Y113.535
X108.361Y113.641
X108.19Y113.744
X108.017Y113.846
X107.844Y113.945
X107.669Y114.042
X107.493Y114.136
X107.315Y114.229
X107.137Y114.319
X106.957Y114.407
X106.777Y114.493
X106.595Y114.577
X106.412Y114.658
X106.229Y114.737
X106.044Y114.814
X105.858Y114.888
X105.672Y114.96
X105.484Y115.03
X105.296Y115.097
X105.107Y115.162
X104.917Y115.225
X104.726Y115.285
X104.535Y115.343
X104.343Y115.399
X104.15Y115.452
X103.956Y115.502
X103.762Y115.551
X103.567Y115.597
X103.372Y115.64
X103.176Y115.681
X102.98Y115.719
X102.783Y115.755
X102.586Y115.789
X102.389Y115.82
X102.191Y115.849
X101.993Y115.875
X101.794Y115.898
X101.595Y115.92
X101.396Y115.938
X101.197Y115.955
X100.997Y115.968
X100.797Y115.98
X100.598Y115.988
X100.398Y115.994
X100.198Y115.998
X99.998Y115.999
X99.798Y115.998
X99.598Y115.994
X99.398Y115.988
X99.198Y115.979
X98.998Y115.968
X98.799Y115.954
X98.6Y115.938
X98.4Y115.919
X98.202Y115.898
X98.003Y115.874
X97.805Y115.848
X97.607Y115.819
X97.409Y115.788
X97.212Y115.755
X97.015Y115.719
X96.819Y115.68
X96.623Y115.639
X96.428Y115.596
X96.233Y115.55
X96.039Y115.502
X95.846Y115.451
X95.653Y115.398
X95.461Y115.342
X95.27Y115.284
X95.079Y115.224
X94.889Y115.161Z-2.949F500
X94.808Y115.134Z-5
X94.7Y115.096F1000
X94.512Y115.029
X94.324Y114.959
X94.138Y114.887
X93.952Y114.812
X93.767Y114.736
X93.584Y114.657
X93.401Y114.575
X93.219Y114.492
X93.038Y114.406
X92.859Y114.318
X92.681Y114.227
X92.503Y114.135
X92.327Y114.04
X92.152Y113.943
X91.979Y113.844
X91.806Y113.742
X91.635Y113.639
X91.465Y113.533
X91.297Y113.426
X91.13Y113.316
X90.964Y113.204
X90.799Y113.09
X90.637Y112.974
X90.475Y112.856
X90.315Y112.736
X90.157Y112.614
X90Y112.49
X89.844Y112.364
X89.691Y112.236
X89.539Y112.106
X89.388Y111.974
X89.239Y111.841
X89.092Y111.705
X88.947Y111.568
X88.803Y111.429
X88.661Y111.288
X88.521Y111.145
X88.382Y111.001
X88.246Y110.855
X88.111Y110.707
X87.978Y110.558
X87.847Y110.407
X87.718Y110.254
X87.591Y110.1
X87.465Y109.944
X87.342Y109.786
X87.221Y109.627
X87.101Y109.467
X86.984Y109.305
X86.869Y109.142
X86.755Y108.977
X86.644Y108.81
X86.535Y108.643
X86.428Y108.474
X86.323Y108.304
X86.221Y108.132
X86.12Y107.959
X86.022Y107.785
X85.925Y107.61
X85.831Y107.433
X85.739Y107.255
X85.65Y107.077
X85.563Y106.897
X85.477Y106.716
X85.395Y106.534
X85.314Y106.351
X85.236Y106.167
X85.16Y105.981
X85.086Y105.796
X85.015Y105.609
X84.946Y105.421
X84.88Y105.232
X84.815Y105.043
X84.753Y104.853
X84.694Y104.662
X84.637Y104.47
X84.582Y104.278
X84.53Y104.085
X84.48Y103.891
X84.433Y103.697
X84.388Y103.502
X84.345Y103.306
X84.305Y103.111
X84.267Y102.914
X84.232Y102.717
X84.199Y102.52
X84.169Y102.322
X84.141Y102.124
X84.116Y101.926
X84.093Y101.727
X84.073Y101.528
X84.055Y101.329
X84.04Y101.13
X84.027Y100.93
X84.016Y100.73
X84.008Y100.53
X84.003Y100.33
X83.999Y100
X83
X83.001Y99.8
X83.004Y99.6
X83.01Y99.4
X83.018Y99.2
X83.029Y99
X83.042Y98.8
X83.057Y98.601
X83.075Y98.402
X83.095Y98.203
X83.117Y98.004
X83.142Y97.806
X83.169Y97.607
X83.198Y97.41
X83.23Y97.212
X83.264Y97.015
X83.3Y96.818
X83.338Y96.622
X83.379Y96.426
X83.422Y96.231
X83.468Y96.036
X83.516Y95.842
X83.566Y95.648
X83.618Y95.455
X83.673Y95.263
X83.73Y95.071
X83.789Y94.88
X83.85Y94.69
X83.914Y94.5
X83.979Y94.311
X84.047Y94.123
X84.118Y93.936
X84.19Y93.75
X84.224Y93.664
X84.265Y93.564Z-2
X84.341Y93.379
X84.42Y93.196
X84.502Y93.013
X84.585Y92.831
X84.67Y92.65
X84.758Y92.47
X84.847Y92.292
X84.939Y92.114
X85.033Y91.937
X85.129Y91.762
X85.227Y91.587
X85.327Y91.414
X85.429Y91.242
X85.533Y91.071
X85.639Y90.902
X85.747Y90.733
X85.857Y90.566
X85.969Y90.401
X86.083Y90.236
X86.199Y90.073
X86.316Y89.911
X86.436Y89.751
X86.557Y89.592
X86.681Y89.435
X86.806Y89.279
X86.933Y89.124
X87.062Y88.972
X87.192Y88.82
X87.325Y88.67
X87.459Y88.522
X87.595Y88.375
X87.733Y88.23
X87.872Y88.086
X88.013Y87.945
X88.155Y87.804
X88.3Y87.666
X88.446Y87.529
X88.593Y87.394
X88.742Y87.261
X88.893Y87.129
X89.045Y86.999
X89.199Y86.871
X89.354Y86.745
X89.511Y86.621
X89.669Y86.499
X89.828Y86.378
X89.989Y86.259
X90.152Y86.142
X90.315Y86.028
X90.48Y85.915
X90.647Y85.804
X90.814Y85.694
X90.983Y85.587
X91.153Y85.482
X91.325Y85.379
X91.497Y85.278
X91.671Y85.179
X91.846Y85.082
X92.022Y84.987
X92.199Y84.895
X92.378Y84.804
X92.557Y84.715
X92.737Y84.629
X92.919Y84.544
X93.101Y84.462
X93.284Y84.382
X93.468Y84.304
X93.653Y84.228
X93.839Y84.155
X94.026Y84.083
X94.214Y84.014
X94.402Y83.947
X94.592Y83.883
X94.782Y83.82
X94.972Y83.76
X95.164Y83.702
X95.356Y83.646
X95.548Y83.593
X95.742Y83.541
X95.936Y83.492
X96.13Y83.446
X96.325Y83.401
X96.521Y83.359
X96.717Y83.319
X96.913Y83.282
X97.11Y83.247
X97.307Y83.214
X97.505Y83.184
X97.703Y83.155
X97.901Y83.129
X98.1Y83.106
X98.299Y83.085
X98.498Y83.066
X98.697Y83.049
X98.897Y83.035
X99.096Y83.023
X99.296Y83.014
X99.496Y83.007
X99.696Y83.002
X99.896Y83
X100.096
X100.296Y83.002
X100.496Y83.007
X100.696Y83.014
X100.896Y83.023
X101.095Y83.035
X101.295Y83.049
X101.494Y83.065
X101.693Y83.084
X101.892Y83.105
X102.091Y83.129
X102.289Y83.154
X102.487Y83.182
X102.685Y83.213
X102.882Y83.246
X103.079Y83.281
X103.275Y83.318
X103.471Y83.358
X103.667Y83.4
X103.862Y83.444
X104.056Y83.491
X104.25Y83.54
X104.444Y83.591
X104.636Y83.644
X104.829Y83.7
X105.02Y83.758
X105.211Y83.818
X105.401Y83.88
X105.59Y83.945
X105.778Y84.012
X105.966Y84.081
X106.153Y84.152
X106.339Y84.226
X106.524Y84.301
X106.708Y84.379
X106.892Y84.459
X107.074Y84.541
X107.255Y84.626
X107.436Y84.712
X107.615Y84.801
X107.793Y84.891
X107.971Y84.984
X108.147Y85.079
X108.322Y85.176
X108.495Y85.275
X108.668Y85.376
X108.84Y85.479
X109.01Y85.584
X109.179Y85.691
X109.346Y85.8
X109.513Y85.911
X109.678Y86.023
X109.842Y86.138
X110.004Y86.255
X110.165Y86.374
X110.325Y86.494
X110.483Y86.617
X110.64Y86.741
X110.795Y86.867
X110.949Y86.995
X111.101Y87.125
X111.251Y87.256
X111.401Y87.389
X111.548Y87.524
X111.694Y87.661
X111.838Y87.8
X111.981Y87.94
X112.122Y88.081
X112.262Y88.225
X112.399Y88.37
X112.535Y88.517
X112.669Y88.665
X112.802Y88.815
X112.933Y88.966
X113.062Y89.119
X113.189Y89.273
X113.314Y89.429
X113.437Y89.587
X113.559Y89.746
X113.679Y89.906
X113.796Y90.067
X113.912Y90.23
X114.026Y90.395
X114.138Y90.56
X114.248Y90.727
X114.356Y90.896
X114.463Y91.065
X114.567Y91.236
X114.669Y91.408
X114.769Y91.581
X114.867Y91.755
X114.963Y91.931
X115.057Y92.108
X115.148Y92.285
X115.238Y92.464
X115.326Y92.644
X115.411Y92.825
X115.495Y93.006
X115.576Y93.189
X115.655Y93.373
X115.732Y93.558
X115.806Y93.743
X115.879Y93.929
X115.949Y94.117
X116.017Y94.305
X116.083Y94.494
X116.147Y94.683
X116.208Y94.873
X116.267Y95.065
X116.324Y95.256
X116.351Y95.35Z-5F500
X116.379Y95.449F1000
X116.431Y95.642
X116.482Y95.835
X116.529Y96.029
X116.575Y96.224
X116.618Y96.419
X116.659Y96.615
X116.698Y96.811
X116.734Y97.008
X116.768Y97.205
X116.8Y97.403
X116.829Y97.6
X116.856Y97.799
X116.881Y97.997
X116.904Y98.196
X116.924Y98.395
X116.941Y98.594
X116.957Y98.793
X116.97Y98.993
X116.98Y99.193
X116.989Y99.393
X116.995Y99.592
X116.998Y99.792
X117Y99.992
X116.998Y100.192
X116.995Y100.392
X116.989Y100.592
X116.981Y100.792
X116.971Y100.992
X116.958Y101.191
X116.942Y101.391
X116.925Y101.59
X116.905Y101.789
X116.883Y101.988
X116.858Y102.186
X116.831Y102.385
X116.802Y102.582
X116.771Y102.78
X116.737Y102.977
X116.701Y103.174
X116.662Y103.37
X116.621Y103.566
X116.578Y103.761
X116.533Y103.956
X116.485Y104.15
X116.435Y104.344
X116.383Y104.537
X116.328Y104.729
X116.272Y104.921
X116.213Y105.112
X116.151Y105.302
X116.088Y105.492
X116.022Y105.681
X115.954Y105.869
X115.884Y106.056
X115.812Y106.243
X115.737Y106.428
X115.66Y106.613
X115.581Y106.797
X115.5Y106.98
X115.417Y107.162
X115.332Y107.343
X115.244Y107.522
X115.155Y107.701
X115.063Y107.879
X114.969Y108.056
X114.874Y108.231
X114.776Y108.406
X114.676Y108.579
X114.574Y108.751
X114.47Y108.922
X114.364Y109.091
X114.256Y109.26
X114.146Y109.427
X114.034Y109.593
X113.92Y109.757
X113.805Y109.92
X113.687Y110.082
X113.567Y110.242
X113.446Y110.401
X113.323Y110.559
X113.198Y110.715
X113.071Y110.869
X112.942Y111.022
X112.811Y111.174
X112.679Y111.324
X112.545Y111.472
X112.409Y111.619
X112.271Y111.764
X112.132Y111.908
X111.991Y112.049
X111.919Y112.12
X111.849Y112.19Z-2
X111.704Y112.328
X111.559Y112.465
X111.411Y112.6
X111.262Y112.734
X111.111Y112.865
X110.959Y112.995
X110.806Y113.123
X110.651Y113.249
X110.494Y113.374
X110.336Y113.496
X110.176Y113.617
X110.015Y113.736
X109.853Y113.853
X109.69Y113.967
X109.525Y114.081
X109.358Y114.192
X109.191Y114.301
X109.022Y114.408
X108.852Y114.513
X108.68Y114.616
X108.508Y114.717
X108.334Y114.816
X108.159Y114.913
X107.983Y115.008
X107.806Y115.101
X107.628Y115.192
X107.448Y115.281
X107.268Y115.367
X107.087Y115.452
X106.905Y115.534
X106.721Y115.614
X106.537Y115.692
X106.352Y115.768
X106.166Y115.842
X105.979Y115.913
X105.792Y115.982
X105.603Y116.049
X105.414Y116.114
X105.224Y116.177
X105.033Y116.237
X104.842Y116.295
X104.65Y116.351
X104.457Y116.405
X104.264Y116.456
X104.07Y116.505
X103.876Y116.552
X103.681Y116.596
X103.485Y116.638
X103.289Y116.678
X103.093Y116.716
X102.896Y116.751
X102.699Y116.784
X102.501Y116.814
X102.303Y116.843
X102.105Y116.869
X101.906Y116.892
X101.707Y116.914
X101.508Y116.932
X101.309Y116.949
X101.109Y116.963
X100.91Y116.975
X100.71Y116.985
X100.51Y116.992
X100.31Y116.997
X100.11Y116.999
X99.91
X99.71Y116.997
X99.51Y116.992
X99.31Y116.986
X99.111Y116.976
X98.911Y116.965
X98.711Y116.951
X98.512Y116.934
X98.313Y116.916
X98.114Y116.895
X97.915Y116.871
X97.717Y116.846
X97.519Y116.818
X97.321Y116.787
X97.124Y116.755
X96.927Y116.72
X96.731Y116.682
X96.535Y116.643
X96.339Y116.601
X96.144Y116.557
X95.949Y116.51
X95.755Y116.461
X95.562Y116.41
X95.369Y116.357
X95.177Y116.301
X94.986Y116.243
X94.795Y116.183
X94.605Y116.121
X94.416Y116.056
X94.227Y115.99
X94.039Y115.921
X93.942Y115.883Z-5F500
X93.853Y115.849F1000
X93.667Y115.776
X93.481Y115.7
X93.297Y115.623
X93.114Y115.543
X92.931Y115.461
X92.75Y115.376
X92.57Y115.29
X92.39Y115.201
X92.212Y115.111
X92.035Y115.018
X91.859Y114.924
X91.684Y114.827
X91.51Y114.728
X91.337Y114.627
X91.166Y114.524
X90.995Y114.419
X90.826Y114.312
X90.659Y114.203
X90.492Y114.092
X90.327Y113.98
X90.163Y113.865
X90.001Y113.748
X89.84Y113.63
X89.68Y113.509
X89.522Y113.387
X89.365Y113.263
X89.21Y113.137
X89.056Y113.009
X88.904Y112.879
X88.753Y112.748
X88.604Y112.614
X88.456Y112.479
X88.31Y112.343
X88.166Y112.204
X88.023Y112.064
X87.882Y111.923
X87.742Y111.779
X87.605Y111.634
X87.469Y111.488
X87.334Y111.339
X87.202Y111.19
X87.071Y111.038
X86.942Y110.885
X86.815Y110.731
X86.69Y110.575
X86.566Y110.418
X86.444Y110.259
X86.325Y110.099
X86.207Y109.937
X86.091Y109.774
X85.977Y109.61
X85.865Y109.444
X85.755Y109.278
X85.646Y109.109
X85.54Y108.94
X85.436Y108.769
X85.334Y108.597
X85.234Y108.424
X85.136Y108.25
X85.04Y108.074
X84.946Y107.898
X84.854Y107.72
X84.764Y107.541
X84.676Y107.362
X84.591Y107.181
X84.507Y106.999
X84.426Y106.816
X84.347Y106.633
X84.27Y106.448
X84.195Y106.263
X84.123Y106.076
X84.052Y105.889
X83.984Y105.701
X83.918Y105.512
X83.854Y105.323
X83.793Y105.132
X83.734Y104.941
X83.677Y104.75
X83.622Y104.557
X83.569Y104.364
X83.519Y104.171
X83.471Y103.976
X83.426Y103.782
X83.382Y103.586
X83.341Y103.391
X83.302Y103.195
X83.266Y102.998
X83.232Y102.801
X83.2Y102.603
X83.171Y102.406
X83.143Y102.207
X83.119Y102.009
X83.096Y101.81
X83.076Y101.611
X83.058Y101.412
X83.043Y101.213
X83.03Y101.013
X83.019Y100.813
X83.011Y100.614
X83.004Y100.414
X83.001Y100.214
X83Y100
X82
X82.001Y99.8
X82.004Y99.6
X82.01Y99.4
X82.017Y99.2
X82.027Y99
X82.039Y98.8
X82.054Y98.601
X82.071Y98.402
X82.089Y98.203
X82.111Y98.004
X82.134Y97.805
X82.159Y97.607
X82.187Y97.409
X82.217Y97.211
X82.249Y97.013
X82.283Y96.816
X82.32Y96.62
X82.358Y96.423
X82.399Y96.228
X82.442Y96.032
X82.487Y95.838
X82.535Y95.643
X82.584Y95.449
X82.636Y95.256
X82.69Y95.064
X82.745Y94.872
X82.803Y94.68
X82.864Y94.489
X82.926Y94.299
X82.99Y94.11
X83.021Y94.023
X83.057Y93.921Z-2
X83.125Y93.734
X83.196Y93.546
X83.269Y93.36
X83.344Y93.175
X83.42Y92.99
X83.499Y92.806
X83.58Y92.623
X83.663Y92.441
X83.748Y92.26
X83.835Y92.08
X83.924Y91.901
X84.015Y91.723
X84.108Y91.546
X84.203Y91.37
X84.3Y91.195
X84.399Y91.021
X84.499Y90.848
X84.602Y90.677
X84.707Y90.506
X84.813Y90.337
X84.921Y90.169
X85.031Y90.002
X85.143Y89.836
X85.257Y89.672
X85.373Y89.508
X85.49Y89.346
X85.61Y89.186
X85.731Y89.027
X85.854Y88.869
X85.978Y88.712
X86.104Y88.557
X86.232Y88.404
X86.362Y88.251
X86.493Y88.101
X86.626Y87.951
X86.761Y87.803
X86.897Y87.657
X87.035Y87.512
X87.175Y87.369
X87.316Y87.227
X87.459Y87.087
X87.603Y86.949
X87.749Y86.812
X87.896Y86.676
X88.045Y86.543
X88.195Y86.411
X88.347Y86.28
X88.5Y86.152
X88.655Y86.025
X88.811Y85.9
X88.968Y85.776
X89.127Y85.655
X89.287Y85.535
X89.448Y85.416
X89.611Y85.3
X89.775Y85.186
X89.94Y85.073
X90.106Y84.962
X90.274Y84.853
X90.443Y84.746
X90.613Y84.641
X90.784Y84.537
X90.957Y84.436
X91.13Y84.336
X91.305Y84.239
X91.48Y84.143
X91.657Y84.05
X91.835Y83.958
X92.014Y83.868
X92.193Y83.78
X92.374Y83.695
X92.556Y83.611
X92.738Y83.529
X92.922Y83.45
X93.106Y83.372
X93.291Y83.296
X93.477Y83.223
X93.664Y83.151
X93.851Y83.082
X94.04Y83.015
X94.229Y82.95
X94.419Y82.887
X94.609Y82.826
X94.8Y82.767
X94.992Y82.71
X95.185Y82.656
X95.378Y82.603
X95.571Y82.553
X95.765Y82.505
X95.96Y82.459
X96.155Y82.415
X96.351Y82.373
X96.547Y82.334
X96.743Y82.297
X96.94Y82.261
X97.137Y82.229
X97.335Y82.198
X97.533Y82.169
X97.731Y82.143
X97.93Y82.119
X98.129Y82.097
X98.328Y82.077
X98.527Y82.06
X98.726Y82.045
X98.926Y82.032
X99.126Y82.021
X99.325Y82.012
X99.525Y82.006
X99.725Y82.002
X99.925Y82
X100.125
X100.325Y82.003
X100.525Y82.007
X100.725Y82.014
X100.925Y82.023
X101.124Y82.035
X101.324Y82.048
X101.523Y82.064
X101.723Y82.082
X101.921Y82.102
X102.12Y82.125
X102.319Y82.15
X102.517Y82.176
X102.715Y82.206
X102.912Y82.237
X103.109Y82.27
X103.306Y82.306
X103.503Y82.344
X103.699Y82.384
X103.894Y82.426
X104.089Y82.47
X104.284Y82.517
X104.478Y82.566
X104.671Y82.616
X104.864Y82.669
X105.056Y82.724
X105.248Y82.782
X105.439Y82.841
X105.629Y82.903
X105.819Y82.966
X106.008Y83.032
X106.196Y83.1
X106.383Y83.17
X106.57Y83.242
X106.756Y83.316
X106.94Y83.392
X107.125Y83.47
X107.308Y83.55
X107.49Y83.632
X107.671Y83.716
X107.852Y83.803
X108.031Y83.891
X108.21Y83.981
X108.387Y84.073
X108.564Y84.168
X108.739Y84.264
X108.913Y84.362
X109.087Y84.462
X109.259Y84.564
X109.43Y84.668
X109.599Y84.773
X109.768Y84.881
X109.935Y84.99
X110.102Y85.102
X110.266Y85.215
X110.43Y85.33
X110.592Y85.447
X110.754Y85.565
X110.913Y85.686
X111.072Y85.808
X111.229Y85.932
X111.384Y86.057
X111.538Y86.185
X111.691Y86.314
X111.843Y86.444
X111.992Y86.577
X112.141Y86.711
X112.288Y86.847
X112.433Y86.984
X112.577Y87.123
X112.719Y87.264
X112.86Y87.406
X112.999Y87.549
X113.137Y87.695
X113.273Y87.841
X113.407Y87.989
X113.539Y88.139
X113.67Y88.29
X113.8Y88.443
X113.927Y88.597
X114.053Y88.752
X114.177Y88.909
X114.299Y89.068
X114.42Y89.227
X114.539Y89.388
X114.656Y89.55
X114.771Y89.714
X114.884Y89.878
X114.996Y90.044
X115.106Y90.212
X115.213Y90.38
X115.319Y90.55
X115.423Y90.721
X115.526Y90.892
X115.626Y91.066
X115.724Y91.24
X115.82Y91.415
X115.915Y91.591
X116.007Y91.769
X116.098Y91.947
X116.186Y92.126
X116.273Y92.307
X116.357Y92.488
X116.44Y92.67
X116.52Y92.853
X116.598Y93.037
X116.675Y93.222
X116.749Y93.408
X116.821Y93.594
X116.891Y93.782
X116.959Y93.97
X117.025Y94.159
X117.089Y94.348
X117.151Y94.538
X117.211Y94.729
X117.239Y94.823Z-5F500
X117.268Y94.921F1000
X117.323Y95.113
X117.377Y95.306
X117.428Y95.499
X117.477Y95.693
X117.523Y95.887
X117.568Y96.082
X117.61Y96.278
X117.651Y96.474
X117.689Y96.67
X117.725Y96.867
X117.758Y97.064
X117.79Y97.262
X117.819Y97.459
X117.846Y97.658
X117.871Y97.856
X117.894Y98.055
X117.915Y98.254
X117.933Y98.453
X117.949Y98.652
X117.963Y98.852
X117.974Y99.051
X117.984Y99.251
X117.991Y99.451
X117.996Y99.651
X117.999Y99.851
Y100.051
X117.998Y100.251
X117.994Y100.451
X117.988Y100.651
X117.979Y100.851
X117.969Y101.05
X117.956Y101.25
X117.941Y101.449
X117.924Y101.649
X117.904Y101.848
X117.883Y102.046
X117.859Y102.245
X117.833Y102.443
X117.804Y102.641
X117.774Y102.839
X117.741Y103.036
X117.707Y103.233
X117.67Y103.43
X117.63Y103.626
X117.589Y103.821
X117.545Y104.017
X117.5Y104.211
X117.452Y104.406
X117.402Y104.599
X117.35Y104.792
X117.295Y104.985
X117.239Y105.177
X117.18Y105.368
X117.119Y105.558
X117.057Y105.748
X116.992Y105.937
X116.925Y106.126
X116.856Y106.314
X116.784Y106.5
X116.711Y106.687
X116.636Y106.872
X116.558Y107.056
X116.479Y107.24
X116.398Y107.422
X116.314Y107.604
X116.229Y107.785
X116.141Y107.965
X116.052Y108.144
X115.96Y108.322
X115.867Y108.498
X115.771Y108.674
X115.674Y108.849
X115.575Y109.022
X115.473Y109.195
X115.37Y109.366
X115.265Y109.536
X115.158Y109.705
X115.049Y109.873
X114.939Y110.04
X114.826Y110.205
X114.712Y110.369
X114.596Y110.532
X114.478Y110.694
X114.358Y110.854
X114.237Y111.013
X114.114Y111.17
X113.989Y111.326
X113.862Y111.481
X113.733Y111.635
X113.603Y111.786
X113.471Y111.937
X113.338Y112.086
X113.203Y112.233
X113.066Y112.379
X112.928Y112.524
X112.788Y112.666
X112.646Y112.808
X112.503Y112.948
X112.43Y113.017
X112.359Y113.086Z-2
X112.212Y113.222
X112.065Y113.357
X111.916Y113.49
X111.765Y113.622
X111.613Y113.752
X111.459Y113.88
X111.304Y114.006
X111.148Y114.131
X110.99Y114.254
X110.831Y114.375
X110.671Y114.495
X110.509Y114.612
X110.346Y114.728
X110.182Y114.842
X110.016Y114.955
X109.85Y115.065
X109.682Y115.174
X109.512Y115.28
X109.342Y115.385
X109.171Y115.488
X108.998Y115.589
X108.824Y115.688
X108.649Y115.785
X108.473Y115.88
X108.296Y115.973
X108.118Y116.064
X107.939Y116.154
X107.759Y116.241
X107.578Y116.326
X107.397Y116.409
X107.214Y116.49
X107.03Y116.569
X106.846Y116.647
X106.66Y116.722
X106.474Y116.795
X106.287Y116.865
X106.099Y116.934
X105.911Y117.001
X105.721Y117.066
X105.531Y117.128
X105.341Y117.189
X105.149Y117.247
X104.958Y117.303
X104.765Y117.357
X104.572Y117.409
X104.378Y117.459
X104.184Y117.506
X103.989Y117.552
X103.794Y117.595
X103.598Y117.636
X103.402Y117.675
X103.205Y117.712
X103.008Y117.746
X102.811Y117.778
X102.613Y117.809
X102.415Y117.836
X102.217Y117.862
X102.018Y117.886
X101.819Y117.907
X101.62Y117.926
X101.421Y117.943
X101.222Y117.958
X101.022Y117.97
X100.822Y117.981
X100.622Y117.989
X100.422Y117.994
X100.222Y117.998
X100.023Y117.999
X99.823Y117.998
X99.623Y117.995
X99.423Y117.99
X99.223Y117.983
X99.023Y117.973
X98.823Y117.961
X98.624Y117.947
X98.425Y117.93
X98.225Y117.912
X98.026Y117.891
X97.828Y117.868
X97.629Y117.843
X97.431Y117.815
X97.234Y117.786
X97.036Y117.754
X96.839Y117.72
X96.642Y117.683
X96.446Y117.645
X96.25Y117.605
X96.055Y117.562
X95.86Y117.517
X95.666Y117.47
X95.472Y117.421
X95.278Y117.369
X95.086Y117.316
X94.894Y117.26
X94.702Y117.202
X94.511Y117.142
X94.321Y117.08
X94.132Y117.016
X93.943Y116.95
X93.755Y116.881
X93.568Y116.811
X93.382Y116.739
X93.196Y116.664
X93.011Y116.587Z-3.809F500
X92.955Y116.563Z-5
X92.827Y116.509F1000
X92.644Y116.428
X92.462Y116.345
X92.281Y116.26
X92.101Y116.174
X91.922Y116.085
X91.743Y115.994
X91.566Y115.902
X91.39Y115.807
X91.215Y115.71
X91.041Y115.612
X90.868Y115.511
X90.696Y115.409
X90.526Y115.304
X90.356Y115.198
X90.188Y115.09
X90.021Y114.98
X89.855Y114.868
X89.69Y114.755
X89.527Y114.639
X89.365Y114.522
X89.204Y114.403
X89.045Y114.282
X88.887Y114.16
X88.73Y114.035
X88.575Y113.909
X88.421Y113.781
X88.269Y113.652
X88.118Y113.521
X87.968Y113.388
X87.82Y113.253
X87.674Y113.117
X87.529Y112.979
X87.385Y112.84
X87.244Y112.699
X87.103Y112.557
X86.965Y112.413
X86.827Y112.267
X86.692Y112.12
X86.558Y111.971
X86.426Y111.821
X86.295Y111.67
X86.167Y111.517
X86.039Y111.362
X85.914Y111.206
X85.79Y111.049
X85.669Y110.891
X85.548Y110.731
X85.43Y110.569
X85.314Y110.407
X85.199Y110.243
X85.086Y110.078
X84.975Y109.912
X84.866Y109.744
X84.758Y109.575
X84.653Y109.405
X84.549Y109.234
X84.448Y109.062
X84.348Y108.889
X84.25Y108.714
X84.154Y108.539
X84.06Y108.362
X83.968Y108.185
X83.878Y108.006
X83.79Y107.826
X83.705Y107.646
X83.621Y107.464
X83.539Y107.282
X83.459Y107.098
X83.381Y106.914
X83.305Y106.729
X83.231Y106.543
X83.16Y106.357
X83.09Y106.169
X83.023Y105.981
X82.957Y105.792
X82.894Y105.602
X82.833Y105.412
X82.774Y105.221
X82.717Y105.029
X82.662Y104.837
X82.609Y104.644
X82.559Y104.45
X82.51Y104.256
X82.464Y104.061
X82.42Y103.866
X82.378Y103.671
X82.338Y103.475
X82.301Y103.278
X82.266Y103.082
X82.232Y102.884
X82.201Y102.687
X82.173Y102.489
X82.146Y102.291
X82.122Y102.092
X82.1Y101.893
X82.08Y101.694
X82.062Y101.495
X82.046Y101.296
X82.033Y101.096
X82.022Y100.896
X82.013Y100.697
X82.007Y100.497
X82.002Y100.297
X82Y100
X81
X81.001Y99.8
X81.004Y99.6
X81.009Y99.4
X81.016Y99.2
X81.026Y99
X81.037Y98.8
X81.051Y98.601
X81.067Y98.401
X81.085Y98.202
X81.105Y98.003
X81.127Y97.804
X81.151Y97.606
X81.177Y97.408
X81.205Y97.21
X81.236Y97.012
X81.268Y96.815
X81.303Y96.618
X81.34Y96.421
X81.378Y96.225
X81.419Y96.029
X81.462Y95.834
X81.507Y95.639
X81.554Y95.444
X81.603Y95.25
X81.654Y95.057
X81.707Y94.864
X81.762Y94.672
X81.819Y94.48
X81.846Y94.393
X81.878Y94.289Z-2
X81.939Y94.099
X82.002Y93.909
X82.067Y93.72
X82.134Y93.531
X82.203Y93.344
X82.274Y93.157
X82.347Y92.971
X82.422Y92.785
X82.499Y92.601
X82.578Y92.417
X82.659Y92.234
X82.742Y92.052
X82.826Y91.87
X82.913Y91.69
X83.001Y91.511
X83.091Y91.332
X83.184Y91.155
X83.278Y90.978
X83.374Y90.803
X83.471Y90.628
X83.571Y90.455
X83.672Y90.282
X83.775Y90.111
X83.88Y89.941
X83.987Y89.772
X84.096Y89.604
X84.206Y89.437
X84.318Y89.271
X84.432Y89.107
X84.547Y88.944
X84.665Y88.782
X84.784Y88.621
X84.904Y88.461
X85.026Y88.303
X85.15Y88.146
X85.276Y87.99
X85.403Y87.836
X85.532Y87.683
X85.663Y87.531
X85.795Y87.381
X85.928Y87.232
X86.063Y87.085
X86.2Y86.939
X86.338Y86.794
X86.478Y86.651
X86.619Y86.51
X86.762Y86.37
X86.906Y86.231
X87.052Y86.094
X87.199Y85.959
X87.347Y85.825
X87.497Y85.692
X87.649Y85.561
X87.801Y85.432
X87.955Y85.305
X88.111Y85.179
X88.267Y85.054
X88.425Y84.932
X88.585Y84.811
X88.745Y84.691
X88.907Y84.574
X89.07Y84.458
X89.234Y84.344
X89.399Y84.231
X89.566Y84.12
X89.734Y84.012
X89.903Y83.904
X90.073Y83.799
X90.244Y83.695
X90.416Y83.594
X90.589Y83.494
X90.763Y83.395
X90.939Y83.299
X91.115Y83.205
X91.292Y83.112
X91.47Y83.021
X91.65Y82.933
X91.83Y82.846
X92.011Y82.761
X92.193Y82.677
X92.375Y82.596
X92.559Y82.517
X92.743Y82.44
X92.929Y82.364
X93.115Y82.291
X93.301Y82.219
X93.489Y82.15
X93.677Y82.082
X93.866Y82.017
X94.056Y81.953
X94.246Y81.891
X94.437Y81.832
X94.629Y81.774
X94.821Y81.719
X95.013Y81.665
X95.207Y81.614
X95.4Y81.564
X95.595Y81.517
X95.79Y81.472
X95.985Y81.428
X96.181Y81.387
X96.377Y81.348
X96.573Y81.311
X96.77Y81.276
X96.967Y81.243
X97.165Y81.212
X97.363Y81.183
X97.561Y81.157
X97.76Y81.132
X97.958Y81.109
X98.157Y81.089
X98.356Y81.071
X98.556Y81.054
X98.755Y81.04
X98.955Y81.028
X99.155Y81.018
X99.354Y81.01
X99.554Y81.005
X99.754Y81.001
X99.954Y80.999
X100.154Y81
X100.354Y81.003
X100.554Y81.008
X100.754Y81.014
X100.954Y81.023
X101.154Y81.035
X101.353Y81.048
X101.553Y81.063
X101.752Y81.08
X101.951Y81.1
X102.15Y81.121
X102.348Y81.145
X102.547Y81.171
X102.745Y81.199
X102.942Y81.229
X103.14Y81.261
X103.337Y81.295
X103.534Y81.331
X103.73Y81.369
X103.926Y81.41
X104.121Y81.452
X104.316Y81.496
X104.511Y81.543
X104.705Y81.591
X104.898Y81.642
X105.091Y81.694
X105.284Y81.749
X105.476Y81.806
X105.667Y81.864
X105.857Y81.925
X106.047Y81.988
X106.237Y82.052
X106.425Y82.119
X106.613Y82.188
X106.8Y82.258
X106.986Y82.331
X107.172Y82.405
X107.357Y82.482
X107.541Y82.56
X107.724Y82.64
X107.906Y82.723
X108.088Y82.807
X108.268Y82.893
X108.448Y82.981
X108.627Y83.071
X108.804Y83.163
X108.981Y83.256
X109.157Y83.352
X109.331Y83.449
X109.505Y83.548
X109.678Y83.649
X109.849Y83.752
X110.02Y83.857
X110.189Y83.963
X110.357Y84.071
X110.525Y84.181
X110.69Y84.293
X110.855Y84.406
X111.019Y84.521
X111.181Y84.638
X111.342Y84.757
X111.502Y84.877
X111.661Y84.999
X111.818Y85.122
X111.974Y85.247
X112.128Y85.374
X112.282Y85.503
X112.434Y85.633
X112.584Y85.765
X112.733Y85.898
X112.881Y86.033
X113.027Y86.169
X113.172Y86.307
X113.316Y86.446
X113.457Y86.587
X113.598Y86.73
X113.737Y86.874
X113.874Y87.019
X114.01Y87.166
X114.144Y87.314
X114.277Y87.463
X114.408Y87.614
X114.538Y87.767
X114.666Y87.92
X114.792Y88.075
X114.917Y88.232
X115.04Y88.39
X115.161Y88.549
X115.281Y88.709
X115.399Y88.87
X115.515Y89.033
X115.63Y89.197
X115.743Y89.362
X115.854Y89.528
X115.963Y89.696
X116.071Y89.864
X116.176Y90.034
X116.28Y90.205
X116.383Y90.377
X116.483Y90.55
X116.582Y90.724
X116.678Y90.899
X116.773Y91.075
X116.866Y91.252
X116.957Y91.43
X117.047Y91.609
X117.134Y91.789
X117.219Y91.97
X117.303Y92.151
X117.385Y92.334
X117.464Y92.517
X117.542Y92.702
X117.618Y92.887
X117.692Y93.073
X117.764Y93.259
X117.834Y93.447
X117.902Y93.635
X117.968Y93.823
X118.032Y94.013
X118.094Y94.203
X118.154Y94.394
X118.182Y94.487Z-5F500
X118.212Y94.585F1000
X118.268Y94.777
X118.322Y94.97
X118.374Y95.163
X118.424Y95.357
X118.472Y95.551
X118.517Y95.746
X118.561Y95.941
X118.603Y96.136
X118.642Y96.332
X118.68Y96.529
X118.715Y96.726
X118.749Y96.923
X118.78Y97.12
X118.809Y97.318
X118.837Y97.516
X118.862Y97.715
X118.885Y97.913
X118.906Y98.112
X118.925Y98.311
X118.941Y98.511
X118.956Y98.71
X118.968Y98.91
X118.979Y99.11
X118.987Y99.309
X118.993Y99.509
X118.997Y99.709
X118.999Y99.909
Y100.109
X118.997Y100.309
X118.993Y100.509
X118.986Y100.709
X118.978Y100.909
X118.967Y101.109
X118.955Y101.308
X118.94Y101.508
X118.923Y101.707
X118.904Y101.906
X118.883Y102.105
X118.859Y102.304
X118.834Y102.502
X118.807Y102.7
X118.777Y102.898
X118.746Y103.095
X118.712Y103.293
X118.676Y103.489
X118.639Y103.686
X118.599Y103.882
X118.557Y104.077
X118.513Y104.272
X118.467Y104.467
X118.419Y104.661
X118.369Y104.855
X118.317Y105.048
X118.263Y105.24
X118.206Y105.432
X118.148Y105.624
X118.088Y105.814
X118.026Y106.005
X117.962Y106.194
X117.895Y106.383
X117.827Y106.571
X117.757Y106.758
X117.685Y106.945
X117.611Y107.13
X117.535Y107.315
X117.457Y107.499
X117.377Y107.683
X117.295Y107.865
X117.211Y108.047
X117.126Y108.228
X117.038Y108.407
X116.949Y108.586
X116.857Y108.764
X116.764Y108.941
X116.669Y109.117
X116.572Y109.292
X116.473Y109.466
X116.373Y109.639
X116.27Y109.811
X116.166Y109.982
X116.06Y110.151
X115.953Y110.32
X115.843Y110.487
X115.732Y110.653
X115.619Y110.818
X115.504Y110.982
X115.388Y111.145
X115.269Y111.306
X115.15Y111.466
X115.028Y111.625
X114.905Y111.782
X114.78Y111.939
X114.653Y112.094
X114.525Y112.247
X114.396Y112.399
X114.264Y112.55
X114.131Y112.7
X113.997Y112.848
X113.861Y112.994
X113.723Y113.14
X113.584Y113.283
X113.444Y113.426
X113.302Y113.566
X113.158Y113.706
X113.085Y113.775
X113.013Y113.843Z-2
X112.867Y113.98
X112.719Y114.114
X112.57Y114.247
X112.419Y114.379
X112.267Y114.509
X112.113Y114.637
X111.959Y114.764
X111.803Y114.889
X111.645Y115.012
X111.487Y115.134
X111.327Y115.254
X111.165Y115.373
X111.003Y115.489
X110.839Y115.604
X110.674Y115.717
X110.508Y115.829
X110.341Y115.939
X110.173Y116.047
X110.003Y116.153
X109.833Y116.257
X109.661Y116.36
X109.488Y116.461
X109.315Y116.56
X109.14Y116.657
X108.964Y116.752
X108.787Y116.845
X108.609Y116.937
X108.43Y117.027
X108.251Y117.115
X108.07Y117.2
X107.889Y117.284
X107.706Y117.367
X107.523Y117.447
X107.339Y117.525
X107.154Y117.601
X106.968Y117.676
X106.782Y117.748
X106.595Y117.818
X106.407Y117.887
X106.218Y117.953
X106.029Y118.018
X105.839Y118.08
X105.648Y118.141
X105.457Y118.199
X105.265Y118.256
X105.073Y118.31
X104.88Y118.362
X104.686Y118.413
X104.492Y118.461
X104.297Y118.507
X104.102Y118.551
X103.907Y118.594
X103.711Y118.634
X103.515Y118.672
X103.318Y118.708
X103.121Y118.742
X102.923Y118.773
X102.725Y118.803
X102.527Y118.831
X102.329Y118.856
X102.13Y118.88
X101.932Y118.901
X101.733Y118.921
X101.533Y118.938
X101.334Y118.953
X101.134Y118.966
X100.935Y118.977
X100.735Y118.985
X100.535Y118.992
X100.335Y118.997
X100.135Y118.999
X99.935Y119
X99.735Y118.998
X99.535Y118.994
X99.335Y118.988
X99.135Y118.98
X98.935Y118.97
X98.736Y118.958
X98.536Y118.943
X98.337Y118.927
X98.138Y118.908
X97.939Y118.888
X97.74Y118.865
X97.542Y118.84
X97.344Y118.813
X97.146Y118.784
X96.948Y118.753
X96.751Y118.72
X96.554Y118.685
X96.358Y118.647
X96.161Y118.608
X95.966Y118.567
X95.771Y118.523
X95.576Y118.478
X95.382Y118.43
X95.188Y118.38
X94.995Y118.329
X94.802Y118.275
X94.61Y118.219
X94.418Y118.162
X94.228Y118.102
X94.037Y118.04
X93.848Y117.976
X93.659Y117.911
X93.471Y117.843
X93.283Y117.773
X93.096Y117.701
X92.911Y117.628
X92.725Y117.552
X92.541Y117.475
X92.357Y117.395
X92.175Y117.314
X91.993Y117.23
X91.898Y117.186Z-5F500
X91.812Y117.145F1000
X91.632Y117.058
X91.453Y116.969
X91.275Y116.878
X91.098Y116.785
X90.921Y116.691
X90.746Y116.594
X90.572Y116.496
X90.399Y116.396
X90.227Y116.294
X90.056Y116.19
X89.886Y116.084
X89.717Y115.977
X89.55Y115.868
X89.383Y115.757
X89.218Y115.645
X89.054Y115.53
X88.891Y115.414
X88.729Y115.296
X88.569Y115.177
X88.41Y115.056
X88.252Y114.933
X88.095Y114.808
X87.94Y114.682
X87.786Y114.554
X87.634Y114.425
X87.483Y114.294
X87.333Y114.162
X87.184Y114.028
X87.038Y113.892
X86.892Y113.755
X86.748Y113.616
X86.605Y113.476
X86.464Y113.334
X86.325Y113.191
X86.187Y113.046
X86.05Y112.9
X85.915Y112.752
X85.781Y112.603
X85.65Y112.453
X85.519Y112.301
X85.391Y112.148
X85.264Y111.994
X85.138Y111.838
X85.014Y111.681
X84.892Y111.523
X84.772Y111.363
X84.653Y111.202
X84.536Y111.04
X84.421Y110.876
X84.307Y110.712
X84.195Y110.546
X84.085Y110.379
X83.976Y110.211
X83.87Y110.042
X83.765Y109.871
X83.662Y109.7
X83.561Y109.527
X83.461Y109.354
X83.364Y109.179
X83.268Y109.004
X83.174Y108.827
X83.082Y108.649
X82.992Y108.471
X82.904Y108.291
X82.818Y108.111
X82.733Y107.93
X82.651Y107.748
X82.57Y107.565
X82.492Y107.381
X82.415Y107.196
X82.34Y107.01
X82.267Y106.824
X82.196Y106.637
X82.127Y106.449
X82.061Y106.261
X81.996Y106.072
X81.933Y105.882
X81.872Y105.691
X81.813Y105.5
X81.756Y105.308
X81.701Y105.116
X81.648Y104.923
X81.597Y104.73
X81.549Y104.536
X81.502Y104.341
X81.457Y104.146
X81.415Y103.951
X81.374Y103.755
X81.336Y103.559
X81.299Y103.362
X81.265Y103.165
X81.232Y102.968
X81.202Y102.77
X81.174Y102.572
X81.148Y102.374
X81.124Y102.175
X81.102Y101.976
X81.083Y101.777
X81.065Y101.578
X81.049Y101.379
X81.036Y101.179
X81.024Y100.98
X81.015Y100.78
X81.008Y100.58
X81.003Y100.38
X81Y100
X79.999
X80Y99.8
X80.003Y99.6
X80.008Y99.4
X80.016Y99.2
X80.025Y99
X80.035Y98.8
X80.048Y98.601
X80.063Y98.401
X80.08Y98.202
X80.099Y98.003
X80.12Y97.804
X80.143Y97.605
X80.168Y97.407
X80.195Y97.209
X80.224Y97.011
X80.255Y96.813
X80.288Y96.616
X80.323Y96.419
X80.359Y96.222
X80.398Y96.026
X80.439Y95.83
X80.482Y95.635
X80.526Y95.44
X80.573Y95.245
X80.621Y95.051
X80.644Y94.963
X80.672Y94.858Z-2
X80.724Y94.665
X80.778Y94.472
X80.835Y94.28
X80.893Y94.089
X80.953Y93.898
X81.015Y93.708
X81.079Y93.519
X81.144Y93.33
X81.212Y93.142
X81.282Y92.954
X81.353Y92.767
X81.426Y92.581
X81.501Y92.396
X81.578Y92.211
X81.657Y92.027
X81.738Y91.844
X81.82Y91.662
X81.904Y91.481
X81.991Y91.3
X82.078Y91.121
X82.168Y90.942
X82.26Y90.764
X82.353Y90.587
X82.448Y90.411
X82.545Y90.236
X82.643Y90.062
X82.743Y89.889
X82.845Y89.717
X82.949Y89.546
X83.054Y89.376
X83.161Y89.207
X83.27Y89.039
X83.381Y88.872
X83.493Y88.707
X83.607Y88.542
X83.722Y88.379
X83.839Y88.217
X83.958Y88.056
X84.078Y87.896
X84.2Y87.737
X84.323Y87.58
X84.448Y87.424
X84.575Y87.269
X84.703Y87.115
X84.832Y86.963
X84.963Y86.812
X85.096Y86.662
X85.23Y86.514
X85.366Y86.367
X85.503Y86.221
X85.641Y86.077
X85.781Y85.934
X85.923Y85.792
X86.065Y85.652
X86.21Y85.514
X86.355Y85.377
X86.502Y85.241
X86.65Y85.107
X86.8Y84.974
X86.951Y84.843
X87.103Y84.713
X87.256Y84.585
X87.411Y84.458
X87.567Y84.333
X87.725Y84.209
X87.883Y84.087
X88.043Y83.967
X88.204Y83.848
X88.366Y83.731
X88.529Y83.616
X88.694Y83.502
X88.859Y83.39
X89.026Y83.279
X89.193Y83.17
X89.362Y83.063
X89.532Y82.957
X89.703Y82.854
X89.875Y82.751
X90.048Y82.651
X90.222Y82.552
X90.397Y82.456
X90.573Y82.36
X90.75Y82.267
X90.928Y82.175
X91.106Y82.086
X91.286Y81.998
X91.466Y81.911
X91.648Y81.827
X91.83Y81.744
X92.013Y81.663
X92.196Y81.585
X92.381Y81.507
X92.566Y81.432
X92.752Y81.359
X92.939Y81.287
X93.127Y81.218
X93.315Y81.15
X93.504Y81.084
X93.693Y81.02
X93.883Y80.958
X94.074Y80.898
X94.265Y80.839
X94.457Y80.783
X94.65Y80.728
X94.843Y80.676
X95.036Y80.625
X95.23Y80.577
X95.424Y80.53
X95.619Y80.485
X95.815Y80.442
X96.011Y80.401
X96.207Y80.362
X96.403Y80.326
X96.6Y80.291
X96.797Y80.258
X96.995Y80.226
X97.193Y80.197
X97.391Y80.17
X97.589Y80.145
X97.788Y80.122
X97.987Y80.101
X98.186Y80.082
X98.385Y80.065
X98.585Y80.05
X98.784Y80.036
X98.984Y80.025
X99.184Y80.016
X99.384Y80.009
X99.584Y80.004
X99.784Y80.001
X99.984Y80
X100.184
X100.384Y80.003
X100.583Y80.008
X100.783Y80.015
X100.983Y80.024
X101.183Y80.035
X101.382Y80.047
X101.582Y80.062
X101.781Y80.079
X101.98Y80.098
X102.179Y80.119
X102.378Y80.141
X102.576Y80.166
X102.775Y80.193
X102.973Y80.222
X103.17Y80.252
X103.367Y80.285
X103.564Y80.32
X103.761Y80.356
X103.957Y80.395
X104.153Y80.436
X104.349Y80.478
X104.544Y80.523
X104.738Y80.569
X104.932Y80.617
X105.126Y80.668
X105.319Y80.72
X105.511Y80.774
X105.703Y80.83
X105.895Y80.888
X106.085Y80.948
X106.276Y81.01
X106.465Y81.074
X106.654Y81.139
X106.842Y81.207
X107.03Y81.276
X107.217Y81.347
X107.403Y81.42
X107.589Y81.495
X107.773Y81.572
X107.957Y81.651
X108.14Y81.731
X108.322Y81.814
X108.504Y81.898
X108.684Y81.984
X108.864Y82.071
X109.043Y82.161
X109.221Y82.252
X109.398Y82.345
X109.574Y82.44
X109.749Y82.537
X109.923Y82.635
X110.096Y82.735
X110.269Y82.837
X110.44Y82.941
X110.61Y83.046
X110.779Y83.153
X110.947Y83.262
X111.113Y83.372
X111.279Y83.484
X111.444Y83.597
X111.607Y83.713
X111.769Y83.83
X111.931Y83.948
X112.091Y84.068
X112.249Y84.19
X112.407Y84.313
X112.563Y84.438
X112.718Y84.564
X112.872Y84.692
X113.024Y84.822
X113.175Y84.953
X113.325Y85.085
X113.473Y85.219
X113.621Y85.355
X113.766Y85.492
X113.911Y85.63
X114.054Y85.77
X114.195Y85.911
X114.335Y86.054
X114.474Y86.198
X114.612Y86.343
X114.747Y86.49
X114.882Y86.638
X115.015Y86.788
X115.146Y86.939
X115.276Y87.091
X115.404Y87.244
X115.531Y87.399
X115.656Y87.555
X115.78Y87.712
X115.902Y87.87
X116.022Y88.03
X116.141Y88.191
X116.259Y88.353
X116.374Y88.516
X116.488Y88.68
X116.601Y88.846
X116.711Y89.012
X116.82Y89.18
X116.928Y89.349
X117.033Y89.519
X117.137Y89.689
X117.239Y89.861
X117.34Y90.034
X117.439Y90.208
X117.536Y90.383
X117.631Y90.559
X117.725Y90.736
X117.816Y90.913
X117.906Y91.092
X117.995Y91.272
X118.081Y91.452
X118.165Y91.633
X118.248Y91.815
X118.329Y91.998
X118.408Y92.182
X118.486Y92.366
X118.561Y92.552
X118.634Y92.738
X118.706Y92.924
X118.776Y93.112
X118.844Y93.3
X118.91Y93.489
X118.974Y93.678
X119.036Y93.868
X119.097Y94.059
X119.125Y94.152Z-5F500
X119.155Y94.25F1000
X119.212Y94.442
X119.266Y94.634
X119.319Y94.827
X119.37Y95.021
X119.419Y95.215
X119.465Y95.409
X119.51Y95.604
X119.553Y95.799
X119.594Y95.995
X119.633Y96.191
X119.671Y96.388
X119.706Y96.584
X119.739Y96.782
X119.77Y96.979
X119.799Y97.177
X119.827Y97.375
X119.852Y97.574
X119.875Y97.772
X119.896Y97.971
X119.916Y98.17
X119.933Y98.369
X119.948Y98.569
