(Created with grbl post processor 2024/12/13 12:46)
G21
(G-code Generated with Fabex and NC library)
G17G90
(Tool: D = 3.0 mm  type END flutes 2)
S12000M03
G00 Z10.0

G0X0Y0Z10
X100.999Y100
G1Z0F500
Y100.999Z-0.577F1000
X100.267Z-1F500
X100.999Z-1.422
Y100Z-2F1000
Y100.999
X99
Y99
X101.999
Y101.999
X98.4
X98.2Z-4.642F500
X98.177Z-5
X98F1000
Y101.469
Y101.399Z-3.508
Y101.199Z-2
Y98
X103
Y103
X98.6
X98.496Z-5F500
X97F1000
Y99.482
Y99.399Z-3.055
Y99.199Z-2
Y97
X104
Y104
X98.8
X98.696Z-5F500
X96Y103.999F1000
Y98.094
Y97.999Z-2.501
Y97.799Z-2
Y96
X104.999
Y104.999
X99
X98.835Z-5F500
X95F1000
Y96.937
Y96.799Z-2
Y95
X105.999
Y105.999
X99
X98.897Z-5F500
X94F1000
Y96.104
Y96Z-2
Y94
X107
Y107
X99
X98.835Z-5F500
X93F1000
Y95.474
Y95.399Z-3.383
Y95.199Z-2
Y93
X107.999
Y107.999
X98.8
X98.696Z-5F500
X92F1000
Y94.905
Y94.799Z-2
Y92
X108.999
Y108.999
X98.6
X98.496Z-5F500
X91F1000
Y94.39
Y94.2Z-2
Y91
X109.999
Y109.999
X98.4
X98.2Z-4.642F500
X98.177Z-5
X90F1000
Y94.105
Y93.999Z-2
Y90
X111
Y101.799
Y101.899Z-5F500
Y110.1F1000
Y110.199Z-2
Y111
X98
X97.824Z-5F500
X89Y110.999F1000
Y93.706
Y93.599Z-2
Y89
X111.999
Y99.599
Y99.699Z-5F500
Y111.999F1000
X111.798
X111.6Z-2
X97.4
X97.296Z-5F500
X88F1000
Y93.706
Y93.599Z-2
Y88
X112.999
Y98.2
Y98.298Z-5F500
Y112.999F1000
X112.498
X112.4Z-2
X96.8
X96.696Z-5F500
X87F1000
Y93.506
Y93.399Z-2
Y87
X114
Y96.999
Y97.098Z-5F500
Y114F1000
X113.298
X113.2Z-2
X96.2
X96Z-2.501F500
X95.905Z-5
X86F1000
Y93.507
Y93.399Z-2
Y86
X115
Y96.199
Y96.298Z-5F500
Y115F1000
X114.098
X114Z-2
X95.2
X95.062Z-5F500
X85Y114.999F1000
Y93.507
Y93.399Z-2
Y85
X115.999
Y95.399
Y95.497Z-5F500
Y115.999F1000
X115.298
X115.2Z-2
X94
X93.895Z-5F500
X84F1000
Y93.707
Y93.599Z-2
Y84
X116.999
Y94.799
Y94.897Z-5F500
Y116.999F1000
X116.795
X116.6Z-2
X92.4
X92.294Z-5F500
X83F1000
Y93.908
Y93.8Z-2
Y83
X118
Y94.399
Y94.497Z-5F500
Y117.502F1000
Y117.599Z-2
Y118
X90
X89.889Z-5F500
X82.908F1000
X82.8Z-2
X82
Y117.799
Y117.691Z-5F500
Y94.308F1000
Y94.2Z-2
Y82
X119
Y93.999
Y94.097Z-5F500
Y117.902F1000
Y118Z-2
Y119
X81Y118.999
Y117.399
Y117.291Z-5F500
Y94.708F1000
Y94.599Z-2
Y81
X119.999
Y93.8
Y93.896Z-5F500
Y118.103F1000
Y118.199Z-2
Y119.999
X80
Y116.799
Y116.69Z-5F500
Y95.309F1000
Y95.199Z-2
Y80
X120.999
Y93.599
Y93.696Z-5F500
Y118.303F1000
Y118.4Z-2
Y120.999
X79
Y116.2
Y116.09Z-5F500
Y95.909F1000
Y95.799Z-2
Y79
X122
Y93.399
Y93.496Z-5F500
Y118.503F1000
Y118.599Z-2
Y122
X78Y121.999
Y115.399
Y115.29Z-5F500
Y96.709F1000
Y96.599Z-2
Y78
X122.999
Y93.399
Y93.496Z-5F500
Y118.503F1000
Y118.599Z-2
Y122.999
X77
Y114.399
Y114.289Z-5F500
Y97.71F1000
Y97.599Z-2
Y77
X123.999
Y93.399
Y93.495Z-5F500
Y118.504F1000
Y118.599Z-2
Y123.999
X76
Y112.999
Y112.889Z-5F500
Y99.11F1000
Y98.999Z-2
Y76
X125
Y93.599
Y93.695Z-5F500
Y118.304F1000
Y118.4Z-2
Y125
X75
Y111.199
Y111.089Z-5F500
Y100.91F1000
Y100.8Z-2
Y75
X126
Y93.8
Y93.895Z-5F500
Y118.104F1000
Y118.199Z-2
Y126
X74
Y107.599
Y107.488Z-5F500
Y104.511F1000
Y104.399Z-2
Y74
X127
Y94.2
Y94.294Z-5F500
Y117.705F1000
Y117.799Z-2
Y127
X73
Y73
X128
Y94.599
Y94.694Z-5F500
Y117.305F1000
Y117.399Z-2
Y128
X72Y127.999
Y72
X128.999
Y94.999
Y95.105Z-5F500
Y116.894F1000
Y116.999Z-2
Y128.999
X71
Y71
X129.999
Y95.599
Y95.799Z-3.76F500
Y95.853Z-5
Y116.146F1000
Y116.2Z-3.761
Y116.399Z-2
Y129.999
X70
Y70
X130.999
Y96.4
Y96.599Z-4.645F500
Y96.618Z-5
Y115.381F1000
Y115.399Z-4.645
Y115.599Z-2
Y130.999
X69
Y69
X131.999
Y97.399
Y97.552Z-5F500
Y114.447F1000
Y114.599Z-2
Y131.999
X68
Y68
X133
Y98.6
Y98.799Z-3.477F500
Y98.861Z-5
Y113.138F1000
Y113.199Z-3.478
Y113.399Z-2
Y133
X67
Y67
X134
Y100.4
Y100.524Z-5F500
Y111.475F1000
Y111.599Z-2
Y134
X66
Y66
X135
Y103.199
Y103.399Z-4.079F500
Y103.474Z-5
Y108.525F1000
Y108.599Z-4.079
Y108.799Z-2
Y135
X65Y134.999
Y65
X136
Y136
X64Y135.999
Y64
X136.999
Y136.999
X63
Y63
X137.999
Y137.999
X62
Y109.6
Y109.399Z-3.523F500
Y109.306Z-5
Y102.693F1000
Y102.6Z-3.523
Y102.399Z-2
Y62
X82.8
X82.908Z-5F500
X89.889F1000
X90Z-2
X119.2
X119.296Z-5F500
X126.295F1000
X126.4Z-2
X138.999
Y138.999
X61
Y111.999
Y111.854Z-5F500
Y100.145F1000
Y99.999Z-2
Y61
X80.4
X80.508Z-5F500
X92.294F1000
X92.4Z-2
X116.8
X116.897Z-5F500
X128.705F1000
X128.8Z-2
X140
Y140
X60
Y113.6
Y113.458Z-5F500
Y98.541F1000
Y98.399Z-2
Y60
X78.8
X78.909Z-5F500
X93.895F1000
X94Z-2
X115.2
X115.298Z-5F500
X130.304F1000
X130.4Z-2
X141
Y141
X59
Y114.799
Y114.644Z-5F500
Y97.355F1000
Y97.199Z-2
Y59
X77.6
X77.709Z-5F500
X95.062F1000
X95.2Z-2
X114
X114.098Z-5F500
X131.471F1000
X131.6Z-2
X142
Y142
X58Y141.999
Y115.8
Y115.599Z-2.183F500
Y115.485Z-5
Y96.514F1000
Y96.4Z-2.182
Y96.199Z-2
Y59.799
Y59.599Z-2.183F500
Y59.485Z-5
Y58F1000
X59.486
X59.6Z-2.183
X59.8Z-2
X76.8
X76.91Z-5F500
X95.905F1000
X96Z-2.501
X96.2Z-2
X113.2
X113.298Z-5F500
X132.321F1000
X132.4Z-2.818
X132.6Z-2
X143
Y143
X57Y142.999
Y116.399
Y116.282Z-5F500
Y95.717F1000
Y95.599Z-2
Y60.399
Y60.282Z-5F500
Y57F1000
X60.283
X60.4Z-2
X76
X76.11Z-5F500
X96.696F1000
X96.8Z-2
X112.4
X112.498Z-5F500
X133.106F1000
X133.2Z-2
X143.999
Y143.999
X56
Y116.999
Y116.881Z-5F500
Y95.118F1000
Y94.999Z-2
Y60.999
Y60.881Z-5F500
Y56F1000
X60.883
X61Z-2
X75.4
X75.51Z-5F500
X97.296F1000
X97.4Z-2
X111.8
X111.899Z-5F500
X133.706F1000
X133.8Z-2
X144.999
Y144.999
X55
Y117.599
Y117.481Z-5F500
Y94.518F1000
Y94.399Z-2
Y61.6
Y61.481Z-5F500
Y55F1000
X61.406
X61.6Z-2
X74.8
X74.91Z-5F500
X97.824F1000
X98Z-2
X111.2
X111.299Z-5F500
X134.239F1000
X134.4Z-2
X145.999
Y145.999
X54
Y118
Y117.881Z-5F500
Y94.118F1000
Y93.999Z-2
Y61.999
Y61.881Z-5F500
Y54F1000
X61.752
X61.8Z-4.325
X62Z-2
X74.4
X74.511Z-5F500
X98.177F1000
X98.2Z-4.642
X98.4Z-2
X110.8
X110.899Z-5F500
X134.597F1000
X134.599Z-4.96
X134.8Z-2
X147
Y103.199
Y103.289Z-5F500
Y108.71F1000
Y108.799Z-2
Y147
X53
Y118.199
Y118.08Z-5F500
Y93.919F1000
Y93.8Z-2
Y62.199
Y62.08Z-5F500
Y53F1000
X62.084
X62.2Z-2
X74.2
X74.311Z-5F500
X98.496F1000
X98.6Z-2
X110.6
X110.699Z-5F500
X134.907F1000
X135Z-2
X147
X147.089Z-5F500
X148F1000
Y55.51
Y55.599Z-2
Y100.4
Y100.489Z-5F500
Y111.51F1000
Y111.599Z-2
Y148
X52
Y118.4
Y118.28Z-5F500
Y93.719F1000
Y93.599Z-2
Y62.399
Y62.28Z-5F500
Y52F1000
X62.284
X62.4Z-2
X74
X74.111Z-5F500
X98.696F1000
X98.8Z-2
X110.4
X110.499Z-5F500
X135.107F1000
X135.2Z-2
X146.8
X146.889Z-5F500
X149F1000
Y57.11
Y57.2Z-2
Y98.799
Y98.889Z-5F500
Y113.11F1000
Y113.199Z-2
Y149
X51Y148.999
Y118.599
Y118.479Z-5F500
Y93.52F1000
Y93.399Z-2
Y62.6
Y62.479Z-5F500
Y51F1000
X62.419
X62.6Z-2
X73.8
X73.911Z-5F500
X98.835F1000
X99Z-2
X110.2
X110.299Z-5F500
X135.248F1000
X135.399Z-2
X146.6
X146.69Z-5F500
X150F1000
Y58.51
Y58.599Z-2
Y97.399
Y97.489Z-5F500
Y114.51F1000
Y114.599Z-2
Y150
X126.4
X126.295Z-5F500
X119.296F1000
X119.2Z-2
X90
X89.889Z-5F500
X82.908F1000
X82.8Z-2
X53.6
X53.48Z-5F500
X50Y149.999F1000
Y149.52
Y149.399Z-2
Y118.599
Y118.479Z-5F500
Y93.52F1000
Y93.399Z-2
Y62.6
Y62.479Z-5F500
Y50F1000
X62.484
X62.6Z-2
X73.8
X73.911Z-5F500
X98.897F1000
X99Z-2
X110.2
X110.299Z-5F500
X135.307F1000
X135.399Z-2
X146.6
X146.69Z-5F500
X151F1000
Y59.51
Y59.599Z-2
Y96.4
Y96.489Z-5F500
Y115.51F1000
Y115.599Z-2
Y151
X128.8
X128.705Z-5F500
X116.897F1000
X116.8Z-2
X92.4
X92.294Z-5F500
X80.508F1000
X80.4Z-2
X56
X55.881Z-5F500
X49Y150.999F1000
Y149.521
Y149.399Z-2
Y118.599
Y118.478Z-5F500
Y93.521F1000
Y93.399Z-2
Y62.6
Y62.478Z-5F500
Y49F1000
X62.419
X62.6Z-2
X73.8
X73.911Z-5F500
X98.835F1000
X99Z-2
X110.2
X110.299Z-5F500
X135.248F1000
X135.399Z-2
X146.6
X146.69Z-5F500
X151.999F1000
Y60.311
Y60.399Z-2
Y95.599
Y95.688Z-5F500
Y116.311F1000
Y116.399Z-2
Y151.6
Y151.688Z-5F500
Y151.999F1000
X151.777
X151.6Z-2
X130.4
X130.304Z-5F500
X115.298F1000
X115.2Z-2
X94
X93.895Z-5F500
X78.909F1000
X78.8Z-2
X57.6
X57.482Z-5F500
X48F1000
Y149.721
Y149.599Z-2
Y118.4
Y118.278Z-5F500
Y93.721F1000
Y93.599Z-2
Y62.399
Y62.278Z-5F500
Y48F1000
X62.284
X62.4Z-2
X74
X74.111Z-5F500
X98.696F1000
X98.8Z-2
X110.4
X110.499Z-5F500
X135.107F1000
X135.2Z-2
X146.8
X146.889Z-5F500
X152.999F1000
Y60.911
Y60.999Z-2
Y94.999
Y95.088Z-5F500
Y116.911F1000
Y116.999Z-2
Y150.999
Y151.088Z-5F500
Y152.999F1000
X150.489
X150.399Z-2
X131.6
X131.471Z-5F500
X114.098F1000
X114Z-2
X95.2
X95.062Z-5F500
X77.709F1000
X77.6Z-2
X58.8
X58.651Z-5F500
X47F1000
Y149.921
Y149.8Z-2
Y118.199
Y118.078Z-5F500
Y93.921F1000
Y93.8Z-2
Y62.199
Y62.078Z-5F500
Y47F1000
X62.084
X62.2Z-2
X74.2
X74.311Z-5F500
X98.496F1000
X98.6Z-2
X110.6
X110.699Z-5F500
X134.907F1000
X135Z-2
X147
X147.089Z-5F500
X153.999F1000
Y61.311
Y61.4Z-2
Y94.599
Y94.688Z-5F500
Y117.311F1000
Y117.399Z-2
Y150.6
Y150.688Z-5F500
Y153.999F1000
X149.689
X149.599Z-2
X132.6
X132.4Z-2.819F500
X132.321Z-5
X113.298F1000
X113.2Z-2
X96.2
X96Z-2.501F500
X95.905Z-5
X76.91F1000
X76.8Z-2
X59.8
X59.6Z-2.183F500
X59.486Z-5
X46F1000
Y150.122
Y149.999Z-2
Y118
Y117.877Z-5F500
Y94.122F1000
Y93.999Z-2
Y61.999
Y61.877Z-5F500
Y46F1000
X61.752
X61.8Z-4.325
X62Z-2
X74.4
X74.511Z-5F500
X98.177F1000
X98.2Z-4.642
X98.4Z-2
X110.8
X110.899Z-5F500
X134.597F1000
X134.599Z-4.96
X134.8Z-2
X147.2
X147.289Z-5F500
X155F1000
Y61.711
Y61.799Z-2
Y94.2
Y94.288Z-5F500
Y117.711F1000
Y117.799Z-2
Y150.199
Y150.288Z-5F500
Y155F1000
X148.889
X148.8Z-2
X133.2
X133.106Z-5F500
X112.498F1000
X112.4Z-2
X96.8
X96.696Z-5F500
X76.11F1000
X76Z-2
X60.4
X60.283Z-5F500
X45F1000
Y150.522
Y150.399Z-2
Y117.599
Y117.477Z-5F500
Y94.522F1000
Y94.399Z-2
Y61.6
Y61.477Z-5F500
Y45F1000
X61.406
X61.6Z-2
X74.8
X74.91Z-5F500
X97.824F1000
X98Z-2
X111.2
X111.299Z-5F500
X134.239F1000
X134.4Z-2
X147.6
X147.689Z-5F500
X156F1000
Y62.112
Y62.199Z-2
Y93.8
Y93.887Z-5F500
Y118.112F1000
Y118.199Z-2
Y149.8
Y149.887Z-5F500
Y156F1000
X148.289
X148.2Z-2
X133.8
X133.706Z-5F500
X111.899F1000
X111.8Z-2
X97.4
X97.296Z-5F500
X75.51F1000
X75.4Z-2
X61
X60.883Z-5F500
X44F1000
Y151.123
Y150.999Z-2
Y116.999
Y116.876Z-5F500
Y95.123F1000
Y94.999Z-2
Y60.999
Y60.876Z-5F500
Y44F1000
X60.883
X61Z-2
X75.4
X75.51Z-5F500
X97.296F1000
X97.4Z-2
X111.8
X111.899Z-5F500
X133.706F1000
X133.8Z-2
X148.2
X148.289Z-5F500
X157F1000
Y62.312
Y62.399Z-2
Y93.599
Y93.687Z-5F500
Y118.312F1000
Y118.4Z-2
Y149.599
Y149.687Z-5F500
Y157F1000
X147.689
X147.6Z-2
X134.4
X134.239Z-5F500
X111.299F1000
X111.2Z-2
X98
X97.824Z-5F500
X74.91F1000
X74.8Z-2
X61.6
X61.406Z-5F500
X43Y156.999F1000
Y151.723
Y151.6Z-2
Y116.399
Y116.276Z-5F500
Y95.723F1000
Y95.599Z-2
Y60.399
Y60.276Z-5F500
Y43F1000
X60.283
X60.4Z-2
X76
X76.11Z-5F500
X96.696F1000
X96.8Z-2
X112.4
X112.498Z-5F500
X133.106F1000
X133.2Z-2
X148.8
X148.889Z-5F500
X158F1000
Y62.512
Y62.6Z-2
Y93.399
Y93.487Z-5F500
Y118.512F1000
Y118.599Z-2
Y149.399
Y149.487Z-5F500
Y158F1000
X147.289
X147.2Z-2
X134.8
X134.599Z-4.96F500
X134.597Z-5
X110.899F1000
X110.8Z-2
X98.4
X98.2Z-4.642F500
X98.177Z-5
X74.511F1000
X74.4Z-2
X62
X61.8Z-4.324F500
X61.752Z-5
X42Y157.999F1000
Y152.324
Y152.199Z-2
Y115.8
Y115.675Z-5F500
Y96.324F1000
Y96.199Z-2
Y59.799
Y59.675Z-5F500
Y42F1000
X59.486
X59.6Z-2.183
X59.8Z-2
X76.8
X76.91Z-5F500
X95.905F1000
X96Z-2.501
X96.2Z-2
X113.2
X113.298Z-5F500
X132.321F1000
X132.4Z-2.819
X132.6Z-2
X149.599
X149.689Z-5F500
X158.999F1000
Y62.512
Y62.6Z-2
Y93.399
Y93.487Z-5F500
Y118.512F1000
Y118.599Z-2
Y149.399
Y149.487Z-5F500
Y158.999F1000
X147.089
X147Z-2
X135
X134.907Z-5F500
X110.699F1000
X110.6Z-2
X98.6
X98.496Z-5F500
X74.311F1000
X74.2Z-2
X62.2
X62.084Z-5F500
X41F1000
Y153.324
Y153.2Z-2
Y114.799
Y114.675Z-5F500
Y97.324F1000
Y97.199Z-2
Y58.799
Y58.675Z-5F500
Y41.324F1000
Y41.2Z-2
Y41
X41.2
X41.324Z-5F500
X58.651F1000
X58.8Z-2
X77.6
X77.709Z-5F500
X95.062F1000
X95.2Z-2
X114
X114.098Z-5F500
X131.471F1000
X131.6Z-2
X150.399
X150.489Z-5F500
X159.999F1000
Y62.512
Y62.6Z-2
Y93.399
Y93.487Z-5F500
Y118.512F1000
Y118.599Z-2
Y149.399
Y149.487Z-5F500
Y159.999F1000
X146.889
X146.8Z-2
X135.2
X135.107Z-5F500
X110.499F1000
X110.4Z-2
X98.8
X98.696Z-5F500
X74.111F1000
X74Z-2
X62.4
X62.284Z-5F500
X40F1000
Y154.524
Y154.399Z-2
Y113.6
Y113.475Z-5F500
Y98.524F1000
Y98.399Z-2
Y57.599
Y57.475Z-5F500
Y42.524F1000
Y42.399Z-2
Y40
X42.4
X42.523Z-5F500
X57.482F1000
X57.6Z-2
X78.8
X78.909Z-5F500
X93.895F1000
X94Z-2
X115.2
X115.298Z-5F500
X130.304F1000
X130.4Z-2
X151.6
X151.688Z-5F500
X160.999F1000
Y62.313
Y62.399Z-2
Y93.599
Y93.686Z-5F500
Y118.313F1000
Y118.4Z-2
Y149.599
Y149.686Z-5F500
Y160.999F1000
X146.69
X146.6Z-2
X135.399
X135.248Z-5F500
X110.299F1000
X110.2Z-2
X99
X98.835Z-5F500
X73.911F1000
X73.8Z-2
X62.6
X62.419Z-5F500
X39F1000
Y156.125
Y156Z-2
Y111.999
Y111.874Z-5F500
Y100.125F1000
Y99.999Z-2
Y55.999
Y55.874Z-5F500
Y44.125F1000
Y44Z-2
Y39
X44
X44.123Z-5F500
X55.881F1000
X56Z-2
X80.4
X80.508Z-5F500
X92.294F1000
X92.4Z-2
X116.8
X116.897Z-5F500
X128.705F1000
X128.8Z-2
X153.2
X153.288Z-5F500
X162F1000
Y62.113
Y62.199Z-2
Y93.8
Y93.886Z-5F500
Y118.113F1000
Y118.199Z-2
Y149.8
Y149.886Z-5F500
Y162F1000
X146.69
X146.6Z-2
X135.399
X135.307Z-5F500
X110.299F1000
X110.2Z-2
X99
X98.897Z-5F500
X73.911F1000
X73.8Z-2
X62.6
X62.484Z-5F500
X38F1000
Y158.525
Y158.399Z-2
Y109.6
Y109.474Z-5F500
Y102.525F1000
Y102.399Z-2
Y53.599
Y53.474Z-5F500
Y46.525F1000
Y46.399Z-2
Y38
X46.4
X46.522Z-5F500
X53.48F1000
X53.6Z-2
X82.8
X82.908Z-5F500
X89.889F1000
X90Z-2
X119.2
X119.296Z-5F500
X126.295F1000
X126.4Z-2
X155.6
X155.687Z-5F500
X162.701F1000
X162.799Z-2
X163
Y38.172Z-5F500
Y61.913F1000
Y61.999Z-2
Y93.999
Y94.086Z-5F500
Y117.913F1000
Y118Z-2
Y149.999
Y150.086Z-5F500
Y163F1000
X146.69
X146.6Z-2
X135.399
X135.248Z-5F500
X110.299F1000
X110.2Z-2
X99
X98.835Z-5F500
X73.911F1000
X73.8Z-2
X62.6
X62.419Z-5F500
X37.526F1000
X37.4Z-2
X37
Y37
X164
Y38.399
Y38.486Z-5F500
Y61.513F1000
Y61.6Z-2
Y94.399
Y94.486Z-5F500
Y117.513F1000
Y117.599Z-2
Y150.399
Y150.486Z-5F500
Y164F1000
X146.889
X146.8Z-2
X135.2
X135.107Z-5F500
X110.499F1000
X110.4Z-2
X98.8
X98.696Z-5F500
X74.111F1000
X74Z-2
X62.4
X62.284Z-5F500
X37.726F1000
X37.6Z-2
X36Y163.999
Y36
X165
Y38.799
Y38.885Z-5F500
Y61.114F1000
Y61.199Z-2
Y94.799
Y94.885Z-5F500
Y117.114F1000
Y117.199Z-2
Y150.799
Y150.885Z-5F500
Y165F1000
X147.089
X147Z-2
X135
X134.907Z-5F500
X110.699F1000
X110.6Z-2
X98.6
X98.496Z-5F500
X74.311F1000
X74.2Z-2
X62.2
X62.084Z-5F500
X37.925F1000
X37.8Z-2
X35Y164.999
Y35
X166
Y39.4
Y39.485Z-5F500
Y60.514F1000
Y60.599Z-2
Y95.399
Y95.485Z-5F500
Y116.514F1000
Y116.599Z-2
Y151.4
Y151.485Z-5F500
Y166F1000
X147.289
X147.2Z-2
X134.8
X134.599Z-4.96F500
X134.597Z-5
X110.899F1000
X110.8Z-2
X98.4
X98.2Z-4.642F500
X98.177Z-5
X74.511F1000
X74.4Z-2
X62
X61.8Z-4.325F500
X61.752Z-5
X38.125F1000
X38Z-2
X34Y165.999
Y34
X166.999
Y40.199
Y40.285Z-5F500
Y59.714F1000
Y59.799Z-2
Y96.199
Y96.285Z-5F500
Y115.714F1000
Y115.8Z-2
Y152.199
Y152.285Z-5F500
Y166.999F1000
X147.689
X147.6Z-2
X134.4
X134.239Z-5F500
X111.299F1000
X111.2Z-2
X98
X97.824Z-5F500
X74.91F1000
X74.8Z-2
X61.6
X61.406Z-5F500
X38.525F1000
X38.4Z-2
X33
Y33
X167.999
Y40.999
Y41.112Z-5F500
Y58.887F1000
Y59Z-2
Y96.999
Y97.112Z-5F500
Y114.887F1000
Y114.999Z-2
Y152.999
Y153.112Z-5F500
Y167.999F1000
X148.289
X148.2Z-2
X133.8
X133.706Z-5F500
X111.899F1000
X111.8Z-2
X97.4
X97.296Z-5F500
X75.51F1000
X75.4Z-2
X61
X60.883Z-5F500
X39.125F1000
X39Z-2
X32
Y32
X169
Y42.199
Y42.285Z-5F500
Y57.714F1000
Y57.799Z-2
Y98.2
Y98.285Z-5F500
Y113.714F1000
Y113.799Z-2
Y154.2
Y154.285Z-5F500
Y169F1000
X148.889
X148.8Z-2
X133.2
X133.106Z-5F500
X112.498F1000
X112.4Z-2
X96.8
X96.696Z-5F500
X76.11F1000
X76Z-2
X60.4
X60.283Z-5F500
X39.725F1000
X39.6Z-2
X31
Y31
X170
Y43.6
Y43.754Z-5F500
Y56.245F1000
Y56.399Z-2
Y99.599
Y99.754Z-5F500
Y112.245F1000
Y112.399Z-2
Y155.599
Y155.754Z-5F500
Y168.245F1000
Y168.399Z-2
Y170
X169
X168.799Z-3.136F500
X168.736Z-5
X149.689F1000
X149.599Z-2
X132.6
X132.4Z-2.819F500
X132.321Z-5
X113.298F1000
X113.2Z-2
X96.2
X96Z-2.501F500
X95.905Z-5
X76.91F1000
X76.8Z-2
X59.8
X59.6Z-2.183F500
X59.486Z-5
X40.324F1000
X40.2Z-2
X30
Y30
X171
Y45.8
Y45.982Z-5F500
Y54.017F1000
Y54.199Z-2
Y101.799
Y101.982Z-5F500
Y110.017F1000
Y110.199Z-2
Y157.799
Y157.982Z-5F500
Y166.017F1000
Y166.199Z-2
Y171
X167.999
X167.879Z-5F500
X150.489F1000
X150.399Z-2
X131.6
X131.471Z-5F500
X114.098F1000
X114Z-2
X95.2
X95.062Z-5F500
X77.709F1000
X77.6Z-2
X58.8
X58.651Z-5F500
X41.324F1000
X41.2Z-2
X29Y170.999
Y29
X172
Y172
X166.8
X166.708Z-5F500
X151.688F1000
X151.6Z-2
X130.4
X130.304Z-5F500
X115.298F1000
X115.2Z-2
X94
X93.895Z-5F500
X78.909F1000
X78.8Z-2
X57.6
X57.482Z-5F500
X42.523F1000
X42.4Z-2
X28Y171.999
Y28
X173
Y173
X165.2
X165.114Z-5F500
X153.288F1000
X153.2Z-2
X128.8
X128.705Z-5F500
X116.897F1000
X116.8Z-2
X92.4
X92.294Z-5F500
X80.508F1000
X80.4Z-2
X56
X55.881Z-5F500
X44.123F1000
X44Z-2
X27Y172.999
Y27
X173.999
Y173.999
X162.799
X162.701Z-5F500
X155.687F1000
X155.6Z-2
X126.4
X126.295Z-5F500
X119.296F1000
X119.2Z-2
X90
X89.889Z-5F500
X82.908F1000
X82.8Z-2
X53.6
X53.48Z-5F500
X46.522F1000
X46.4Z-2
X26
Y26
X174.999
Y174.999
X25
Y25
X175.999
Y175.999
X24
Y24
X177
Y177
X23
Y23
X178
Y178
X22Y177.999
Y22
X179
Y179
X21Y178.999
Y21
X180
Y180
X20Y179.999
Y20
X181
Y181
X19Y180.999
Y19
X181.999
Y181.999
X18
Y18
X182.999
Y182.999
X17
Y17
X184
Y184
X16
Y16
X185
Y185
X15
Y15
X186
Y186
X14Y185.999
Y14
X187
Y187
X13Y186.999
Y13
X188
Y188
X12Y187.999
Y12
X188.999
Y188.999
X11
Y11
X189.999
Y189.999
X10
Y10
X191
Y191
X9
Y9
X192
Y192
X8
Y8
X193
Y193
X7Y192.999
Y7
X194
Y194
X6Y193.999
Y6
X195
Y195
X5Y194.999
Y5
X196
Y196
X4Y195.999
Y4
X196.999
Y196.999
X3
Y3
X197.999
Y197.999
X2
Y2
X198.4
X196.667Z-1
X198.4Z0
G0Z10
 
