(Created with grbl post processor 2024/12/13 12:46)
G21
(G-code Generated with Fabex and NC library)
G17G90
S12000M03
G00 Z10.0

G0X0Y0Z10
X43.188Y1.159
G1Z0F500
X43.733Y1.267Z-1.942
Y1.277Z-2
X44.167Y1.43F1000
X46.19Y1.9
X46.214Y1.907
X46.237Y1.915
X46.864Y2.139
X46.609Y1.965
X46.077Y1.698
X45.873Y1.615
X45.85Y1.604
X45.826Y1.591
X45.804Y1.578
X45.782Y1.564
X45.761Y1.548
X45.741Y1.532
X45.721Y1.515
X45.703Y1.496
X45.685Y1.477
X45.668Y1.457
X45.652Y1.436
X45.638Y1.415
X45.624Y1.393
X45.611Y1.37
X45.6Y1.346
X45.59Y1.322
X45.581Y1.298
X45.573Y1.273
X45.566Y1.248
X45.561Y1.222
X45.556Y1.199
X45.54Y1.207
X45.516Y1.219
X45.492Y1.229
X45.467Y1.238
X45.442Y1.246
X45.143Y1.33
X45.118Y1.336
X45.093Y1.341
X45.067Y1.344
X45.042Y1.346
X45.016Y1.347
X44.99
X44.965Y1.345
X44.939Y1.342
X43.771Y1.186
X43.74Y1.203
X43.73Y1.231
X43.733Y1.277
X43.698Y1.29Z-1.862
X43.733Y1.276Z-1.958F500
X43.711Y1.159Z-1.802F1000
X43.743Y1.202Z-1.889F500
X43.701Y1.127Z-1.68F1000
X43.74Y0.834Z-0.712
X43.602Y0.948Z-0.917F500
X43.701Y1.127Z-1.68
X43.711Y1.159Z-1.802
G0Z10
X43.443Y1.065
G1Z-0.785
X43.669Y1.144Z-1.678
X43.711Y1.159Z-1.802
G0Z10
X43.393Y1.312
G1Z-0.724
X43.698Y1.29Z-1.862
G0Z10
X43.825Y1.522
G1Z-1.251
X43.892Y1.333Z-1.919
G0Z10
X43.451Y1.495
G1Z-0.681
X43.682Y1.303Z-1.801
X43.698Y1.29Z-1.862
G0Z10
X45.337Y0.716
G1Z-0.072
X45.465Y0.841Z-0.74
X45.62Y0.994Z-1.413
X45.625Y1.016Z-1.453
X45.751Y0.9Z-0.812F1000
X45.593Y0.825Z-0.876
X45.614Y0.958Z-1.337F500
X45.62Y0.994Z-1.413
X45.607Y1.096Z-1.705
X45.625Y1.016Z-1.453F1000
X45.556Y1.199Z-1.782F500
X45.607Y1.096Z-1.705F1000
G0Z10
X45.512Y0.739
G1Z-0.588F500
X45.593Y0.825Z-0.876
G0Z10
X45.352Y0.674
G1Z0
X45.465Y0.841Z-0.74
G0Z10
X45.352Y0.674
G1Z0
X45.391Y0.769Z-0.355
G0Z10
X46.35Y1.835
G1Z-1.95
X46.442Y1.65Z-1.229F1000
G0Z10
X46.662Y2.002
G1Z-1.905F500
X46.905Y1.646Z-0.394F1000
G0Z10
X46.853Y2.132
G1Z-1.995F500
X46.973Y2.198Z-1.931F1000
X47.006Y2.208Z-1.914
X47.152Y2.289Z-1.835
X47.185Y2.3Z-1.818
X47.332Y2.381Z-1.739
X47.365Y2.391Z-1.722
X47.511Y2.473Z-1.642
X47.545Y2.483Z-1.625
X47.701Y2.57Z-1.567
X47.838Y2.685Z-1.49
X47.966Y2.853Z-1.202
X48.01Y2.943Z-0.999
X48.142Y2.95Z-1.233F500
X48.348Y3.003Z-1.46
X48.525Y3.098F1000
X48.56Y3.13Z-1.485
X48.594Y3.161Z-1.463
X48.705Y3.33Z-1.343
X48.732Y3.407Z-1.211
X48.852Y3.467Z-1.363F500
X49.004Y3.601Z-1.359F1000
X49.081Y3.716Z-1.403
X49.094Y3.742Z-1.396
X49.143Y3.795Z-1.433
X49.199Y3.879Z-1.46
X49.212Y3.904Z-1.453
X49.286Y3.985Z-1.485
X49.33Y4.066Z-1.511
X49.404Y4.147Z-1.542
X49.413Y4.164Z-1.556F500
X49.467Y4.249Z-1.587F1000
X49.522Y4.31Z-1.6
X49.766Y4.102Z-0.403
G0Z10
X49.522Y4.31
G1Z-1.6F500
X49.531Y4.326Z-1.614
X49.56Y4.372Z-1.605F1000
X49.599Y4.433Z-1.566
X49.687Y4.521Z-1.399
X49.699Y4.607Z-1.488F500
X49.772Y4.797Z-1.483F1000
X49.887Y4.961Z-1.497
X50.055Y5.107Z-1.29
X50.169Y5.172Z-1.073
X50.173Y5.27Z-1.267F500
X50.223Y5.472Z-1.54
X50.295Y5.616Z-1.608F1000
X50.313Y5.651Z-1.599
X50.336Y5.68Z-1.596
X50.41Y5.826Z-1.584
X50.433Y5.855Z-1.581
X50.506Y6.001Z-1.569
X50.53Y6.03Z-1.566
X50.603Y6.177Z-1.554
X50.627Y6.205Z-1.551
X50.7Y6.352Z-1.539
X50.724Y6.38Z-1.536
X50.777Y6.488Z-1.534
X50.822Y6.554Z-1.513
X50.85Y6.627Z-1.507
X50.919Y6.729Z-1.498
X50.946Y6.802Z-1.492
X50.985Y6.859Z-1.506
X51.032Y6.947Z-1.497
X51.043Y6.977Z-1.477
X51.082Y7.034Z-1.491
X51.143Y7.15Z-1.477
X51.154Y7.161Z-1.476
X51.24Y7.325Z-1.462
X51.251Y7.336Z-1.461
X51.337Y7.5Z-1.447
X51.348Y7.511Z-1.446
X51.434Y7.675Z-1.432
X51.444Y7.686Z-1.431
X51.531Y7.85Z-1.417
X51.541Y7.861Z-1.416
X51.628Y8.025Z-1.402
X51.638Y8.037Z-1.401
X51.749Y8.247Z-1.446
X51.892Y8.405Z-1.339
X51.986Y8.471Z-1.19
X51.99Y8.581Z-1.408F500
X52.017Y8.691Z-1.555
X52.046Y8.799Z-1.691
X52.139Y8.977Z-1.77F1000
X52.27Y9.135Z-1.994F500
X52.279Y9.13Z-2F1000
X52.265Y9.124
X52.39Y9.431
X52.399Y9.458
X53.098Y11.684
X53.105Y11.709
X53.11Y11.735
X53.114Y11.761
X53.117Y11.787
X53.119Y11.814
Y11.84
X53.118Y11.866
X53.116Y11.892
X53.112Y11.918
X53.107Y11.944
X53.101Y11.97
X53.094Y11.995
X53.085Y12.02
X53.075Y12.044
X53.064Y12.068
X53.052Y12.091
X53.039Y12.114
X53.024Y12.136
X53.009Y12.157
X52.992Y12.178
X52.975Y12.198
X52.957Y12.216
X52.937Y12.234
X52.917Y12.251
X52.896Y12.267
X52.875Y12.282
X52.852Y12.295
X53.227Y12.859
X53.239Y12.88
X53.694Y13.718
X53.706Y13.742
X53.716Y13.766
X53.725Y13.791
X53.912Y14.346
X54.35Y15.485
X54.211Y14.742
X53.708Y12.645
X53.042Y10.639
X52.444Y9.169
X52.418Y9.166
X52.392Y9.162
X52.366Y9.157
X52.341Y9.151
X52.316Y9.143
X52.291Y9.135
X52.279Y9.13
X52.446Y9.174Z-1.89
X52.481Y9.131Z-1.818
X52.838Y8.986Z-0.38
G0Z10
X52.566Y8.973
G1Z-1.177F500
X52.569Y8.898Z-0.968F1000
G0Z10
X52.481Y9.131
G1Z-1.818F500
X52.566Y8.973Z-1.177F1000
G0Z10
X53.837Y7.942
G1Z-0.252F500
X54.029Y8.073Z-0.714
X54.104Y8.196Z-0.776F1000
X54.134Y8.245Z-0.752
X54.153Y8.456Z-0.475
G0Z10
X54.3Y8.774
G1Z-0.37F500
X54.408Y8.859Z-0.57
X54.478Y8.912Z-0.642
X54.505Y8.98Z-0.647F1000
X54.553Y9.098Z-0.493
X54.543Y9.186Z-0.248
G0Z10
X54.808Y9.49
G1Z-0.145F500
X54.862Y9.558Z-0.005F1000
X54.863Y9.559Z0
X54.862
Z-0.002F500
X54.863Z-0F1000
G0Z10
X54.958Y9.817
G1Z-0.109F500
Y9.812Z-0.098F1000
X54.973Y9.806Z-0.13F500
X54.958Y9.817Z-0.109F1000
X54.982Y9.849Z-0.143F500
X54.995Y9.865Z-0.07F1000
X55Y9.872Z-0.038
X55.025Y9.863Z-0.035
X55.037Y9.868Z-0
X54.969Y9.894Z-0.005
X54.982Y9.849Z-0.143F500
X54.894Y9.861Z-0F1000
X54.944Y9.848Z-0.123F500
X54.952Y9.831Z-0.119F1000
X54.958Y9.817Z-0.109
G0Z10
X55.108Y10.033
G1Z-0F500
X55.109Y10.099Z-0.199
X55.117Y10.108Z-0.212
X55.116Y10.11Z-0.218
X55.119Y10.111Z-0.216F1000
X55.115Z-0.226F500
X55.15Y10.174Z-0.013F1000
X55.152Y10.178Z-0
X55.144Y10.164Z-0.049F500
X55.153Y10.178Z0F1000
X55.105Y10.117Z-0.204F500
X55.111Y10.116Z-0.21
X55.115Y10.112Z-0.227
Y10.111Z-0.226F1000
X55.093Y10.077Z-0.1
X55.109Y10.099Z-0.199F500
G0Z10
X55.702Y9.177
G1Z-0.702
X55.746Y9.15Z-0.896
X55.75Y9.156Z-0.898F1000
X55.839Y9.278Z-0.794
X55.923Y9.392Z-0.544
X55.851Y9.551Z-0.428
X55.911Y9.622Z-0.474
X56.065Y9.806Z-0.285
X56.095Y9.841Z-0.204
X56.08Y9.863Z-0.277F500
X56.192Y10.033Z-0.003F1000
G0Z10
X56.854Y10.47
G1Z0F500
X56.885Y10.618Z-0.496
X56.915Y10.613Z-0.444F1000
X56.924Y10.618Z-0.452F500
X56.935Y10.624Z-0.411F1000
X56.944Y10.648Z-0.379
X56.96Y10.696Z-0.192
X56.835Y10.628Z-0.491F500
X56.854Y10.47Z0F1000
G0Z10
X56.311Y11.229
G1Z-0.758F500
X56.346Y11.171Z-0.778F1000
X56.403Y11.076Z-0.695
X56.423Y10.87Z-0.226
X56.67Y10.844Z-0.497F500
X56.706Y10.77Z-0.572
X56.77Y10.64Z-0.421F1000
X56.835Y10.628Z-0.491F500
G0Z10
X56.223Y11.185
G1Z-0.392
X56.311Y11.229Z-0.758
G0Z10
X55.174Y11.384
G1Z-0.504
X55.186Y11.38Z-0.462F1000
X55.233Y11.402Z-0.384
X55.237Y11.404Z-0.366
X55.174Y11.384Z-0.504F500
X55.202Y11.212Z0F1000
G0Z10
X54.768Y11.604
G1Z-0.002F500
X54.77Y11.603Z-0.006
X54.893Y11.545Z-0.254
X54.895Y11.513Z-0.191F1000
X54.987Y11.489Z-0.417F500
X55.041Y11.474Z-0.465
X55.11Y11.456Z-0.432F1000
X55.124Y11.421Z-0.533F500
X55.134Y11.397Z-0.471F1000
X55.174Y11.384Z-0.504F500
G0Z10
X54.768Y11.604
G1Z-0.002
Z0F1000
Z-0.002F500
G0Z10
X54.792Y12.099
G1Z0
X54.793Z-0.001
Y12.1Z-0.003
X54.875Y12.912Z-0.219F1000
X54.873Y12.926Z-0.21
X54.906Y13.022Z-0.175
X54.872Y13.055Z-0.195
X54.922Y13.222Z-0.242
X54.895Y13.254Z-0.258
X54.94Y13.422Z-0.304
X54.917Y13.454Z-0.318
X54.962Y13.637Z-0.42
X54.954Y13.653Z-0.432F500
X54.996Y13.837Z-0.534F1000
X54.99Y13.852Z-0.544F500
X55.006Y13.925Z-0.595
X55.03Y14.036Z-0.536F1000
X54.991Y14.161Z-0.234
G0Z10
X55.063Y14.348
G1Z-0.244F500
X55.174Y14.423Z-0.532
X55.22Y14.529Z-0.52F1000
X55.254Y14.607Z-0.414
X55.237Y14.686Z-0.168
X55.358Y14.797Z-0.214
X55.412Y14.937Z-0.004
X55.413Y14.938Z-0
X55.412Z0
X55.413Y14.937Z-0.002F500
G0Z10
X56.205Y15.262
G1Z-0.244
X56.301Y15.35Z-0.424
X56.371Y15.414Z-0.416F1000
X56.372Y15.424Z-0.425F500
X56.392Y15.619Z-0.014F1000
G0Z10
X56.588Y15.761
G1Z-0.099F500
X56.646Y15.846Z-0.002F1000
G0Z10
X57.383Y15.448
G1Z-1.163F500
X57.558Y15.308Z-1.416
X57.435Y15.154Z-2
X57.692Y15.474F1000
X57.794Y15.544
X58.237Y15.496
X58.263Y15.495
X58.29Y15.494
X58.316Y15.495
X58.342Y15.498
X58.368Y15.501
X58.394Y15.506
X58.419Y15.512
X58.444Y15.52
X58.469Y15.528
X58.493Y15.538
X58.517Y15.549
X58.541Y15.561
X58.563Y15.574
X58.585Y15.588
X58.606Y15.604
X58.627Y15.62
X58.646Y15.638
X58.665Y15.656
X58.683Y15.675
X58.7Y15.695
X58.716Y15.716
X58.731Y15.738
X58.744Y15.76
X58.757Y15.783
X58.769Y15.806
X58.879Y16.064
X58.889Y16.088
X58.897Y16.113
X58.903Y16.138
X58.909Y16.164
X58.913Y16.19
X58.916Y16.215
X58.918Y16.242
Y16.268
X58.917Y16.294
X58.915Y16.32
X58.912Y16.346
X58.907Y16.371
X58.901Y16.397
X58.775Y16.885
X58.768Y16.91
X58.759Y16.935
X58.746Y16.964
X58.962Y16.764
X58.981Y16.748
X59.002Y16.732
X59.023Y16.718
X59.044Y16.704
X59.067Y16.692
X59.089Y16.68
X59.113Y16.67
X59.137Y16.661
X59.606Y16.493
X59.632Y16.486
X59.659Y16.479
X59.685Y16.474
X59.712Y16.47
X59.739Y16.468
X59.766Y16.467
X59.793
X59.774Y16.462
X59.749Y16.455
X59.724Y16.446
X59.699Y16.436
X59.675Y16.425
X59.652Y16.413
X59.629Y16.399
X59.607Y16.385
X59.586Y16.369
X59.565Y16.352
X59.545Y16.335
X59.527Y16.316
X59.509Y16.297
X59.492Y16.276
X59.476Y16.255
X59.226Y15.905
X59.212Y15.883
X59.2Y15.861
X59.188Y15.838
X59.177Y15.815
X59.168Y15.791
X59.159Y15.767
X59.152Y15.742
X59.146Y15.718
X58.826Y14.044
X58.398Y12.236
X58.394Y12.212
X58.39Y12.187
X58.388Y12.162
X58.387Y12.137
X58.368Y11.315
X58.369Y11.289
X58.371Y11.263
X58.374Y11.238
X58.378Y11.212
X58.403Y11.1
X58.377Y11.096
X58.351Y11.09
X58.326Y11.084
X58.301Y11.076
X58.276Y11.067
X58.252Y11.057
X58.228Y11.045
X58.205Y11.033
X58.183Y11.019
X58.161Y11.004
X58.138Y10.986
X58.125Y11.005
X58.207Y11.166
X58.218Y11.19
X58.227Y11.213
X58.235Y11.237
X58.242Y11.262
X58.248Y11.287
X58.323Y11.635
X58.328Y11.66
X58.331Y11.686
X58.332Y11.712
X58.333Y11.738
X58.332Y11.763
X58.33Y11.789
X58.327Y11.815
X58.323Y11.84
X58.317Y11.865
X58.31Y11.89
X58.302Y11.915
X58.293Y11.939
X58.213Y12.121
X58.201Y12.145
X58.188Y12.168
X58.174Y12.19
X58.159Y12.212
X58.143Y12.233
X58.126Y12.253
X58.107Y12.272
X58.088Y12.29
X58.069Y12.307
X58.048Y12.323
X58.026Y12.339
X58.004Y12.353
X57.981Y12.366
X57.958Y12.378
X57.934Y12.388
X57.909Y12.398
X57.878Y12.408
X57.661Y12.697
X57.657Y12.741
X57.785Y13.073
X57.793Y13.098
X57.8Y13.124
X57.806Y13.15
X57.81Y13.177
X57.814Y13.203
X57.815Y13.23
X57.816Y13.257
X57.815Y13.283
X57.813Y13.31
X57.809Y13.337
X57.805Y13.363
X57.744Y13.623
X57.736Y13.649
X57.727Y13.674
X57.717Y13.699
X57.706Y13.724
X57.694Y13.748
X57.68Y13.771
X57.665Y13.793
X57.65Y13.815
X57.375Y14.154
X57.325Y14.82
X57.435Y15.154
G0Z10
X57.201Y15.041
G1Z-1.303F500
X57.379Y14.982Z-1.558
G0Z10
X57.345Y14.456
G1Z-1.973
X57.352Y14.457F1000
G0Z10
X57.613Y15.804
G1Z-0.818F500
X57.791Y15.542Z-1.564
G0Z10
X59.792Y16.467
G1Z-1.906
X60.153Y16.514Z-1.837F1000
X60.373Y16.388Z-1.632
X60.708Y16.492Z-1.854F500
X60.654Y16.491Z-2
X61.006Y16.573F1000
X60.925Y16.487
X60.904Y16.49
X60.877Y16.492
X60.851Y16.493
X60.654Y16.491
G0Z10
X60.87Y16.541
G1Z-1.961F500
X60.911Y16.554Z-1.988
X60.951Y16.586Z-1.904F1000
X61.404Y16.639Z-1.087
X61.531Y16.93Z-1.344F500
X61.694Y17.025Z-1.258F1000
X61.803Y17.089Z-1.008
X61.853Y17.086Z-0.858
X61.938Y17.149Z-0.622
X62.003Y17.198Z-0.319
G0Z10
X61.803Y17.089
G1Z-1.008F500
X61.805Y17.152Z-0.772F1000
G0Z10
X60.929Y16.491
G1Z-1.839F500
X61.087Y15.92Z-0.488F1000
X61.106Y15.895Z-0.39
X60.92Y15.538Z-0.261
G0Z10
X60.868Y14.533
G1Z-0.385F500
X60.96Y14.739Z-0.783
X60.961Y14.843Z-0.813F1000
Y14.939Z-0.759
X60.871Y15.134Z-0.312
G0Z10
X60.872Y14.333
G1Z-0.342F500
X60.996Y14.14Z-0.753
X61.026Y13.941Z-0.757F1000
X61.009Y13.89Z-0.762
X61.031Y13.741Z-0.776
X61.016Y13.69Z-0.781
X61.037Y13.541Z-0.795
X61.022Y13.49Z-0.8
X61.043Y13.341Z-0.814
X61.028Y13.291Z-0.819
X61.048Y13.141Z-0.832
X61.034Y13.091Z-0.837
X61.054Y12.941Z-0.851
X61.04Y12.891Z-0.856
X61.058Y12.751Z-0.873
X61.044Y12.691Z-0.869
X61.051Y12.65Z-0.894F500
X61.064Y12.551Z-0.892F1000
X61.05Y12.491Z-0.888
X61.072Y12.361Z-0.9
X61.056Y12.291Z-0.906
X61.076Y12.17Z-0.922
X61.079Y12.161Z-0.916
X61.066Y12.07Z-0.938
X61.082Y11.97Z-0.941
X61.084Y11.961Z-0.935
X61.069Y11.849Z-0.945
X61.09Y11.761Z-0.953
X61.075Y11.649Z-0.964
X61.096Y11.561Z-0.972
X61.081Y11.45Z-0.983
X61.101Y11.361Z-0.991
X61.087Y11.25Z-1.001
X61.107Y11.161Z-1.01
X61.093Y11.05Z-1.02
X61.113Y10.961Z-1.029
X61.099Y10.85Z-1.039
X61.119Y10.761Z-1.047
X61.105Y10.65Z-1.058
X61.124Y10.561Z-1.066
X61.111Y10.45Z-1.076
X61.127Y10.375Z-1.093
X61.13Y10.361Z-1.085
X61.121Y10.283Z-1.075
X61.148Y10.162Z-1.059
X61.138Y10.084Z-1.049
X61.165Y9.963Z-1.034
X61.155Y9.885Z-1.024
X61.183Y9.763Z-1.008
X61.172Y9.685Z-0.998
X61.2Y9.567Z-0.985
X61.201Y9.564Z-0.982
X61.193Y9.445Z-0.967
X61.223Y9.35Z-0.965
X61.216Y9.247Z-0.964
X61.246Y9.151Z-0.963
X61.24Y9.048Z-0.962
X61.265Y8.968Z-0.972
X61.27Y8.952Z-0.96
X61.265Y8.883Z-0.942
X61.289Y8.807Z-0.948
X61.303Y8.708Z-0.917
X61.301Y8.686Z-0.89
X61.326Y8.61Z-0.898
X61.341Y8.49Z-0.856
X61.355Y8.466Z-0.849
X61.377Y8.292Z-0.805
X61.391Y8.269Z-0.798
X61.403Y8.179Z-0.793
X61.422Y8.081Z-0.763
X61.428Y8.072Z-0.746
X61.439Y7.982Z-0.743
X61.46Y7.874Z-0.71
X61.458Y7.867Z-0.707
X61.498Y7.671Z-0.671
X61.643Y7.501
X61.708Y7.464Z-0.546
X61.702Y7.369Z-0.764F500
X61.776Y7.269Z-0.743F1000
G0Z10
X62.081Y7.11
G1Z-0.269F500
X62.264Y7.028Z-0.004F1000
X62.266Y7.027Z-0
X62.265Y7.028Z-0.002F500
X62.266Z0F1000
G0Z10
X62.646Y6.517
G1Z-0.606F500
X62.781Y6.451Z-1.105
X62.768Y6.361Z-0.908F1000
X62.833Y6.273Z-0.972F500
X62.863Y6.174Z-0.902F1000
X62.893Y6.07Z-0.726
X62.861Y5.871Z-0.139
G0Z10
X63.052Y5.666
G1Z-0.153F500
X63.09Y5.566Z-0.004F1000
Y5.565Z-0.001
Y5.564Z0
Y5.565Z-0.002F500
G0Z10
X62.781Y6.451
G1Z-1.105
X62.792Y6.469Z-1.173
X62.796Y6.476Z-1.159F1000
X62.81Y6.529Z-1.001
X62.948Y6.672Z-0.501
X62.958Y6.712Z-0.347
G0Z10
X62.773Y6.608
G1Z-0.675F500
X62.81Y6.529Z-1.001
G0Z10
X64.199Y6.348
G1Z-0.004
X64.24Y6.317Z-0.166
G0Z10
X64.355Y5.634
G1Z-0.226
X64.29Y5.531Z-0.528
X64.294Y5.455Z-0.561F1000
X64.301Y5.33Z-0.461
X64.315Y5.31Z-0.399
X64.308Y5.293Z-0.415F500
X64.307Y5.235Z-0.384F1000
X64.394Y5.129Z0
X64.307Y5.227Z-0.36F500
Y5.235Z-0.383
X64.308Y5.293Z-0.415F1000
X64.251Y5.248Z-0.427
X64.256Y5.252Z-0.451F500
X64.308Y5.293Z-0.415F1000
X64.24Y5.333Z-0.388
X64.29Y5.33Z-0.503F500
X64.301Z-0.461F1000
X64.213Y5.194Z-0.18
X64.251Y5.248Z-0.427F500
X64.155Y5.213Z-0.054F1000
X64.197Y5.228Z-0.218F500
X64.251Y5.248Z-0.427
G0Z10
X65.693Y5.736
G1Z-0.116
X65.701Y5.728Z-0.151
X65.714Y5.8Z-0F1000
G0Z10
X65.812Y5.506
G1Z-0.087F500
X65.818Y5.462Z-0.129
G0Z10
X65.87Y4.547
G1Z-0
Y4.546Z-0.005
X65.896Y4.408Z-0.383
X65.91Y4.398Z-0.386F1000
X65.911Z-0.384
X65.917Y4.393Z-0.389
X65.932Y4.385Z-0.381
X65.988Y4.358Z-0.15
X65.917Y4.393Z-0.389F500
X65.937Y4.293Z-0.16F1000
X65.877Y4.295Z-0.166
X65.895Y4.382Z-0.436F500
X65.908Y4.396Z-0.396F1000
X65.91Y4.398Z-0.386
X65.881Y4.374Z-0.382
X65.893Y4.381Z-0.431F500
X65.895Y4.382Z-0.436
X65.87Y4.546Z-0.005F1000
Y4.547Z0
X65.869
X65.87Y4.546Z-0.005F500
G0Z10
X65.637Y4.03
G1Z-0.362
X65.628Y3.993Z-0.502
X65.616Y3.944Z-0.462F1000
X65.697Y3.867Z-0.771F500
X65.76Y3.809Z-0.828
X65.781Y3.665F1000
X65.799Y3.545Z-0.662
X65.751Y3.395Z-0.229
X66.136Y3.207Z-0.845F500
X66.235Y3.159Z-0.697F1000
X66.249Y2.993Z-0.716
X66.253Y2.945Z-0.578
X66.393Y2.89Z-0.71F500
X66.456Y2.866Z-0.712F1000
X66.496Y2.85Z-0.596
X66.5Y2.852Z-0.595
G0Z10
X66.423Y2.651
G1Z-0.041F500
X66.456Y2.865Z-0.711
G0Z10
X66.421Y2.638
G1Z-0
X66.423Y2.651Z-0.041
G0Z10
X65.76Y3.809
G1Z-0.828
X65.785Y3.829Z-0.706F1000
G0Z10
X66.987Y5.309
G1Z-0.243F500
X67.194Y5.201Z-0.532
X67.215Y5.16Z-0.541F1000
X67.287Y5.023Z-0.338
G0Z10
X67.545Y4.751
G1Z-0.136F500
X67.591Y4.67Z-0.004F1000
X67.592Y4.669Z-0.001
Y4.668Z0
Z-0F500
Y4.669Z-0.002
G0Z10
X66.832Y5.449
G1Z-0.11
Y5.679Z-0.638
X66.747Y5.861Z-0.724F1000
X66.635Y5.946Z-0.445
X66.538Y6.021Z-0.199
X66.603Y6.143Z-0.582F500
X66.615Y6.244Z-0.755
X66.628Y6.343Z-0.867
X66.591Y6.47Z-0.758F1000
X66.571Y6.539Z-0.669
X66.573Y6.542Z-0.677F500
X66.612Y6.66Z-0.795
X66.626Y6.715Z-0.836
X66.642Y6.777Z-0.747F1000
X66.615Y6.923Z-0.341
X66.7Y6.977Z-0.476F500
G0Z10
X66.808Y7.341
G1Z-0.175
X66.855Y7.56Z-0.002F1000
G0Z10
X67.822Y8.469
G1Z-0.959F500
X67.812Y8.42Z-0.838F1000
X67.84Y8.381Z-0.863
X67.967Y8.202Z-0.919
X67.972Y8.194Z-0.913
X68.007Y8.047Z-0.755
X68.016Y8.008Z-0.699
X68.032Y8Z-0.733F500
X68.127Y7.905Z-0.823
X68.179Y7.841Z-0.82F1000
X68.191Y7.825Z-0.805
X68.225Y7.731Z-0.725
X68.255Y7.603Z-0.516
X68.254Y7.598Z-0.503
X68.327Y7.543Z-0.59F500
X68.429Y7.467Z-0.617F1000
X68.468Y7.369Z-0.516
X68.504Y7.281Z-0.331
X68.496Y7.216Z-0.121
X68.609Y7.185Z-0.283F500
X68.504Y7.281Z-0.331F1000
X68.619Y7.339Z-0.199
G0Z10
X67.944Y8.518
G1Z-0.709F500
X67.965Y8.534Z-0.61F1000
X67.822Y8.469Z-0.959F500
X67.944Y8.518Z-0.709F1000
X67.791Y8.546Z-0.986F500
X67.835Y8.657Z-0.547F1000
X67.767Y8.568Z-0.893F500
X67.785Y8.552Z-0.976
X67.791Y8.546Z-0.986
X67.705Y8.593Z-0.642F1000
X67.767Y8.568Z-0.893F500
X67.721Y8.698Z-0.434F1000
X67.766Y8.57Z-0.887F500
X67.767Y8.568Z-0.893
G0Z10
X67.896Y9.187
G1Z-0.001
Z-0.003
Z-0.001F1000
X67.865Y9.247Z-0.026
X67.867Y9.206Z-0.077F500
X67.896Y9.187Z-0.003F1000
G0Z10
X67.554Y9.802
G1Z-0.002F500
X67.555Y9.8Z-0.007
X67.578Y9.727Z-0.165
X67.594Y9.722Z-0.141F1000
X67.601Y9.68Z-0.251F500
X67.606Y9.644Z-0.272F1000
X67.615Y9.58Z-0.226
X67.666Y9.564Z-0.253
G0Z10
X67.554Y9.802
G1Z-0.002F500
Z-0F1000
Z0
Z-0.002F500
G0Z10
X69.319Y10.28
G1Z-0.378
X69.676Y10.479Z-1.902
X69.712Y10.411Z-1.863F1000
X69.749Y10.291Z-1.799
X69.824Y10.155Z-1.767
X69.837Y10.111Z-1.757
X69.912Y9.975Z-1.726
X69.925Y9.931Z-1.716
X69.997Y9.802Z-1.687
X70.001Y9.796Z-1.681
X70.036Y9.71Z-1.674
X70.085Y9.622Z-1.646
X70.089Y9.616Z-1.64
X70.141Y9.488Z-1.612
X70.142Y9.485Z-1.61
X70.211Y9.368Z-1.582
X70.23Y9.305Z-1.569
X70.299Y9.188Z-1.541
X70.318Y9.125Z-1.527
X70.36Y9.054Z-1.526
X70.387Y9.008Z-1.499
X70.445Y8.815Z-1.294
X70.454Y8.646Z-0.969
X70.499Y8.621Z-1.055F500
X70.688Y8.453Z-1.286
X70.796Y8.284Z-1.245F1000
X70.815Y8.214Z-1.25
X70.885Y8.104Z-1.26
X70.904Y8.035Z-1.266
X70.925Y8.001Z-1.284
X70.976Y7.915
X70.994Y7.855Z-1.282
X71.015Y7.822Z-1.3
X71.071Y7.727Z-1.298
X71.084Y7.677Z-1.302
X71.16Y7.548Z-1.313
X71.173Y7.498Z-1.317
X71.243Y7.379Z-1.331
X71.25Y7.369Z-1.324
X71.281Y7.286Z-1.346
X71.332Y7.199Z-1.347
X71.339Y7.19Z-1.34
X71.384Y7.072Z-1.35
X71.504Y6.907Z-1.39
X71.569Y6.852Z-1.31
X71.599Y6.731Z-1.484F500
X71.691Y6.553Z-1.56F1000
X71.749Y6.485Z-1.65F500
X71.806Y6.419Z-1.717
X71.939Y6.319Z-1.972
X71.942Y6.265Z-1.885F1000
X71.993Y6.065Z-1.69
X72.041Y5.97Z-1.675
X72.087Y5.881Z-1.666
X72.152Y5.802Z-1.687
X72.222Y5.719Z-1.666
X72.342Y5.625Z-1.522
X72.352Y5.563Z-1.628F500
X72.408Y5.417Z-1.793
X72.514Y5.247Z-1.826F1000
X72.655Y5.101Z-1.953F500
X72.694Y5.072Z-1.967F1000
X72.685Y5.078Z-2F500
X72.834Y4.991F1000
X72.826Y4.976
X72.813Y4.953
X72.802Y4.929
X72.796Y4.914
X72.685Y5.078
X72.8Y5.011Z-1.965
X72.882Y5.05Z-1.719
X73.393Y5.009Z-0.581
X73.499Y5.162Z-0.681
X73.547Y5.181Z-0.649
X73.645Y5.219Z-0.411
X73.65Y5.221Z-0.396
X73.651Y5.224Z-0.397
X73.795Y5.287Z-0
G0Z10
X73.475Y5.279
G1Z-0.235F500
X73.499Y5.162Z-0.681
G0Z10
X72.793Y4.919
G1Z-1.965
X72.806Y4.84Z-1.876F1000
X72.825Y4.732Z-1.708
X72.863Y4.637Z-1.595
X72.884Y4.585Z-1.512
X72.887Y4.531Z-1.481
X72.95Y4.332Z-1.259
X73.062Y4.166Z-1.257
X73.075Y4.155Z-1.259
X73.112Y4.099Z-1.27
X73.159Y4.029Z-1.244
X73.198Y3.997Z-1.24
X73.283Y3.871Z-1.226
X73.322Y3.84Z-1.221
X73.394Y3.732Z-1.215
X73.405Y3.713Z-1.2
X73.484Y3.636Z-1.189
X73.528Y3.555Z-1.181
X73.607Y3.479Z-1.17
X73.64Y3.417Z-1.178
X73.708Y3.343Z-1.171
X73.731Y3.321Z-1.151
X73.764Y3.26Z-1.159
X73.852Y3.163Z-1.141
X73.872Y3.119Z-1.136
X74.004Y2.974Z-1.168
X74.006Y2.97Z-1.169
X74.138Y2.825Z-1.201
X74.14Y2.821Z-1.202
X74.218Y2.736Z-1.223
X74.292Y2.644Z-1.263
X74.294Y2.643Z-1.264
X74.419Y2.488Z-1.334
X74.421Y2.487Z-1.335
X74.489Y2.403Z-1.374
X74.476Y2.286Z-1.093
X74.523Y2.077Z-0.804
X74.573Y2.011Z-0.779
X74.609Y1.902Z-0.707
X74.745Y1.761Z-0.722
X74.905Y1.696Z-0.422
X74.903Y1.626Z-0.597F500
X74.954Y1.47Z-0.83
X74.967Y1.428Z-0.84F1000
X74.973Y1.422Z-0.845
X75.022Y1.368Z-0.683
X75.041Y1.365Z-0.687
X75.071Y1.36Z-0.62
X75.125Y1.352Z-0.435
X75.16Y1.289Z-0.385
X75.188Y1.235Z-0.16
X75.133Y1.157Z0
X75.162Y1.284Z-0.366F500
X75.09Y1.358Z-0.553
X75.133Y1.157Z0F1000
G0Z10
X75.422Y2.141
G1Z-0.118F500
X75.483Y2.137Z-0.005F1000
X75.485Z-0
Z-0.002F500
Z-0F1000
G0Z10
X74.489Y2.403
G1Z-1.374F500
X74.621Y2.404Z-1.019F1000
X74.826Y2.331Z-0.67
G0Z10
X72.082Y5.196
G1Z-0.382F500
X72.408Y5.417Z-1.793
G0Z10
X71.982Y5.359
G1Z-0.38
X72.352Y5.563Z-1.628
G0Z10
X71.939Y6.319
G1Z-1.972
X72.261Y6.526Z-1.378F1000
X72.402Y6.589Z-1.104
X72.427Y6.66Z-1.192F500
X72.539Y6.701Z-0.956F1000
X72.589Y6.72Z-0.754
X72.424Y6.809Z-1.004F500
X72.526Y6.952Z-0.349F1000
G0Z10
X72.279Y6.962
G1Z-0.55F500
X72.322Y6.95Z-0.618
X72.324Y6.947Z-0.63
X72.424Y6.809Z-1.004
G0Z10
X69.923Y4.546
G1Z0
X69.924Y4.543Z-0.009
X69.988Y4.353Z-0.505
X69.997Y4.35Z-0.501F1000
X70.022Y4.267Z-0.723F500
X70.027Y4.25Z-0.739
X70.132Y3.9Z-0.584F1000
X70.243Y3.897Z-0.334
X70.281Y3.65Z-0.439
X70.299Y3.535Z-0.488
X70.325Y3.369Z-0.24
Y3.365Z-0.23
X70.355Y3.357Z-0.28F500
G0Z10
X69.52Y3.89
G1Z-0.001
Z0F1000
X69.463Y3.932Z-0.154F500
X69.518Y3.892Z-0.006F1000
X69.52Y3.89Z-0.001
X69.463Y3.932Z-0.154F500
X69.464Y3.91Z-0.085F1000
X69.454Y3.978Z-0.133F500
X69.461Y3.976Z-0.112F1000
X69.463Y3.932Z-0.154F500
G0Z10
X69.137Y4.439
G1Z-0.296
X69.196Y4.386Z-0.416
X69.258Y4.33Z-0.413F1000
X69.259Y4.323Z-0.419F500
X69.268Y4.231Z-0.363F1000
X69.279Y4.127Z-0.16
G0Z10
X68.985Y4.747
G1Z-0.24F500
X68.99Y4.801Z-0.338
X69.004Y4.948Z-0.497
X69.009Y5.007Z-0.364F1000
G0Z10
X68.828Y5.399
G1Z-0.169F500
X68.887Y5.369Z-0.04F1000
G0Z10
X69.923Y4.546
G1Z-0F500
X69.924Y4.545Z-0.003
Y4.546Z-0F1000
G0Z10
X68.537Y3.065
G1Z-0F500
Y3.064Z-0.004
Y3.065Z-0F1000
X68.536Z0
X68.537Y3.064Z-0.004F500
G0Z10
X68.479Y2.644
G1Z-0.318
X68.5Y2.702Z-0.395
X68.556Y2.865Z-0.407F1000
X68.564Y2.888Z-0.331
X68.525Y2.933Z-0.342
X68.537Y3.064Z-0.004
G0Z10
X68.507Y2.444
G1Z-0.413F500
X68.597Y2.314Z-0.747
X68.659Y2.177Z-0.919
X68.666Y2.018Z-0.791F1000
X68.668Y1.972Z-0.737
X68.662Y1.95Z-0.687
X68.783Y1.797Z-0.869F500
X68.792Y1.762Z-0.872F1000
X68.854Y1.53Z-0.55
X68.94Y1.508Z-0.75F500
X69.185Y1.443Z-0.124F1000
X69.171Y1.364Z-0.315F500
X69.231Y1.216Z-0.402F1000
X69.303Y1.16Z-0.278
X69.337Y1.132Z-0.112
X69.231Y1.216Z-0.402F500
X69.235Y1.173Z-0.4F1000
X69.126Y1.296Z-0.589F500
X69.171Y1.364Z-0.315F1000
G0Z10
X64.205Y1.576
G1Z-0.53F500
X64.231Y1.54Z-0.535F1000
X64.268Y1.49Z-0.472
X64.283Y1.469Z-0.388
X64.321Y1.464Z-0.352
X64.383Y1.456Z-0.118
G0Z10
X64.205Y1.576
G1Z-0.53F500
X64.248Y1.586Z-0.584
X64.301Y1.599Z-0.38F1000
G0Z10
X62.912Y1.698
G1Z-1.045F500
X62.927Y1.68Z-1.001F1000
X62.964Y1.637Z-0.789
X62.912Y1.698Z-1.045F500
X62.982Y1.374Z0F1000
G0Z10
X62.851Y1.563
G1Z-0.637F500
X62.871Y1.72Z-1.179
X62.9Y1.712Z-1.077F1000
X62.943Y1.72Z-0.915
X62.891Y1.715Z-1.109F500
X62.982Y1.374Z0F1000
G0Z10
X62.885Y1.716
G1Z-1.13F500
X62.982Y1.374Z0F1000
G0Z10
X62.634Y1.66
G1Z-0.697F500
X62.711Y1.784Z-1.187
X62.792Y1.788Z-1.066F1000
X62.807Y1.775Z-1.09F500
X62.871Y1.72Z-1.179
G0Z10
X62.285Y2.336
G1Z-0.881
X62.355Y2.262Z-0.774F1000
X62.345Y2.142Z-0.85F500
X62.33Y1.955Z-0.46F1000
X62.6Y1.834Z-1.119F500
X62.711Y1.784Z-1.187F1000
G0Z10
X62.14Y2.313
G1Z-0.387F500
X62.285Y2.336Z-0.881
G0Z10
X61.987Y3.887
G1Z-0.185
X61.989Y3.882Z-0.204
X62.001Y3.838Z-0.206F1000
X61.991Y3.827Z-0.256F500
X61.903Y3.739Z-0.076F1000
X61.993Y3.627Z-0.461F500
X61.992Y3.563Z-0.53
Y3.489Z-0.497F1000
X62.035Y3.43Z-0.518
X62.036Y3.301Z-0.557
X62.035Y3.293Z-0.55
X62.089Y3.186Z-0.581
X62.08Y3.098Z-0.605
X62.132Y2.99Z-0.636
X62.125Y2.91Z-0.667
X62.165Y2.815Z-0.704
X62.174Y2.794Z-0.691
X62.169Y2.715Z-0.721
X62.216Y2.598Z-0.749
X62.211Y2.526Z-0.768
X62.285Y2.336Z-0.881
G0Z10
X63.806Y3.005
G1Z-0.48F500
X63.895Y2.956Z-0.575
X63.879Y2.904Z-0.703
X63.854Y2.826Z-0.716F1000
X63.832Y2.755Z-0.601
X63.898Y2.674Z-0.807F500
X63.933Y2.558Z-0.883
X63.955Y2.482Z-0.871F1000
X63.943Y2.376Z-0.729
X63.935Y2.303Z-0.619
X63.895Y2.19Z-0.352
X63.858Y2.11Z-0.131
X63.896Y2.088Z-0.245F500
X64.059Y1.952Z-0.677
X64.144Y1.798Z-0.777F1000
X64.159Y1.771Z-0.746
X64.167Y1.596Z-0.454
X64.205Y1.576Z-0.53F500
G0Z10
X63.895Y2.956
G1Z-0.575
X63.911Y2.974Z-0.492F1000
X63.885Y3.067Z-0.453
X63.883Y3.074Z-0.45
X63.95Y3.212Z-0.026
X63.954Y3.219Z0
G0Z10
X61.705Y4.863
G1Z-0.072F500
X61.777Y4.688Z-0.003F1000
G0Z10
X61.128Y6.183
G1Z-0.239F500
X61.085Y6.165Z-0.166F1000
X61.094Y6.08Z-0.401F500
X61.106Y5.957Z-0.562
X61.061Y5.859Z-0.402F1000
X61.132Y5.776Z-0.67F500
X61.167Y5.682Z-0.806
X61.168Y5.677Z-0.811
X61.192Y5.584Z-0.757F1000
X61.18Y5.387Z-0.423
X61.164Y5.344Z-0.304
X61.33Y5.233Z-0.707F500
X61.334Y5.227Z-0.712
X61.429Y5.085Z-0.67F1000
X61.443Y5.063Z-0.626
X61.529Y5.099Z-0.413
G0Z10
X59.745Y6.537
G1Z-0.503F500
X59.752Y6.492Z-0.463F1000
X59.764Y6.414Z-0.167
X59.705Y6.509Z-0.429F500
X59.745Y6.537Z-0.503
X59.729Y6.61Z-0.589
X59.755Y6.56Z-0.472F1000
X59.745Y6.537Z-0.503F500
X59.552Y6.535Z-0.017F1000
X59.559Y6.538Z-0.046F500
X59.598Y6.555Z-0.202
X59.729Y6.61Z-0.589
G0Z10
X59.51Y6.66
G1Z-0.052
X59.589Y6.767Z-0.479
X59.64Y6.789Z-0.687
G0Z10
X59.552Y7.292
G1Z-0
X59.535Y7.17Z-0.375
X59.551Y7.14Z-0.416
X59.558Y7.128Z-0.432
X59.533Y7.049Z-0.465F1000
X59.558Y7.014Z-0.569F500
X59.667Y6.864Z-0.573F1000
X59.646Y6.806Z-0.728F500
X59.644Y6.8Z-0.717F1000
X59.64Y6.789Z-0.687
G0Z10
X60.414Y8.368
G1Z-0.002F500
Z-0F1000
G0Z10
X60.191Y8.613
G1Z-0.165F500
X60.307Y8.508Z-0.231F1000
X60.363Y8.457Z-0.086
X60.355Y8.442Z-0.133F500
X60.413Y8.369Z-0.004F1000
X60.414Y8.368Z-0.002
G0Z10
X59.885Y9.241
G1Z-0.933F500
X59.917Y9.155Z-0.787F1000
X60.012Y9.079Z-0.657
X60.067Y8.94Z-0.56
X60.08Y8.789Z-0.248
G0Z10
X59.494Y9.156
G1Z-0.472F500
X59.49Y9.135Z-0.399F1000
X59.584Y9.054Z-0.32
X59.494Y9.156Z-0.472F500
X59.885Y9.241Z-0.933
G0Z10
X59.704Y9.644
G1Z-0.579
X59.73Y9.625Z-0.65
X59.849Y9.451Z-0.836
X59.886Y9.25Z-0.918F1000
X59.885Y9.241Z-0.933F500
G0Z10
X59.416Y9.306
G1Z-0.604
X59.465Y9.211Z-0.594F1000
X59.494Y9.156Z-0.472
X59.416Y9.306Z-0.604F500
X59.704Y9.644Z-0.579F1000
G0Z10
X59.064Y9.658
G1Z-0.766F500
X59.004Y9.457Z-0.088F1000
X59.287Y9.353Z-0.589F500
X59.394Y9.314Z-0.635F1000
X59.416Y9.306Z-0.604
G0Z10
X59.064Y9.658
G1Z-0.766F500
X59.267Y9.749Z-0.139F1000
X59.678Y9.699Z-0.543F500
G0Z10
X58.822Y10.258
G1Z-1.149
X58.832Y10.23Z-1.134F1000
X58.838Y10.056Z-0.923
X58.863Y10.032Z-0.972F500
X58.947Y9.876Z-1.006F1000
X59.064Y9.658Z-0.766
G0Z10
X58.769Y10.403
G1Z-1.029F500
X58.822Y10.258Z-1.149
G0Z10
X58.19Y10.339
G1Z-0.596
X58.769Y10.403Z-1.029
G0Z10
X58.147Y10.132
G1Z-0.415
X58.189Y10.091Z-0.21F1000
X58.822Y10.258Z-1.149F500
G0Z10
X58.147Y10.132
G1Z-0.415
X58.159Y10.26Z-0.575
X58.19Y10.339Z-0.596F1000
G0Z10
X58.138Y10.986
G1Z-1.921F500
X58.103Y10.767Z-1.468F1000
X58.19Y10.339Z-0.596
G0Z10
X57.805Y10.98
G1Z-0.982F500
X57.882Y11.037Z-1.143
X58.135Y11.025Z-1.97
G0Z10
X58.401Y11.108
G1Z-1.978
X58.409Y11.104Z-1.976F1000
X58.598Y10.941Z-1.416
X58.704Y10.787Z-1.155
X58.741Y10.693Z-1.096
X58.768Y10.597Z-1.073
X58.774Y10.422Z-1.056
X58.769Y10.403Z-1.029
G0Z10
X59.583Y10.966
G1Z-0F500
X59.705Y10.802Z-0.674
X59.672Y10.747Z-0.681F1000
X59.654Y10.717Z-0.674
X59.679Y10.62Z-0.7
X59.657Y10.585Z-0.748F500
X59.479Y10.301Z-0.181F1000
X59.487Y10.275Z-0.201F500
X59.571Y10.209Z-0.496
X59.63Y10.114Z-0.693
X59.681Y10.033Z-0.837
X59.693Y9.952Z-0.864F1000
X59.696Y9.93Z-0.852
X59.71Y9.828Z-0.792
X59.678Y9.699Z-0.543
G0Z10
X59.583Y10.967
G1Z0F500
X59.712Y10.813Z-0.637
G0Z10
X60.923Y10.449
G1Z-0.376
X61.111Y10.45Z-1.076
G0Z10
X60.938Y10.261
G1Z-0.386
X61.121Y10.283Z-1.075
G0Z10
X63.434Y10.117
G1Z-0.001
X63.498Y10.052Z-0.171
X63.501Y10.065Z-0.135F1000
X63.479Y9.971Z-0.026
X63.498Y10.052Z-0.171F500
G0Z10
X63.617Y10.348
G1Z-0.003
X63.652Y10.444Z-0.14
X63.623Y10.47Z-0.034F1000
X63.653Y10.51Z-0.15F500
G0Z10
X64.178Y10.35
G1Z-0.119
X64.232Y10.504Z-0.328
X64.251Y10.557Z-0.296F1000
X64.261Y10.585Z-0.23
X64.257Y10.59Z-0.239F500
G0Z10
X64.238Y10.181
G1Z-0.334
X64.333Y10.023Z-0.591
Y10.016Z-0.6
X64.332Y9.943Z-0.581F1000
X64.399Y9.834Z-0.565
X64.396Y9.753Z-0.555
X64.464Y9.645Z-0.54
X64.46Y9.564Z-0.529
X64.535Y9.448Z-0.53
X64.534Y9.438Z-0.545F500
X64.556Y9.339Z-0.565F1000
X64.606Y9.261Z-0.531
X64.605Y9.251Z-0.546F500
X64.636Y9.109Z-0.541F1000
X64.674Y9.073
X64.707Y8.922Z-0.542
X64.72Y8.91Z-0.57F500
X64.788Y8.756Z-0.543F1000
X64.785Y8.74Z-0.505
G0Z10
X64.67Y8.908
G1Z-0.394F500
X64.707Y8.922Z-0.542
G0Z10
X65.03Y8.206
G1Z-0.29
X64.97Y8.183Z-0.055F1000
X65.069Y8.112Z-0.24F500
G0Z10
X63.765Y9.447
G1Z-0.002
X63.747Y9.591Z-0.392
X63.765Y9.449Z-0.01F1000
Y9.447Z-0.002
X63.747Y9.591Z-0.392F500
X63.732Y9.604Z-0.397F1000
Y9.605Z-0.4F500
X63.733Y9.702Z-0.292F1000
Y9.833Z-0.029
X63.513Y9.84Z-0.022
G0Z10
X63.627Y11.509
G1Z-0.162F500
X63.683Y11.404Z-0.003F1000
G0Z10
X63.516Y11.713
G1Z-0.274F500
X63.573Y11.689Z-0.279F1000
G0Z10
X62.754Y12.065
G1Z0F500
Y12.066Z-0.004
X62.755Y12.065Z-0F1000
X62.754Z0
Y12.066Z-0.004F500
Y12.065Z-0F1000
G0Z10
X62.862Y12.961
G1Z-1.568F500
X62.936Y13.002Z-1.307F1000
X63.17Y12.634Z-0.746
X63.176Y12.576Z-0.675
X63.273Y12.456Z-0.577
X63.284Y12.351Z-0.552
X63.293Y12.245Z-0.408
G0Z10
X62.862Y12.961
G1Z-1.568F500
X62.594Y12.525Z-0.225F1000
X62.638Y12.487Z-0.351F500
X62.697Y12.332Z-0.433F1000
X62.733Y12.236Z-0.403
X62.747Y12.2Z-0.29
X62.731Y12.176Z-0.294
X62.754Y12.066Z-0.004
G0Z10
X62.936Y13.002
G1Z-1.307F500
X62.942Y13.012Z-1.275F1000
X63.141Y13.224Z-0.401
X62.797Y13.74Z-0.221
X63.071Y13.996Z-0.294
X63.046Y14.043Z-0.381F500
X62.94Y14.241Z-0.378F1000
X62.98Y14.304Z-0.433F500
X63.002Y14.34Z-0.397F1000
X63.023Y14.372Z-0.275
X63.006Y14.408Z-0.273
X63.041Y14.506Z-0
X62.998Y14.427Z-0.201F500
X63.006Y14.408Z-0.273
G0Z10
X62.43Y13.199
G1Z-0.314
X62.417Y13.094Z-0.145F1000
X62.862Y12.961Z-1.568F500
G0Z10
X64.655Y11.167
G1Z-0.001
X64.754Y11.063Z-0.377
X64.755Y11.032Z-0.385F1000
X64.78Y11.014Z-0.302
X64.769Y10.937Z-0.383F500
X64.751Y10.819Z-0.266F1000
X64.732Y10.692Z-0.034
X64.787Y10.681Z-0.214F500
X64.805Y10.47Z-0.002F1000
G0Z10
X64.75Y11.124
G1Z-0.182F500
X64.753Y11.072Z-0.374
X64.754Y11.063Z-0.377F1000
G0Z10
X67.047Y12.681
G1Z-0.36F500
X67.101Y12.618Z-0.345F1000
X67.115Y12.6Z-0.26
X67.092Y12.628Z-0.348F500
X67.093Y12.49Z0F1000
G0Z10
X67.7Y12.445
G1Z-0.134F500
X67.719Y12.449Z-0.108F1000
G0Z10
X68.077Y12.758
G1Z-0.63F500
X68.392Y12.993Z-1.501
X68.535Y13.012Z-1.687
Z-2
X68.57Y13.149F1000
X68.576Y13.174
X68.58Y13.199
X68.582Y13.225
X68.584Y13.25
Y13.276
X68.583Y13.302
X68.581Y13.327
X68.45Y14.331
X68.447Y14.35
X68.316Y15.128
X68.33Y15.113
X68.349Y15.094
X68.369Y15.077
X68.39Y15.06
X68.412Y15.044
X68.434Y15.03
X68.454Y15.017
X68.455Y15
X68.459Y14.974
X68.463Y14.948
X68.469Y14.923
X68.66Y14.189
X68.664Y14.174
X68.669Y14.159
X69.06Y12.948
X69.605Y10.7
X68.83Y12.596
X68.819Y12.62
X68.806Y12.644
X68.793Y12.667
X68.634Y12.906
X68.618Y12.927
X68.601Y12.947
X68.583Y12.967
X68.565Y12.985
X68.545Y13.003
X68.535Y13.012
G0Z10
X66.598Y13.258
G1Z-0.384F500
X66.751Y13.107Z-0.276F1000
X66.8Y13.113Z-0.114
G0Z10
X66.315Y13.927
G1Z-0.054F500
X66.371Y14.058Z-0.378
X66.398Y14.123Z-0.416F1000
X66.385Y14.161Z-0.471F500
X66.341Y14.288Z-0.234F1000
X66.386Y14.324Z-0.374F500
X66.413Y14.433Z-0.402F1000
X66.431Y14.542Z-0.243
G0Z10
X66.508Y14.739
G1Z-0.101F500
X66.539Y14.838Z-0.002F1000
G0Z10
X66.845Y15.035
G1Z-0.157F500
X66.852Y15.036Z-0.145F1000
X66.853Y15.037Z-0.149F500
G0Z10
X67.305Y15.932
G1Z-0.782
X67.331Y15.939Z-0.884
X67.344Y15.942Z-0.903
X67.41Y16.021Z-1.209
X67.413Y16.022Z-1.216
X67.472Y16.054Z-1.207F1000
X67.83Y16.041Z-1.834F500
X67.866Y16.05Z-1.927
X68.217Y15.641Z-1.397F1000
X68.21Y15.533Z-1.603F500
X68.237Y15.335Z-1.835
X68.304Y15.143Z-1.963
X68.318Y15.119Z-1.969F1000
X68.453Y15.018Z-1.816
X68.751Y15.207Z-0.815
X68.811Y15.2Z-0.719
G0Z10
X67.256Y16.083
G1Z-0.589F500
X67.41Y16.021Z-1.209
G0Z10
X65.323Y15.802
G1Z-0.353
X65.353Y15.758Z-0.164F1000
X65.311Y15.676Z-0
X65.323Y15.802Z-0.353F500
G0Z10
X64.892Y15.534
G1Z-0
X64.893Y15.533Z-0.003
Y15.397Z-0.329
X64.86Y15.369Z-0.3F1000
X64.872Y15.307Z-0.484F500
X64.89Y15.22Z-0.572
X64.93Y15.027Z-0.501F1000
X64.978Y14.991Z-0.34
X64.906Y14.829Z-0.67F500
X64.847Y14.693Z-0.73F1000
X64.753Y14.479Z-0.244
X64.792Y14.453Z-0.372F500
X64.938Y14.281Z-0.797
X64.98Y14.153Z-0.862F1000
X65.001Y14.09Z-0.839
X64.999Y14.074Z-0.835
X65.027Y13.989Z-0.826
X65.057Y13.893Z-0.8
X65.055Y13.882Z-0.79
X65.084Y13.797Z-0.782
X65.114Y13.697Z-0.753
X65.113Y13.69Z-0.752
X65.146Y13.583Z-0.731
X65.176Y13.505Z-0.69
X65.173Y13.486Z-0.705F500
X65.203Y13.391Z-0.687F1000
X65.232Y13.313Z-0.644
X65.227Y13.281Z-0.635
X65.289Y13.121Z-0.597
X65.283Y13.088Z-0.589
X65.299Y13.046Z-0.594
X65.387Y12.823Z-0.236
X65.349Y12.795Z-0.369F500
X65.332Y12.682Z-0.406F1000
X65.324Y12.629Z-0.369
X65.321Y12.614Z-0.322
X65.325Y12.607Z-0.317
G0Z10
X64.919Y15.029
G1Z-0.544F500
X64.93Y15.027Z-0.501F1000
G0Z10
X64.893Y15.533
G1Z-0.003F500
Y15.534Z0F1000
X64.892Z-0
Z0
X64.893Y15.533Z-0.002F500
Y15.534Z0F1000
G0Z10
X65.158Y17.438
G1Z-0.002F500
Y17.436Z-0.007
X65.126Y17.291Z-0.306
X65.078Y17.273Z-0.228F1000
X65.08Y17.166Z-0.515F500
X65.081Y17.092Z-0.636
X65.086Y16.841Z-0.666F1000
X65.221Y16.717Z-0.185
X65.055Y16.494Z-0.844F500
X65.028Y16.458Z-0.856F1000
X65.07Y16.258Z-0.818
X65.134Y15.953Z-0.217
X65.218Y15.955Z-0.455F500
X65.323Y15.802Z-0.353F1000
G0Z10
X65.158Y17.438
G1Z-0.002F500
X65.159Z-0F1000
X65.158Z-0.002F500
Z-0F1000
Z0
Z-0.002F500
G0Z10
X63.36Y18.334
G1Z-1.032
X63.401Y18.329Z-0.933F1000
X63.489Y18.32Z-0.6
X63.36Y18.334Z-1.032F500
X63.321Y18.482Z-1.002F1000
X63.304Y18.549Z-0.939
X63.133Y18.663Z-0.304
X63.226Y18.893Z-0.661F500
X63.277Y19.019Z-0.797
X63.288Y19.045Z-0.773F1000
X63.268Y19.175Z-0.561
X63.31Y19.219Z-0.633F500
X63.462Y19.376Z-0.671F1000
X63.5Y19.416Z-0.638
G0Z10
X63.799Y19.831
G1Z-0.062F500
X63.897Y19.876Z-0.145
G0Z10
X64.08Y20.209
G1Z-0.101
X64.085Y20.23Z-0.159
X64.09Y20.251Z-0.195
X64.097Z-0.217
X64.103Z-0.196F1000
X64.108Y20.23Z-0.159
X64.114Y20.209Z-0.099
X64.103Y20.251Z-0.196F500
X64.108Y20.253Z-0.177F1000
X64.115Y20.27Z-0.165
X64.125Y20.295Z-0.064
X64.096Y20.324Z-0
X64.097Y20.251Z-0.217F500
X64.068Y20.295Z-0.063F1000
X64.078Y20.27Z-0.165F500
X64.085Y20.253Z-0.177
X64.09Y20.251Z-0.195
G0Z10
X64.872Y20.945
G1Z-0.294
X64.847Y20.961Z-0.218F1000
X64.863Y21.018Z-0.331F500
X64.913Y21.194Z-0.559
X64.959Y21.183Z-0.379F1000
G0Z10
X64.84Y21.416
G1Z-0.206F500
X64.894Y21.25Z-0.507
X64.913Y21.194Z-0.559
G0Z10
X64.924Y21.807
G1Z-0.269
X65.066Y21.98Z-0.671
X65.079Y22.053Z-0.684F1000
X65.084Y22.082Z-0.666
X65.093Y22.134Z-0.624
X65.129Y22.177Z-0.608
X65.152Y22.326Z-0.566
X65.19Y22.369Z-0.549
X65.199Y22.433Z-0.572
X65.227Y22.547Z-0.525
X65.244Y22.561Z-0.518
X65.287Y22.738Z-0.468
X65.305Y22.753Z-0.461
X65.323Y22.831Z-0.462
X65.343Y22.919Z-0.358
X65.333Y22.934Z-0.363
X65.332Y22.936Z-0.356
X65.334Y22.947Z-0.348
X65.337Y22.963Z-0.327
X65.429Y23.034Z0
G0Z10
X65.931Y22.986
G1Z-0.38F500
X65.924Y22.975Z-0.36F1000
X65.925Y22.969Z-0.359
X65.959Y22.817Z-0.223
X65.983Y22.711Z-0.053
X65.948Y22.7Z-0.171F500
X65.954Y22.52Z-0.002F1000
G0Z10
X65.804Y23.931
G1Z-0.505F500
X65.807Y23.756Z-0.646
X65.808Y23.726Z-0.621F1000
X65.907Y23.567Z-0.356
X66.005Y23.489Z-0.006
G0Z10
X65.53Y24.418
G1Z-0.065F500
X65.66Y24.327Z-0.532
X65.821Y24.214Z-0.121F1000
G0Z10
X65.493Y24.833
G1Z-0.002F500
Y24.832Z-0.004
X65.573Y24.626Z-0.262
G0Z10
X65.493Y24.833
G1Z-0.002
Y24.834Z0F1000
X65.492Y24.833Z-0F500
X65.493Z-0.002
G0Z10
X64.631Y25.104
G1Z-0.002
Y25.105Z-0.004
X64.661Y25.22Z-0.163
X64.631Y25.103Z-0F1000
Y25.104Z-0.002F500
G0Z10
X64.56Y25.821
G1Z-1.058
X64.691Y25.627Z-0.46F1000
G0Z10
X64.56Y25.821
G1Z-1.058F500
X64.581Y25.904Z-0.98F1000
X64.741Y25.906Z-0.384
G0Z10
X64.529Y26.562
G1Z-0.175F500
X64.6Y26.433Z-0.492
X64.651Y26.305Z-0.694
X64.628Y26.104Z-0.793F1000
X64.569Y26.009Z-0.798
X64.581Y25.904Z-0.98F500
G0Z10
X63.927Y25.528
G1Z-1.415
X64.185Y25.638Z-0.973F1000
X64.218Y25.678Z-0.919
X64.56Y25.821Z-1.058
G0Z10
X64.633Y26.764
G1Z-0.475F500
X64.656Y26.84Z-0.526
X64.669Y26.884Z-0.546F1000
X64.698Y26.983Z-0.334
X64.695Y26.986Z-0.341F500
X64.74Y27.149Z-0.005F1000
X64.741Y27.151Z-0.002
Z-0
Z-0.002F500
Z0F1000
X64.74
Z-0.002F500
G0Z10
X63.645Y26.263
G1Z-1.198
X63.669Y26.2Z-1.089F1000
X63.638Y26.051Z-0.89
X63.804Y25.743Z-1.028
X63.818Y25.692Z-1.074F500
X63.927Y25.528Z-1.415
G0Z10
X63.645Y26.263
G1Z-1.198
X63.69Y26.36Z-1.014F1000
X64.054Y26.758Z-0.075
X63.988Y26.824Z-0.373F500
X64.171Y27.146Z-0.002F1000
G0Z10
X62.983Y26.821
G1Z-1.559F500
X63.085Y26.621Z-1.121F1000
X63.096Y26.471Z-0.666
X63.645Y26.263Z-1.198F500
G0Z10
X62.983Y26.821
G1Z-1.559
X63.011Y26.882Z-1.456F1000
X63.129Y27.072Z-0.873
X63.013Y27.591Z-0.523
G0Z10
X62.972Y27.863
G1Z-0.304F500
X63.061Y28.03Z-0.31F1000
X63.099Y28.102Z-0.075
X63.029Y28.149Z-0.249F500
X63.043Y28.288Z-0.005F1000
Y28.289Z-0.002
X63.044Z-0
X63.043Z-0.002F500
X63.044Z0F1000
X63.043Z-0.001F500
Y28.29Z0F1000
Y28.289
Z-0.001F500
G0Z10
X62.516Y27.372
G1Z-0
X62.527Y27.269Z-0.292
X62.589Y27.21Z-0.333F1000
X62.582Y27.182Z-0.433F500
X62.55Y27.04Z-0.349F1000
X62.732Y26.919Z-0.957F500
X62.854Y26.838Z-1.231
X62.96Y26.824Z-1.525
X62.983Y26.821Z-1.559
G0Z10
X62.734Y26.755
G1Z-0.688
X62.854Y26.838Z-1.231
G0Z10
X62.508Y27.286
G1Z-0.198
X62.527Y27.269Z-0.292
G0Z10
X61.259Y27.876
G1Z-0.891
X61.374Y27.787Z-0.809F1000
X61.427Y27.777Z-0.668
X61.509Y27.763Z-0.358
G0Z10
X61.244Y27.969
G1Z-0.707F500
X61.259Y27.876Z-0.891
G0Z10
X61.404Y28.484
G1Z-0.412
X61.537Y28.538Z-0.092F1000
X61.529Y28.563Z-0.165F500
X61.486Y28.711Z-0.134F1000
X61.534Y28.735Z-0.172F500
X61.591Y28.764Z-0.216
X61.622Y28.78Z-0.11F1000
G0Z10
X62.162Y29.792
G1Z-2F500
X62.146Y29.803F1000
X62.123Y29.816
X62.099Y29.829
X61.692Y30.02
X61.951Y30.017
X62.243Y29.904
X62.23Y29.889
X62.213Y29.869
X62.197Y29.848
X62.182Y29.826
X62.168Y29.804
X62.162Y29.792
Z-1.831
X62.259Y29.39Z-1.06
X62.177Y29.115Z-0.076
X62.406Y29.034Z-0.383F500
X62.42Y29.029Z-0.393
X62.468Y28.85Z-0F1000
G0Z10
X62.243Y29.904
G1Z-1.905F500
X62.319Y29.922Z-1.835F1000
X62.506Y29.937Z-1.531
X62.514Y29.939Z-1.514
X62.729Y29.941Z-1.214
X62.922Y29.884Z-1.152
X63.196Y29.696Z-0.919
X63.396Y29.777Z-1.471F500
X63.47Y29.772Z-1.554
X63.58Y29.765Z-1.605F1000
X63.585Y29.491Z-0.582
G0Z10
X63.58Y29.765
G1Z-1.605F500
X63.633Y29.778Z-1.65
X63.912Y29.846Z-1.49F1000
X63.932Y29.876Z-1.564F500
X64.072Y30.019Z-1.86
X64.182Y30.095Z-1.844F1000
X64.391Y29.887Z-0.745
G0Z10
X64.182Y30.095
G1Z-1.844F500
X64.222Y30.151Z-1.888
X64.262Y30.189Z-1.883F1000
X64.327Y30.252Z-1.796
X64.405Y30.315Z-1.667
X64.49Y30.369Z-1.5
X64.591Y30.421Z-1.279
X64.599Y30.465Z-1.336F500
X64.684Y30.673Z-1.469
X64.803Y30.841Z-1.368F1000
X64.958Y30.967Z-1.337
X65.107Y31.034Z-1.129
X65.307Y31.071Z-0.709
X65.311Y31.091Z-0.752F500
X65.366Y31.216Z-0.945
X65.424Y31.336Z-1.115
X65.562Y31.488Z-1.104F1000
X65.684Y31.556Z-1.102
X65.726Y31.603Z-1.1
X65.847Y31.671Z-1.098
X65.913Y31.743Z-1.117
X66.005Y31.794Z-1.138
X66.07Y31.866Z-1.157
X66.092Y31.878Z-1.175F500
X66.176Y31.933Z-1.193F1000
X66.222Y31.984Z-1.2
X66.25Y32.001Z-1.221F500
X66.306Y32.039Z-1.236F1000
X66.349Y32.068Z-1.23
X66.381Y32.106Z-1.246
X66.506Y32.192Z-1.274
X66.641Y32Z-0.396
G0Z10
X66.506Y32.192
G1Z-1.274F500
X66.532Y32.225Z-1.282F1000
X66.57Y32.251Z-1.301
X66.697Y32.34Z-1.244
X66.9Y32.412Z-0.942
X66.915Y32.414Z-0.908
X67.018Y32.634Z-1.268F500
X67.11Y32.743Z-1.338F1000
X67.147Y32.787Z-1.327
X67.317Y32.902Z-1.124
X67.424Y32.941Z-0.908
X67.53Y32.98Z-0.694
X67.537Y32.981Z-0.676
X67.56Y33.089Z-0.867F500
X67.585Y33.205Z-1.072
X67.678Y33.392Z-1.221
X67.816Y33.537Z-1.224F1000
X67.998Y33.64Z-1.136
X68.198Y33.695Z-0.826
X68.25Y33.842Z-1.134F500
X68.792Y33.737Z-0.276F1000
X68.884Y33.72Z-0.191
X69.082Y34.126Z-1.66F500
X69.446Y34.028Z-1.872F1000
X69.453Y33.935Z-1.711
X69.468Y33.755Z-1.368
X69.642Y33.67Z-0.643
G0Z10
X69.421Y33.628
G1Z-1.076F500
X69.453Y33.511Z-0.888F1000
X69.49Y33.474Z-0.693
X69.435Y33.449Z-0.665
X69.45Y33.502Z-0.87F500
X69.453Y33.511Z-0.888
X69.388Y33.611Z-0.936F1000
X69.421Y33.628Z-1.076F500
X69.468Y33.755Z-1.368
G0Z10
X69.446Y34.028
G1Z-1.872
X69.448Y34.03Z-1.865F1000
X69.59Y34.188Z-1.605
X69.687Y34.364Z-1.525
X69.728Y34.515Z-1.54
X69.753Y34.553Z-1.573F500
X69.791Y34.662Z-1.598F1000
X69.826Y34.772Z-1.638
X69.842Y34.982Z-1.662
X69.841Y34.992Z-1.654
X69.92Y35.166Z-1.879F500
X69.922Y35.173Z-1.884
X69.927Y35.193Z-1.879F1000
X70.009Y35.373Z-1.895
Y35.375
X70.091Y35.555Z-1.911
X70.092Y35.557
X70.148Y35.681Z-1.923
X70.177Y35.736Z-1.911
X70.189Y35.772Z-1.931
X70.23Y35.863Z-1.939
X70.26Y35.918Z-1.928
X70.282Y35.988Z-1.934
X70.342Y36.1Z-1.944
X70.364Y36.17Z-1.95
X70.425Y36.283Z-1.96
X70.447Y36.353Z-1.966
X70.507Y36.465Z-1.977
X70.529Y36.535Z-1.983
X70.553Y36.579Z-1.995
X70.563Y36.603Z-2
X70.593Y36.659
X70.537Y36.541
X70.563Y36.603
X70.572Y36.614Z-1.997
X70.59Y36.647Z-1.993
X70.597Y36.671Z-1.991
X70.673Y36.813Z-1.978
X70.686Y36.851Z-1.968
X70.716Y36.903Z-1.974
X70.764Y36.991Z-1.961
X70.777Y37.029Z-1.95
X70.849Y37.156Z-1.938
X70.867Y37.208Z-1.933
X70.94Y37.334Z-1.921
X70.948Y37.359Z-1.932
X70.993Y37.448Z-1.924
X71.03Y37.512Z-1.904
X71.039Y37.538Z-1.915
X71.116Y37.691Z-1.901
X71.117Y37.692
X71.207Y37.869Z-1.884
X71.208Y37.871
X71.297Y38.048Z-1.867
X71.298Y38.049
X71.388Y38.226Z-1.85
X71.389Y38.228
X71.478Y38.405Z-1.833
X71.512Y38.448Z-1.839
X71.523Y38.47Z-1.847
X71.603Y38.627Z-1.796
X71.623Y38.7Z-1.713
X71.718Y38.791Z-1.823F500
X71.831Y38.956Z-1.821F1000
X71.894Y39.103Z-1.911
X71.927Y39.215Z-1.996F500
X71.928Y39.221Z-2
X71.94Y39.222F1000
X71.926Y39.2
X71.928Y39.221
X71.932Z-1.995
X71.975Y39.24Z-1.924
X72.154Y39.365Z-1.598
X72.29Y39.515Z-1.46
X72.423Y39.766Z-1.257
X72.431Y39.799Z-1.202
X72.587Y39.887Z-1.42F500
X72.732Y40.025Z-1.446F1000
X72.804Y40.141Z-1.503
X72.85Y40.186Z-1.53
X72.924Y40.303Z-1.587
X72.969Y40.346Z-1.613
X73.044Y40.465Z-1.671
X73.088Y40.508Z-1.697
X73.106Y40.536Z-1.718F500
X73.164Y40.626Z-1.755F1000
X73.31Y40.773Z-1.753
X73.401Y40.835Z-1.658
X73.431Y40.934Z-1.823F500
X73.49Y41.049Z-1.948
X73.508Y41.12Z-1.939F1000
X73.563Y41.236Z-1.898
X73.611Y41.324Z-1.886
X73.671Y41.405Z-1.918
X73.688Y41.426Z-1.917
X73.739Y41.514Z-1.943
X73.791Y41.574Z-1.978
Z-2F500
X73.826Y41.634F1000
X73.83Y41.604
X73.809Y41.589
X73.791Y41.574
X73.829Y41.61Z-1.981
X74.138Y41.496Z-0.902
X74.199Y41.377Z-0.725
X74.226Y41.355Z-0.634
X74.281Y41.309Z-0.369
X74.199Y41.377Z-0.725F500
X74.211Y41.284Z-0.394F1000
G0Z10
X73.826Y41.634
G1Z-1.976F500
X73.833Y41.69Z-1.916F1000
X73.895Y41.886Z-1.749
X73.993Y42.059Z-1.623
X74.129Y42.212Z-1.303
X74.15Y42.228Z-1.245
X74.159Y42.426Z-1.429F500
X74.215Y42.625Z-1.395F1000
X74.304Y42.776Z-1.379
X74.311Y42.8Z-1.376
X74.4Y42.951Z-1.36
X74.454Y43.148Z-1.303
X74.458Y43.3Z-1.095
X74.515Y43.342Z-1.228F500
X74.649Y43.498Z-1.458
X74.737Y43.677Z-1.487F1000
X74.763Y43.794Z-1.603F500
X74.781Y43.897Z-1.718
Y43.901Z-1.72F1000
X74.786Y43.913Z-1.706
X74.835Y43.982Z-1.685
X74.987Y44.215Z-1.58
X75.014Y44.245Z-1.543
X75.071Y44.354Z-1.496
X75.124Y44.413Z-1.466
X75.181Y44.522Z-1.419
X75.234Y44.581Z-1.389
X75.29Y44.691Z-1.342
X75.344Y44.749Z-1.311
X75.418Y44.896Z-1.285
X75.461Y44.942Z-1.283
X75.524Y45.066Z-1.28
X75.567Y45.112Z-1.278
X75.629Y45.236Z-1.275
X75.672Y45.282Z-1.273
X75.735Y45.406Z-1.269
X75.778Y45.452Z-1.268
X75.833Y45.562Z-1.27
X75.839Y45.576Z-1.26
X75.894Y45.643Z-1.27
X75.939Y45.732Z-1.264
X75.945Y45.746Z-1.255
X76.014Y45.831Z-1.252
X76.05Y45.916Z-1.25
X76.12Y46.001Z-1.247
X76.146Y46.062Z-1.261
X76.203Y46.144Z-1.26
X76.225Y46.171Z-1.242
X76.251Y46.232Z-1.256
X76.352Y46.375Z-1.29
X76.356Y46.379Z-1.291
X76.469Y46.538Z-1.335
X76.473Y46.542Z-1.337
X76.585Y46.7Z-1.381
X76.59Y46.704Z-1.382
X76.702Y46.863Z-1.426
X76.707Y46.867Z-1.428
X76.819Y47.026Z-1.472
X76.824Y47.03Z-1.473
X76.904Y47.143Z-1.506
X76.932Y47.191Z-1.498
X76.989Y47.251Z-1.517
X77.049Y47.354Z-1.544
X77.106Y47.414Z-1.563
X77.166Y47.517Z-1.59
X77.194Y47.546Z-1.62F500
X77.223Y47.577Z-1.609F1000
X77.232Y47.593Z-1.605
X77.358Y47.725Z-1.569
X77.367Y47.741Z-1.565
X77.461Y47.84Z-1.549
X77.513Y47.886Z-1.523
X77.552Y47.942Z-1.516
X77.651Y48.03Z-1.504
X77.69Y48.087Z-1.497
X77.79Y48.174Z-1.484
X77.829Y48.231Z-1.478
X77.891Y48.286Z-1.485
X77.929Y48.319Z-1.465
X77.948Y48.347Z-1.456
X78.074Y48.457Z-1.413
X78.093Y48.485Z-1.404
X78.194Y48.573Z-1.375
X78.221Y48.593Z-1.349
X78.263Y48.646
X78.339Y48.712Z-1.323
X78.366Y48.731Z-1.297
X78.43Y48.812Z-1.27
X78.512Y48.87Z-1.244
X78.575Y48.95Z-1.218
X78.616Y48.979Z-1.232
X78.688Y49.049Z-1.206
X78.719Y49.089Z-1.165
X78.761Y49.118Z-1.181
X78.87Y49.222Z-1.143
X78.889Y49.257Z-1.142
X79.006Y49.369Z-1.138
X79.024Y49.404Z-1.137
X79.142Y49.516Z-1.133
X79.149Y49.53Z-1.147F500
X79.268Y49.661Z-1.142F1000
X79.275Y49.665
X79.404Y49.808Z-1.137
X79.411Y49.812
X79.539Y49.955Z-1.132
X79.547Y49.959
X79.68Y50.108Z-1.137
X79.694Y50.138Z-1.144
X79.731Y50.18Z-1.167
X79.79Y50.245Z-1.154
X79.813Y50.299Z-1.159
X79.909Y50.405Z-1.169
X79.933Y50.459Z-1.173
X80.028Y50.566Z-1.183
X80.052Y50.617Z-1.189
X80.148Y50.726Z-1.198
X80.17Y50.776Z-1.202
X80.259Y50.878Z-1.215
X80.288Y50.937Z-1.212
X80.313Y50.963Z-1.23
X80.379Y51.038Z-1.229
X80.408Y51.097Z-1.226
X80.493Y51.188Z-1.235
X80.527Y51.257Z-1.24
X80.612Y51.349Z-1.249
X80.66Y51.444Z-1.274
X80.725Y51.515Z-1.296
X80.773Y51.61Z-1.321
X80.86Y51.705Z-1.386
X80.935Y51.776Z-1.378
X81.028Y51.838Z-1.296
X81.145Y51.905Z-1.168
X81.146Y51.915Z-1.19F500
X81.206Y52.111Z-1.554
X81.303Y52.286Z-1.732
X81.496Y52.507Z-1.931
X81.482Y52.499Z-2
X81.569Y52.767F1000
X81.572Y52.775
X82.036Y52.852
X81.978Y52.804
X81.482Y52.499
G0Z10
X82.025Y52.85
G1Z-1.985F500
X82.134Y53.163Z-0.812F1000
X82.219Y53.234Z-0.51
G0Z10
X82.029Y52.846
G1Z-1.985F500
X82.333Y52.823Z-1.214F1000
X82.572Y52.805Z-0.599
X82.645Y52.983Z-0.941F500
X82.86Y53.227Z-1.085F1000
X82.864Y53.232Z-1.082
X82.943Y53.277Z-1.076
X83.017Y53.361Z-1.069
X83.096Y53.406Z-1.064
X83.17Y53.49Z-1.057
X83.249Y53.535Z-1.051
X83.323Y53.619Z-1.045
X83.402Y53.664Z-1.039
X83.475Y53.748Z-1.032
X83.555Y53.793Z-1.026
X83.602Y53.847Z-1.045
X83.651Y53.884Z-1.047
X83.679Y53.911Z-1.044
X83.756Y53.966Z-1.02
X83.759Y53.97Z-1.025F500
X83.876Y54.082Z-1.014F1000
X83.909Y54.096Z-1.012
X84.029Y54.211Z-1.001
X84.061Y54.225Z-0.999
X84.181Y54.34Z-0.989
X84.214Y54.354Z-0.987
X84.334Y54.469Z-0.977
X84.526Y54.55Z-1.195F500
X84.765Y54.573Z-1.692
X84.798Y54.569Z-1.782
X84.814Z-1.821
X84.849Y54.592Z-1.8F1000
X84.95Y54.696Z-1.794
X84.997Y54.727Z-1.792
X85.098Y54.83Z-1.786
X85.145Y54.862Z-1.783
X85.246Y54.965Z-1.778
X85.293Y54.996Z-1.775
X85.394Y55.1Z-1.769
X85.441Y55.131Z-1.767
X85.528Y55.22
X85.541Y55.235Z-1.757
X85.625Y55.297Z-1.753
X85.689Y55.37Z-1.749
X85.773Y55.432Z-1.745
X85.789Y55.451Z-1.754
X85.86Y55.522Z-1.751
X85.921Y55.567Z-1.737
X85.937Y55.585Z-1.746
X86.028Y55.677Z-1.736
X86.067Y55.702Z-1.734
X86.176Y55.811Z-1.728
X86.215Y55.837Z-1.726
X86.323Y55.946Z-1.72
X86.493Y56.056Z-1.741
X86.692Y56.134Z-1.565
X86.76Y56.148Z-1.464
X86.832Y56.277Z-1.709F500
X86.961Y56.433Z-1.921
X87.016Y56.479Z-1.946F1000
X87.071Y56.525Z-1.936
X87.199Y56.595Z-1.982
X87.202Y56.594Z-2F500
X87.194Y56.591F1000
X88.081Y57.225
X89.375Y58.251
X89.394Y58.268
X92.635Y61.236
X93.337Y61.637
X94.05Y61.87
X94.076Y61.88
X94.101Y61.891
X94.125Y61.903
X94.654Y62.206
X94.677Y62.221
X94.699Y62.237
X94.72Y62.253
X94.74Y62.271
X95.009Y62.533
X95.941Y62.756
X95.864Y62.709
X95.849Y62.7
X92.264Y60.356
X92.241Y60.339
X92.22Y60.322
X91.571Y59.767
X91.552Y59.749
X91.534Y59.731
X91.517Y59.711
X91.501Y59.691
X91.486Y59.67
X91.472Y59.649
X91.459Y59.626
X91.447Y59.604
X91.436Y59.58
X91.372Y59.421
X90.909Y59.108
X90.889Y59.093
X90.87Y59.078
X90.852Y59.061
X90.108Y58.363
X89.57Y57.985
X88.805Y57.514
X88.783Y57.499
X88.763Y57.484
X88.743Y57.467
X88.724Y57.45
X88.706Y57.431
X88.431Y57.138
X88.056Y56.839
X87.686Y56.681
X87.255Y56.607
X87.228Y56.601
X87.202Y56.594
G0Z10
X87.876Y56.762
G1Z-1.733F500
X87.968Y56.545Z-1.12F1000
G0Z10
X88.23Y56.977
G1Z-1.718F500
X88.374Y56.797Z-1.136F1000
G0Z10
X89.848Y58.18
G1Z-1.712F500
X89.942Y58.045Z-1.385F1000
G0Z10
X91.905Y58.056
G1Z-0.204F500
X91.911Y58.06Z-0.211
X91.913Z-0.215
X91.914Y58.059Z-0.221
X91.918Y58.054Z-0.22F1000
Y58.053Z-0.219
X91.922Y58.026Z-0.119
X91.91Y58.131Z-0.017
X91.917Y58.066Z-0.208F500
X91.913Y58.06Z-0.215
X91.91Y58.131Z-0.017F1000
Y58.137Z-0
Y58.132Z-0.015F500
X91.909Y58.137Z0F1000
X91.91Y58.131Z-0.017F500
G0Z10
X92.62Y58.898
G1Z-0.135
X92.625Y58.912Z-0.177
X92.629Y58.923Z-0.193
X92.638Y58.929Z-0.23
X92.639Z-0.233
X92.649Y58.923Z-0.195F1000
X92.652Y58.914Z-0.182
X92.657Y58.896Z-0.132
X92.639Y58.929Z-0.232F500
X92.642Y58.933Z-0.223F1000
X92.647Y58.941Z-0.189
X92.632Z-0.192
X92.635Y58.934Z-0.219F500
X92.638Y58.929Z-0.23
G0Z10
X92.904Y59.014
G1Z-0.003
X92.964Y59.099Z-0.119
X93.08Y59.241Z-0.272
X93.101Y59.249Z-0.248F1000
X93.112Y59.298Z-0.322F500
G0Z10
X93.672Y59.78
G1Z-0.397
X93.841Y59.888Z-0.442F1000
X93.888Y60.041Z-0.44
X94.102Y60.105Z-0.62F500
X94.278Y60.157Z-0.477F1000
Y60.171Z-0.524F500
X94.344Y60.305Z-0.844
X94.485Y60.456Z-1.054
X94.486Y60.457F1000
X94.638Y60.536Z-0.953
X94.653Y60.564Z-0.991F500
X94.712Y60.616Z-0.986F1000
X94.744Y60.644Z-0.917
X94.801Y60.688Z-0.779
X94.811Y60.724Z-0.796
X94.873Y60.813Z-0.709
X94.953Y60.909Z-0.571
X95.07Y60.944Z-0.65F500
X95.135Y60.995Z-0.665F1000
X95.282Y61.019Z-0.766F500
X95.331Y61.06Z-0.854
X95.335Y61.061Z-0.858
X95.529Y61.121Z-0.603F1000
X95.678Y61.115Z-0.232
X95.721Y61.318Z-0.713F500
X95.758Y61.489Z-0.232F1000
X95.953Y61.488Z-0.552F500
X96.011Y61.477Z-0.55F1000
X96.195Y61.559Z-0.467
X96.217Y61.601Z-0.475
X96.363Y61.667Z-0.499
X96.386Y61.708Z-0.507
X96.532Y61.775Z-0.531
X96.555Y61.815Z-0.538
X96.7Y61.883Z-0.562
X96.724Y61.922Z-0.57
X96.842Y61.978Z-0.603
X96.889Y62.033Z-0.583
X96.92Y62.042Z-0.62F500
X96.983Y62.073Z-0.642F1000
X97.01Y62.086Z-0.634
X97.058Y62.14Z-0.615
X97.157Y62.171Z-0.629
X97.226Y62.247Z-0.645
X97.326Y62.279Z-0.661
X97.395Y62.354Z-0.677
X97.494Y62.387Z-0.693
X97.564Y62.461Z-0.708
X97.663Y62.495Z-0.724
X97.721Y62.556Z-0.752
X97.733Y62.568Z-0.739
X97.929Y62.637Z-0.542
X97.971Y62.636Z-0.437
X98.165Y63.029Z-0.327
X98.601Y62.948Z-0.013
X98.74Y63.664Z-1.856F500
Z-2
X98.72Y63.684F1000
X98.7Y63.701
X98.694Y63.706
X99.149Y64.032
X99.169Y64.048
X99.189Y64.064
X99.207Y64.082
X99.224Y64.1
X99.241Y64.12
X99.64Y64.628
X99.655Y64.649
X99.669Y64.671
X99.682Y64.694
X99.694Y64.717
X100.094Y65.551
X100.528Y66.28
X100.443Y65.357
X100.442Y65.339
X100.354Y63.815
Y63.788
X100.355Y63.762
X100.357Y63.736
X100.361Y63.709
X100.366Y63.684
X100.372Y63.658
X100.38Y63.633
X100.388Y63.608
X100.398Y63.583
X100.409Y63.559
X100.417Y63.545
X100.39Y63.535
X100.061Y63.395
X100.057Y63.417
X100.052Y63.443
X100.045Y63.468
X100.038Y63.493
X100.029Y63.518
X100.019Y63.542
X100.007Y63.566
X99.995Y63.589
X99.982Y63.611
X99.967Y63.633
X99.951Y63.654
X99.935Y63.674
X99.917Y63.694
X99.898Y63.712
X99.879Y63.73
X99.859Y63.746
X99.838Y63.762
X99.816Y63.777
X99.793Y63.79
X99.77Y63.802
X99.746Y63.814
X99.722Y63.824
X99.698Y63.832
X99.672Y63.84
X99.647Y63.846
X99.621Y63.852
X99.595Y63.855
X99.569Y63.858
X99.543Y63.859
X99.517
X99.214Y63.845
X99.188Y63.842
X99.163Y63.839
X99.137Y63.834
X99.112Y63.828
X99.087Y63.82
X99.063Y63.812
X99.039Y63.802
X98.74Y63.664
G0Z10
X97.871Y63.396
G1Z-0.86F500
X98.165Y63.029Z-0.327F1000
G0Z10
X97.871Y63.396
G1Z-0.86F500
X97.967Y63.501Z-1.141
X98.138Y63.618Z-1.386
X98.326Y63.684Z-1.417F1000
X98.708Y63.716Z-1.94F500
G0Z10
X99.392Y62.765
G1Z-0.927
X99.448Y62.731Z-0.924F1000
X99.476Y62.732Z-0.869
X99.582Y62.902Z-1.153F500
X99.637Y62.989Z-1.16F1000
X100.077Y63.248Z-1.472F500
X100.124Y63.422Z-1.707
G0Z10
X100.417Y63.545
G1Z-1.671
X100.945Y63.336Z-0.929F1000
X101.196Y63.518Z-1.481F500
X101.337Y63.575Z-1.615
X101.49Y63.434Z-1.129F1000
X101.684Y63.346Z-0.864
X101.848Y63.344Z-0.755
X101.882Y63.318Z-0.806F500
X102.079Y63.274Z-0.716F1000
X102.136Y63.289
X102.181Y63.279Z-0.739
X102.279Y63.258Z-0.717
X102.335Y63.273Z-0.716
X102.38Y63.263Z-0.74
X102.479Y63.242Z-0.717
X102.535Y63.257
X102.679Y63.225Z-0.718
X102.731Y63.24Z-0.722
X102.878Y63.21Z-0.721
X102.928Y63.224
X103.125Y63.184Z-0.811
X103.315Y63.045Z-1.269F500
X103.336Y63.016Z-1.369
X103.46Y62.908Z-1.246F1000
X103.503Y62.892Z-1.182
X103.549Y62.863Z-1.067
X103.919Y63.025Z-1.459F500
X103.95Y63.038Z-1.437F1000
X104.005Y63.032Z-1.509F500
X104.148Y62.941Z-1.123F1000
X104.165Y62.917Z-1.02
Y62.915Z-1.012
X104.005Y63.032Z-1.509F500
X104.122Y63.199Z-0.988F1000
X104.205Y63.387Z-0.521
X104.214Y63.62Z-0.378
X104.17Y63.7Z-0.156
X104.36Y63.849Z-0.598F500
X104.496Y63.956Z-0.408F1000
X104.541Y63.948Z-0.252
G0Z10
X104.663Y64.16
G1Z-0.332F500
X104.664Y64.168Z-0.345
X104.679Y64.275Z-0.099F1000
X104.775Y64.279Z-0.162F500
G0Z10
X105.221Y65.101
G1Z-0.494
X105.232Y65.111Z-0.548
X105.284Y65.043Z-0.506F1000
X105.262Y64.856Z-0
G0Z10
X105.232Y65.111
G1Z-0.548F500
X105.269Y65.228Z-0.941
X105.375Y65.191Z-0.555F1000
G0Z10
X105.101Y65.595
G1Z-1.64F500
X105.252Y65.328Z-1.094F1000
X105.258Y65.295Z-1.076
X105.269Y65.228Z-0.941
G0Z10
X105.101Y65.595
G1Z-1.64F500
X105.16Y65.673Z-1.498F1000
X105.318Y65.8Z-1.378
X105.469Y65.866Z-1.212
X105.491Y65.901Z-1.253F500
X105.559Y65.964Z-1.254F1000
X105.628Y66.027Z-1.199
X105.794Y66.105Z-1.197
X105.807Y66.117
X105.972Y66.195Z-1.195
X105.975Y66.197Z-1.198F500
X106.139Y66.283Z-1.196F1000
X106.151Y66.285
X106.257Y66.341Z-1.2
X106.316Y66.377Z-1.179
X106.347Y66.384Z-1.196
X106.436Y66.431Z-1.198
X106.494Y66.467Z-1.177
X106.546Y66.479
X106.573Y66.496Z-1.186
X106.637Y66.534Z-1.149
X106.731Y66.557Z-1.123
X106.822Y66.613Z-1.095
X106.967Y66.646Z-1.096
X107.07Y66.653Z-1.001
X107.179Y66.644Z-0.843
X107.322Y66.613Z-0.569
X107.337Y66.638Z-0.64F500
X107.494Y66.799Z-1.028
X107.671Y66.898Z-1.112F1000
X107.956Y66.951Z-1.086
X108.176Y67.086Z-0.675
X108.388Y66.919Z-1.38F500
X108.416Y66.789Z-1.139F1000
X108.421Y66.784Z-1.112
X108.355Y66.686Z-0.912
X108.416Y66.789Z-1.139F500
X108.388Y66.919Z-1.38
X108.599Y66.986Z-1.217F1000
X108.801Y67.05Z-0.716
X108.805Y67.047Z-0.72F500
X109.099Y67.137Z-0.003F1000
X109.1Y67.138Z0
X109.099Y67.137Z-0.003F500
G0Z10
X107.609Y67.079
G1Z-0.395
X107.671Y66.898Z-1.112
G0Z10
X106.399Y66.658
G1Z-0.379
X106.494Y66.467Z-1.177
G0Z10
X107.253Y65.156
G1Z-0.38
X107.367Y65.071Z-0.913
X107.397Y65.098Z-0.94
X107.512Y65.206Z-0.805F1000
X107.597Y65.285Z-0.7
X107.583Y65.348Z-0.643
X107.741Y65.486Z-0.59
X107.745Y65.494Z-0.575
X107.793Y65.594Z-0.16
X107.895Y65.592Z-0.006
X107.753Y65.488Z-0.581F500
X107.81Y65.5Z-0.382F1000
X107.741Y65.486Z-0.59F500
X107.753Y65.488Z-0.581F1000
G0Z10
X107.977Y64.535
G1Z-0.326F500
X108.211Y64.523Z-0.889
X108.412Y64.565Z-1.218
X108.588Y64.66Z-1.305F1000
X108.631Y64.701Z-1.338
X108.713Y64.746Z-1.402F500
X108.801Y64.81Z-1.45F1000
X108.841Y64.825Z-1.473
X108.971Y64.919Z-1.559
X109.011Y64.936Z-1.582
X109.141Y65.029Z-1.667
X109.25Y65.075Z-1.767F500
X109.294Y65.106Z-1.827
X109.385Y65.153Z-1.913
X109.431Y65.173Z-1.939F1000
X109.475Y65.203Z-1.998F500
X109.476Y65.204F1000
X109.473Y65.201Z-2
X110.258Y65.887
X111.039Y66.445
X111.447Y66.514
X111.472Y66.519
X111.498Y66.526
X111.523Y66.534
X112.572Y66.904
X114.835Y67.175
X114.862Y67.18
X114.889Y67.186
X115.931Y67.478
X115.955Y67.486
X115.978Y67.495
X116.001Y67.505
X116.62Y67.794
X116.632Y67.769
X116.645Y67.746
X116.658Y67.724
X116.673Y67.703
X116.689Y67.682
X116.705Y67.662
X116.723Y67.643
X116.742Y67.624
X116.761Y67.607
X116.782Y67.591
X116.803Y67.575
X116.825Y67.561
X116.847Y67.548
X116.87Y67.536
X116.889Y67.527
X116.409Y67.274
X116.394Y67.266
X116.38Y67.258
X115.277Y66.589
X114.297Y65.943
X114.283Y65.934
X113.151Y65.135
X113.139Y65.127
X113.127Y65.118
X110.646Y63.154
X110.316Y62.946
X110.26Y62.926
X110.247Y62.939
X110.228Y62.957
X110.208Y62.973
X110.187Y62.989
X110.165Y63.004
X110.142Y63.018
X110.119Y63.03
X110.096Y63.042
X110.071Y63.052
X110.047Y63.061
X110.022Y63.069
X109.996Y63.075
X109.97Y63.08
X109.944Y63.084
X109.918Y63.087
X109.892Y63.089
X109.866
X109.839Y63.088
X109.813Y63.085
X109.787Y63.081
X109.761Y63.076
X109.736Y63.07
X109.711Y63.063
X109.063Y62.836
X109.056Y62.861
X109.047Y62.885
X109.037Y62.91
X109.026Y62.933
X109.014Y62.956
X108.855Y63.238
X108.841Y63.26
X108.835Y63.269
X111.019Y64.072
X111.044Y64.082
X111.588Y64.345
X111.611Y64.357
X111.633Y64.371
X111.655Y64.386
X111.676Y64.402
X111.696Y64.419
X111.716Y64.436
X111.734Y64.455
X111.752Y64.475
X111.768Y64.495
X111.784Y64.517
X111.798Y64.539
X111.811Y64.561
X111.824Y64.585
X111.835Y64.609
X111.845Y64.633
X111.853Y64.658
X111.861Y64.683
X111.867Y64.709
X111.872Y64.735
X111.875Y64.761
X111.878Y64.787
X111.879Y64.813
X111.878Y64.84
X111.877Y64.866
X111.874Y64.892
X111.87Y64.918
X111.865Y64.944
X111.858Y64.969
X111.85Y64.995
X111.841Y65.019
X111.831Y65.043
X111.819Y65.067
X111.806Y65.09
X111.793Y65.113
X111.778Y65.134
X111.762Y65.155
X111.669Y65.266
X111.652Y65.285
X111.633Y65.303
X111.613Y65.321
X111.593Y65.337
X111.572Y65.353
X111.55Y65.367
X111.528Y65.38
X111.505Y65.392
X111.481Y65.403
X111.457Y65.413
X111.432Y65.422
X111.407Y65.429
X111.382Y65.435
X111.356Y65.44
X111.331Y65.444
X111.305Y65.446
X111.279Y65.448
X110.422Y65.445
X110.396Y65.444
X110.37Y65.441
X110.345Y65.438
X110.32Y65.433
X110.294Y65.426
X109.473Y65.201
G0Z10
X110.85Y65.447
G1Z-1.279F500
X110.851Y64.992Z-0.304F1000
X111.088Y64.685Z-0.045
X111.316Y64.213Z-1.496F500
G0Z10
X111.088Y64.685
G1Z-0.045
X111.716Y65.211Z-0.939
G0Z10
X110.807Y66.811
G1Z-0.385
X111.041Y66.483Z-1.86
X111.065Y66.45Z-1.88F1000
G0Z10
X112.392Y67.291
G1Z-0.414F500
X112.533Y66.89Z-1.256
X112.604Y66.985Z-1.714
X112.613Y66.909Z-1.762
G0Z10
X116.604Y67.787
G1Z-1.823
X116.655Y67.885Z-1.748F1000
X116.746Y68.06Z-1.19
X116.752Y68.126Z-0.953
X116.851Y68.23Z-0.611
X116.925Y68.308Z-0.207
G0Z10
X116.743Y68.168
G1Z-0.794F500
X116.752Y68.126Z-0.953
X116.746Y68.06Z-1.19
X116.938Y68.111Z-0.522F1000
G0Z10
X116.828Y67.495
G1Z-1.916F500
X117.055Y67.544Z-1.75F1000
X117.364Y67.563Z-1.33
X117.667Y67.797Z-1.121
X117.858Y67.759Z-1.408F500
X117.913Y67.776Z-1.394F1000
X117.933Y67.782Z-1.316
X117.946Z-1.271
X117.969Y67.768Z-1.22
X118.039Y67.722Z-0.909
X117.946Y67.782Z-1.271F500
X118.015Y67.815Z-0.988F1000
X117.933Y67.782Z-1.316F500
X117.988Y67.988Z-0.637F1000
X118.161Y68.118Z0
G0Z10
X110.468Y63.042
G1Z-1.471F500
X110.621Y62.8Z-0.932F1000
G0Z10
X110.237Y62.682
G1Z-1.171F500
X110.271Y62.93Z-1.892
G0Z10
X109.379Y62.947
G1Z-1.467
X109.527Y62.525Z-0.332F1000
X109.956Y62.478Z-0.327
X110.039Y62.469Z-0.412F500
X110.072Y62.504Z-0.581
X110.237Y62.682Z-1.171
G0Z10
X107.906Y63.288
G1Z-0
X108.103Y63.254Z-0.576
X108.11Y63.259Z-0.583
X108.238Y63.331Z-0.692
X108.295Y63.302Z-0.912
X108.522Y63.324Z-1.404
X108.554Y63.327Z-1.434
X108.781Y63.291Z-1.852
X108.838Y63.27Z-1.886F1000
G0Z10
X107.34Y63.927
G1Z-0.927F500
X107.508Y63.954Z-1.126
X107.692Y64.043Z-1.092F1000
X107.77Y64.12Z-1.097
X107.847Y64.199Z-1.033
X107.945Y64.397Z-0.666
X107.977Y64.535Z-0.326
G0Z10
X107.26Y64.639
G1Z-0.302F500
X107.945Y64.577Z-0.131F1000
X107.977Y64.535Z-0.326F500
G0Z10
X107.26Y64.639
G1Z-0.302
X107.258Y64.652Z-0.338
X107.281Y64.885Z-0.808
X107.36Y65.056Z-0.925
X107.367Y65.071Z-0.913F1000
G0Z10
X107.199Y64.56
G1Z-0.3F500
X107.34Y63.927Z-0.927
G0Z10
X106.887Y63.515
G1Z-1.763
X106.951Y63.54Z-1.633F1000
X107.124Y63.658Z-1.4
X107.313Y63.877Z-1.045
X107.336Y63.922Z-0.935
G0Z10
X107.199Y64.56
G1Z-0.3F500
X107.26Y64.639Z-0.302F1000
G0Z10
X106.738Y64.189
G1Z-0.923F500
X107.336Y63.922Z-0.935F1000
G0Z10
X106.738Y64.189
G1Z-0.923F500
X106.766Y64.277Z-0.896F1000
X106.89Y64.429Z-0.903
X107.082Y64.534Z-0.584
X107.199Y64.56Z-0.3
G0Z10
X106.588Y63.615
G1Z-1.846F500
X106.887Y63.515Z-1.763F1000
G0Z10
X106.588Y63.615
G1Z-1.846F500
X106.579Y63.672Z-1.692F1000
X106.592Y63.912Z-1.195
X106.666Y64.107Z-0.977
X106.738Y64.189Z-0.923
G0Z10
X106.575Y62.83
G1Z-0.265F500
X106.672Y62.865Z-0.542
X106.822Y63.001Z-0.764
X106.899Y63.196Z-0.989
X106.902Y63.386Z-1.42
X106.887Y63.515Z-1.763
G0Z10
X105.742Y63.132
G1Z-0.003
X105.876Y63.188Z-0.352
X105.942Y63.391Z-0.221F1000
X105.99Y63.385Z-0.393F500
X106.269Y63.349Z-0.964
X106.443Y63.524Z-1.563
X106.588Y63.615Z-1.846
G0Z10
X105.742Y63.132
G1Z-0.003
Z0F1000
Z-0.002F500
Z0F1000
Z-0.002F500
Z0F1000
Z-0.003F500
Z-0.002F1000
G0Z10
X106.362Y62.287
G1Z-0.271F500
X106.39Y62.314Z-0.265F1000
X106.535Y62.452Z-0.229
G0Z10
X106.34Y62.266
G1Z-0.161F500
X106.362Y62.287Z-0.271
X106.361Y62.182Z-0.004F1000
Y62.181Z-0
Z0
Y62.182Z-0.004F500
X106.362Y62.287Z-0.271
G0Z10
X105.874Y61.223
G1Z-1.074
X106.049Y61.327Z-1.216
X106.063Y61.342Z-1.207F1000
X106.252Y61.355Z-1.082
X106.397Y61.416Z-0.881
X106.447Y61.401Z-0.93F500
X106.622Y61.411Z-0.834F1000
X106.715Y61.446Z-0.842
X106.804Y61.495Z-0.792
X106.938Y61.624Z-0.517
X107.023Y61.78Z-0.086
X107.11Y61.739Z-0.347F500
X107.336Y61.696Z-0.796
X107.42Y61.711Z-0.855
X107.506Y61.727Z-0.836F1000
X107.629Y61.81Z-0.853
X107.683Y61.821Z-0.859
X107.806Y61.904Z-0.875
X107.86Y61.914Z-0.882
X107.899Y61.941Z-0.906
X107.983Y61.997Z-0.898
X108.037Y62.008Z-0.905
X108.16Y62.091Z-0.921
X108.213Y62.102Z-0.927
X108.337Y62.184Z-0.944
X108.349Y62.187Z-0.958F500
X108.494Y62.254Z-0.973F1000
X108.613Y62.376Z-1.023
X108.652Y62.386Z-1.098F500
X108.823Y62.491Z-1.223
X108.967Y62.652Z-1.528
X109.063Y62.836Z-1.71
G0Z10
X104.231Y60.879
G1Z-0.873
X104.31Y60.92Z-0.695F1000
X104.434Y60.876Z-0.772F500
X104.633Y60.899Z-0.729F1000
X104.815Y61.021Z-0.475
X104.853Y61.071Z-0.322
X104.98Y61.02Z-0.606F500
X105.084Y61.005Z-0.74
X105.185Y61.008Z-0.775F1000
X105.34Y61.06Z-0.851
X105.516Y61.216Z-0.598
X105.517Y61.217Z-0.595
X105.723Y61.192Z-1.006F500
X105.788Y61.205Z-1.062
X105.874Y61.223Z-1.074F1000
G0Z10
X102.77Y62.566
G1Z-0.292F500
X103.46Y62.908Z-1.246
G0Z10
X102.285Y62.102
G1Z-0.002
X102.286Y62.103Z-0.005
X102.391Y62.201Z-0.201
X102.442Y62.177Z-0.049F1000
X102.496Y62.273Z-0.308F500
X102.543Y62.356Z-0.322F1000
G0Z10
X102.285Y62.102
G1Z-0.001F500
Z-0.002
Z0F1000
Z-0.001F500
G0Z10
X101.689Y61.412
G1Z-0.389
X101.731Y61.293Z-0.859
X101.813Y61.298Z-0.871F1000
X101.95Y61.366Z-0.815
X102.079Y61.464Z-0.567
X102.147Y61.557Z-0.284
X102.278Y61.497Z-0.612F500
X102.522Y61.469Z-0.917
X102.67Y61.451Z-0.897F1000
X102.7Y61.471Z-0.826
X102.721Y61.466Z-0.833
X102.908Y61.427Z-0.859
X102.947Y61.418Z-0.827
X103.111Y61.297Z-0.594
X103.121Y61.282Z-0.546
X103.271Y61.287Z-0.694F500
X103.333Y61.275Z-0.702F1000
X103.372Y61.267Z-0.649
X103.461Y61.222Z-0.427
X103.481Y61.204Z-0.347
X103.644Y61.263Z-0.273
X103.812Y61.15Z-0.395F500
X103.84Y61.028Z-0.513
X103.922Y60.983Z-0.765
X103.949Y60.968Z-0.762F1000
X104.028Y60.861Z-0.542
X104.117Y60.868Z-0.721F500
X104.231Y60.879Z-0.873
G0Z10
X101.337Y63.575
G1Z-1.615
X101.362Y63.63Z-1.496F1000
X101.442Y63.731Z-1.349
X101.527Y63.825Z-1.233
X101.687Y63.922Z-1.139
X101.694Y63.935Z-1.155F500
X101.841Y64.075Z-1.109F1000
X101.919Y64.112Z-1.148
X101.996Y64.148Z-1.136
X102.208Y64.176Z-0.867
X102.367Y64.157Z-0.533
X102.374Y64.172Z-0.573F500
X102.457Y64.321Z-0.923
X102.603Y64.471Z-1.175
X102.779Y64.567Z-1.182F1000
X102.795Y64.57Z-1.184
X102.866Y64.608Z-1.197
X102.937Y64.647Z-1.175
X102.976Y64.654Z-1.172
X103.118Y64.731Z-1.163
X103.158Y64.738Z-1.161
X103.282Y64.806Z-1.157
X103.34Y64.82Z-1.14
X103.376Y64.843Z-1.157
X103.464Y64.89Z-1.146
X103.522Y64.905Z-1.128
X103.626Y64.97Z-1.121
X103.671Y64.981Z-1.142
X103.761Y65.025Z-1.138
X103.807Y65.055Z-1.109
X103.852Y65.066Z-1.131
X103.991Y65.134Z-1.12
X104.005Y65.136Z-1.119
X104.184Y65.224Z-1.124
X104.196Y65.236Z-1.126
X104.361Y65.318Z-1.15
X104.373Y65.329Z-1.152
X104.538Y65.411Z-1.176
X104.55Y65.423Z-1.178
X104.664Y65.479Z-1.207
X104.758Y65.516Z-1.26
X104.863Y65.534Z-1.352F500
X104.872Z-1.355F1000
X104.984Y65.579Z-1.474F500
X105.101Y65.595Z-1.64
G0Z10
X102.678Y64.756
G1Z-0.382
X102.779Y64.567Z-1.182
G0Z10
X100.527Y66.278
G1Z-1.985
X100.53Y66.297Z-1.974F1000
X100.577Y66.424Z-1.865
X100.592Y66.493Z-1.797
X100.636Y66.594Z-1.706
X100.655Y66.688Z-1.626
X100.659Y66.697Z-1.622
X100.7Y66.789Z-1.534
X100.737Y66.987Z-1.133
X100.73Y67.09Z-0.851
X100.843Y67.178Z-0.938F500
X100.893Y67.251Z-0.887F1000
X100.916Y67.285Z-0.755
Y67.286Z-0.753
X101.059Y67.478Z-0.006
X101.06Y67.48Z0
G0Z10
X100.916Y67.285
G1Z-0.755F500
X100.965Y67.305Z-0.577F1000
G0Z10
X100.368Y66.859
G1Z-0.38F500
X100.655Y66.688Z-1.626
G0Z10
X98.882Y62.12
G1Z-0.002
X98.883Y62.121Z-0.005
X99.065Y62.336Z-0.416
X99.04Y62.387Z-0.27F1000
X99.231Y62.547Z-0.773F500
X99.286Y62.594Z-0.863
X99.448Y62.731Z-0.924F1000
G0Z10
X98.882Y62.12
G1Z-0.002F500
Z0F1000
Z-0.002F500
Z0F1000
Z-0.002F500
Z0F1000
Z-0.001F500
G0Z10
X98.498Y61.743
G1Z-0.001
Z-0F1000
X98.395Y61.628Z-0.148F500
X98.497Y61.742Z-0.003F1000
X98.498Y61.743Z-0.001
G0Z10
X98.133Y61.163
G1Z-0.002F500
Y61.162Z-0F1000
X98.132Z-0.001F500
X98.133Y61.165Z-0.008
X98.147Y61.258Z-0.201
X98.183Y61.275Z-0.144F1000
X98.18Y61.299Z-0.211F500
X98.165Y61.423Z-0.069F1000
X98.163Y61.439Z-0.029
X98.281Y61.459Z-0.239F500
G0Z10
X98.132Y61.162
G1Z0
Z-0.001
G0Z10
X99.792Y60.54
G1Z-0.377
X99.862Y60.437Z-0.841
X99.932Y60.48Z-0.855F1000
X100.013Y60.53Z-0.837
X100.017Y60.531Z-0.836
X100.184Y60.634Z-0.801
X100.225Y60.639Z-0.806
X100.32Y60.698Z-0.835
X100.404Y60.727Z-0.82
X100.452Y60.771Z-0.828
X100.583Y60.817Z-0.845
X100.63Y60.861Z-0.852
X100.707Y60.888Z-0.89
X100.795Y60.938Z-0.894
X100.809Y60.951Z-0.876
X100.886Y60.978Z-0.913
X100.957Y61.018Z-0.871
X101.022Y61.025Z-0.858
X101.142Y61.094Z-0.833
X101.207Y61.1Z-0.821
X101.249Y61.124Z-0.836
X101.348Y61.176Z-0.8
X101.431Y61.179Z-0.812
X101.54Y61.235Z-0.83
X101.622Y61.239Z-0.842
X101.731Y61.293Z-0.859
G0Z10
X99.955Y60.636
G1Z-0.387F500
X100.013Y60.53Z-0.837
G0Z10
X95.953Y61.488
G1Z-0.552
X96.002Y61.598Z-0.264F1000
G0Z10
X95.433Y61.271
G1Z-0.397F500
X95.529Y61.121Z-0.603
G0Z10
X94.12Y60.287
G1Z-0.664
X94.278Y60.171Z-0.524F1000
G0Z10
X92.958Y61.48
G1Z-1.806F500
X92.984Y61.435Z-1.848
G0Z10
X94.924Y62.689
G1Z-1.359
X94.97Y62.495Z-1.781
G0Z10
X95.929Y62.749
G1Z-1.984
X95.952Y62.757Z-1.982F1000
X95.991Y62.78Z-1.956
X96.14Y62.834Z-1.864
X96.311Y62.938Z-1.687
X96.461Y63.075Z-1.336
X96.515Y63.147Z-1.13
X96.602Y63.139Z-1.243F500
X96.78Y63.142Z-1.406
X96.984Y63.192Z-1.375F1000
X97.122Y63.269Z-1.318
X97.165Y63.279Z-1.302
X97.303Y63.356Z-1.246
X97.5Y63.4Z-1.252
X97.648Y63.393Z-1.074
X97.771Y63.376Z-0.889
X97.797Y63.385Z-0.897
X97.871Y63.396Z-0.86
G0Z10
X95.89Y58.687
G1Z-0.004F500
X95.891Z-0F1000
X95.89Y58.686Z-0.006F500
X95.828Y58.64Z-0.209
X95.836Y58.62Z-0.184F1000
X95.839Y58.614Z-0.159
X95.815Y58.629Z-0.19F500
X95.819Y58.637Z-0.197
X95.824Y58.638Z-0.214
X95.828Y58.64Z-0.209F1000
X95.83Y58.641Z-0.202
X95.834Z-0.201
X95.89Y58.686Z-0.006
X95.802Y58.602Z-0.086F500
X95.81Y58.618Z-0.153
X95.815Y58.629Z-0.19
G0Z10
X95.386Y57.41
G1Z-0.403
X95.776Y56.907Z-0.155F1000
X95.765Y56.833Z-0.417F500
X95.827Y56.543Z-1.526
X95.956Y56.533Z-1.663
X96.045Y56.543Z-1.694F1000
X96.159Y56.557Z-1.681
X96.209Y56.563Z-1.629
X96.408Y56.544Z-1.271
X96.409Y56.545Z-1.272F500
X96.571Y56.632Z-1.333F1000
X96.733Y56.688Z-1.233
X96.933Y56.696Z-0.949
X97.03Y56.67Z-0.69
X97.133Y56.766Z-0.818F500
X97.17Y56.78Z-0.799F1000
X97.212Y56.796Z-0.718
X97.263Y56.816Z-0.548
X97.289Y56.805Z-0.524
X97.45Y56.852Z-0.035
X97.461Y56.855Z0
X97.458Y56.854Z-0.01F500
X97.461Z0F1000
X97.453Y56.852Z-0.026F500
X97.458Y56.854Z-0.01F1000
G0Z10
X95.386Y57.41
G1Z-0.403F500
X95.41Y57.546Z-0.029F1000
X95.551Y57.524Z-0.386F500
X95.733Y57.556Z-0.656
X95.823Y57.604Z-0.678F1000
X95.9Y57.668Z-0.688
X95.977Y57.793Z-0.681
X96.005Y57.801Z-0.747F500
X96.088Y57.87Z-0.844
X96.134Y57.909Z-0.821F1000
X96.167Y57.918Z-0.817
X96.296Y58.027Z-0.796
X96.344Y58.04
X96.462Y58.139Z-0.797
X96.509Y58.152
X96.628Y58.251
X96.675Y58.264
X96.793Y58.363Z-0.798
X96.841Y58.375
X96.893Y58.419Z-0.824
X96.974Y58.479Z-0.817
X97.007Y58.487Z-0.798
X97.059Y58.531Z-0.825
X97.151Y58.599Z-0.815
X97.17Y58.603
X97.317Y58.711Z-0.816
X97.335Y58.715
X97.482Y58.823
X97.501Y58.827
X97.648Y58.935Z-0.817
X97.667Y58.939
X97.814Y59.047
X97.833Y59.051
X97.98Y59.159Z-0.818
X97.998Y59.163
X98.146Y59.272Z-0.82
X98.164Y59.275
X98.26Y59.346Z-0.83
X98.309Y59.388Z-0.802
X98.364Y59.405
X98.474Y59.501Z-0.804
X98.529Y59.517
X98.639Y59.613Z-0.806
X98.695Y59.629Z-0.807
X98.805Y59.725Z-0.808
X98.86Y59.742Z-0.809
X98.923Y59.796Z-0.838
X99.023Y59.858Z-0.83
X99.035Y59.876
X99.189Y59.97Z-0.832
X99.2Y59.988
X99.354Y60.083Z-0.834
X99.366Y60.1
X99.519Y60.195Z-0.836
X99.531Y60.213
X99.685Y60.308Z-0.838
X99.697Y60.325Z-0.839
X99.85Y60.42Z-0.841
X99.862Y60.437
G0Z10
X95.306Y56.331
G1Z-2F500
X94.513Y56.043F1000
X94.341Y55.986
X94.401Y56.07
X94.696Y56.372
X94.934Y56.554
X94.946Y56.537
X94.963Y56.517
X94.98Y56.497
X94.999Y56.479
X95.018Y56.461
X95.038Y56.444
X95.059Y56.428
X95.081Y56.413
X95.103Y56.399
X95.126Y56.387
X95.15Y56.375
X95.174Y56.365
X95.199Y56.356
X95.224Y56.348
X95.25Y56.341
X95.275Y56.336
X95.306Y56.331
Z-1.977
X95.372Y56.337Z-1.937
X95.469Y56.363Z-1.902
X95.581Y56.395Z-1.87
X95.759Y56.489Z-1.669
X95.827Y56.543Z-1.526
G0Z10
X94.882Y56.514
G1Z-1.685F500
X94.86Y56.77Z-1.188F1000
X94.832Y56.898Z-0.748
X95.046Y57.051Z-0.777
X95.209Y57.168Z-0.797
X95.28Y57.22Z-0.783
X95.386Y57.41Z-0.403
G0Z10
X94.352Y56.41
G1Z-0.984F500
X94.547Y56.219Z-1.825
X94.599Y56.075Z-1.72F1000
X94.748Y55.666Z-0.376
G0Z10
X94.299Y55.974
G1Z-1.897F500
X94.354Y56.004Z-1.945
G0Z10
X94.043Y56.156
G1Z-0.725
X94.299Y55.974Z-1.897
G0Z10
X91.562Y54.577
G1Z-0.877
X91.646Y54.618Z-0.895F1000
X91.715Y54.651Z-0.876
X91.743Y54.652Z-0.875
X91.899Y54.728Z-0.869
X91.928Y54.729Z-0.868
X92.084Y54.805Z-0.861
X92.113Y54.806Z-0.86
X92.268Y54.882Z-0.854
X92.297Y54.883Z-0.853
X92.403Y54.934Z-0.861
X92.426Y54.948Z-0.846
X92.499Y54.964Z-0.836
X92.582Y55.018Z-0.82
X92.584Y55.019Z-0.823F500
X92.7Y55.045Z-0.817F1000
X92.766Y55.095Z-0.813
X92.885Y55.122Z-0.809
X92.951Y55.172Z-0.806
X93.07Y55.198Z-0.801
X93.136Y55.249Z-0.798
X93.254Y55.275Z-0.793
X93.32Y55.326Z-0.79
X93.457Y55.356Z-0.807
X93.625Y55.484Z-0.862
X93.642Y55.509Z-0.82
X93.816Y55.544Z-1.05F500
X93.959Y55.629Z-1.183
X94.04Y55.702Z-1.347
X94.118Y55.787Z-1.544
X94.161Y55.853Z-1.636
X94.234Y55.907Z-1.844
X94.246Y55.916Z-1.862
X94.299Y55.974Z-1.897F1000
G0Z10
X91.498Y54.691
G1Z-0.386F500
X91.562Y54.577Z-0.877
G0Z10
X90.306Y53.634
G1Z-1.29
X90.454Y53.469Z-0.486F1000
G0Z10
X90.266Y53.657
G1Z-1.387F500
X90.268Y53.662Z-1.406
X90.4Y53.835Z-1.147F1000
X90.556Y53.943Z-0.996
X90.582Y53.951Z-0.939
X90.631Y54.013
X90.701Y54.093Z-0.864
X90.867Y54.181Z-0.857
X91.086Y54.201Z-0.51
X91.188Y54.179Z-0.249
X91.246Y54.325Z-0.61F500
X91.383Y54.488Z-0.836
X91.559Y54.574Z-0.876F1000
X91.562Y54.577Z-0.877
G0Z10
X89.134Y52.924
G1Z-0.096F500
X89.213Y53.155Z-0.635
X89.349Y53.307Z-0.722F1000
X89.543Y53.381Z-0.845F500
X89.668Y53.378Z-0.711F1000
X89.731Y53.462Z-0.947F500
X89.8Y53.508Z-1.044
X89.869Y53.555Z-1.081F1000
X90.069Y53.608Z-1.252F500
X90.193Y53.605Z-1.21F1000
X90.266Y53.657Z-1.387F500
G0Z10
X86.698Y53.861
G1Z-0.198
X86.702Y53.864F1000
X86.727Y53.881Z-0.086
X86.697Y53.851Z-0.184F500
X86.7Y53.847Z-0.187F1000
X86.716Y53.831Z-0.102
X86.697Y53.851Z-0.184F500
X86.698Y53.861Z-0.198
X86.678Y53.837Z-0.097F1000
X86.697Y53.851Z-0.184F500
X86.621Y53.871Z-0.001F1000
X86.697Y53.863Z-0.191F500
X86.698Y53.861Z-0.198
G0Z10
X86.91Y55.157
G1Z-0.001
X86.977Y55.152Z-0.181
X86.986Y55.16Z-0.197
X86.99Y55.163Z-0.177F1000
X86.997Y55.148Z-0.167
X87.063Y55.13Z-0.001
X86.99Y55.163Z-0.177F500
Y55.165Z-0.173F1000
X87.004Y55.173Z-0.115
X86.976Y55.179Z-0.121
X86.987Y55.168Z-0.178F500
X86.99Y55.165Z-0.173F1000
G0Z10
X84.611Y53.889
G1Z-0.409F500
X84.677Y53.882Z-0.232F1000
X84.785Y54.232Z-0.979F500
X84.816Y54.334Z-1.178
X84.814Y54.569Z-1.821
G0Z10
X84.503Y53.9
G1Z-0.003
X84.611Y53.889Z-0.409
G0Z10
X84.475Y53.634
G1Z-0.002
Z-0.004
X84.611Y53.889Z-0.409
G0Z10
X84.475Y53.633
G1Z-0.001
Y53.634Z-0.002
X84.474Y53.633Z0F1000
G0Z10
X84.491Y52.923
G1Z-0.439F500
X84.499Y52.925Z-0.448
X84.506Y52.922Z-0.47
X84.565Y52.895Z-0.485F1000
X84.604Y52.956Z-0.213
X84.505Y52.922Z-0.469F500
X84.522Y53.077Z-0F1000
G0Z10
X85.072Y53.132
G1Z-0F500
X85.123Y53.159Z-0.136
X85.158Y53.155Z-0.146F1000
X85.171Y53.116Z-0.137
X85.096Y53.162Z-0.076
X85.111Y53.161Z-0.133F500
X85.123Y53.159Z-0.136F1000
G0Z10
X85.396Y52.976
G1Z-0.114F500
X85.449Y52.911Z-0.003F1000
G0Z10
X84.31Y52.465
G1Z-0.538F500
X84.326Y52.515Z-0.612
X84.399Y52.594Z-0.589F1000
X84.536Y52.741Z-0.465
X84.595Y52.805Z-0.353
X84.572Y52.875Z-0.533F500
X84.565Y52.895Z-0.485F1000
G0Z10
X84.159Y52.607
G1Z-0.431F500
X84.298Y52.476Z-0.597
X84.31Y52.465Z-0.538F1000
G0Z10
X83.223Y52
G1Z-0.004F500
X83.224Z-0F1000
X83.223Z-0.005F500
Z-0.004F1000
G0Z10
X82.815Y51.577
G1Z-0.455F500
X82.933Y51.77Z-0.575F1000
X82.966Y51.823Z-0.527
X83.01Y51.895Z-0.367
X83.102Y51.896Z-0.256
X83.135Y51.967Z-0.252
X83.223Y52Z-0.005
G0Z10
X83.588Y51.36
G1Z-0.239F500
X83.731Y51.345Z-0.249F1000
X83.815Y51.564Z-0.427F500
X83.877Y51.727Z-0.358F1000
G0Z10
X83.214Y50.77
G1Z-0.205F500
X83.224Y50.802Z-0.209F1000
X83.24Y50.86Z-0.216
X83.206Y50.739Z-0.095
X83.214Y50.77Z-0.205F500
X83.149Y50.729Z-0.003F1000
X83.152Y50.732Z-0.013F500
X83.214Y50.77Z-0.205
X83.148Y50.729Z-0F1000
X83.149Z-0.003F500
G0Z10
X82.439Y51.061
G1Z-0.169
X82.477Y51.148Z-0.348
X82.515Y51.235Z-0.28F1000
X82.579Y51.244Z-0.344F500
G0Z10
X82.42Y51.072
G1Z-0.243
X82.439Y51.061Z-0.169F1000
X82.347Y51.006Z-0.185
X82.35Y51.008Z-0.198F500
X82.441Y51.053Z-0.139F1000
X82.439Y51.061Z-0.169F500
G0Z10
X82.05Y50.522
G1Z-0.12
Y50.509Z-0.169
X82.051Y50.498Z-0.168F1000
X82.097Y50.554Z-0
G0Z10
X82.017Y50.329
G1Z-0.002F500
X82.018Y50.33Z-0.005
X82.049Y50.395Z-0.137
X82.017Y50.441Z-0.03F1000
X82.051Y50.468Z-0.163F500
Y50.498Z-0.168F1000
X82.017Y50.328Z-0
Y50.329Z-0.002F500
G0Z10
X81.359Y50.722
G1Z-0.001
Z0F1000
G0Z10
X81.651Y51.113
G1Z-0.118F500
X81.684Y51.112Z-0.242
X81.697Z-0.241F1000
X81.715Y51.134Z-0.323F500
X81.737Y51.16Z-0.312F1000
X81.743Y51.166Z-0.304
X81.736Y51.216Z-0.2
X81.767Y51.238Z-0.223F500
X81.781Y51.247Z-0.162F1000
G0Z10
X80.96Y50.335
G1Z-0.324F500
X81.034Y50.388Z-0.394
X81.074Y50.417Z-0.383F1000
X81.23Y50.529Z-0.075
X81.208Y50.566Z-0.213F500
X81.358Y50.721Z-0.004F1000
X81.359Y50.722Z-0.001
G0Z10
X81.432Y49.605
G1Z-0.003F500
X81.471Y49.701Z-0.139
X81.444Y49.726Z-0.038F1000
X81.476Y49.767Z-0.152F500
G0Z10
X80.441Y48.37
G1Z-0.244
X80.478Y48.353Z-0.195F1000
X80.508Y48.339Z-0.073
X80.441Y48.37Z-0.244F500
X80.444Y48.349Z-0.232F1000
X80.378Y48.393Z-0.339F500
X80.426Y48.395Z-0.213F1000
X80.441Y48.37Z-0.244F500
X80.365Y48.337Z-0.183F1000
X80.377Y48.388Z-0.335F500
X80.378Y48.393Z-0.339
X80.323Y48.459Z-0.16F1000
X80.324Y48.445Z-0.213F500
X80.328Y48.412Z-0.189F1000
X80.378Y48.393Z-0.339F500
G0Z10
X80.122Y48.003
G1Z-0.326
X80.123Y48.004F1000
X80.156Y48.029Z-0.171
X80.074Y47.966Z-0.376F500
X80.122Y48.003Z-0.326F1000
G0Z10
X79.377Y48.202
G1Z-0.001F500
Z0F1000
X79.341Y48.057Z-0.323F500
X79.376Y48.201Z-0.005F1000
X79.377Y48.202Z-0.001
X79.341Y48.057Z-0.323F500
X79.355Y48.065Z-0.334
X79.383Y48.082Z-0.211F1000
X79.338Y48.055Z-0.321F500
X79.341Y48.057Z-0.323
G0Z10
X79.296Y47.547
G1Z-0.852
X79.341Y47.56Z-0.793F1000
X79.357Y47.564Z-0.771
X79.546Y47.527Z-0.535
X79.575Y47.554Z-0.6F500
X79.736Y47.701Z-0.657F1000
X79.779Y47.741Z-0.609
G0Z10
X79.296Y47.547
G1Z-0.852F500
X79.074Y47.777Z-0.062F1000
X79.126Y47.837Z-0.263F500
X79.145Y47.927Z-0.347
G0Z10
X78.857Y47.45
G1Z-0.535
X78.898Y47.374Z-0.856
X78.906Y47.38Z-0.852F1000
X79.233Y47.461Z-0.59
X79.296Y47.547Z-0.852F500
G0Z10
X78.819Y47.304
G1Z-0.835
X78.892Y47.364Z-0.881F1000
X78.898Y47.374Z-0.856
X78.752Y47.341Z-0.55
X78.819Y47.304Z-0.835F500
G0Z10
X78.31Y46.77
G1Z-0.869
X78.54Y46.822Z-0.517F1000
X78.608Y46.898Z-0.468
X78.625Y46.905Z-0.47
X78.732Y46.969Z-0.354
X78.783Y47.193Z-0.729F500
X78.78Y47.207Z-0.727F1000
X78.803Y47.266Z-0.854F500
X78.819Y47.304Z-0.835F1000
G0Z10
X78.163Y46.858
G1Z-0.468F500
X78.26Y46.739Z-0.999
X78.305Y46.764Z-0.891F1000
X78.31Y46.77Z-0.869
G0Z10
X77.975Y46.523
G1Z-0.192F500
X78.16Y46.626Z-0.775
X78.259Y46.738Z-1.002
X78.26Y46.739Z-0.999F1000
G0Z10
X78.839Y46.24
G1Z-0.002F500
X78.889Y46.324Z-0.102
X78.976Y46.403Z-0.089F1000
X78.968Y46.463Z-0.083
X78.965Y46.483Z-0.017
X79.017Y46.494Z-0.115F500
G0Z10
X78.637Y45.912
G1Z-0.001
Z-0.002
X78.638Z0F1000
X78.637Z-0.002F500
G0Z10
X78.184Y45.186
G1Z-0.356
X78.188Y45.206Z-0.319F1000
X78.266Y45.235Z-0.394F500
X78.318Y45.255Z-0.268F1000
X78.331Y45.352Z-0.42F500
X78.336Y45.394Z-0.364F1000
X78.273Y45.486Z-0.119
X78.353Y45.575Z-0.331F500
X78.401Y45.628Z-0.348F1000
X78.448Y45.679Z-0.35
X78.463Y45.676Z-0.331
X78.54Y45.767Z-0.37
X78.583Y45.818Z-0.206
X78.579Y45.83Z-0.22F500
X78.636Y45.91Z-0.006F1000
X78.637Y45.912Z-0.002
G0Z10
X77.638Y45.813
G1Z-0.001F500
Y45.814Z-0.004
X77.702Y45.88Z-0.061
X77.637Y45.813Z0F1000
X77.638Z-0.001F500
G0Z10
X77.293Y45.653
G1Z-0.169
X77.307Y45.662Z-0.106F1000
X77.165Y45.914Z-0.249
X77.198Y46.009Z-0.003
Y46.01Z-0
Z0
Y46.009Z-0.003F500
Y46.01Z0F1000
Y46.009Z-0.003F500
X77.199Y46.01Z0F1000
G0Z10
X77.288Y45.544
G1Z-0.337F500
X77.409Y45.355Z-0.179F1000
X77.419Y45.339Z-0.11
X77.264Y45.42Z-0.364F500
X77.288Y45.544Z-0.337F1000
X77.293Y45.653Z-0.169
G0Z10
X76.688Y44.986
G1Z-0.003F500
Z-0F1000
Z-0.003F500
X76.697Y45.055Z-0.17
X76.745Y45.087Z-0.136F1000
X76.881Y45.178Z-0.041
X76.87Y45.196Z-0.117F500
X76.879Y45.226Z-0.178
X76.95Y45.484Z-0.512
X76.994Y45.641Z-0.344F1000
X77.293Y45.653Z-0.169
G0Z10
X77.635Y44.768
G1Z-0F500
X77.733Y44.804Z-0.266
X77.741Y44.822Z-0.263F1000
X77.781Y44.83Z-0.349F500
X78Y44.876Z-0.002F1000
G0Z10
X77.723Y44.782
G1Z-0.187F500
X77.733Y44.804Z-0.266
G0Z10
X77.387Y44.473
G1Z-0.001
Y44.471Z-0.004
X77.411Y44.381Z-0.101
X77.387Y44.473Z-0.001F1000
Z0
X77.386Z-0
X77.387Z-0.001F500
G0Z10
X77.423Y44.152
G1Z-0.115
X77.447Y44.11Z-0F1000
X77.42Y44.141Z-0.079F500
X77.423Y44.152Z-0.115
X77.428Y44.168Z-0.105F1000
X77.445Y44.217Z-0.075
G0Z10
X76.567Y43.175
G1Z-0.004F500
X76.568Z-0F1000
X76.567Z-0.004F500
G0Z10
X76.162Y42.616
G1Z-0.002
Y42.615Z-0F1000
Z0
X76.163Y42.618Z-0.007F500
X76.191Y42.702Z-0.194
X76.295Y42.733Z-0.048F1000
X76.292Y42.743Z-0.083F500
X76.267Y42.862Z-0.31
X76.329Y42.914Z-0.425
X76.373Y42.951Z-0.398F1000
X76.454Y43.02Z-0.201
X76.459Z-0.184
X76.481Y43.092Z-0.2
X76.495Y43.139Z-0.21
X76.567Y43.175Z-0.004
G0Z10
X76.162Y42.615
G1Z0F500
Y42.616Z-0.002
G0Z10
X75.6Y41.816
G1Z-0.4
X75.601Y41.821Z-0.406
X75.616Y41.885Z-0.453
X75.624Y41.922Z-0.348F1000
X75.617Y41.932Z-0.35
X75.588Y41.971Z-0.168
X75.565Y41.813Z-0.269F500
X75.6Y41.816Z-0.4
X75.608Y41.695Z-0.17F1000
X75.619Y41.756Z-0.399F500
X75.624Y41.787Z-0.41F1000
X75.6Y41.816Z-0.4
G0Z10
X76.845Y41.203
G1Z-0.77F500
X76.846Y41.207F1000
X76.98Y41.351Z-0.752
X76.989Y41.383Z-0.757
X77.104Y41.507Z-0.784
X77.114Y41.539Z-0.789
X77.186Y41.618Z-0.823
X77.238Y41.696Z-0.814
X77.244Y41.7Z-0.824F500
X77.311Y41.774Z-0.854F1000
X77.363Y41.853Z-0.847
X77.401Y41.878Z-0.854
X77.464Y41.973Z-0.887
X77.527Y42.033Z-0.877
X77.557Y42.1Z-0.889
X77.572Y42.114Z-0.903F500
X77.639Y42.177Z-0.891F1000
X77.676Y42.26Z-0.893
X77.758Y42.338Z-0.895
X77.795Y42.421Z-0.897
X77.877Y42.499Z-0.899
X77.914Y42.582Z-0.901
X77.996Y42.66Z-0.903
X78.032Y42.743Z-0.905
X78.097Y42.805Z-0.922
X78.114Y42.821Z-0.908
X78.142Y42.883Z-0.897
X78.234Y42.97Z-0.882
X78.267Y43.039Z-0.861
X78.356Y43.116Z-0.843
X78.393Y43.194Z-0.829
X78.483Y43.271Z-0.811
X78.519Y43.35Z-0.797
X78.61Y43.426Z-0.778
X78.645Y43.505Z-0.764
X78.736Y43.581Z-0.746
X78.771Y43.661Z-0.732
X78.878Y43.748Z-0.735
X78.905Y43.81Z-0.737
X79.011Y43.897Z-0.74
X79.038Y43.959Z-0.742
X79.144Y44.046Z-0.745
X79.172Y44.108Z-0.747
X79.278Y44.195Z-0.75
X79.305Y44.257Z-0.752
X79.411Y44.344Z-0.755
X79.439Y44.406Z-0.757
X79.534Y44.484Z-0.767
X79.546Y44.492Z-0.755
X79.589Y44.569Z-0.774
X79.667Y44.633Z-0.772
X79.679Y44.641Z-0.76
X79.734Y44.737Z-0.762
X79.812Y44.79Z-0.765
X79.867Y44.886Z-0.767
X79.946Y44.939Z-0.77
X80.001Y45.035Z-0.772
X80.079Y45.088Z-0.774
X80.134Y45.184Z-0.777
X80.212Y45.237Z-0.779
X80.268Y45.333Z-0.782
X80.346Y45.386Z-0.784
X80.4Y45.479Z-0.79
X80.401Y45.482Z-0.787
X80.482Y45.539Z-0.793
X80.533Y45.628Z-0.795
X80.535Y45.631Z-0.792
X80.619Y45.691Z-0.794
X80.668Y45.78Z-0.797
X80.752Y45.84Z-0.799
X80.802Y45.929Z-0.802
X80.885Y45.989Z-0.804
X80.935Y46.078Z-0.807
X81.019Y46.138Z-0.809
X81.069Y46.227Z-0.812
X81.152Y46.287Z-0.814
X81.202Y46.376Z-0.816
X81.286Y46.436Z-0.819
X81.33Y46.514Z-0.812
X81.423Y46.582Z-0.804
X81.467Y46.66Z-0.797
X81.561Y46.727Z-0.788
X81.604Y46.806Z-0.781
X81.698Y46.872Z-0.773
X81.741Y46.951Z-0.766
X81.835Y47.018Z-0.757
X81.879Y47.097Z-0.75
X81.973Y47.163Z-0.742
X82.016Y47.243Z-0.735
X82.121Y47.315Z-0.74
X82.158Y47.384Z-0.744
X82.262Y47.457Z-0.749
X82.285Y47.498Z-0.783F500
X82.399Y47.603Z-0.786F1000
X82.405Y47.619Z-0.787
X82.54Y47.744Z-0.794
X82.547Y47.761Z-0.795
X82.682Y47.886Z-0.803
X82.689Y47.902Z-0.804
X82.783Y47.989Z-0.817
X82.825Y48.048Z-0.786
X82.851Y48.062Z-0.817F500
X82.925Y48.13Z-0.825F1000
X82.967Y48.189Z-0.795
X83.033Y48.226Z-0.798
X83.109Y48.33Z-0.803
X83.175Y48.367Z-0.807
X83.251Y48.471Z-0.812
X83.317Y48.508Z-0.816
X83.393Y48.612Z-0.821
X83.458Y48.649Z-0.824
X83.467Y48.661Z-0.833F500
X83.52Y48.734Z-0.807F1000
X83.621Y48.79Z-0.803
X83.674Y48.862Z-0.8
X83.775Y48.918Z-0.797
X83.827Y48.99Z-0.794
X83.929Y49.046Z-0.79
X83.981Y49.118Z-0.787
X84.082Y49.173Z-0.783
X84.135Y49.246Z-0.78
X84.236Y49.301Z-0.776
X84.288Y49.374Z-0.773
X84.382Y49.425Z-0.776
X84.442Y49.502Z-0.766
X84.446Y49.504Z-0.769F500
X84.536Y49.553Z-0.77F1000
X84.595Y49.63Z-0.759
X84.684Y49.673Z-0.756
X84.749Y49.758Z-0.752
X84.837Y49.801Z-0.749
X84.903Y49.886Z-0.745
X84.991Y49.929Z-0.742
X84.995Y49.934Z-0.746F500
X85.057Y50.015Z-0.739F1000
X85.145Y50.057Z-0.735
X85.149Y50.062Z-0.74F500
X85.212Y50.144Z-0.731F1000
X85.306Y50.189Z-0.736
X85.368Y50.269Z-0.74
X85.462Y50.314Z-0.745
X85.524Y50.394Z-0.749
X85.618Y50.439Z-0.754
X85.681Y50.518Z-0.758
X85.774Y50.564Z-0.762
X85.837Y50.643Z-0.767
X85.93Y50.689Z-0.771
X85.993Y50.768Z-0.775
X86.087Y50.814Z-0.78
X86.149Y50.893Z-0.784
X86.243Y50.939Z-0.789
X86.306Y51.018Z-0.793
X86.399Y51.064Z-0.797
X86.462Y51.143Z-0.802
X86.555Y51.189Z-0.806
X86.618Y51.267Z-0.811
X86.711Y51.314Z-0.815
X86.775Y51.392Z-0.819
X86.862Y51.436Z-0.828
X86.867Y51.439Z-0.824
X86.923Y51.507Z-0.818
X86.962Y51.526Z-0.845F500
X87.069Y51.597Z-0.827F1000
X87.086Y51.624Z-0.825
X87.229Y51.718Z-0.814
X87.245Y51.744Z-0.812
X87.388Y51.838Z-0.801
X87.405Y51.865Z-0.799
X87.548Y51.959Z-0.788
X87.564Y51.985Z-0.786
X87.708Y52.079Z-0.775
X87.724Y52.106Z-0.773
X87.868Y52.199Z-0.762
X87.884Y52.226Z-0.76
X88.027Y52.32Z-0.749
X88.043Y52.347Z-0.747
X88.136Y52.407Z-0.756
X88.189Y52.438Z-0.725
X88.212Y52.473Z-0.736
X88.296Y52.528Z-0.744
X88.349Y52.558Z-0.712
X88.377Y52.603Z-0.708
X88.508Y52.679Z-0.698
X88.537Y52.724Z-0.695
X88.712Y52.824Z-0.689
X88.947Y52.841Z-0.24
G0Z10
X86.854Y51.602
G1Z-0.381F500
X86.923Y51.507Z-0.818
G0Z10
X86.7Y51.483
G1Z-0.381
X86.775Y51.392Z-0.819
G0Z10
X80.647Y53.201
G1Z-0.312
X80.688Y53.184Z-0.379
X80.734Y53.164Z-0.34F1000
X80.889Y53.262Z-0.055
X81.016Y53.089Z-0.457F500
X81.62Y53Z-1.199
X81.718Y52.799Z-1.906
G0Z10
X80.623Y53.194
G1Z-0.22
X80.647Y53.201Z-0.312
X80.544Y53.256Z-0F1000
X80.643Y53.21Z-0.302F500
X80.647Y53.201Z-0.312
G0Z10
X79.906Y48.918
G1Z-0.387
X79.959Y48.978Z-0.486
X80.007Y49.032Z-0.435F1000
X80.122Y49.097Z-0.155
X80.105Y49.149Z-0.299F500
X80.156Y49.357Z-0.312F1000
X80.248Y49.401Z-0.332
X80.279Y49.515Z-0.354
X80.368Y49.561Z-0.373
X80.403Y49.673Z-0.395
X80.408Y49.676Z-0.406F500
X80.489Y49.721Z-0.414F1000
X80.496Y49.744Z-0.447F500
X80.522Y49.819Z-0.402F1000
X80.552Y49.911Z-0.257
G0Z10
X79.517Y48.58
G1Z-0.002F500
X79.592Y48.649Z-0.089
G0Z10
X81.248Y46.595
G1Z-0.385
X81.33Y46.514Z-0.812
G0Z10
X81.114Y46.454
G1Z-0.378
X81.202Y46.376Z-0.816
G0Z10
X77.002Y47.826
G1Z-0.382
X77.232Y47.593Z-1.605
G0Z10
X74.496Y43.927
G1Z-0.783
X74.673Y43.911Z-1.383
X74.781Y43.901Z-1.72
G0Z10
X74.464Y43.914
G1Z-0.661
X74.496Y43.927Z-0.783
G0Z10
X75.334Y39.336
G1Z-0.911
X75.364Y39.389Z-0.948
X75.383Y39.417Z-0.955F1000
X75.433Y39.49Z-0.947
X75.611Y39.612Z-0.637
X75.764Y39.661Z-0.256
X75.749Y39.76Z-0.504F500
X75.774Y39.984Z-0.88
X75.81Y40.054Z-0.91F1000
X75.847Y40.127Z-0.864
X75.95Y40.212Z-0.852
X75.982Y40.274Z-0.846
X76.085Y40.36Z-0.835
X76.117Y40.422Z-0.828
X76.221Y40.507Z-0.817
X76.222Y40.509Z-0.819F500
X76.279Y40.592Z-0.827F1000
X76.33Y40.634Z-0.82
X76.35Y40.663Z-0.835
X76.394Y40.711Z-0.83
X76.435Y40.77Z-0.788
X76.461Y40.785Z-0.82F500
X76.575Y40.908Z-0.805F1000
X76.576Y40.911
X76.71Y41.056Z-0.788
X76.711Y41.059
X76.774Y41.126Z-0.782
X76.845Y41.203Z-0.77
G0Z10
X71.803Y39.337
G1Z-1.488F500
X71.817Y39.332Z-1.541
X71.928Y39.221Z-1.996
G0Z10
X71.727Y39.345
G1Z-1.203
X71.803Y39.337Z-1.488
G0Z10
X71.581Y39.567
G1Z-0.445
X71.692Y39.451Z-1.031
X71.803Y39.337Z-1.488
G0Z10
X70.216Y36.876
G1Z-0.376
X70.597Y36.671Z-1.991
G0Z10
X70.136Y36.703
G1Z-0.387
X70.529Y36.535Z-1.983
G0Z10
X71.758Y34.836
G1Z-1.6
X71.752Y34.873Z-1.549F1000
X71.771Y35.114Z-1.038
X71.856Y35.302Z-0.844
X72.007Y35.438Z-0.69
X72.092Y35.47Z-0.479
X72.094Y35.5Z-0.53F500
X72.104Y35.621Z-0.725
X72.153Y35.71Z-0.736F1000
X72.204Y35.801Z-0.686
X72.275Y35.845Z-0.699
X72.336Y35.951Z-0.718
X72.406Y35.996Z-0.73
X72.468Y36.101Z-0.749
X72.538Y36.147Z-0.762
X72.6Y36.252Z-0.78
X72.669Y36.298Z-0.793
X72.732Y36.402Z-0.811
X72.801Y36.449Z-0.824
X72.812Y36.467Z-0.841F500
X72.856Y36.54Z-0.826F1000
X72.937Y36.595Z-0.828
X72.993Y36.686Z-0.831
X73.074Y36.741Z-0.833
X73.13Y36.832Z-0.835
X73.211Y36.887Z-0.837
X73.267Y36.977Z-0.839
X73.293Y36.995Z-0.866F500
X73.366Y37.064Z-0.869F1000
X73.403Y37.123Z-0.844
X73.43Y37.141Z-0.87F500
X73.529Y37.234Z-0.865F1000
X73.543Y37.266Z-0.866
X73.666Y37.38Z-0.869
X73.68Y37.412Z-0.87
X73.77Y37.495Z-0.884
X73.805Y37.523Z-0.858
X73.843Y37.593Z-0.86
X73.942Y37.669Z-0.863
X73.98Y37.739Z-0.865
X74.078Y37.815Z-0.867
X74.117Y37.885Z-0.869
X74.215Y37.961Z-0.872
X74.254Y38.031Z-0.874
X74.352Y38.107Z-0.876
X74.39Y38.177Z-0.878
X74.4Y38.185Z-0.886F500
X74.473Y38.241Z-0.864F1000
X74.521Y38.328Z-0.85
X74.604Y38.393Z-0.836
X74.651Y38.48Z-0.823
X74.735Y38.544Z-0.808
X74.781Y38.632Z-0.795
X74.866Y38.695Z-0.781
X74.927Y38.813Z-0.802
X74.981Y38.855Z-0.817
X75.046Y38.974Z-0.836
X75.097Y39.013Z-0.847
X75.165Y39.135Z-0.869
X75.216Y39.174Z-0.879
X75.246Y39.228Z-0.917F500
X75.302Y39.311Z-0.927F1000
X75.334Y39.336Z-0.911
G0Z10
X72.644Y36.474
G1Z-0.387F500
X72.732Y36.402Z-0.811
G0Z10
X71.909Y34.843
G1Z-1.103
X71.971Y34.88Z-0.832F1000
G0Z10
X71.758Y34.836
G1Z-1.6F500
X71.909Y34.843Z-1.103F1000
X71.748Y34.822Z-1.575F500
X71.883Y34.597Z-0.592F1000
G0Z10
X71.748Y34.822
G1Z-1.575F500
X71.758Y34.836Z-1.6
G0Z10
X68.629Y34.369
G1Z-2
X68.613Y34.365F1000
X68.587Y34.358
X68.562Y34.35
X68.537Y34.341
X68.513Y34.331
X68.489Y34.319
X68.466Y34.307
X68.444Y34.293
X68.422Y34.278
X68.401Y34.262
X68.363Y34.23
X68.364Y34.257
X68.363Y34.283
X68.361Y34.31
X68.358Y34.336
X68.354Y34.362
X68.349Y34.388
X68.342Y34.414
X68.171Y34.945
X68.239Y34.831
X68.254Y34.808
X68.27Y34.786
X68.287Y34.766
X68.629Y34.369
X68.617Y34.384Z-1.879
X68.977Y34.212Z-1.59
X69.082Y34.126Z-1.66
G0Z10
X68.25Y33.842
G1Z-1.134F500
X68.279Y34.045Z-1.657
X68.365Y34.232Z-1.813
G0Z10
X67.431Y34.594
G1Z-0.19
X67.435Z-0.177F1000
X67.442Y34.583Z-0.178
X67.455Y34.563Z-0.091
X67.431Y34.594Z-0.19F500
X67.438Y34.671Z-0.003F1000
X67.439Y34.672Z-0
X67.438
Y34.671Z-0.003F500
X67.403Y34.57Z-0.104
X67.414Y34.585Z-0.173
X67.422Y34.595Z-0.167F1000
X67.431Y34.594Z-0.19F500
G0Z10
X67.433Y36.452
G1Z-0.394
X67.496Y36.459Z-0.559
X67.621Y36.41Z-0.479F1000
X67.632Y36.274Z-0.893F500
X67.718Y36.083Z-1.21
X67.835Y35.946Z-1.117F1000
X67.889Y35.895Z-1.048
X67.875Y35.8Z-1.282F500
X67.887Y35.6Z-1.642
X67.903Y35.547Z-1.701
X67.918Y35.494Z-1.729F1000
X67.938Y35.455Z-1.758F500
X68.014Y35.315Z-1.798F1000
X68.127Y35.177Z-1.697
X68.128Y35.141Z-1.76F500
X68.155Y35.022Z-1.902
X68.18Y34.928Z-1.996
G0Z10
X67.418Y36.56
G1Z-0.169
X67.473Y36.489Z-0.508
X67.496Y36.459Z-0.559
G0Z10
X67.502Y28.458
G1Z-2
X67.515Y28.448F1000
X67.538Y28.434
X67.844Y28.261
X67.868Y28.249
X67.892Y28.238
X67.917Y28.229
X67.942Y28.22
X67.968Y28.213
X67.994Y28.207
X68.02Y28.203
X68.047Y28.2
X68.073Y28.198
X68.1
X68.127
X69.901Y28.298
X70.179Y28.263
X70.197Y28.248
X70.218Y28.233
X70.24Y28.219
X70.262Y28.206
X70.285Y28.193
X70.309Y28.182
X70.333Y28.173
X71.153Y27.861
X71.666Y27.598
X71.985Y27.355
X72.007Y27.341
X72.029Y27.327
X72.051Y27.315
X72.075Y27.303
X72.555Y27.082
X72.581Y27.072
X72.605Y27.064
X72.048Y26.503
X72.031Y26.484
X72.014Y26.464
X71.999Y26.443
X71.985Y26.422
X71.971Y26.4
X71.78Y26.044
X71.768Y26.02
X71.758Y25.996
X71.749Y25.971
X71.742Y25.946
X71.735Y25.92
X71.73Y25.894
X71.726Y25.868
X71.723Y25.842
X71.722Y25.816
Y25.793
X71.691Y25.803
X71.665Y25.811
X71.64Y25.817
X71.614Y25.821
X71.588Y25.825
X71.562Y25.827
X71.536Y25.828
X71.51Y25.827
X71.484Y25.826
X71.458Y25.823
X71.432Y25.819
X71.406Y25.813
X71.163Y25.749
X71.32Y25.907
X71.337Y25.927
X71.354Y25.947
X71.369Y25.968
X71.383Y25.99
X71.397Y26.012
X71.409Y26.035
X71.42Y26.059
X71.43Y26.083
X71.439Y26.108
X71.446Y26.133
X71.452Y26.158
X71.457Y26.183
X71.461Y26.209
X71.464Y26.235
X71.465Y26.261
Y26.287
X71.464Y26.313
X71.461Y26.339
X71.458Y26.365
X71.453Y26.391
X71.446Y26.416
X71.439Y26.441
X71.43Y26.465
X71.42Y26.49
X71.409Y26.513
X71.397Y26.536
X71.091Y27.054
X71.077Y27.076
X71.062Y27.096
X71.046Y27.116
X71.029Y27.135
X71.011Y27.153
X70.383Y27.77
X70.362Y27.788
X70.341Y27.805
X70.32Y27.82
X70.297Y27.835
X70.274Y27.849
X70.25Y27.861
X70.225Y27.872
X69.763Y28.053
X69.739Y28.061
X69.715Y28.068
X69.69Y28.074
X69.665Y28.078
X69.64Y28.082
X69.614Y28.084
X69.589Y28.085
X68.833Y28.098
X68.804Y28.097
X68.776Y28.094
X67.917Y27.993
X67.892Y27.989
X67.868Y27.984
X67.844Y27.978
X67.82Y27.97
X67.226Y27.753
X67.201Y27.743
X67.177Y27.731
X67.153Y27.719
X67.131Y27.705
X67.109Y27.689
X67.071Y27.662
X67.299Y28.187
X67.502Y28.458
Z-1.809
X67.48Y28.598Z-1.62
X67.497Y28.835Z-1.141
X67.575Y29.027Z-0.947
X67.661Y29.117Z-0.935
X67.69Y29.19Z-0.928
X67.776Y29.28Z-0.916
X67.799Y29.337Z-0.925
X67.863Y29.413Z-0.923
X67.892Y29.443Z-0.896
X67.914Y29.5Z-0.906
X68.005Y29.608Z-0.887
X68.019Y29.65Z-0.883
X68.121Y29.771Z-0.867
X68.134Y29.814Z-0.863
X68.232Y29.929Z-0.851
X68.248Y29.978Z-0.838
X68.346Y30.085Z-0.824
X68.364Y30.141Z-0.818
X68.462Y30.248Z-0.804
X68.479Y30.305Z-0.798
X68.577Y30.412Z-0.784
X68.595Y30.468Z-0.778
X68.693Y30.575Z-0.764
X68.71Y30.631Z-0.758
X68.816Y30.746Z-0.759
X68.832Y30.797Z-0.763
X68.934Y30.908Z-0.771
X68.95Y30.959Z-0.775
X69.052Y31.07Z-0.783
X69.067Y31.121Z-0.787
X69.169Y31.231Z-0.795
X69.185Y31.282Z-0.799
X69.259Y31.363Z-0.822
X69.265Y31.375Z-0.83F500
X69.313Y31.448Z-0.832F1000
X69.318Y31.461Z-0.821
X69.377Y31.525Z-0.834
X69.383Y31.537Z-0.842F500
X69.45Y31.64Z-0.839F1000
X69.472Y31.654Z-0.84
X69.567Y31.801Z-0.85
X69.589Y31.816Z-0.852
X69.685Y31.963Z-0.862
X69.707Y31.978Z-0.864
X69.756Y32.054Z-0.885
X69.803Y32.125Z-0.874
X69.808Y32.128Z-0.873
X69.914Y32.291Z-0.856
X69.919Y32.295
X70.028Y32.462Z-0.847
X70.03Y32.47Z-0.848
X70.135Y32.632Z-0.851
X70.136Y32.64
X70.241Y32.801Z-0.855
X70.242Y32.809
X70.347Y32.971Z-0.859
X70.349Y32.978
X70.405Y33.065Z-0.866
X70.454Y33.148Z-0.859
X70.457Y33.15Z-0.863F500
X70.511Y33.234Z-0.87F1000
X70.56Y33.318Z-0.862
X70.572Y33.326Z-0.863
X70.667Y33.487Z-0.866
X70.678Y33.496Z-0.867
X70.722Y33.571Z-0.878
X70.774Y33.658Z-0.871
X70.784Y33.665
X70.88Y33.827Z-0.875
X70.891Y33.835
X70.987Y33.996Z-0.879
X70.997Y34.004
X71.093Y34.166Z-0.883
X71.266Y34.294Z-0.814
X71.28Y34.298Z-0.789
X71.346Y34.48Z-1.066F500
X71.473Y34.636Z-1.163F1000
X71.65Y34.751Z-1.476F500
X71.656Y34.758Z-1.497
X71.687Y34.779Z-1.554
X71.748Y34.822Z-1.575F1000
G0Z10
X70.12Y28.378
G1Z-1.6F500
X70.336Y28.587Z-0.727F1000
G0Z10
X70.092Y28.274
G1Z-1.757F500
X70.12Y28.378Z-1.6F1000
G0Z10
X70.6Y27.353
G1Z-1.457F500
X70.702Y27.457Z-1.664
G0Z10
X70.321Y27.255
G1Z-0.465
X70.6Y27.353Z-1.457
G0Z10
X70.412Y26.7
G1Z-0.001
X70.413Z0F1000
X70.412Z-0.003F500
X70.411Z-0.006
X70.406Z-0.018
X70.411Z-0.006F1000
G0Z10
X70.179Y26.733
G1Z-0.553F500
X70.222Y26.696Z-0.53F1000
X70.406Y26.7Z-0.018
G0Z10
X70.179Y26.733
G1Z-0.553F500
X70.446Y26.983Z-0.07F1000
X70.6Y27.353Z-1.457F500
G0Z10
X70.014Y26.702
G1Z-1.04
X70.321Y27.255Z-0.465F1000
G0Z10
X70.014Y26.702
G1Z-1.04F500
X70.085Y26.715Z-0.853F1000
X70.179Y26.733Z-0.553
G0Z10
X69.879Y26.677
G1Z-1.18F500
X70.014Y26.702Z-1.04F1000
G0Z10
X69.626Y26.813
G1Z-0.959F500
X69.879Y26.677Z-1.18
G0Z10
X69.626Y26.813
G1Z-0.959
X69.668Y27.025Z-0.151F1000
X70.321Y27.255Z-0.465
G0Z10
X69.36Y26.631
G1Z-1.637F500
X69.469Y26.706Z-1.465F1000
X69.626Y26.813Z-0.959
G0Z10
X69.081Y26.649
G1Z-1.92F500
X69.142Y26.645Z-1.871F1000
X69.36Y26.631Z-1.637
G0Z10
X69.081Y26.649
G1Z-1.92F500
X69.089Y27.053Z-0.41F1000
G0Z10
X68.752Y26.634
G1Z-2F500
X68.427Y26.607F1000
X68.401Y26.604
X68.376Y26.599
X68.351Y26.593
X68.326Y26.586
X68.301Y26.578
X68.277Y26.569
X68.254Y26.558
X68.231Y26.547
X68.208Y26.534
X68.186Y26.52
X68.153Y26.497
X68.209Y26.596
X68.253Y26.643
X68.752Y26.634
X68.578Y26.62Z-1.969
X68.681Y26.609Z-1.93
X68.765Y26.586Z-1.817
X68.881Y26.623Z-1.92F500
X69.045Y26.644Z-1.94F1000
X69.081Y26.649Z-1.92
G0Z10
X68.314Y26.642
G1Z-1.945F500
X68.331Y27.504Z-0.007F1000
X68.403Y27.614Z-0.38F500
X68.353Y28.045Z-1.963
G0Z10
X68.085Y26.876
G1Z-0.948
X68.118Y26.846Z-1.117
X68.243Y26.633Z-1.898
G0Z10
X68.118Y26.846
G1Z-1.117
X68.12Y26.957Z-0.839F1000
G0Z10
X67.816Y26.777
G1Z-0.391F500
X68.191Y26.564Z-1.951
G0Z10
X67.77Y25.916
G1Z-1.83
X67.812Y26.053Z-1.712F1000
X67.868Y26.154Z-1.709
X67.928Y26.253Z-1.721
X68.07Y26.403Z-1.888F500
X68.082Y26.412Z-1.889F1000
X68.153Y26.498Z-1.954F500
G0Z10
X67.564Y25.957
G1Z-1.087
X67.575Y25.958Z-1.118
X67.77Y25.916Z-1.83
G0Z10
X67.79Y25.653
G1Z-2
X67.856Y25.477F1000
X67.866Y25.453
X67.878Y25.429
X67.89Y25.406
X67.904Y25.384
X67.919Y25.363
X67.935Y25.342
X67.952Y25.322
X67.97Y25.303
X67.988Y25.284
X68.008Y25.267
X68.028Y25.251
X68.05Y25.235
X68.072Y25.221
X68.094Y25.208
X68.113Y25.198
X68.093Y25.183
X68.073Y25.166
X68.053Y25.149
X68.035Y25.13
X68.017Y25.111
X68.001Y25.091
X67.985Y25.07
X67.911Y24.966
X67.902Y24.991
X67.892Y25.016
X67.881Y25.04
X67.869Y25.064
X67.855Y25.087
X67.84Y25.109
X67.825Y25.131
X67.808Y25.152
X67.79Y25.172
X67.771Y25.191
X67.751Y25.209
X67.731Y25.226
X67.564Y25.35
X67.679Y25.469
X67.696Y25.489
X67.713Y25.509
X67.728Y25.53
X67.742Y25.552
X67.755Y25.575
X67.767Y25.598
X67.778Y25.622
X67.787Y25.646
X67.79Y25.653
X67.795Y25.64Z-1.982
X67.77Y25.916Z-1.83
G0Z10
X68.113Y25.198
G1Z-1.849F500
X68.475Y25.225Z-1.555F1000
X68.635Y25.273Z-1.254
X68.673Y25.251Z-1.305F500
X68.881Y25.182Z-1.392F1000
X69.032Y25.174Z-1.305
X69.132Y25.182Z-1.298
X69.23Y25.205Z-1.291
X69.375Y25.26Z-1.183
X69.551Y25.382Z-0.847
X69.564Y25.375Z-0.883F500
X69.651Y25.348Z-1.04
X70.122Y25.2Z-0.872F1000
X70.237Y25.316Z-1.227F500
X70.429Y25.511Z-1.281F1000
X70.519Y25.509Z-1.418F500
X70.983Y25.502Z-1.28F1000
X71.162Y25.742Z-1.975F500
X71.182Y25.754Z-1.976F1000
G0Z10
X71.721Y25.793
G1Z-1.708F500
X71.883Y25.562Z-1.378F1000
X72.043Y25.5Z-1.204
X72.085Y25.484Z-1.089
X72.09Y25.476Z-1.085
X72.128Y25.447Z-0.993
X72.143Y25.435Z-0.921
X72.09Y25.476Z-1.085F500
X72.107Y25.282Z-0.517F1000
G0Z10
X72.085Y25.484
G1Z-1.089F500
X72.208Y25.542Z-0.581F1000
G0Z10
X72.602Y27.061
G1Z-1.926F500
X72.646Y27.069Z-1.904F1000
X72.849Y27.149Z-1.509
X72.857Y27.154Z-1.483
X72.906Y27.422Z-0.468
G0Z10
X72.857Y27.154
G1Z-1.483F500
X72.891Y27.161Z-1.433F1000
X73.142Y27.216Z-0.762
X73.157Y27.242Z-0.758
X73.169Y27.264Z-0.67
X73.177Y27.279Z-0.607
X73.157Y27.242Z-0.758F500
X73.427Y27.323Z0F1000
G0Z10
X71.417Y27.726
G1Z-1.542F500
X71.507Y27.901Z-1.263F1000
G0Z10
X67.151Y28.345
G1Z-1.203F500
X67.322Y28.217Z-1.581
G0Z10
X66.903Y28.318
G1Z-0.45
X67.284Y28.152Z-1.444
G0Z10
X67.007Y27.566
G1Z-1.836
X67.018Y27.518Z-1.666F1000
X67.025Y27.509Z-1.634
X67.017Y27.507Z-1.623
X67.018Y27.518Z-1.666F500
X67.007Y27.566Z-1.836
X67.018Y27.588Z-1.889
X67.073Y27.664Z-1.99
G0Z10
X66.988Y27.292
G1Z-0.816
X67.017Y27.507Z-1.623
G0Z10
X66.779Y27.099
G1Z0
X67.017Y27.507Z-1.623
G0Z10
X66.471Y27.365
G1Z-0.391
X66.606Y27.307Z-0.415F1000
X66.767Y27.454Z-1.171F500
X66.912Y27.525Z-1.64
X67.007Y27.566Z-1.836
G0Z10
X67.113Y25.351
G1Z-0.609
X67.235Y25.32Z-1.07
X67.326Y25.339Z-1.383
X67.419Y25.359Z-1.586
X67.461Y25.368Z-1.677
X67.566Y25.343Z-1.982
X67.572Y25.344Z-1.983F1000
G0Z10
X67.131Y25.239
G1Z-0.58F500
X67.235Y25.32Z-1.07
G0Z10
X67.915Y24.972
G1Z-1.97
X67.829Y24.598Z-1.433F1000
X67.94Y24.338Z-1.403
X67.905Y24.124Z-1.53F500
X67.92Y23.923Z-1.638F1000
X67.926Y23.904Z-1.65F500
X67.94Y23.721Z-1.763
X67.946Y23.702Z-1.775
X67.959Y23.536Z-1.879
X67.958Y23.519Z-1.88F1000
X67.98Y23.375Z-1.971F500
Y23.372F1000
X67.982Y23.338Z-1.981
X67.979Y23.35Z-2F500
X68.107Y22.874F1000
X68.123Y22.826
X68.105Y22.824
X68.08Y22.821
X68.054Y22.816
X68.028Y22.81
X68.003Y22.802
X67.979Y22.794
X67.954Y22.784
X67.94Y22.778
X67.979Y23.35
G0Z10
X68.122Y22.827
G1Z-1.882F500
X68.193Y22.783Z-1.797F1000
X68.359Y22.626Z-1.392
X68.425Y22.519Z-1.257
X68.483Y22.457Z-1.145
X68.57Y22.274Z-1.049
X68.575Y22.221Z-1.04
X68.639Y22.087Z-1.018
X68.644Y22.034Z-1.01
X68.709Y21.899Z-0.987
X68.714Y21.846Z-0.979
X68.779Y21.711Z-0.956
X68.783Y21.658Z-0.948
X68.849Y21.524Z-0.925
Y21.511Z-0.936F500
X68.897Y21.357Z-0.909F1000
X68.915Y21.335Z-0.905
X68.967Y21.169Z-0.878
X68.985Y21.148Z-0.874
X69.029Y21.005Z-0.857
X69.031Y20.979Z-0.828
X69.069Y20.913Z-0.846
X69.098Y20.817Z-0.85
X69.102Y20.769Z-0.812
X69.154Y20.678Z-0.816
X69.162Y20.578Z-0.82
X69.214Y20.487Z-0.824
X69.223Y20.388Z-0.828
X69.274Y20.296Z-0.832
X69.283Y20.197Z-0.835
X69.334Y20.105Z-0.839
X69.343Y20.006Z-0.843
X69.393Y19.915Z-0.847
X69.403Y19.815Z-0.851
X69.453Y19.724Z-0.854
X69.463Y19.624Z-0.858
X69.513Y19.533Z-0.862
X69.515Y19.516Z-0.876F500
X69.532Y19.416Z-0.881F1000
X69.573Y19.342Z-0.87
X69.575Y19.325Z-0.884F500
X69.596Y19.206Z-0.88F1000
X69.632Y19.151Z-0.882
X69.656Y19.015Z-0.887
X69.692Y18.96Z-0.89
X69.716Y18.825Z-0.895
X69.752Y18.769Z-0.897
X69.762Y18.712Z-0.927
X69.776Y18.634Z-0.902
X69.798Y18.6Z-0.896
X69.826Y18.44Z-0.872
X69.848Y18.406Z-0.865
X69.876Y18.251Z-0.843
X69.875Y18.246Z-0.837
X69.901Y18.176Z-0.854
X69.929Y18.101Z-0.806
X69.914Y17.893Z-0.372
X69.901Y17.865Z-0.281
X70.041Y17.754Z-0.531F500
X70.055Y17.743Z-0.528F1000
X70.079Y17.724Z-0.433
X70.118Y17.733Z-0.417
G0Z10
X69.983Y17.573
G1Z-0.007F500
X70.029Y17.682Z-0.339
X69.982Y17.571Z0F1000
X69.983Y17.573Z-0.007F500
G0Z10
X69.798Y18.6
G1Z-0.896
X69.922Y18.627Z-0.42F1000
G0Z10
X67.94Y22.78
G1Z-1.921F500
X67.852Y22.639Z-1.706F1000
X67.766Y22.401Z-1.498
X67.749Y22.229Z-1.37
X67.732Y22.204Z-1.397F500
X67.659Y22.014Z-1.355F1000
X67.639Y21.815Z-1.413
Y21.814
X67.619Y21.615Z-1.471
X67.62Y21.614
X67.603Y21.449Z-1.52
X67.605Y21.414Z-1.51
X67.582Y21.284Z-1.549
X67.586Y21.215Z-1.569
X67.562Y21.084Z-1.608
X67.563Y21.063Z-1.626F500
X67.553Y20.911Z-1.668F1000
X67.545Y20.884Z-1.676
X67.534Y20.711Z-1.727
X67.526Y20.684Z-1.735
X67.524Y20.662Z-1.744
X67.523Y20.638Z-1.725
X67.541Y20.511Z-1.684
X67.536Y20.438Z-1.66
X67.555Y20.311Z-1.619
X67.549Y20.238Z-1.595
X67.568Y20.11Z-1.553
X67.562Y20.037Z-1.53
X67.586Y19.886Z-1.497
X67.581Y19.838Z-1.487
X67.605Y19.687Z-1.455
X67.6Y19.639Z-1.444
X67.624Y19.488Z-1.412
X67.619Y19.439Z-1.401
X67.644Y19.288Z-1.369
X67.639Y19.24Z-1.359
X67.655Y19.136Z-1.348
X67.657Y19.04Z-1.313
X67.658Y19.036Z-1.316
X67.675Y18.936Z-1.305
X67.676Y18.841Z-1.271
X67.694Y18.784Z-1.258
Y18.731Z-1.263
X67.698Y18.631Z-1.234
X67.713Y18.584Z-1.215
Y18.532Z-1.221
X67.718Y18.42Z-1.186
X67.731Y18.385Z-1.178
X67.737Y18.221Z-1.144
X67.75Y18.186Z-1.135
X67.756Y18.022Z-1.101
X67.769Y17.986Z-1.092
X67.775Y17.822Z-1.058
X67.804Y17.749Z-1.062
X67.808Y17.625Z-1.068
X67.837Y17.551Z-1.072
X67.841Y17.428Z-1.078
X67.87Y17.354Z-1.082
X67.874Y17.23Z-1.088
X67.901Y17.161Z-1.096
X67.907Y17.061Z-1.11
X67.908Y17.033Z-1.099
X67.934Y16.964Z-1.106
X67.941Y16.836Z-1.111
X67.967Y16.772Z-1.114
X67.978Y16.57Z-1.207
X67.925Y16.357Z-1.49F500
X67.922Y16.351Z-1.491F1000
X67.899Y16.149Z-1.778F500
X67.866Y16.05Z-1.927
G0Z10
X63.136Y17.848
G1Z0
Y17.849Z-0.001
Y17.848Z0F1000
X63.135
Y17.849Z-0.002F500
X63.136Z-0.001F1000
X63.135Y17.848Z0
Y17.849Z-0.001F500
Y17.848Z0F1000
Y17.849Z-0.002F500
X63.136Y17.851Z-0.008
X63.232Y18.081Z-0.52
X63.33Y18.101Z-0.374F1000
X63.36Y18.334Z-1.032F500
G0Z10
X63.135Y17.849
G1Z0
Z-0.002
G0Z10
X62.432Y20.033
G1Z-0.766
X62.479Y20.085Z-1.027
X62.525Y20.026Z-0.976F1000
X62.597Y19.934Z-0.634
X62.636Y19.929Z-0.618
X62.671Y19.905Z-0.532
X62.733Y19.863Z-0.313
G0Z10
X62.456Y20.31
G1Z-1.413F500
X62.479Y20.085Z-1.027F1000
G0Z10
X62.456Y20.31
G1Z-1.413F500
X62.502Y20.426Z-1.722
X62.529Y20.492Z-1.795
Z-1.798
X62.718Y20.568Z-1.375F1000
X62.868Y20.54Z-1.281
X62.952Y20.524Z-1.084
X62.98Y20.502Z-0.961
X63.035Y20.497Z-0.853
X63.092Y20.493Z-0.638
X62.952Y20.524Z-1.084F500
X63.036Y20.6Z-0.67F1000
G0Z10
X62.477Y20.54
G1Z-1.587F500
X62.529Y20.492Z-1.795
G0Z10
X62.295Y20.559
G1Z-0.9
X62.477Y20.54Z-1.587
G0Z10
X62.31Y20.257
G1Z-0.834
X62.456Y20.31Z-1.413
G0Z10
X62.455Y21.112
G1Z-0.476
X62.431Y21.082Z-0.591
X62.329Y20.952Z-0.582F1000
X62.358Y20.871Z-0.816F500
X62.477Y20.54Z-1.587
G0Z10
X62.455Y21.112
G1Z-0.476
X62.444Y21.157Z-0.441F1000
X62.533Y21.299Z-0.001
G0Z10
X62.455Y21.112
G1Z-0.476F500
X62.493Y21.123Z-0.328F1000
G0Z10
X61.063Y20.219
G1Z-2F500
X61.13Y19.888F1000
X60.997Y18.795
X60.741Y18.323
X60.521Y18.147
X59.809Y18.135
X59.555Y18.301
X59.244Y18.644
X58.908Y19.066
X58.669Y19.556
X58.594Y19.906
X58.587Y19.931
X58.579Y19.957
X58.569Y19.981
X58.559Y20.006
X58.547Y20.029
X58.534Y20.053
X58.52Y20.075
X58.505Y20.097
X58.363Y20.291
X58.562Y20.36
X58.587Y20.369
X58.61Y20.38
X58.633Y20.392
X58.656Y20.405
X58.677Y20.419
X58.698Y20.434
X59.292Y20.881
X59.845Y21.119
X60.309Y21.171
X60.585Y21.126
X60.611Y21.123
X60.637Y21.121
X60.66
X60.68Y20.996
X60.686Y20.97
X60.693Y20.943
X60.701Y20.918
X60.71Y20.892
X60.721Y20.867
X60.733Y20.843
X61.063Y20.219
X61.097Y20.049Z-1.341
X61.354Y20.101Z-1.021
