(Created with grbl post processor 2024/12/13 12:46)
G21
(G-code Generated with Fabex and NC library)
G17G90
S12000M03
G00 Z10.0

G0X0Y0Z10
X44.728Y1.559
G1Z-2F500
X46.19Y1.899F1000
X46.214Y1.906
X46.238Y1.914
X46.857Y2.135
X46.609Y1.966
X46.077Y1.699
X45.872Y1.615
X45.849Y1.604
X45.826Y1.592
X45.803Y1.579
X45.781Y1.565
X45.76Y1.549
X45.74Y1.533
X45.72Y1.515
X45.702Y1.497
X45.684Y1.478
X45.667Y1.458
X45.652Y1.437
X45.637Y1.416
X45.623Y1.393
X45.611Y1.37
X45.599Y1.347
X45.589Y1.323
X45.58Y1.299
X45.572Y1.274
X45.565Y1.248
X45.56Y1.223
X45.555Y1.2
X45.54Y1.208
X45.516Y1.22
X45.492Y1.23
X45.468Y1.239
X45.442Y1.247
X45.143Y1.331
X45.118Y1.337
X45.093Y1.342
X45.067Y1.345
X45.042Y1.347
X45.016Y1.348
X44.99
X44.965Y1.346
X44.939Y1.343
X44.828Y1.328
X44.823Y1.353
X44.817Y1.378
X44.809Y1.403
X44.801Y1.428
X44.791Y1.453
X44.779Y1.477
X44.767Y1.5
X44.754Y1.523
X44.739Y1.545
X44.728Y1.559
Z-1.882
X44.616Y1.6Z-1.757
X44.61Y1.603Z-1.741
X44.39Y1.666Z-1.327
X44.184Y1.667Z-1.15
X44.047Y1.623Z-1.168
X43.798Y1.6Z-0.937
X43.632Y1.345Z-1.555F500
X43.621Y1.295Z-1.573F1000
X43.625Y1.269Z-1.596F500
X43.634Y1.132Z-1.535F1000
X43.667Y1.064Z-1.41
X43.714Y1.031Z-1.387
X43.926Y0.951Z-1.049
X44.128Y0.948Z-0.936
X44.214Y0.98Z-0.919
X44.305Y0.973Z-0.943
X44.402Y0.995Z-0.978
X44.499Y1.026Z-1.044F500
X44.664Y1.135Z-1.363
X44.836Y1.33Z-1.989
G0Z10
X45.352Y0.675
G1Z0
X45.439Y0.662Z-0.19
X45.593Y0.825Z-0.873
X45.62Y0.995Z-1.411
X45.625Y1.016Z-1.449
X45.607Y1.096Z-1.701
X45.556Y1.201Z-1.781
G0Z10
X45.439Y0.662
G1Z-0.189
Z-0.19
X45.418Y0.665Z-0.143F1000
G0Z10
X46.836Y2.121
G1Z-1.999F500
X46.845Y2.127F1000
X46.973Y2.198Z-1.927
X47.006Y2.208Z-1.91
X47.152Y2.289Z-1.831
X47.185Y2.3Z-1.814
X47.332Y2.381Z-1.735
X47.365Y2.391Z-1.718
X47.511Y2.473Z-1.639
X47.545Y2.483Z-1.622
X47.701Y2.57Z-1.563
X47.838Y2.685Z-1.486
X47.966Y2.853Z-1.197
X48.01Y2.943Z-0.994
X48.142Y2.95Z-1.228F500
X48.348Y3.003Z-1.456
X48.525Y3.098F1000
X48.594Y3.161Z-1.459
X48.705Y3.33Z-1.339
X48.732Y3.407Z-1.207
X48.852Y3.468Z-1.359F500
X49.004Y3.601Z-1.355F1000
X49.081Y3.716Z-1.399
X49.094Y3.742Z-1.392
X49.143Y3.795Z-1.429
X49.199Y3.879Z-1.456
X49.212Y3.904Z-1.449
X49.286Y3.985Z-1.481
X49.33Y4.066Z-1.507
X49.404Y4.147Z-1.538
X49.413Y4.164Z-1.553F500
X49.467Y4.249Z-1.583F1000
X49.522Y4.31Z-1.596
X49.531Y4.326Z-1.61F500
X49.599Y4.433Z-1.562F1000
X49.687Y4.521Z-1.395
X49.699Y4.607Z-1.484F500
X49.772Y4.797Z-1.48F1000
X49.887Y4.961Z-1.493
X50.055Y5.107Z-1.285
X50.169Y5.171Z-1.068
X50.174Y5.27Z-1.262F500
X50.223Y5.472Z-1.536
X50.313Y5.651Z-1.595F1000
X50.336Y5.68Z-1.593
X50.41Y5.826Z-1.58
X50.433Y5.855Z-1.578
X50.506Y6.001Z-1.565
X50.53Y6.03Z-1.563
X50.603Y6.177Z-1.55
X50.627Y6.205Z-1.547
X50.7Y6.352Z-1.535
X50.724Y6.38Z-1.532
X50.777Y6.488Z-1.53
X50.822Y6.554Z-1.509
X50.85Y6.627Z-1.503
X50.919Y6.729Z-1.494
X50.946Y6.802Z-1.488
X50.985Y6.859Z-1.502
X51.032Y6.947Z-1.493
X51.043Y6.977Z-1.473
X51.082Y7.034Z-1.487
X51.144Y7.15Z-1.474
X51.154Y7.161Z-1.472
X51.24Y7.325Z-1.459
X51.251Y7.336Z-1.457
X51.337Y7.5Z-1.444
X51.348Y7.511Z-1.442
X51.434Y7.675Z-1.429
X51.444Y7.686Z-1.427
X51.531Y7.85Z-1.414
X51.541Y7.862Z-1.412
X51.628Y8.025Z-1.399
X51.638Y8.037Z-1.397
X51.749Y8.247Z-1.442
X51.892Y8.405Z-1.334
X51.986Y8.471Z-1.185
X51.99Y8.581Z-1.403F500
X52.017Y8.691Z-1.55
X52.046Y8.799Z-1.687
X52.139Y8.977Z-1.767F1000
X52.272Y9.138Z-1.998F500
X52.279Y9.131Z-2F1000
X52.267Y9.126
X52.391Y9.431
X52.4Y9.458
X53.099Y11.685
X53.106Y11.71
X53.111Y11.736
X53.116Y11.762
X53.118Y11.788
X53.12Y11.814
Y11.84
X53.119Y11.867
X53.117Y11.893
X53.113Y11.919
X53.108Y11.945
X53.102Y11.97
X53.095Y11.996
X53.086Y12.02
X53.076Y12.045
X53.065Y12.069
X53.053Y12.092
X53.04Y12.115
X53.026Y12.137
X53.01Y12.158
X52.994Y12.178
X52.976Y12.198
X52.958Y12.217
X52.939Y12.235
X52.918Y12.252
X52.898Y12.268
X52.876Y12.282
X52.854Y12.296
X53.228Y12.859
X53.24Y12.879
X53.695Y13.718
X53.707Y13.741
X53.717Y13.766
X53.726Y13.791
X53.913Y14.346
X54.348Y15.474
X54.21Y14.742
X53.707Y12.645
X53.041Y10.639
X52.443Y9.169
X52.418Y9.167
X52.392Y9.163
X52.366Y9.158
X52.341Y9.152
X52.316Y9.145
X52.291Y9.136
X52.279Y9.131
X52.445Y9.175Z-1.889
X52.481Y9.131Z-1.813
X52.566Y8.973Z-1.175
G0Z10
X53.836Y7.942
G1Z-0.245F500
X54.028Y8.073Z-0.71
X54.134Y8.244Z-0.748F1000
X54.153Y8.456Z-0.47
G0Z10
X54.299Y8.775
G1Z-0.365F500
X54.478Y8.912Z-0.638
X54.553Y9.098Z-0.489F1000
G0Z10
X55.111Y10.116
G1Z-0.206F500
X55.116Y10.11Z-0.214
X55.117Y10.108Z-0.209F1000
G0Z10
X54.895Y11.513
G1Z-0.186F500
X55.11Y11.456Z-0.428
X55.134Y11.397Z-0.467
X55.186Y11.38Z-0.458F1000
G0Z10
X54.803Y12.199
G1Z-0.026F500
X54.875Y12.912Z-0.215F1000
X54.873Y12.926Z-0.206
X54.906Y13.022Z-0.17
X54.872Y13.055Z-0.19
X54.923Y13.222Z-0.237
X54.895Y13.254Z-0.254
X54.94Y13.422Z-0.3
X54.917Y13.454Z-0.314
X54.962Y13.637Z-0.416
X54.954Y13.653Z-0.428F500
X54.996Y13.837Z-0.53F1000
X54.99Y13.852Z-0.54F500
X55.03Y14.036Z-0.532F1000
X54.99Y14.161Z-0.228
G0Z10
X55.063Y14.348
G1Z-0.238F500
X55.174Y14.423Z-0.528
X55.254Y14.607Z-0.41F1000
G0Z10
X55.76Y13.722
G1Z-0.511F500
X55.766Y13.919Z-0.51F1000
X55.824Y13.994Z-0.524
X55.828Y14.109Z-0.539
X55.885Y14.184Z-0.552
X55.89Y14.299Z-0.568
X55.946Y14.375Z-0.581
X55.953Y14.489Z-0.597
X56.007Y14.565Z-0.609
X56.021Y14.773Z-0.42
G0Z10
X56.205Y15.262
G1Z-0.238F500
X56.372Y15.414Z-0.412
X56.392Y15.62Z-0.008F1000
G0Z10
X54.338Y15.45
G1Z-1.999F500
X54.389Y15.611Z-1.942F1000
X54.4Y15.705Z-1.931
X54.432Y15.806Z-1.919
X54.443Y15.9Z-1.908
X54.451Y15.928Z-1.914
X54.484Y16.047Z-1.895
X54.486Y16.077Z-1.902
X54.524Y16.243Z-1.881
X54.525Y16.255Z-1.88
X54.567Y16.438Z-1.858
X54.568Y16.45Z-1.857
X54.61Y16.633Z-1.835
X54.611Y16.646Z-1.834
X54.653Y16.829Z-1.812
X54.656Y16.929Z-1.834
X54.667Y16.977Z-1.835
X54.671Y17.129Z-1.839
X54.682Y17.177Z-1.841
X54.685Y17.29Z-1.851
X54.698Y17.376Z-1.842
X54.694Y17.451Z-1.844
X54.713Y17.576Z-1.848
X54.709Y17.651Z-1.85
X54.716Y17.699Z-1.865
X54.729Y17.823Z-1.863
X54.726Y17.85Z-1.864
X54.744Y18.022Z-1.868
X54.738Y18.089Z-1.88
X54.751Y18.222Z-1.903
X54.745Y18.289Z-1.915
X54.748Y18.317Z-1.909
X54.731Y18.489Z-1.872
X54.734Y18.517Z-1.866
X54.718Y18.689Z-1.83
X54.721Y18.716Z-1.824
X54.707Y18.862Z-1.796
X54.702Y18.889Z-1.778
X54.703Y18.962Z-1.777
X54.694Y19.062Z-1.754
X54.689Y19.088Z-1.736
X54.691Y19.209Z-1.711
X54.675Y19.288Z-1.693
X54.678Y19.409Z-1.668
X54.662Y19.488Z-1.651
X54.664Y19.57Z-1.62
X54.639Y19.688Z-1.575
X54.642Y19.77Z-1.544
X54.617Y19.888Z-1.499
X54.62Y19.97Z-1.468
X54.594Y20.088Z-1.422
X54.597Y20.145Z-1.415
X54.582Y20.244Z-1.381
X54.572Y20.287Z-1.346
X54.575Y20.344Z-1.339
X54.552Y20.487Z-1.281
X54.557Y20.521Z-1.268
X54.53Y20.687Z-1.205
X54.535Y20.72Z-1.192
X54.519Y20.814Z-1.171
X54.51Y20.941Z-1.139
X54.519Y20.98
X54.507Y21.141Z-1.137
X54.517Y21.18Z-1.136
X54.504Y21.34Z-1.134
X54.514Y21.38
X54.501Y21.54Z-1.132
X54.511Y21.58Z-1.131
X54.499Y21.74Z-1.13
Z-1.129
X54.507Y21.9Z-1.127
X54.496Y21.94Z-1.126
X54.504Y22.1Z-1.124
X54.493Y22.14
X54.502Y22.3Z-1.122
X54.49Y22.34Z-1.121
X54.501Y22.541Z-1.169
X54.513Y22.572Z-1.184
X54.523Y22.741Z-1.257
X54.534Y22.772Z-1.272
X54.544Y22.941Z-1.345
X54.555Y22.973Z-1.36
X54.563Y23.095Z-1.42
Y23.141Z-1.423
X54.577Y23.195Z-1.46F500
X54.584Y23.296Z-1.507F1000
Y23.341Z-1.511
X54.604Y23.416Z-1.545
X54.606Y23.542Z-1.599
X54.625Y23.616Z-1.633
X54.628Y23.742Z-1.687
X54.698Y24.029Z-1.863F500
X54.678Y24.02Z-2
X54.669Y24.044F1000
X54.658Y24.068
X54.431Y24.544
X54.417Y24.57
X54.657Y24.497
X54.684Y24.49
X54.712Y24.485
X54.958Y24.45
X54.683Y24.005
X54.678Y24.02
G0Z10
X54.928Y24.455
G1Z-1.703F500
X55.066Y24.575Z-1.485F1000
X55.341Y24.583Z-0.889
G0Z10
X54.162Y24.743
G1Z-1.646F500
X54.433Y24.565Z-1.947
G0Z10
X54.162Y24.743
G1Z-1.646
X54.187Y25.031Z-0.588F1000
G0Z10
X54.446Y26.69
G1Z-2F500
X53.732Y27.049F1000
X53.313Y27.494
X53.094Y27.895
X53.545Y28.091
X53.697Y27.975
X53.719Y27.96
X53.741Y27.946
X53.765Y27.934
X53.788Y27.922
X53.813Y27.912
X53.837Y27.903
X53.862Y27.895
X54.338Y27.77
X54.79Y27.521
X55.187Y27.053
X55.301Y26.577
X55.306Y26.437
X55.295Y26.41
X54.446Y26.69
G0Z10
X55.3Y26.421
G1Z-1.934F500
X55.333Y26.375Z-1.819F1000
X55.397Y26.16Z-1.054
G0Z10
X56.124Y25.715
G1Z-0.585F500
Y25.783Z-0.736
X56.155Y25.846Z-0.656F1000
G0Z10
X56.529Y26.691
G1Z-0.489F500
X56.582Y26.898Z-0.508F1000
X56.679Y26.978Z-0.515
X56.7Y27.06Z-0.52
X56.797Y27.14Z-0.527
X56.805Y27.169Z-0.57F500
X56.885Y27.296Z-0.571F1000
X56.908Y27.306Z-0.573
X57.003Y27.457Z-0.583
X57.026Y27.468Z-0.585
X57.09Y27.567Z-0.607
X57.117Y27.622Z-0.571
X57.154Y27.644Z-0.602F500
X57.208Y27.728Z-0.618F1000
X57.235Y27.783Z-0.583
X57.289Y27.815Z-0.587
X57.343Y27.923Z-0.56
X57.42Y27.966Z-0.539
X57.472Y28.076Z-0.512
X57.551Y28.118Z-0.491
X57.569Y28.157Z-0.526F500
X57.64Y28.263Z-0.48F1000
X57.69Y28.279Z-0.478
X57.777Y28.408Z-0.472
X57.827Y28.424Z-0.47
X57.915Y28.554Z-0.464
X57.965Y28.569Z-0.462
X58.04Y28.681Z-0.54F500
X58.091Y28.815Z-0.739
X58.06Y29.116Z-1.585
X58.043Y29.165Z-1.719
X58.035Y29.272Z-1.867
X58.044Y29.261Z-2
X57.763Y29.615F1000
X57.664Y29.793
X57.863Y29.576
X57.882Y29.558
X57.902Y29.54
X57.923Y29.523
X57.944Y29.508
X57.966Y29.493
X57.989Y29.48
X58.012Y29.467
X58.036Y29.456
X58.061Y29.446
X58.086Y29.438
X58.111Y29.43
X58.137Y29.424
X58.163Y29.419
X58.19Y29.415
X58.216Y29.413
X58.242Y29.412
X58.259
X58.172Y29.365
X58.149Y29.351
X58.127Y29.336
X58.106Y29.319
X58.085Y29.302
X58.065Y29.284
X58.044Y29.261
G0Z10
X58.249Y29.407
G1Z-1.88F500
X58.434Y29.441Z-1.781F1000
X58.53Y29.516Z-1.672
X58.98Y29.585Z-1.642
X59.193Y29.57Z-1.564
X59.327Y29.534Z-1.417
X59.343Y29.546Z-1.457F500
X59.431Y29.6Z-1.65
X59.523Y29.642Z-1.8
X59.552Y29.654Z-1.839
X59.884Y29.381Z-0.658F1000
G0Z10
X59.552Y29.654
G1Z-1.839F500
X59.636Y29.74Z-1.806F1000
X59.809Y29.857Z-1.575
X59.829Y29.864Z-1.55
X59.984Y29.971Z-1.356
X60.136Y30.024Z-1.299
X60.337Y30.035Z-1.35
X60.53Y29.995Z-1.179
X60.659Y29.942Z-0.969
X60.716Y29.987Z-1.131F500
X60.902Y30.081Z-1.46
X61.097Y30.128Z-1.572F1000
X61.582Y30.13Z-1.588
X61.711Y29.99Z-1.926F500
X61.781Y29.979Z-1.95F1000
X61.696Y30.019Z-2
X61.951Y30.016
X62.241Y29.904
X62.229Y29.89
X62.212Y29.87
X62.196Y29.849
X62.181Y29.827
X62.167Y29.804
X62.161Y29.794
X62.147Y29.803
X62.124Y29.817
X62.1Y29.83
X61.696Y30.019
G0Z10
X62.161Y29.794
G1Z-1.834F500
X62.259Y29.39Z-1.057F1000
X62.176Y29.115Z-0.068
G0Z10
X62.241Y29.904
G1Z-1.904F500
X62.319Y29.922Z-1.83F1000
X62.506Y29.936Z-1.528
X62.514Y29.939Z-1.51
X62.729Y29.941Z-1.21
X62.922Y29.884Z-1.148
X63.196Y29.696Z-0.913
X63.396Y29.777Z-1.468F500
X63.579Y29.765Z-1.601
X63.912Y29.846Z-1.486F1000
X63.932Y29.875Z-1.559F500
X64.072Y30.019Z-1.856
X64.182Y30.095Z-1.84F1000
X64.222Y30.151Z-1.884F500
X64.327Y30.252Z-1.792F1000
X64.405Y30.314Z-1.663
X64.49Y30.369Z-1.496
X64.591Y30.421Z-1.275
X64.6Y30.464Z-1.331F500
X64.684Y30.673Z-1.465
X64.803Y30.841Z-1.364F1000
X64.958Y30.967Z-1.333
X65.108Y31.034Z-1.124
X65.307Y31.07Z-0.703
X65.311Y31.09Z-0.746F500
X65.366Y31.216Z-0.941
X65.424Y31.336Z-1.111
X65.562Y31.488Z-1.1F1000
X65.683Y31.556Z-1.098
X65.726Y31.603Z-1.097
X65.847Y31.67Z-1.094
X65.913Y31.743Z-1.114
X66.005Y31.794Z-1.134
X66.07Y31.866Z-1.153
X66.092Y31.878Z-1.172F500
X66.176Y31.933Z-1.189F1000
X66.222Y31.984Z-1.196
X66.25Y32.001Z-1.217F500
X66.306Y32.039Z-1.233F1000
X66.349Y32.068Z-1.226
X66.381Y32.106Z-1.242
X66.506Y32.192Z-1.27
X66.532Y32.225Z-1.278
X66.697Y32.34Z-1.24
X66.9Y32.412Z-0.937
X66.916Y32.414Z-0.903
X67.018Y32.634Z-1.264F500
X67.147Y32.787Z-1.323F1000
X67.317Y32.902Z-1.12
X67.424Y32.941Z-0.903
X67.53Y32.979Z-0.688
X67.538Y32.98Z-0.67
X67.56Y33.089Z-0.862F500
X67.585Y33.206Z-1.068
X67.678Y33.393Z-1.217
X67.816Y33.538Z-1.221F1000
X67.998Y33.64Z-1.132
X68.199Y33.695Z-0.819
X68.251Y33.843Z-1.13F500
X68.884Y33.721Z-0.19F1000
X69.084Y34.125Z-1.654F500
X69.446Y34.028Z-1.867F1000
X69.468Y33.755Z-1.365
X69.421Y33.628Z-1.072
X69.453Y33.511Z-0.884
G0Z10
X69.446Y34.028
G1Z-1.867F500
X69.449Y34.03Z-1.86F1000
X69.59Y34.187Z-1.6
X69.687Y34.364Z-1.521
X69.728Y34.515Z-1.535
X69.752Y34.553Z-1.57F500
X69.791Y34.662Z-1.594F1000
X69.826Y34.772Z-1.634
X69.842Y34.982Z-1.658
X69.841Y34.992Z-1.65
X69.92Y35.166Z-1.876F500
X69.927Y35.193Z-1.875F1000
X70.009Y35.373Z-1.891
Y35.375Z-1.892
X70.091Y35.555Z-1.908
X70.092Y35.557
X70.148Y35.681Z-1.919
X70.177Y35.736Z-1.908
X70.189Y35.772Z-1.927
X70.23Y35.863Z-1.935
X70.26Y35.918Z-1.924
X70.282Y35.988Z-1.93
X70.342Y36.1Z-1.94
X70.364Y36.17Z-1.946
X70.425Y36.283Z-1.957
X70.447Y36.353Z-1.963
X70.507Y36.465Z-1.973
X70.529Y36.535Z-1.979
X70.59Y36.647Z-1.989
X70.597Y36.671Z-1.987
X70.673Y36.813Z-1.975
X70.686Y36.851Z-1.964
X70.716Y36.903Z-1.97
X70.764Y36.991Z-1.958
X70.777Y37.029Z-1.947
X70.849Y37.156Z-1.934
X70.867Y37.208Z-1.93
X70.94Y37.334Z-1.917
X70.948Y37.359Z-1.929
X70.993Y37.448Z-1.921
X71.03Y37.512Z-1.9
X71.039Y37.538Z-1.912
X71.116Y37.691Z-1.897
X71.117Y37.692
X71.207Y37.869Z-1.88
X71.208Y37.871
X71.297Y38.048Z-1.863
X71.298Y38.049
X71.388Y38.226Z-1.846
X71.389Y38.228
X71.478Y38.405Z-1.829
X71.512Y38.448Z-1.835
X71.603Y38.627Z-1.793
X71.623Y38.7Z-1.709
X71.718Y38.791Z-1.819F500
X71.831Y38.956Z-1.817F1000
X71.894Y39.103Z-1.907
X71.929Y39.22Z-1.999F500
X71.975Y39.24Z-1.92F1000
X72.154Y39.365Z-1.594
X72.29Y39.515Z-1.456
X72.422Y39.766Z-1.253
X72.431Y39.799Z-1.197
X72.587Y39.887Z-1.416F500
X72.732Y40.025Z-1.442F1000
X72.804Y40.141Z-1.499
X72.85Y40.186Z-1.527
X72.924Y40.303Z-1.583
X72.969Y40.346Z-1.609
X73.044Y40.464Z-1.667
X73.088Y40.508Z-1.693
X73.164Y40.626Z-1.751
X73.31Y40.773Z-1.75
X73.401Y40.835Z-1.654
X73.431Y40.934Z-1.819F500
X73.49Y41.049Z-1.944
X73.508Y41.12Z-1.935F1000
X73.563Y41.236Z-1.894
X73.611Y41.324Z-1.882
X73.671Y41.405Z-1.914
X73.688Y41.426Z-1.913
X73.739Y41.514Z-1.94
X73.795Y41.579Z-1.979
Z-2F500
X73.825Y41.631F1000
X73.828Y41.605
X73.809Y41.59
X73.795Y41.579
X73.828Y41.611Z-1.985
X74.138Y41.497Z-0.897
X74.199Y41.377Z-0.722
G0Z10
X73.826Y41.629
G1Z-1.98F500
X73.833Y41.69Z-1.912F1000
X73.895Y41.886Z-1.745
X73.994Y42.059Z-1.619
X74.13Y42.212Z-1.298
X74.151Y42.228Z-1.24
X74.159Y42.426Z-1.425F500
X74.215Y42.625Z-1.391F1000
X74.304Y42.775Z-1.375
X74.311Y42.8Z-1.373
X74.4Y42.951Z-1.356
X74.454Y43.148Z-1.299
X74.458Y43.3Z-1.09
X74.515Y43.342Z-1.223F500
X74.648Y43.498Z-1.454
X74.737Y43.677Z-1.483F1000
X74.763Y43.794Z-1.599F500
X74.781Y43.897Z-1.714
Y43.901Z-1.716F1000
X74.786Y43.913Z-1.703
X74.835Y43.982Z-1.681
X74.987Y44.215Z-1.576
X75.014Y44.245Z-1.54
X75.071Y44.354Z-1.493
X75.124Y44.413Z-1.462
X75.181Y44.523Z-1.415
X75.234Y44.581Z-1.385
X75.29Y44.691Z-1.338
X75.344Y44.75Z-1.307
X75.418Y44.896Z-1.281
X75.461Y44.942Z-1.279
X75.524Y45.066Z-1.276
X75.567Y45.112Z-1.274
X75.629Y45.236Z-1.271
X75.672Y45.282Z-1.269
X75.735Y45.406Z-1.266
X75.778Y45.451Z-1.264
X75.833Y45.562Z-1.266
X75.839Y45.576Z-1.257
X75.894Y45.643Z-1.266
X75.939Y45.732Z-1.261
X75.945Y45.746Z-1.251
X76.014Y45.831Z-1.249
X76.05Y45.916Z-1.246
X76.12Y46.001Z-1.243
X76.146Y46.062Z-1.257
X76.203Y46.144Z-1.256
X76.225Y46.171Z-1.238
X76.251Y46.232Z-1.252
X76.352Y46.375Z-1.286
X76.356Y46.379Z-1.287
X76.469Y46.538Z-1.331
X76.473Y46.542Z-1.333
X76.585Y46.7Z-1.377
X76.59Y46.704Z-1.378
X76.702Y46.863Z-1.423
X76.707Y46.867Z-1.424
X76.819Y47.026Z-1.468
X76.824Y47.03Z-1.47
X76.904Y47.143Z-1.503
X76.932Y47.191Z-1.494
X76.989Y47.251Z-1.513
X77.049Y47.354Z-1.54
X77.106Y47.414Z-1.559
X77.166Y47.517Z-1.586
X77.223Y47.577Z-1.605
X77.232Y47.593Z-1.601
X77.358Y47.725Z-1.565
X77.367Y47.741Z-1.561
X77.461Y47.84Z-1.545
X77.513Y47.886Z-1.519
X77.552Y47.942Z-1.513
X77.651Y48.03Z-1.5
X77.69Y48.087Z-1.493
X77.79Y48.174Z-1.48
X77.829Y48.231Z-1.474
X77.929Y48.319Z-1.461
X77.948Y48.347Z-1.452
X78.074Y48.457Z-1.409
X78.093Y48.485Z-1.4
X78.194Y48.573Z-1.371
X78.221Y48.593Z-1.346
X78.263Y48.646Z-1.345
X78.339Y48.712Z-1.319
X78.366Y48.731Z-1.293
X78.43Y48.812Z-1.266
X78.512Y48.87Z-1.24
X78.575Y48.95Z-1.214
X78.616Y48.979Z-1.229
X78.688Y49.049Z-1.203
X78.719Y49.089Z-1.161
X78.761Y49.118Z-1.177
X78.87Y49.222Z-1.139
X78.889Y49.257Z-1.138
X79.006Y49.369Z-1.134
X79.024Y49.403Z-1.133
X79.142Y49.516Z-1.129
X79.149Y49.53Z-1.143F500
X79.268Y49.661Z-1.138F1000
X79.275Y49.665
X79.404Y49.808Z-1.133
X79.411Y49.812
X79.539Y49.955Z-1.128
X79.547Y49.959
X79.68Y50.108Z-1.133
X79.694Y50.138Z-1.14
X79.79Y50.245Z-1.151
X79.813Y50.299Z-1.155
X79.909Y50.405Z-1.165
X79.933Y50.459Z-1.169
X80.028Y50.566Z-1.179
X80.052Y50.617Z-1.185
X80.148Y50.726Z-1.195
X80.17Y50.776Z-1.198
X80.259Y50.878Z-1.211
X80.288Y50.937Z-1.208
X80.313Y50.963Z-1.226
X80.379Y51.039
X80.408Y51.097Z-1.222
X80.493Y51.188Z-1.231
X80.527Y51.258Z-1.236
X80.613Y51.349Z-1.245
X80.66Y51.444Z-1.27
X80.725Y51.515Z-1.292
X80.773Y51.609Z-1.317
X80.86Y51.705Z-1.382
X80.935Y51.776Z-1.374
X81.028Y51.837Z-1.292
X81.145Y51.905Z-1.163
X81.146Y51.915Z-1.186F500
X81.206Y52.111Z-1.55
X81.303Y52.287Z-1.729
X81.498Y52.509Z-1.932
X81.484Y52.501Z-2
X81.57Y52.767F1000
X81.572Y52.774
X82.033Y52.85
X81.978Y52.805
X81.484Y52.501
G0Z10
X82.024Y52.849
G1Z-1.989F500
X82.134Y53.162Z-0.808F1000
G0Z10
X82.027Y52.846
G1Z-1.988F500
X82.572Y52.804Z-0.593F1000
X82.645Y52.982Z-0.936F500
X82.864Y53.232Z-1.078F1000
X82.943Y53.277Z-1.072
X83.017Y53.361Z-1.066
X83.096Y53.406Z-1.06
X83.17Y53.49Z-1.053
X83.249Y53.535Z-1.048
X83.322Y53.619Z-1.041
X83.402Y53.664Z-1.035
X83.475Y53.748Z-1.028
X83.555Y53.793Z-1.023
X83.602Y53.847Z-1.042
X83.652Y53.885Z-1.044
X83.679Y53.911Z-1.04
X83.757Y53.967Z-1.016
X83.759Y53.97Z-1.02F500
X83.876Y54.082Z-1.01F1000
X83.909Y54.096Z-1.007
X84.028Y54.211Z-0.997
X84.062Y54.225Z-0.995
X84.181Y54.34Z-0.985
X84.215Y54.354Z-0.983
X84.334Y54.469Z-0.973
X84.526Y54.55Z-1.191F500
X84.765Y54.573Z-1.689
X84.798Y54.569Z-1.778
X84.814Z-1.818
X84.849Y54.592Z-1.796F1000
X84.95Y54.696Z-1.79
X84.997Y54.727Z-1.788
X85.098Y54.83Z-1.782
X85.145Y54.862Z-1.78
X85.246Y54.965Z-1.774
X85.293Y54.996Z-1.771
X85.394Y55.1Z-1.766
X85.441Y55.131Z-1.763
X85.528Y55.22
X85.541Y55.235Z-1.754
X85.625Y55.297Z-1.749
X85.689Y55.37Z-1.745
X85.773Y55.432Z-1.741
X85.789Y55.451Z-1.75
X85.86Y55.522Z-1.747
X85.921Y55.567Z-1.733
X85.937Y55.585Z-1.742
X86.028Y55.677Z-1.732
X86.068Y55.702Z-1.73
X86.176Y55.811Z-1.724
X86.215Y55.837Z-1.722
X86.323Y55.946Z-1.716
X86.493Y56.056Z-1.737
X86.692Y56.134Z-1.561
X86.76Y56.148Z-1.459
X86.832Y56.277Z-1.705F500
X86.961Y56.433Z-1.917
X87.071Y56.525Z-1.932F1000
X87.206Y56.599Z-1.984
X87.202Y56.595Z-2F500
X87.199Y56.594F1000
X87.446Y56.77
X87.448Y56.754
X87.452Y56.728
X87.457Y56.702
X87.463Y56.677
X87.473Y56.645
X87.254Y56.608
X87.228Y56.602
X87.202Y56.595
G0Z10
X87.444Y56.64
G1Z-1.903F500
X87.521Y56.575Z-1.711F1000
X88Y56.471Z-0.816
X88.307Y56.716Z-0.829
X88.399Y56.748Z-0.856
X88.419Y56.741Z-0.864
X88.838Y57.005Z-0.547
X88.844Y57.229Z-0.139
X88.878Y57.268Z-0.102
X88.916Y57.299Z-0.095
G0Z10
X88.458Y57.756
G1Z-1.305F500
X88.878Y57.268Z-0.102F1000
G0Z10
X88.458Y57.756
G1Z-1.305F500
X88.532Y57.823Z-1.291F1000
X88.533Y57.824Z-1.29
X88.613Y57.884
X88.656Y57.914Z-1.269
X88.695Y57.961Z-1.264
X88.81Y58.041Z-1.254
X88.849Y58.089Z-1.249
X88.953Y58.161Z-1.23
X89.001Y58.22Z-1.219
X89.105Y58.291Z-1.199
X89.152Y58.35Z-1.188
X89.257Y58.422Z-1.169
X89.318Y58.499Z-1.167
X89.404Y58.557Z-1.165
X89.465Y58.635Z-1.163
X89.551Y58.693Z-1.161
X89.611Y58.771Z-1.16
X89.698Y58.829Z-1.158
X89.758Y58.906Z-1.156
X89.844Y58.965Z-1.154
X89.905Y59.042Z-1.152
X89.991Y59.101Z-1.15
X90.052Y59.178Z-1.148
X90.138Y59.236Z-1.147
X90.199Y59.314Z-1.145
X90.285Y59.372Z-1.143
X90.345Y59.45Z-1.141
X90.432Y59.508Z-1.139
X90.492Y59.585Z-1.137
X90.555Y59.627Z-1.153
X90.641Y59.719Z-1.143
X90.682Y59.742Z-1.142
X90.738Y59.802Z-1.16
X90.812Y59.869Z-1.156
X90.829Y59.878Z-1.138
X90.885Y59.938Z-1.157
X90.973Y60.017Z-1.151
X90.977Y60.025Z-1.15
X91.119Y60.153Z-1.147
X91.124Y60.161
X91.266Y60.289Z-1.143
X91.271Y60.296
X91.413Y60.424Z-1.14
X91.418Y60.432
X91.56Y60.56Z-1.136
X91.565Y60.568
X91.707Y60.696Z-1.133
X91.711Y60.704Z-1.132
X91.854Y60.832Z-1.129
X91.858Y60.84
X92Y60.967Z-1.125
X92.005Y60.975
X92.154Y61.109Z-1.132
X92.197Y61.128Z-1.147
X92.313Y61.232Z-1.196
X92.355Y61.251Z-1.211
X92.472Y61.354Z-1.26
X92.514Y61.374Z-1.275
X92.646Y61.49Z-1.194
X92.711Y61.575Z-1.039
X92.771Y61.665Z-0.856
X92.807Y61.745Z-0.664
X92.931Y61.738Z-0.916F500
X93.145Y61.777Z-1.186
X93.397Y61.904Z-1.119F1000
X93.557Y62.053Z-0.774
X93.559Y62.056Z-0.767
X93.776Y62.031Z-1.106F500
X93.938Y62.059Z-1.179F1000
X94.089Y62.117Z-1.201
X94.296Y61.505Z-0.206
X94.327Y61.487Z-0.329F500
X94.36Y61.496Z-0.381
X94.366Y61.495Z-0.4
X94.584Y61.527Z-0.824
X94.757Y61.629Z-0.883F1000
X94.883Y61.801Z-1.16F500
X94.963Y62.037Z-1.734
X94.969Y62.036Z-1.719F1000
X95.21Y62.032Z-1.215
X95.411Y62.091Z-0.963
X95.43Y62.105Z-0.905
X95.623Y62.132Z-0.685
X95.763Y62.237Z-0.622
X95.793Z-0.662F500
X95.968Y62.334Z-0.611F1000
X96.034Y62.451Z-0.789F500
X96.103Y62.509Z-0.893
X96.211Y62.716Z-1.347
X96.25Y62.901Z-1.756
X96.311Y62.938Z-1.683F1000
X96.461Y63.076Z-1.331
X96.515Y63.147Z-1.125
X96.602Y63.139Z-1.238F500
X96.78Y63.142Z-1.402
X96.984Y63.192Z-1.371F1000
X97.122Y63.269Z-1.315
X97.165Y63.279Z-1.298
X97.303Y63.356Z-1.242
X97.5Y63.4Z-1.248
X97.649Y63.392Z-1.069
X97.772Y63.375Z-0.882
X97.797Y63.384Z-0.889
X97.874Y63.396Z-0.852
X98.166Y63.032Z-0.317
X98.601Y62.947Z-0.006
X98.744Y63.667Z-1.856F500
Z-2
X98.724Y63.686F1000
X98.705Y63.703
X98.699Y63.708
X98.899Y63.852
X98.9Y63.825
X98.901Y63.799
X98.904Y63.773
X98.909Y63.743
X98.744Y63.667
X98.89Y63.734Z-1.963
X99.335Y63.582Z-0.771
X99.384Y63.49Z-0.644
X99.712Y63.352Z-0.3
X99.73Y63.045Z-1.26F500
X100.107Y63.033Z-0.688F1000
X100.173Y63.023Z-0.556
X100.396Y63.417Z-1.359F500
X100.537Y63.497Z-1.692
X100.945Y63.335Z-0.922F1000
X101.194Y63.517Z-1.474F500
X101.336Y63.575Z-1.611
X101.49Y63.433Z-1.124F1000
X101.684Y63.346Z-0.86
X101.847Y63.344Z-0.75
X101.882Y63.318Z-0.802F500
X102.079Y63.274Z-0.712F1000
X102.136Y63.289
X102.181Y63.279Z-0.735
X102.28Y63.258Z-0.714
X102.335Y63.273Z-0.712
X102.38Y63.263Z-0.736
X102.48Y63.242Z-0.714
X102.535Y63.257
X102.679Y63.225
X102.731Y63.24Z-0.718
X102.879Y63.21Z-0.717
X102.928Y63.224
X103.125Y63.184Z-0.806
X103.315Y63.045Z-1.266F500
X103.336Y63.017Z-1.365
X103.461Y62.907Z-1.24F1000
X103.503Y62.892Z-1.176
X103.549Y62.863Z-1.062
X103.95Y63.038Z-1.433F500
X104.005Y63.032Z-1.504
X104.148Y62.941Z-1.119F1000
X104.165Y62.917Z-1.016
X104.005Y63.032Z-1.504F500
X104.122Y63.199Z-0.984F1000
X104.205Y63.387Z-0.516
X104.213Y63.62Z-0.372
X104.169Y63.699Z-0.149
X104.497Y63.956Z-0.403F500
G0Z10
X105.941Y63.392
G1Z-0.213
X106.27Y63.349Z-0.959
X106.443Y63.524Z-1.559
X106.587Y63.615Z-1.841
X106.887Y63.514Z-1.756F1000
X106.951Y63.539Z-1.627
X107.124Y63.658Z-1.396
X107.313Y63.878Z-1.036
X107.334Y63.922Z-0.93
X107.339Y63.927Z-0.92
X107.508Y63.954Z-1.122F500
X107.692Y64.043Z-1.088F1000
X107.77Y64.12Z-1.093
X107.847Y64.199Z-1.028
X107.945Y64.398Z-0.66
X107.976Y64.536Z-0.32
X108.21Y64.524Z-0.884F500
X108.412Y64.565Z-1.214
X108.588Y64.659Z-1.302F1000
X108.631Y64.701Z-1.334
X108.713Y64.746Z-1.398F500
X108.801Y64.81Z-1.446F1000
X108.841Y64.825Z-1.47
X108.971Y64.919Z-1.555
X109.011Y64.936Z-1.578
X109.141Y65.029Z-1.664
X109.25Y65.075Z-1.763F500
X109.294Y65.106Z-1.823
X109.385Y65.153Z-1.91
X109.431Y65.173Z-1.936F1000
X109.475Y65.203Z-1.994F500
X109.48Y65.206F1000
X109.477Y65.203Z-2F500
X109.775Y65.463F1000
X109.774Y65.441
X109.773Y65.414
X109.774Y65.388
X109.776Y65.362
X109.779Y65.336
X109.784Y65.31
X109.789Y65.289
X109.477Y65.203
G0Z10
X109.784Y65.288
G1Z-1.919F500
X109.821Y65.263Z-1.874F1000
X110.056Y65.163Z-1.285
X110.27Y65.138Z-0.983
X110.419Y65.176Z-0.833
X110.715Y65.076Z-0.612
X110.842Y64.981Z-0.258
X110.859Y64.982Z-0.26
X111.089Y64.685Z-0.042
X111.099Y64.662Z-0.136F500
X111.25Y64.628Z-0.494
X111.449Y64.682Z-0.53F1000
X111.586Y64.848Z-0.827F500
X111.647Y65.065Z-1.433
X111.689Y65.077Z-1.397F1000
X111.697Y65.082Z-1.389
X111.832Y65.12Z-1.281
X111.893Y65.146Z-1.204
X111.929Y65.15Z-1.199
X112.028Y65.177Z-1.119
X112.162Y65.237Z-1.051
X112.312Y65.379Z-0.698
X112.344Y65.432Z-0.538
X112.524Y65.407Z-0.814F500
X112.853Y65.482Z-0.999F1000
X112.881Y65.499Z-1.036F500
X113.093Y65.546Z-1.356
X113.349Y65.533Z-1.951
X113.365Y65.529Z-1.957F1000
X113.359Y65.524Z-2F500
X114.099Y66.054F1000
X114.104Y66.033
X114.112Y66.008
X114.121Y65.983
X114.132Y65.959
X114.143Y65.935
X114.156Y65.912
X114.17Y65.89
X114.186Y65.867
X113.463Y65.357
X113.379Y65.496
X113.364Y65.518
X113.359Y65.524
G0Z10
X114.182Y65.863
G1Z-1.921F500
X114.216Y65.855Z-1.9F1000
X114.482Y65.845Z-1.309
X114.688Y65.895Z-1.042
X114.856Y66.005Z-0.947
X114.971Y66.159Z-0.574
X115.002Y66.23Z-0.371
X115.157Y66.206Z-0.669F500
X115.37Y66.247Z-0.741F1000
X115.505Y66.351Z-0.74
X115.545Y66.359Z-0.743
X115.674Y66.458Z-0.754
X115.714Y66.466Z-0.757
X115.765Y66.504Z-0.782
X115.843Y66.564Z-0.767
X115.883Y66.572Z-0.77
X115.995Y66.658Z-0.787
X116.01Y66.674Z-0.766
X116.084Y66.704Z-0.8
X116.164Y66.765
X116.179Y66.781Z-0.78
X116.27Y66.817Z-0.767
X116.298Y66.815Z-0.742
X116.464Y66.884Z-0.597
X116.493Y66.88Z-0.57
X116.637Y66.943Z-0.45
X116.82Y66.913Z-0.089
X116.77Y67.369Z-0.271
X116.907Y67.576Z-1.157F500
X116.949Y67.567Z-1.167F1000
X117.061Y67.566Z-1.282F500
X117.152Y67.55Z-1.322F1000
X117.364Y67.563Z-1.326
X117.667Y67.797Z-1.116
X117.858Y67.759Z-1.404F500
X117.933Y67.782Z-1.311F1000
X117.946Z-1.268
G0Z10
X116.637Y67.85
G1Z-1.834F500
X116.907Y67.576Z-1.157F1000
G0Z10
X116.637Y67.85
G1Z-1.834F500
X116.746Y68.06Z-1.187F1000
X116.752Y68.126Z-0.95
G0Z10
X115.055Y67.307
G1Z-1.706F500
X115.163Y67.368Z-1.617F1000
X115.197Y67.378Z-1.604
X115.281Y67.421Z-1.546
X115.365Y67.457Z-1.472
X115.397Y67.482Z-1.445
X115.548Y67.546Z-1.335
X115.58Y67.571Z-1.307
X115.766Y67.649Z-1.216
X116.117Y67.683Z-1.251
X116.276Y67.864Z-1.216
X116.637Y67.85Z-1.834F500
G0Z10
X114.636Y66.845
G1Z-0.949
X114.637Z-0.951
X114.802Y66.932Z-1.132
X114.943Y67.078Z-1.261
X115.046Y67.276Z-1.63
X115.055Y67.307Z-1.706
G0Z10
X114.216Y67.241
G1Z-0.211
X114.636Y66.845Z-0.949
G0Z10
X114.216Y67.241
G1Z-0.211
X114.3Y67.325Z-0.521
X114.489Y67.424Z-0.89
X114.688Y67.443Z-0.936F1000
X114.956Y67.366Z-1.416F500
X115.055Y67.307Z-1.706
G0Z10
X114.991Y66.259
G1Z-0.255
X115.002Y66.23Z-0.371
G0Z10
X114.098Y66.053
G1Z-1.887
X114.153Y66.192Z-1.697F1000
X114.263Y66.356Z-1.348
X114.267Y66.377Z-1.337
X114.364Y66.585Z-0.966
X114.636Y66.845Z-0.949
G0Z10
X111.574Y65.092
G1Z-1.304F500
X111.647Y65.065Z-1.433
G0Z10
X111.089Y64.685
G1Z-0.042
X111.574Y65.092Z-1.304
G0Z10
X110.859Y64.982
G1Z-0.26
X110.918Y65.04Z-0.478
X111.101Y65.143Z-0.859
X111.2Y65.162Z-0.928
X111.299Y65.176Z-0.931F1000
X111.493Y65.138Z-1.127F500
X111.574Y65.092Z-1.304
G0Z10
X110.211Y65.902
G1Z-1.602
X110.48Y65.595Z-0.079F1000
X110.419Y65.176Z-0.833F500
G0Z10
X109.769Y65.458
G1Z-1.974
X109.864Y65.618Z-1.783F1000
X110Y65.766Z-1.699
X110.164Y65.882Z-1.661
X110.211Y65.902Z-1.602
X110.268Y65.977Z-1.674F500
X110.274Y65.993Z-1.692
X110.39Y66.173Z-1.413F1000
X110.506Y66.278Z-1.345
X110.635Y66.364Z-1.192
X110.662Y66.373Z-1.136
X110.766Y66.523Z-1.166
X110.925Y66.646Z-1.139
X111.008Y66.675Z-1.13
X111.125Y66.764Z-0.875
X111.193Y66.751Z-0.964F500
X111.4Y66.776Z-0.929F1000
X111.496Y66.829Z-0.926
X111.52Y66.843Z-0.906
X111.594Y66.854Z-0.902
X111.682Y66.903Z-0.897
X111.706Y66.917Z-0.876
X111.789Y66.929Z-0.864
X111.88Y66.983Z-0.857
X111.976Y67.002Z-0.833
X112.051Y67.054Z-0.82
X112.205Y67.083Z-0.854
X112.244Y67.109Z-0.865
X112.397Y67.139Z-0.899
X112.437Y67.164Z-0.91
X112.579Y67.192Z-0.93
X112.591Y67.19Z-0.927
X112.776Y67.226Z-0.891
X112.788Y67.224Z-0.889
X112.972Y67.26Z-0.854
X112.974Y67.261Z-0.851
X113.158Y67.287Z-0.815
X113.171Y67.295Z-0.812
X113.356Y67.321Z-0.777
X113.368Y67.329Z-0.774
X113.529Y67.351Z-0.746
X113.555Y67.347Z-0.71
X113.687Y67.392Z-0.683
X113.893Y67.356Z-0.641
X114.106Y67.221Z-0.137
X114.11Y67.223Z-0.145F500
X114.216Y67.241Z-0.211
G0Z10
X109.868Y63.979
G1Z-0.451
X110.034Y64.105Z-0.609
X110.138Y64.116Z-0.599F1000
X110.22Y64.179Z-0.589
X110.324Y64.189Z-0.579
X110.406Y64.253Z-0.57
X110.51Y64.262Z-0.56
X110.592Y64.327Z-0.55
X110.614Y64.329Z-0.572F500
X110.714Y64.349Z-0.563F1000
X110.778Y64.401Z-0.53
X110.8Y64.403Z-0.553F500
X110.922Y64.427Z-0.527F1000
X111.072Y64.585Z-0.349
X111.099Y64.662Z-0.136
G0Z10
X110.261Y62.848
G1Z-1.721F500
X110.417Y62.926Z-1.733F1000
X110.523Y62.954Z-1.61
X110.593Y63.021Z-1.681F500
X110.761Y63.123Z-1.64F1000
X110.765Y63.127Z-1.638
X110.932Y63.229Z-1.554
X110.936Y63.233Z-1.551
X111.103Y63.335Z-1.467
X111.133Y63.365Z-1.456
X111.269Y63.448Z-1.414
X111.298Y63.479Z-1.402
X111.435Y63.561Z-1.36
X111.464Y63.592Z-1.349
X111.583Y63.663Z-1.317
X111.602Y63.672Z-1.299
X111.692Y63.751Z-1.267
X111.768Y63.785Z-1.245
X111.858Y63.864Z-1.213
X111.933Y63.898Z-1.191
X112.023Y63.977Z-1.159
X112.096Y64.009Z-1.14
X112.189Y64.09Z-1.106
X112.259Y64.12Z-1.085
X112.381Y64.228Z-1.081
X112.417Y64.242Z-1.08
X112.539Y64.351Z-1.075
X112.575Y64.365Z-1.074
X112.664Y64.444Z-1.081
X112.734Y64.486Z-1.058
X112.784Y64.545Z-1.056
X112.892Y64.609Z-1.052
X112.941Y64.668Z-1.05
X113.05Y64.732Z-1.046
X113.099Y64.791Z-1.044
X113.208Y64.855Z-1.041
X113.35Y65.026Z-1.234F500
X113.442Y65.243Z-1.698
X113.463Y65.357Z-1.863
G0Z10
X109.499Y62.607
G1Z-0.653
X109.527Y62.526Z-0.33F1000
X110.039Y62.469Z-0.41
X110.238Y62.681Z-1.163F500
X110.261Y62.848Z-1.721
G0Z10
X109.499Y62.607
G1Z-0.653
X109.635Y62.754Z-1.001
X109.812Y62.85Z-1.064F1000
X110.017Y62.883Z-1.278F500
X110.24Y62.855Z-1.727
X110.261Y62.848Z-1.721F1000
G0Z10
X108.937Y62.619
G1Z-1.461F500
X108.984Y62.616Z-1.374F1000
X109.259Y62.674Z-1.142
X109.499Y62.607Z-0.653
G0Z10
X108.598Y63.32
G1Z-1.511F500
X108.743Y63.142Z-1.151F1000
X108.747Y62.984Z-1.179
X108.937Y62.619Z-1.461F500
G0Z10
X108.598Y63.32
G1Z-1.511
X108.703Y63.501Z-1.014F1000
X108.867Y63.636Z-0.751
X108.95Y63.655Z-0.643
X109.037Y63.754Z-0.555
X109.23Y63.806Z-0.565
X109.468Y63.739Z-0.053
G0Z10
X108.238Y63.331
G1Z-0.687F500
X108.295Y63.302Z-0.909
X108.554Y63.327Z-1.43
X108.598Y63.32Z-1.511
G0Z10
X107.2Y64.56
G1Z-0.293
X107.339Y63.927Z-0.92
G0Z10
X107.2Y64.56
G1Z-0.293
X107.261Y64.638Z-0.294F1000
X107.945Y64.578Z-0.124
X107.976Y64.536Z-0.32F500
G0Z10
X107.261Y64.638
G1Z-0.294
X107.259Y64.652Z-0.332
X107.281Y64.885Z-0.803
X107.367Y65.071Z-0.909F1000
X107.597Y65.284Z-0.696
X107.583Y65.348Z-0.638
X107.741Y65.486Z-0.586
G0Z10
X108.388Y66.919
G1Z-1.376F500
X108.801Y67.05Z-0.712F1000
G0Z10
X106.738Y64.188
G1Z-0.918F500
X107.334Y63.922Z-0.93F1000
G0Z10
X106.738Y64.188
G1Z-0.918F500
X106.766Y64.277Z-0.893F1000
X106.89Y64.429Z-0.899
X107.082Y64.534Z-0.578
X107.2Y64.56Z-0.293
G0Z10
X106.587Y63.615
G1Z-1.841F500
X106.577Y63.673Z-1.681F1000
X106.592Y63.913Z-1.188
X106.666Y64.107Z-0.973
X106.738Y64.188Z-0.918
G0Z10
X106.671Y62.865
G1Z-0.535F500
X106.822Y63.001Z-0.76
X106.899Y63.195Z-0.983
X106.902Y63.385Z-1.414
X106.887Y63.514Z-1.756
G0Z10
X105.101Y65.595
G1Z-1.637
X105.252Y65.328Z-1.091F1000
X105.269Y65.228Z-0.937
X105.232Y65.111Z-0.543
G0Z10
X105.101Y65.595
G1Z-1.637F500
X105.16Y65.673Z-1.493F1000
X105.318Y65.8Z-1.374
X105.469Y65.866Z-1.208
X105.491Y65.901Z-1.249F500
X105.628Y66.027Z-1.195F1000
X105.794Y66.105Z-1.193
X105.807Y66.117
X105.972Y66.195Z-1.191
X105.975Y66.197Z-1.195F500
X106.139Y66.283Z-1.193F1000
X106.151Y66.285
X106.257Y66.341Z-1.196
X106.316Y66.377Z-1.175
X106.347Y66.384Z-1.192
X106.436Y66.431Z-1.194
X106.494Y66.467Z-1.173
X106.546Y66.479
X106.637Y66.534Z-1.145
X106.731Y66.557Z-1.119
X106.822Y66.613Z-1.091
X106.967Y66.646Z-1.092
X107.07Y66.653Z-0.997
X107.179Y66.643Z-0.838
X107.322Y66.613Z-0.563
X107.337Y66.638Z-0.634F500
X107.494Y66.799Z-1.023
X107.671Y66.898Z-1.108F1000
X107.956Y66.951Z-1.082
X108.176Y67.086Z-0.669
X108.388Y66.919Z-1.376F500
G0Z10
X102.769Y62.566
G1Z-0.286
X103.461Y62.907Z-1.24
G0Z10
X101.336Y63.575
G1Z-1.611
X101.36Y63.629Z-1.494F1000
X101.441Y63.731Z-1.345
X101.527Y63.825Z-1.229
X101.687Y63.921Z-1.134
X101.694Y63.935Z-1.151F500
X101.841Y64.075Z-1.106F1000
X101.996Y64.148Z-1.132
X102.209Y64.175Z-0.862
X102.367Y64.156Z-0.527
X102.374Y64.172Z-0.567F500
X102.457Y64.32Z-0.919
X102.603Y64.471Z-1.171
X102.779Y64.567Z-1.179F1000
X102.795Y64.57Z-1.18
X102.937Y64.647Z-1.171
X102.976Y64.654Z-1.168
X103.118Y64.731Z-1.159
X103.158Y64.738Z-1.157
X103.282Y64.806Z-1.153
X103.34Y64.82Z-1.136
X103.376Y64.843Z-1.153
X103.464Y64.89Z-1.142
X103.522Y64.905Z-1.124
X103.626Y64.97Z-1.117
X103.671Y64.981Z-1.138
X103.761Y65.025Z-1.135
X103.807Y65.055Z-1.106
X103.852Y65.066Z-1.127
X103.991Y65.134Z-1.116
X104.005Y65.136Z-1.115
X104.184Y65.224Z-1.121
X104.196Y65.236Z-1.123
X104.361Y65.318Z-1.147
X104.373Y65.329Z-1.149
X104.538Y65.411Z-1.172
X104.55Y65.423Z-1.175
X104.664Y65.479Z-1.203
X104.758Y65.516Z-1.257
X104.863Y65.534Z-1.348F500
X104.872Z-1.351F1000
X104.984Y65.579Z-1.47F500
X105.101Y65.595Z-1.637
G0Z10
X100.499Y65.977
G1Z-1.883
X100.573Y65.848Z-1.68F1000
X100.638Y65.641Z-1.37
X100.645Y65.45Z-1.186
G0Z10
X100.499Y65.976
G1Z-2F500
X100.483Y65.982F1000
X100.459Y65.991
X100.433Y65.999
X100.408Y66.005
X100.382Y66.01
X100.37Y66.012
X100.527Y66.275
X100.499Y65.976
G0Z10
X100.526Y66.275
G1Z-1.985F500
X100.53Y66.297Z-1.97F1000
X100.577Y66.424Z-1.862
X100.592Y66.493Z-1.793
X100.636Y66.594Z-1.702
X100.655Y66.688Z-1.622
X100.7Y66.789Z-1.531
X100.737Y66.987Z-1.129
X100.73Y67.09Z-0.846
X100.843Y67.178Z-0.934F500
X100.916Y67.285Z-0.751F1000
G0Z10
X99.855Y65.432
G1Z-1.23F500
X100.12Y65.248Z-0.028F1000
X100.645Y65.45Z-1.186F500
G0Z10
X99.855Y65.432
G1Z-1.23
X99.986Y65.704Z-1.358F1000
X100.12Y65.857Z-1.493F500
X100.294Y65.979Z-1.82
X100.37Y66.013Z-1.942
G0Z10
X100.537Y63.497
G1Z-1.692
X100.528Y63.819Z-1.294F1000
X100.553Y63.915Z-1.274
X100.55Y64.018Z-1.253
X100.576Y64.114Z-1.233
X100.572Y64.217Z-1.213
X100.598Y64.313Z-1.193
Y64.33Z-1.199
X100.599Y64.448Z-1.169
X100.62Y64.512Z-1.155
X100.621Y64.647Z-1.128
X100.628Y64.669Z-1.142F500
X100.651Y64.826Z-1.108F1000
X100.647Y64.845Z-1.104
X100.673Y65.025Z-1.067
X100.669Y65.044Z-1.063
X100.695Y65.224Z-1.027
X100.651Y65.439Z-1.192F500
X100.645Y65.45Z-1.186F1000
G0Z10
X98.831Y63.803
G1Z-1.949F500
X98.844Y63.868Z-1.829F1000
X99.091Y64.113Z-1.58
X99.198Y64.284Z-1.481
X99.259Y64.475Z-1.229
X99.262Y64.514Z-1.15
X99.347Y64.585Z-1.232F500
X99.421Y64.661Z-1.275F1000
X99.478Y64.745Z-1.24
X99.541Y64.866Z-1.211
X99.579Y65.069Z-1.042
X99.561Y65.307Z-0.596
X99.855Y65.432Z-1.23F500
G0Z10
X97.874Y63.396
G1Z-0.852
X97.968Y63.499Z-1.129
X98.138Y63.617Z-1.379
X98.326Y63.685Z-1.411F1000
X98.714Y63.719Z-1.943F500
G0Z10
X99.04Y62.387
G1Z-0.266
X99.448Y62.73Z-0.92
X99.476Y62.732Z-0.864F1000
X99.637Y62.991Z-1.155F500
X99.73Y63.045Z-1.26
G0Z10
X98.162Y61.44
G1Z-0.022
X98.183Y61.275Z-0.139
G0Z10
X95.348Y62.757
G1Z-1.197
X95.464Y62.573Z-0.384F1000
X95.43Y62.105Z-0.905F500
G0Z10
X95.348Y62.757
G1Z-1.197
X95.349Y62.758Z-1.198
X95.436Y62.822Z-1.227F1000
X95.553Y62.893Z-1.162
X95.747Y62.94Z-1.16
X95.844Y62.933Z-1.245F500
X95.951Y62.946Z-1.314
X96.25Y62.901Z-1.756
G0Z10
X94.787Y62.333
G1Z-1.952
X94.904Y62.117Z-1.754F1000
X94.963Y62.037Z-1.734
G0Z10
X94.787Y62.333
G1Z-1.952F500
X94.854Y62.538Z-1.579F1000
X94.942Y62.614Z-1.604
X95.124Y62.711Z-1.451
X95.25Y62.741Z-1.341
X95.348Y62.757Z-1.197
G0Z10
X94.089Y62.117
G1Z-1.201F500
X94.256Y62.247Z-1.123F1000
X94.269Y62.265Z-1.091
X94.787Y62.333Z-1.952F500
G0Z10
X93.672Y59.78
G1Z-0.393
X93.841Y59.888Z-0.438F1000
X93.888Y60.041Z-0.435
X94.278Y60.156Z-0.47
Y60.171Z-0.519F500
X94.344Y60.305Z-0.84
X94.485Y60.456Z-1.05
X94.638Y60.536Z-0.949F1000
X94.653Y60.564Z-0.987F500
X94.744Y60.644Z-0.913F1000
X94.802Y60.688Z-0.775
X94.811Y60.724Z-0.792
X94.873Y60.813Z-0.705
X94.953Y60.909Z-0.567
X95.07Y60.944Z-0.646F500
X95.135Y60.995Z-0.661F1000
X95.282Y61.019Z-0.762F500
X95.331Y61.06Z-0.85
X95.53Y61.121Z-0.598F1000
X95.678Y61.114Z-0.225
X95.758Y61.49Z-0.226
X95.952Y61.488Z-0.547F500
X96.011Y61.477Z-0.546F1000
X96.195Y61.559Z-0.463
X96.216Y61.6Z-0.471
X96.363Y61.667Z-0.495
X96.385Y61.708Z-0.503
X96.532Y61.775Z-0.527
X96.555Y61.815Z-0.535
X96.7Y61.883Z-0.559
X96.724Y61.922Z-0.566
X96.842Y61.978Z-0.599
X96.889Y62.033Z-0.578
X96.92Y62.042Z-0.616F500
X96.983Y62.073Z-0.639F1000
X97.01Y62.086Z-0.63
X97.058Y62.14Z-0.61
X97.158Y62.171Z-0.625
X97.226Y62.247Z-0.641
X97.326Y62.279Z-0.657
X97.395Y62.354Z-0.673
X97.494Y62.387Z-0.689
X97.564Y62.461Z-0.704
X97.663Y62.495Z-0.72
X97.733Y62.568Z-0.735
X97.929Y62.637Z-0.538
X97.971Y62.636Z-0.431
X98.166Y63.032Z-0.317
G0Z10
X95.819Y58.637
G1Z-0.193F500
X95.828Y58.64Z-0.205
X95.83Y58.641Z-0.198F1000
G0Z10
X95.385Y57.41
G1Z-0.4F500
X95.775Y56.907Z-0.151F1000
X95.764Y56.834Z-0.409F500
X95.797Y56.68Z-0.998
X95.948Y56.534Z-1.65
X95.956Y56.533Z-1.659
X96.209Y56.563Z-1.625F1000
X96.408Y56.544Z-1.267
X96.409Z-1.268F500
X96.571Y56.632Z-1.329F1000
X96.733Y56.688Z-1.229
X96.933Y56.696Z-0.945
X97.03Y56.67Z-0.685
X97.133Y56.766Z-0.814F500
X97.263Y56.816Z-0.544F1000
G0Z10
X95.385Y57.41
G1Z-0.4F500
X95.41Y57.547Z-0.021F1000
X95.55Y57.524Z-0.378F500
X95.733Y57.556Z-0.652
X95.822Y57.604Z-0.675F1000
X95.9Y57.667Z-0.683
X95.977Y57.793Z-0.676
X96.005Y57.801Z-0.743F500
X96.134Y57.909Z-0.817F1000
X96.167Y57.918Z-0.813
X96.296Y58.027Z-0.792
X96.344Y58.04
X96.462Y58.139Z-0.793
X96.509Y58.152
X96.628Y58.251
X96.675Y58.263
X96.793Y58.363Z-0.794
X96.841Y58.375
X96.893Y58.419Z-0.821
X96.974Y58.479Z-0.813
X97.007Y58.487Z-0.794
X97.059Y58.531Z-0.821
X97.151Y58.599Z-0.811
X97.17Y58.603
X97.317Y58.711Z-0.812
X97.335Y58.715
X97.482Y58.823
X97.501Y58.827
X97.648Y58.935Z-0.813
X97.667Y58.939
X97.814Y59.047
X97.833Y59.051
X97.98Y59.159Z-0.814
X97.998Y59.163
X98.146Y59.272Z-0.816
X98.164Y59.275
X98.26Y59.346Z-0.826
X98.308Y59.388Z-0.798
X98.364Y59.405
X98.474Y59.501Z-0.8
X98.53Y59.517Z-0.801
X98.639Y59.613Z-0.802
X98.695Y59.629Z-0.803
X98.805Y59.725Z-0.804
X98.86Y59.742Z-0.805
X98.923Y59.796Z-0.835
X99.023Y59.858Z-0.826
X99.035Y59.875
X99.189Y59.971Z-0.828
X99.2Y59.988
X99.354Y60.083Z-0.83
X99.366Y60.1Z-0.831
X99.52Y60.195Z-0.832
X99.531Y60.213Z-0.833
X99.685Y60.308Z-0.835
X99.697Y60.325
X99.85Y60.42Z-0.837
X99.862Y60.437
X100.013Y60.53Z-0.833
X100.017Y60.531
X100.184Y60.634Z-0.797
X100.225Y60.639Z-0.803
X100.32Y60.698Z-0.832
X100.404Y60.727Z-0.816
X100.452Y60.771Z-0.824
X100.583Y60.817Z-0.841
X100.63Y60.861Z-0.848
X100.707Y60.888Z-0.886
X100.795Y60.938Z-0.891
X100.809Y60.951Z-0.873
X100.886Y60.978Z-0.909
X100.957Y61.018Z-0.867
X101.022Y61.025Z-0.855
X101.142Y61.094Z-0.829
X101.207Y61.1Z-0.817
X101.249Y61.124Z-0.833
X101.348Y61.176Z-0.796
X101.431Y61.179Z-0.808
X101.54Y61.235Z-0.826
X101.622Y61.239Z-0.838
X101.731Y61.293Z-0.855
X101.813Y61.298Z-0.867
X101.95Y61.366Z-0.811
X102.079Y61.464Z-0.562
X102.147Y61.558Z-0.278
X102.278Y61.497Z-0.608F500
X102.67Y61.451Z-0.893
X102.7Y61.471Z-0.822F1000
X102.947Y61.418Z-0.823
X103.111Y61.297Z-0.589
X103.121Y61.282Z-0.541
X103.271Y61.287Z-0.691F500
X103.372Y61.267Z-0.645F1000
X103.461Y61.222Z-0.422
X103.482Y61.203Z-0.34
X103.644Y61.263Z-0.268
X103.813Y61.15Z-0.391F500
X103.84Y61.028Z-0.507
X103.949Y60.968Z-0.758
X104.028Y60.86Z-0.537F1000
X104.231Y60.879Z-0.869F500
X104.31Y60.92Z-0.69F1000
X104.434Y60.876Z-0.768F500
X104.633Y60.899Z-0.725F1000
X104.815Y61.021Z-0.47
X104.852Y61.071Z-0.316
X104.98Y61.02Z-0.601F500
X105.084Y61.005Z-0.736
X105.185Y61.008Z-0.771F1000
X105.34Y61.06Z-0.847
X105.516Y61.217Z-0.592
Y61.218Z-0.589
X105.723Y61.192Z-1.002F500
X105.874Y61.223Z-1.07F1000
X106.049Y61.327Z-1.212F500
X106.063Y61.342Z-1.203F1000
X106.252Y61.355Z-1.079
X106.397Y61.416Z-0.876
X106.447Y61.401Z-0.926F500
X106.622Y61.411Z-0.831F1000
X106.715Y61.446Z-0.838
X106.804Y61.495Z-0.788
X106.938Y61.625Z-0.511
X107.023Y61.781Z-0.078
X107.11Y61.739Z-0.341F500
X107.336Y61.696Z-0.792
X107.506Y61.727Z-0.832F1000
X107.629Y61.81Z-0.849
X107.683Y61.821Z-0.855
X107.806Y61.904Z-0.871
X107.86Y61.914Z-0.878
X107.899Y61.941Z-0.902
X107.983Y61.997Z-0.894
X108.037Y62.008Z-0.901
X108.16Y62.091Z-0.917
X108.213Y62.102Z-0.924
X108.337Y62.184Z-0.94
X108.349Y62.187Z-0.954F500
X108.494Y62.254Z-0.969F1000
X108.613Y62.377Z-1.019
X108.652Y62.386Z-1.094F500
X108.823Y62.49Z-1.219
X108.937Y62.619Z-1.461
G0Z10
X94.869Y56.664
G1Z-1.519
X95.407Y56.608Z-0.918F1000
X95.797Y56.68Z-0.998
G0Z10
X94.869Y56.664
G1Z-1.519F500
X94.86Y56.77Z-1.185F1000
X94.832Y56.898Z-0.741
X95.28Y57.219Z-0.78
X95.385Y57.41Z-0.4
G0Z10
X94.788Y56.441
G1Z-2F500
X94.786Y56.421F1000
X94.784Y56.395
X94.783Y56.368
Y56.342
X94.785Y56.315
X94.789Y56.289
X94.793Y56.263
X94.799Y56.237
X94.806Y56.212
X94.814Y56.187
X94.825Y56.158
X94.512Y56.044
X94.344Y55.988
X94.401Y56.069
X94.697Y56.371
X94.788Y56.441
X94.77Y56.427Z-1.779
X94.869Y56.664Z-1.519
G0Z10
X94.822Y56.156
G1Z-1.906F500
X95.005Y56.089Z-1.529F1000
X95.024Y56.078Z-1.466
X95.262Y56.007Z-0.914
X95.381Y56.019Z-0.804
X95.481Y56.036Z-0.738
X95.568Y56.092Z-0.824F500
X95.664Y56.165Z-0.957
X95.666Y56.169Z-0.966
X95.822Y56.317Z-1.289
X95.948Y56.534Z-1.65
G0Z10
X92.628Y58.923
G1Z-0.188
X92.638Y58.929Z-0.226
X92.639Z-0.229
X92.649Y58.923Z-0.191F1000
G0Z10
X92.322Y59.807
G1Z-0.29F500
X92.41Y60.01Z-0.576
X92.56Y60.11Z-0.622F1000
X92.562Y60.114
X92.726Y60.222Z-0.635
X92.728Y60.226
X92.891Y60.335Z-0.648
X92.893Y60.339
X93.057Y60.447Z-0.661
X93.059Y60.451Z-0.662
X93.217Y60.556Z-0.675
X93.223Y60.557Z-0.665
X93.372Y60.667Z-0.677
X93.389Y60.67Z-0.678
X93.538Y60.78Z-0.69
X93.554Y60.782Z-0.692
X93.703Y60.892Z-0.704
X93.72Y60.894Z-0.705
X93.869Y61.004Z-0.717
X93.885Y61.007Z-0.718
X94.034Y61.117Z-0.731
X94.051Y61.119Z-0.732
X94.212Y61.238Z-0.773
X94.284Y61.374Z-0.552
X94.327Y61.487Z-0.329
G0Z10
X91.911Y58.06
G1Z-0.207F500
X91.913Z-0.211
X91.918Y58.054Z-0.216
G0Z10
X89.556Y57.487
G1Z-0.441
X89.625Y57.616Z-0.716
X89.685Y57.697Z-0.855
X89.764Y57.759Z-0.889F1000
X89.889Y57.828Z-0.833
X90.074Y57.858Z-0.526
X90.086Y57.911Z-0.663F500
X90.187Y58.096Z-1.011
X90.304Y58.201Z-1.02F1000
X90.334Y58.213Z-1.011
X90.46Y58.327Z-0.961
X90.49Y58.338Z-0.952
X90.562Y58.403Z-0.94
X90.642Y58.462Z-0.9
X90.647Y58.463Z-0.893
X90.718Y58.528Z-0.883
X90.745Y58.548Z-0.872
X90.814Y58.613Z-0.825
X90.85Y58.625Z-0.813
X90.97Y58.739Z-0.765
X91.007Y58.75Z-0.753
X91.126Y58.865Z-0.706
X91.361Y58.932Z-0.508
X91.476Y58.925Z-0.244
X91.511Y59.064Z-0.602F500
X91.626Y59.236Z-0.837
X91.704Y59.285Z-0.657F1000
X91.723Y59.353Z-0.687
X91.775Y59.446Z-0.61
X91.847Y59.515Z-0.594
X91.987Y59.583Z-0.465
G0Z10
X87.958Y57.337
G1Z-1.338F500
X88.383Y56.844Z-0.504F1000
X88.399Y56.748Z-0.856F500
G0Z10
X87.958Y57.337
G1Z-1.338
X88.059Y57.435Z-1.328F1000
X88.112Y57.464Z-1.323
X88.213Y57.563Z-1.312
X88.266Y57.592Z-1.308
X88.367Y57.69Z-1.297
X88.378Y57.696Z-1.305F500
X88.458Y57.756F1000
G0Z10
X87.734Y57.143
G1Z-1.463F500
X88.307Y56.716Z-0.829F1000
G0Z10
X87.734Y57.143
G1Z-1.463F500
X87.743Y57.158Z-1.465F1000
X87.889Y57.299Z-1.352
X87.958Y57.337Z-1.338
G0Z10
X87.445Y56.77
G1Z-1.977F500
X87.45Y56.781Z-1.975F1000
X87.502Y56.881Z-1.786
X87.597Y57.019Z-1.571
X87.734Y57.143Z-1.463
G0Z10
X86.99Y55.163
G1Z-0.173F500
Y55.165Z-0.169F1000
G0Z10
X86.697Y53.851
G1Z-0.181F500
X86.698Y53.861Z-0.195
G0Z10
X84.677Y53.882
G1Z-0.229
X84.816Y54.334Z-1.174
X84.814Y54.569Z-1.818
G0Z10
X84.309Y52.391
G1Z-0.358
X84.31Y52.465Z-0.533
X84.326Y52.516Z-0.608
X84.596Y52.805Z-0.347F1000
X84.565Y52.895Z-0.481F500
X84.5Y52.925Z-0.446F1000
G0Z10
X83.731Y51.345
G1Z-0.244F500
X83.877Y51.728Z-0.354F1000
G0Z10
X82.815Y51.576
G1Z-0.451F500
X83.01Y51.896Z-0.362F1000
X83.103Z-0.25
G0Z10
X82.441Y51.052
G1Z-0.133F500
X82.439Y51.061Z-0.164
X82.515Y51.235Z-0.276
G0Z10
X81.697Y51.112
G1Z-0.237
X81.743Y51.166Z-0.3
X81.736Y51.216Z-0.196F1000
G0Z10
X82.017Y50.441
G1Z-0.023F500
X82.051Y50.468Z-0.159
G0Z10
X80.96Y50.335
G1Z-0.319
X81.231Y50.529Z-0.07F1000
G0Z10
X79.907Y48.918
G1Z-0.383F500
X80.007Y49.032Z-0.431F1000
X80.122Y49.096Z-0.149
X80.105Y49.149Z-0.293F500
X80.156Y49.357Z-0.307F1000
X80.248Y49.401Z-0.327
X80.279Y49.515Z-0.35
X80.368Y49.561Z-0.369
X80.402Y49.673Z-0.391
X80.489Y49.721Z-0.41
X80.552Y49.912Z-0.252
G0Z10
X80.328Y48.412
G1Z-0.184F500
X80.378Y48.394Z-0.335
X80.426Y48.396Z-0.208F1000
X80.441Y48.37Z-0.24F500
G0Z10
X79.296Y47.547
G1Z-0.849
X79.356Y47.564Z-0.766F1000
X79.546Y47.527Z-0.53
X79.779Y47.741Z-0.604
G0Z10
X79.126Y47.837
G1Z-0.26F500
X79.072Y47.776Z-0.052F1000
X79.296Y47.547Z-0.849F500
G0Z10
X77.975Y46.524
G1Z-0.187
X78.16Y46.627Z-0.771
X78.26Y46.739Z-0.994
X78.305Y46.764Z-0.887F1000
X78.31Y46.77Z-0.864
X78.54Y46.822Z-0.513
X78.608Y46.898Z-0.464
X78.625Y46.906Z-0.466
X78.733Y46.969Z-0.349
X78.783Y47.194Z-0.725F500
X78.78Y47.206Z-0.723F1000
X78.819Y47.304Z-0.831F500
X78.892Y47.364Z-0.876F1000
X78.898Y47.374Z-0.853
X78.907Y47.381Z-0.848
X79.233Y47.46Z-0.583
X79.296Y47.547Z-0.849F500
G0Z10
X78.188Y45.206
G1Z-0.314
X78.319Y45.255Z-0.263F1000
X78.336Y45.395Z-0.36F500
X78.272Y45.487Z-0.112F1000
X78.449Y45.679Z-0.348F500
X78.463Y45.676Z-0.327F1000
X78.583Y45.818Z-0.202
G0Z10
X77.293Y45.653
G1Z-0.164F500
X77.309Y45.663Z-0.094F1000
X77.288Y45.546Z-0.33F500
X77.293Y45.653Z-0.164F1000
G0Z10
X76.883Y45.177
G1Z-0.03F500
X76.871Y45.196Z-0.111
X76.994Y45.641Z-0.338F1000
X77.293Y45.653Z-0.164
G0Z10
X76.295Y42.732
G1Z-0.041F500
X76.266Y42.862Z-0.306
X76.454Y43.02Z-0.196F1000
X76.46Z-0.178
G0Z10
X75.624Y41.787
G1Z-0.407F500
X75.6Y41.815Z-0.396F1000
X75.624Y41.922Z-0.345
G0Z10
X74.496Y43.927
G1Z-0.78F500
X74.781Y43.901Z-1.716
G0Z10
X71.803Y39.337
G1Z-1.484
X71.817Y39.332Z-1.538
X71.929Y39.22Z-2
X71.938Y39.221F1000
X71.927Y39.204
X71.929Y39.22
G0Z10
X70.574Y36.62
G1Z-2F500
X70.556Y36.583F1000
X70.564Y36.603
X70.574Y36.62
G0Z10
X71.758Y34.837
G1Z-1.597F500
X71.752Y34.872Z-1.545F1000
X71.771Y35.114Z-1.034
X71.856Y35.302Z-0.84
X72.008Y35.437Z-0.685
X72.092Y35.469Z-0.473
X72.094Y35.5Z-0.525F500
X72.104Y35.62Z-0.72
X72.153Y35.71Z-0.732F1000
X72.204Y35.801Z-0.682
X72.275Y35.845Z-0.695
X72.336Y35.951Z-0.714
X72.406Y35.996Z-0.727
X72.468Y36.101Z-0.745
X72.538Y36.147Z-0.758
X72.6Y36.252Z-0.776
X72.669Y36.298Z-0.789
X72.732Y36.402Z-0.807
X72.801Y36.449Z-0.82
X72.856Y36.54Z-0.822
X72.937Y36.595Z-0.824
X72.993Y36.686Z-0.827
X73.074Y36.741Z-0.829
X73.13Y36.832Z-0.831
X73.211Y36.887Z-0.833
X73.267Y36.978Z-0.836
X73.293Y36.995Z-0.862F500
X73.366Y37.064Z-0.865F1000
X73.403Y37.123Z-0.84
X73.429Y37.141Z-0.866F500
X73.529Y37.234Z-0.861F1000
X73.543Y37.266Z-0.862
X73.666Y37.38Z-0.865
X73.68Y37.412Z-0.866
X73.77Y37.495Z-0.88
X73.805Y37.523Z-0.855
X73.843Y37.593Z-0.856
X73.942Y37.669Z-0.859
X73.98Y37.739Z-0.861
X74.078Y37.815Z-0.863
X74.117Y37.885Z-0.865
X74.215Y37.961Z-0.868
X74.254Y38.031Z-0.87
X74.352Y38.107Z-0.872
X74.39Y38.177Z-0.874
X74.473Y38.241Z-0.86
X74.521Y38.329Z-0.846
X74.604Y38.393Z-0.832
X74.651Y38.48Z-0.819
X74.735Y38.544Z-0.805
X74.781Y38.632Z-0.791
X74.866Y38.695Z-0.777
X74.927Y38.813Z-0.798
X74.981Y38.855Z-0.813
X75.046Y38.974Z-0.832
X75.097Y39.013Z-0.843
X75.165Y39.135Z-0.865
X75.216Y39.174Z-0.875
X75.246Y39.228Z-0.913F500
X75.302Y39.311Z-0.924F1000
X75.334Y39.336Z-0.907
X75.364Y39.389Z-0.944F500
X75.433Y39.49Z-0.943F1000
X75.611Y39.611Z-0.632
X75.765Y39.661Z-0.249
X75.749Y39.759Z-0.498F500
X75.774Y39.984Z-0.876
X75.847Y40.127Z-0.86F1000
X75.95Y40.212Z-0.848
X75.982Y40.274Z-0.842
X76.085Y40.359Z-0.831
X76.116Y40.422Z-0.824
X76.221Y40.507Z-0.813
X76.222Y40.509Z-0.815F500
X76.279Y40.592Z-0.824F1000
X76.33Y40.634Z-0.816
X76.35Y40.663Z-0.831
X76.394Y40.711Z-0.826
X76.435Y40.77Z-0.785
X76.461Y40.785Z-0.816F500
X76.575Y40.908Z-0.801F1000
X76.576Y40.911
X76.71Y41.056Z-0.784
X76.711Y41.059
X76.845Y41.203Z-0.766
X76.846Y41.207
X76.98Y41.351Z-0.748
X76.989Y41.383Z-0.753
X77.104Y41.507Z-0.78
X77.114Y41.539Z-0.786
X77.186Y41.618Z-0.819
X77.237Y41.696Z-0.811
X77.244Y41.7Z-0.821F500
X77.311Y41.774Z-0.85F1000
X77.362Y41.853Z-0.843
X77.401Y41.878Z-0.85
X77.464Y41.973Z-0.883
X77.527Y42.033Z-0.873
X77.557Y42.1Z-0.885
X77.639Y42.177Z-0.887
X77.676Y42.26Z-0.889
X77.758Y42.338Z-0.892
X77.795Y42.421Z-0.893
X77.877Y42.499Z-0.896
X77.913Y42.582Z-0.897
X77.996Y42.66Z-0.9
X78.032Y42.743Z-0.901
X78.114Y42.821Z-0.904
X78.142Y42.883Z-0.893
X78.234Y42.97Z-0.878
X78.267Y43.039Z-0.857
X78.356Y43.116Z-0.839
X78.393Y43.194Z-0.825
X78.483Y43.271Z-0.807
X78.519Y43.35Z-0.793
X78.61Y43.426Z-0.774
X78.645Y43.505Z-0.76
X78.736Y43.581Z-0.742
X78.771Y43.661Z-0.728
X78.878Y43.748Z-0.731
X78.905Y43.81Z-0.733
X79.011Y43.897Z-0.736
X79.038Y43.959Z-0.738
X79.144Y44.046Z-0.741
X79.172Y44.108Z-0.743
X79.278Y44.195Z-0.746
X79.305Y44.257Z-0.748
X79.411Y44.344Z-0.751
X79.439Y44.406Z-0.753
X79.534Y44.484Z-0.763
X79.546Y44.492Z-0.751
X79.589Y44.569Z-0.77
X79.667Y44.633Z-0.768
X79.679Y44.641Z-0.756
X79.734Y44.737Z-0.758
X79.812Y44.79Z-0.761
X79.867Y44.886Z-0.763
X79.946Y44.939Z-0.766
X80.001Y45.035Z-0.768
X80.079Y45.088Z-0.771
X80.134Y45.184Z-0.773
X80.212Y45.237Z-0.776
X80.268Y45.333Z-0.778
X80.346Y45.386Z-0.78
X80.4Y45.479Z-0.786
X80.401Y45.482Z-0.783
X80.482Y45.539Z-0.789
X80.533Y45.628Z-0.791
X80.535Y45.631Z-0.788
X80.619Y45.691Z-0.79
X80.668Y45.78Z-0.793
X80.752Y45.84Z-0.795
X80.802Y45.929Z-0.798
X80.886Y45.989Z-0.8
X80.935Y46.078Z-0.803
X81.019Y46.138Z-0.805
X81.069Y46.227Z-0.808
X81.152Y46.287Z-0.81
X81.202Y46.376Z-0.813
X81.286Y46.436Z-0.815
X81.33Y46.514Z-0.808
X81.423Y46.582Z-0.8
X81.467Y46.66Z-0.793
X81.561Y46.727Z-0.784
X81.604Y46.806Z-0.777
X81.698Y46.872Z-0.769
X81.741Y46.951Z-0.762
X81.836Y47.018Z-0.753
X81.879Y47.097Z-0.746
X81.973Y47.163Z-0.738
X82.016Y47.243Z-0.731
X82.121Y47.315Z-0.736
X82.158Y47.384Z-0.74
X82.262Y47.457Z-0.745
X82.285Y47.498Z-0.78F500
X82.399Y47.603Z-0.782F1000
X82.405Y47.62Z-0.783
X82.54Y47.744Z-0.791
X82.547Y47.761
X82.682Y47.885Z-0.799
X82.689Y47.902Z-0.8
X82.783Y47.989Z-0.813
X82.825Y48.048Z-0.782
X82.851Y48.062Z-0.814F500
X82.925Y48.13Z-0.822F1000
X82.967Y48.189Z-0.791
X83.033Y48.226Z-0.794
X83.109Y48.33Z-0.8
X83.175Y48.367Z-0.803
X83.251Y48.471Z-0.808
X83.317Y48.508Z-0.812
X83.393Y48.612Z-0.817
X83.458Y48.649Z-0.821
X83.52Y48.734Z-0.803
X83.621Y48.79Z-0.8
X83.674Y48.862Z-0.797
X83.775Y48.918Z-0.793
X83.827Y48.99Z-0.79
X83.929Y49.045Z-0.786
X83.981Y49.118Z-0.783
X84.082Y49.173Z-0.779
X84.135Y49.246Z-0.776
X84.236Y49.301Z-0.772
X84.288Y49.374Z-0.769
X84.382Y49.425Z-0.772
X84.442Y49.502Z-0.762
X84.446Y49.504Z-0.766F500
X84.536Y49.553F1000
X84.595Y49.63Z-0.755
X84.684Y49.673Z-0.752
X84.749Y49.758Z-0.748
X84.837Y49.801Z-0.745
X84.903Y49.886Z-0.741
X84.991Y49.929Z-0.738
X84.995Y49.934Z-0.743F500
X85.057Y50.015Z-0.735F1000
X85.145Y50.057Z-0.731
X85.149Y50.062Z-0.736F500
X85.212Y50.144Z-0.727F1000
X85.306Y50.188Z-0.732
X85.368Y50.269Z-0.736
X85.462Y50.313Z-0.741
X85.524Y50.394Z-0.745
X85.618Y50.438Z-0.75
X85.681Y50.518Z-0.754
X85.774Y50.563Z-0.758
X85.837Y50.643Z-0.763
X85.93Y50.689Z-0.767
X85.993Y50.768Z-0.772
X86.087Y50.814Z-0.776
X86.149Y50.893Z-0.78
X86.243Y50.939Z-0.785
X86.306Y51.018Z-0.789
X86.399Y51.064Z-0.794
X86.462Y51.143Z-0.798
X86.555Y51.189Z-0.802
X86.618Y51.267Z-0.807
X86.711Y51.314Z-0.811
X86.775Y51.392Z-0.815
X86.867Y51.439Z-0.82
X86.923Y51.507Z-0.814
X86.961Y51.526Z-0.841F500
X87.069Y51.597Z-0.823F1000
X87.086Y51.624Z-0.821
X87.229Y51.718Z-0.81
X87.245Y51.744Z-0.808
X87.388Y51.838Z-0.797
X87.405Y51.865Z-0.795
X87.548Y51.959Z-0.784
X87.564Y51.985Z-0.782
X87.708Y52.079Z-0.771
X87.724Y52.106Z-0.769
X87.868Y52.199Z-0.758
X87.884Y52.226Z-0.756
X88.027Y52.32Z-0.745
X88.043Y52.347Z-0.743
X88.136Y52.407Z-0.752
X88.189Y52.438Z-0.721
X88.212Y52.473Z-0.733
X88.296Y52.528Z-0.74
X88.349Y52.558Z-0.708
X88.377Y52.603Z-0.704
X88.508Y52.679Z-0.695
X88.537Y52.724Z-0.691
X88.712Y52.824Z-0.685
X88.947Y52.84Z-0.233
G0Z10
X89.134Y52.923
G1Z-0.088F500
X89.213Y53.154Z-0.631
X89.349Y53.307Z-0.718F1000
X89.543Y53.381Z-0.841F500
X89.668Y53.378Z-0.706F1000
X89.731Y53.462Z-0.943F500
X89.869Y53.555Z-1.078
X90.069Y53.608Z-1.248
X90.193Y53.605Z-1.206F1000
X90.266Y53.657Z-1.383F500
X90.268Y53.662Z-1.402
X90.4Y53.835Z-1.143F1000
X90.556Y53.943Z-0.991
X90.582Y53.951Z-0.935
X90.631Y54.013
X90.701Y54.093Z-0.86
X90.867Y54.181Z-0.853
X91.086Y54.2Z-0.504
X91.188Y54.179Z-0.242
X91.246Y54.325Z-0.605F500
X91.383Y54.488Z-0.832
X91.559Y54.573Z-0.872F1000
X91.562Y54.577Z-0.873
X91.715Y54.651
X91.743Y54.652Z-0.872
X91.899Y54.728Z-0.865
X91.928Y54.729Z-0.864
X92.084Y54.805Z-0.858
X92.113Y54.806Z-0.857
X92.268Y54.882Z-0.85
X92.297Y54.883Z-0.849
X92.403Y54.934Z-0.857
X92.426Y54.948Z-0.843
X92.499Y54.964Z-0.832
X92.582Y55.018Z-0.817
X92.584Y55.019Z-0.819F500
X92.7Y55.045Z-0.813F1000
X92.767Y55.095Z-0.809
X92.885Y55.122Z-0.805
X92.951Y55.172Z-0.802
X93.07Y55.198Z-0.797
X93.136Y55.249Z-0.794
X93.254Y55.275Z-0.789
X93.32Y55.326Z-0.786
X93.457Y55.356Z-0.803
X93.625Y55.484Z-0.857
X93.642Y55.51Z-0.816
X93.816Y55.544Z-1.046F500
X93.959Y55.629Z-1.18
X94.04Y55.702Z-1.343
X94.118Y55.787Z-1.541
X94.161Y55.852Z-1.631
X94.246Y55.916Z-1.858
X94.299Y55.975Z-1.893F1000
X94.356Y56.005Z-1.944F500
G0Z10
X80.647Y53.201
G1Z-0.308
X80.734Y53.164Z-0.336F1000
X80.889Y53.263Z-0.048
X81.016Y53.089Z-0.453F500
X81.62Y53.002Z-1.189
X81.718Y52.798Z-1.909
G0Z10
X71.758Y34.837
G1Z-1.597
X71.909Y34.844Z-1.099F1000
G0Z10
X68.627Y34.371
G1Z-2F500
X68.602Y34.365F1000
X68.576Y34.357
X68.552Y34.349
X68.527Y34.339
X68.503Y34.328
X68.48Y34.316
X68.457Y34.302
X68.435Y34.288
X68.413Y34.272
X68.364Y34.233
X68.365Y34.257
X68.364Y34.283
X68.362Y34.31
X68.359Y34.336
X68.355Y34.362
X68.35Y34.388
X68.343Y34.414
X68.174Y34.936
X68.238Y34.83
X68.253Y34.807
X68.269Y34.786
X68.286Y34.765
X68.627Y34.371
X68.613Y34.386Z-1.88
X68.978Y34.213Z-1.582
X69.084Y34.125Z-1.654
G0Z10
X68.251Y33.843
G1Z-1.13F500
X68.279Y34.045Z-1.651
X68.366Y34.234Z-1.812
G0Z10
X67.422Y34.595
G1Z-0.163
X67.435Y34.594Z-0.173
G0Z10
X67.496Y36.459
G1Z-0.555
X67.621Y36.41Z-0.473F1000
X67.632Y36.274Z-0.889F500
X67.718Y36.083Z-1.206
X67.835Y35.946Z-1.112F1000
X67.889Y35.895Z-1.043
X67.875Y35.8Z-1.278F500
X67.887Y35.6Z-1.639
X67.918Y35.494Z-1.725
X68.014Y35.315Z-1.794F1000
X68.127Y35.177Z-1.693
X68.128Y35.141Z-1.756F500
X68.155Y35.022Z-1.898
X68.181Y34.925Z-1.999
X68.182Y34.924F1000
G0Z10
X67.502Y28.456
G1Z-2F500
X67.525Y28.441F1000
X67.548Y28.427
X67.844Y28.26
X67.868Y28.248
X67.892Y28.237
X67.917Y28.228
X67.942Y28.219
X67.968Y28.212
X67.994Y28.206
X68.02Y28.202
X68.046Y28.199
X68.073Y28.197
X68.1
X68.126
X69.901Y28.297
X70.178Y28.262
X70.196Y28.248
X70.217Y28.233
X70.239Y28.218
X70.261Y28.205
X70.285Y28.193
X70.308Y28.182
X70.333Y28.172
X71.152Y27.86
X71.666Y27.597
X71.98Y27.358
X71.776Y27.328
X71.75Y27.323
X71.725Y27.317
X71.7Y27.309
X71.676Y27.3
X71.651Y27.291
X71.628Y27.28
X71.605Y27.267
X71.582Y27.254
X71.561Y27.24
X71.54Y27.225
X71.519Y27.208
X71.5Y27.191
X71.481Y27.173
X71.464Y27.154
X71.447Y27.134
X71.431Y27.113
X71.293Y26.911
X71.279Y26.889
X71.267Y26.866
X71.255Y26.842
X71.245Y26.818
X71.24Y26.804
X71.091Y27.055
X71.077Y27.076
X71.062Y27.097
X71.047Y27.117
X71.03Y27.136
X71.012Y27.154
X70.383Y27.771
X70.363Y27.789
X70.342Y27.805
X70.32Y27.821
X70.297Y27.836
X70.274Y27.849
X70.25Y27.862
X70.226Y27.873
X69.764Y28.054
X69.74Y28.062
X69.715Y28.069
X69.69Y28.075
X69.665Y28.079
X69.64Y28.083
X69.615Y28.085
X69.589Y28.086
X68.833Y28.099
X68.804Y28.098
X68.776Y28.095
X67.917Y27.994
X67.892Y27.99
X67.868Y27.985
X67.843Y27.979
X67.82Y27.971
X67.225Y27.754
X67.201Y27.744
X67.176Y27.732
X67.153Y27.719
X67.13Y27.705
X67.108Y27.69
X67.073Y27.665
X67.3Y28.186
X67.502Y28.456
Z-1.808
X67.48Y28.599Z-1.615
X67.496Y28.836Z-1.137
X67.575Y29.027Z-0.943
X67.66Y29.116Z-0.931
X67.69Y29.19Z-0.924
X67.776Y29.279Z-0.912
X67.799Y29.337Z-0.921
X67.864Y29.413Z-0.919
X67.892Y29.442Z-0.892
X67.914Y29.5Z-0.902
X68.005Y29.607Z-0.883
X68.019Y29.65Z-0.878
X68.121Y29.77Z-0.863
X68.134Y29.814Z-0.859
X68.232Y29.928Z-0.846
X68.248Y29.978Z-0.834
X68.346Y30.085Z-0.82
X68.364Y30.141Z-0.814
X68.462Y30.248Z-0.8
X68.479Y30.305Z-0.794
X68.578Y30.412Z-0.78
X68.595Y30.468Z-0.774
X68.693Y30.575Z-0.76
X68.71Y30.631Z-0.755
X68.817Y30.746
X68.832Y30.797Z-0.759
X68.934Y30.908Z-0.767
X68.95Y30.959Z-0.771
X69.052Y31.07Z-0.78
X69.067Y31.121Z-0.783
X69.169Y31.231Z-0.792
X69.185Y31.282Z-0.795
X69.259Y31.363Z-0.818
X69.266Y31.375Z-0.827F500
X69.313Y31.448Z-0.828F1000
X69.318Y31.461Z-0.817
X69.377Y31.525Z-0.83
X69.383Y31.537Z-0.838F500
X69.45Y31.64Z-0.835F1000
X69.472Y31.654Z-0.836
X69.567Y31.801Z-0.847
X69.589Y31.816Z-0.848
X69.685Y31.963Z-0.858
X69.707Y31.978Z-0.86
X69.803Y32.125Z-0.87
X69.808Y32.128
X69.914Y32.291Z-0.852
X69.919Y32.295
X70.028Y32.462Z-0.844
X70.03Y32.47
X70.135Y32.632Z-0.847
X70.136Y32.64Z-0.848
X70.241Y32.801Z-0.851
X70.242Y32.809Z-0.852
X70.347Y32.971Z-0.855
X70.349Y32.978
X70.405Y33.065Z-0.863
X70.454Y33.148Z-0.855
X70.457Y33.15Z-0.859F500
X70.511Y33.234Z-0.866F1000
X70.56Y33.318Z-0.859
X70.572Y33.326
X70.667Y33.487Z-0.862
X70.678Y33.496Z-0.863
X70.722Y33.571Z-0.874
X70.774Y33.658Z-0.867
X70.784Y33.665Z-0.868
X70.88Y33.827Z-0.871
X70.891Y33.835
X70.987Y33.996Z-0.875
X70.997Y34.004
X71.093Y34.166Z-0.879
X71.266Y34.293Z-0.809
X71.28Y34.298Z-0.784
X71.346Y34.48Z-1.062F500
X71.473Y34.636Z-1.159F1000
X71.65Y34.751Z-1.472F500
X71.656Y34.758Z-1.493
X71.748Y34.822Z-1.571
X71.758Y34.837Z-1.597
G0Z10
X70.092Y28.273
G1Z-1.756
X70.12Y28.379Z-1.594F1000
G0Z10
X70.597Y27.35
G1Z-1.436F500
X70.702Y27.458Z-1.657
G0Z10
X71.211Y26.853
G1Z-1.855
X71.2Y26.769Z-1.804F1000
X71.445Y26.192Z-1.933
X71.454Y26.16Z-1.942
Z-2F500
X71.487Y26.131F1000
X71.508Y26.115
X71.529Y26.1
X71.551Y26.086
X71.573Y26.073
X71.597Y26.061
X71.621Y26.05
X71.645Y26.04
X71.67Y26.032
X71.695Y26.024
X71.72Y26.018
X71.746Y26.014
X71.763Y26.011
X71.757Y25.996
X71.748Y25.971
X71.74Y25.946
X71.734Y25.92
X71.729Y25.894
X71.725Y25.868
X71.722Y25.842
X71.721Y25.816
Y25.795
X71.691Y25.805
X71.666Y25.812
X71.64Y25.818
X71.614Y25.822
X71.588Y25.826
X71.562Y25.828
X71.536Y25.829
X71.51Y25.828
X71.484Y25.827
X71.458Y25.824
X71.432Y25.82
X71.406Y25.814
X71.167Y25.751
X71.321Y25.907
X71.338Y25.927
X71.355Y25.947
X71.37Y25.968
X71.385Y25.99
X71.398Y26.012
X71.41Y26.035
X71.421Y26.059
X71.431Y26.083
X71.44Y26.107
X71.447Y26.132
X71.454Y26.16
G0Z10
X71.763Y26.011
G1Z-1.796F500
X72.007Y26.151Z-1.439F1000
X72.107Y26.301Z-1.29
X72.283Y26.428Z-1.176
X72.403Y26.59Z-1.285
X72.439Y26.687Z-1.41F500
X72.498Y26.778Z-1.529
X72.554Y26.941Z-1.808
X72.575Y27.035Z-1.964
Z-2
X72.566Y27.055F1000
X72.552Y27.082
X72.568Y27.076
X72.593Y27.066
X72.603Y27.063
X72.575Y27.035
X72.6Y27.06Z-1.969
X72.646Y27.069Z-1.9
X72.849Y27.149Z-1.505
X72.857Y27.154Z-1.479
X73.142Y27.216Z-0.758
G0Z10
X71.979Y27.358
G1Z-1.935F500
X72.345Y27.274Z-1.672F1000
X72.552Y27.082Z-1.961F500
G0Z10
X71.72Y25.795
G1Z-1.768
X71.883Y25.562Z-1.374F1000
X72.085Y25.485Z-1.085
X72.09Y25.476Z-1.08
G0Z10
X69.626Y26.813
G1Z-0.953F500
X69.879Y26.677Z-1.176
X70.179Y26.733Z-0.548F1000
X70.445Y26.983Z-0.063
X70.597Y27.35Z-1.436F500
G0Z10
X69.626Y26.813
G1Z-0.953
X69.669Y27.027Z-0.142F1000
X70.597Y27.35Z-1.436F500
G0Z10
X68.733Y26.633
G1Z-2
X68.426Y26.608F1000
X68.401Y26.605
X68.375Y26.6
X68.35Y26.594
X68.325Y26.587
X68.301Y26.579
X68.277Y26.57
X68.253Y26.559
X68.23Y26.548
X68.208Y26.535
X68.186Y26.521
X68.156Y26.501
X68.21Y26.596
X68.254Y26.642
X68.733Y26.633
X68.572Y26.62Z-1.97
X68.681Y26.609Z-1.926
X68.765Y26.586Z-1.813
X68.881Y26.623Z-1.916F500
X69.082Y26.649F1000
X69.36Y26.631Z-1.633
X69.626Y26.813Z-0.953
G0Z10
X68.118Y26.846
G1Z-1.112F500
X68.244Y26.632Z-1.901
G0Z10
X67.77Y25.916
G1Z-1.826
X67.812Y26.053Z-1.708F1000
X67.868Y26.154Z-1.705
X67.928Y26.253Z-1.717
X68.07Y26.403Z-1.884F500
X68.082Y26.411Z-1.885F1000
X68.157Y26.501Z-1.955F500
G0Z10
X67.575Y25.958
G1Z-1.116
X67.77Y25.916Z-1.826
G0Z10
X67.79Y25.65
G1Z-2
X67.855Y25.476F1000
X67.866Y25.452
X67.877Y25.428
X67.89Y25.406
X67.903Y25.383
X67.918Y25.362
X67.934Y25.341
X67.951Y25.321
X67.969Y25.302
X67.988Y25.283
X68.007Y25.266
X68.028Y25.25
X68.049Y25.234
X68.071Y25.22
X68.093Y25.207
X68.111Y25.198
X68.092Y25.183
X68.072Y25.167
X68.053Y25.15
X68.034Y25.131
X68.017Y25.112
X68Y25.092
X67.984Y25.071
X67.911Y24.968
X67.903Y24.992
X67.893Y25.017
X67.882Y25.041
X67.87Y25.065
X67.856Y25.088
X67.841Y25.11
X67.826Y25.132
X67.809Y25.152
X67.791Y25.172
X67.772Y25.191
X67.752Y25.209
X67.732Y25.226
X67.566Y25.35
X67.68Y25.469
X67.697Y25.488
X67.713Y25.509
X67.729Y25.53
X67.743Y25.552
X67.756Y25.574
X67.768Y25.598
X67.779Y25.621
X67.79Y25.65
X67.795Y25.636Z-1.984
X67.77Y25.916Z-1.826
G0Z10
X68.111Y25.198
G1Z-1.849F500
X68.474Y25.225Z-1.551F1000
X68.635Y25.273Z-1.249
X68.673Y25.251Z-1.3F500
X68.881Y25.182Z-1.389F1000
X69.032Y25.173Z-1.301
X69.132Y25.182Z-1.294
X69.23Y25.205Z-1.288
X69.375Y25.26Z-1.179
X69.55Y25.383Z-0.842
X69.564Y25.376Z-0.877F500
X70.122Y25.2Z-0.867F1000
X70.429Y25.511Z-1.276F500
X70.983Y25.501Z-1.275F1000
X71.162Y25.742Z-1.972F500
X71.185Y25.756Z-1.973F1000
G0Z10
X67.916Y24.975
G1Z-1.974F500
X67.829Y24.598Z-1.429F1000
X67.94Y24.338Z-1.399
X67.905Y24.124Z-1.527F500
X67.92Y23.923Z-1.634F1000
X67.926Y23.904Z-1.646F500
X67.94Y23.721Z-1.759
X67.946Y23.702Z-1.772
X67.959Y23.536Z-1.875
X67.958Y23.519Z-1.877F1000
X67.98Y23.375Z-1.967F500
Y23.372F1000
X67.982Y23.333Z-1.98
X67.979Y23.344Z-2F500
X68.106Y22.874F1000
X68.121Y22.827
X68.105Y22.826
X68.079Y22.822
X68.053Y22.817
X68.028Y22.811
X68.003Y22.804
X67.978Y22.796
X67.954Y22.786
X67.941Y22.78
X67.979Y23.344
G0Z10
X68.121Y22.828
G1Z-1.881F500
X68.194Y22.783Z-1.792F1000
X68.359Y22.626Z-1.388
X68.424Y22.519Z-1.254
X68.483Y22.457Z-1.141
X68.57Y22.274Z-1.045
X68.575Y22.222Z-1.037
X68.639Y22.087Z-1.014
X68.644Y22.034Z-1.006
X68.709Y21.899Z-0.983
X68.714Y21.846Z-0.975
X68.779Y21.711Z-0.952
X68.783Y21.658Z-0.944
X68.849Y21.524Z-0.921
Y21.511Z-0.932F500
X68.897Y21.357Z-0.905F1000
X68.915Y21.335Z-0.901
X68.967Y21.169Z-0.875
X68.985Y21.148Z-0.87
X69.029Y21.005Z-0.853
X69.031Y20.979Z-0.824
X69.069Y20.913Z-0.843
X69.098Y20.817Z-0.846
X69.102Y20.769Z-0.809
X69.154Y20.678Z-0.812
X69.162Y20.578Z-0.816
X69.214Y20.487Z-0.82
X69.222Y20.388Z-0.824
X69.274Y20.296Z-0.828
X69.283Y20.197Z-0.831
X69.334Y20.105Z-0.835
X69.343Y20.006Z-0.839
X69.394Y19.915Z-0.843
X69.403Y19.815Z-0.847
X69.453Y19.724Z-0.851
X69.463Y19.625Z-0.854
X69.513Y19.533Z-0.858
X69.515Y19.516Z-0.872F500
X69.532Y19.416Z-0.877F1000
X69.573Y19.342Z-0.866
X69.575Y19.325Z-0.88F500
X69.596Y19.206Z-0.876F1000
X69.632Y19.151Z-0.878
X69.656Y19.015Z-0.883
X69.692Y18.96Z-0.886
X69.716Y18.825Z-0.891
X69.752Y18.769Z-0.894
X69.776Y18.634Z-0.899
X69.798Y18.6Z-0.892
X69.826Y18.44Z-0.868
X69.848Y18.406Z-0.861
X69.875Y18.251Z-0.839
Y18.246Z-0.833
X69.929Y18.101Z-0.802
X69.913Y17.893Z-0.367
X69.901Y17.865Z-0.275
X70.079Y17.724Z-0.428F500
G0Z10
X67.866Y16.049
G1Z-1.923
X68.217Y15.641Z-1.393F1000
X68.21Y15.533Z-1.598F500
X68.237Y15.335Z-1.831
X68.304Y15.143Z-1.959
X68.319Y15.117Z-1.971F1000
X68.32Y15.122Z-2F500
X68.339Y15.103F1000
X68.358Y15.085
X68.379Y15.067
X68.4Y15.051
X68.408Y15.046
X68.392Y15.04
X68.367Y15.029
X68.344Y15.018
X68.336Y15.014
X68.318Y15.125
X68.32Y15.122
X68.408Y15.046Z-1.951
X68.482Y15.036Z-1.883
X68.903Y14.711Z-0.628
X68.988Y14.666Z-0.363
X68.924Y14.395Z-0.848F500
X68.948Y14.221Z-0.863F1000
X68.986Y14.157Z-0.871
X69.004Y14.029Z-0.885
X69.042Y13.965Z-0.893
X69.06Y13.837Z-0.907
X69.07Y13.82Z-0.927F500
X69.105Y13.726Z-0.945F1000
X69.117Y13.645Z-0.929
X69.127Y13.628Z-0.949F500
X69.177Y13.49Z-0.96F1000
X69.176Y13.454Z-0.964
X69.233Y13.298Z-0.982
Y13.285Z-0.996F500
X69.259Y13.189Z-1.012F1000
X69.289Y13.106Z-1.004
Y13.093Z-1.018F500
X69.332Y12.931Z-1.024F1000
Y12.922Z-1.023
X69.381Y12.737Z-1.017
X69.38Y12.728
X69.43Y12.543Z-1.01
X69.429Y12.534
X69.479Y12.349Z-1.004
X69.478Y12.34Z-1.003
X69.528Y12.155Z-0.997
X69.525Y12.125Z-1.001
X69.569Y11.96Z-1.019
X69.566Y11.929Z-1.023
X69.602Y11.794Z-1.044
X69.604Y11.732Z-1.029
X69.643Y11.629Z-1.041
X69.644Y11.604Z-1.061F500
X69.657Y11.505Z-1.074F1000
X69.684Y11.433Z-1.063
X69.685Y11.408Z-1.083F500
X69.703Y11.275Z-1.091F1000
X69.723Y11.237Z-1.096
X69.745Y11.08Z-1.113
X69.764Y11.041Z-1.118
X69.792Y10.842Z-1.19
X69.757Y10.628Z-1.506F500
X69.686Y10.461Z-1.897
X69.712Y10.411Z-1.859F1000
X69.749Y10.291Z-1.795
X69.824Y10.155Z-1.763
X69.837Y10.111Z-1.754
X69.912Y9.975Z-1.722
X69.925Y9.931Z-1.712
X69.997Y9.802Z-1.684
X70.001Y9.796Z-1.678
X70.036Y9.71Z-1.67
X70.085Y9.622Z-1.642
X70.089Y9.616Z-1.636
X70.141Y9.488Z-1.609
X70.142Y9.485Z-1.606
X70.211Y9.368Z-1.579
X70.23Y9.305Z-1.565
X70.299Y9.188Z-1.537
X70.318Y9.125Z-1.524
X70.387Y9.008Z-1.496
X70.445Y8.815Z-1.29
X70.454Y8.645Z-0.964
X70.499Y8.621Z-1.05F500
X70.688Y8.453Z-1.282
X70.796Y8.284Z-1.241F1000
X70.815Y8.214Z-1.247
X70.885Y8.104Z-1.257
X70.904Y8.035Z-1.262
X70.925Y8.001Z-1.28
X70.976Y7.915
X70.993Y7.856Z-1.278
X71.015Y7.822Z-1.296
X71.071Y7.727Z-1.294
X71.084Y7.677Z-1.298
X71.16Y7.548Z-1.309
X71.173Y7.498Z-1.314
X71.243Y7.379Z-1.327
X71.25Y7.369Z-1.321
X71.281Y7.286Z-1.342
X71.332Y7.199Z-1.343
X71.339Y7.19Z-1.336
X71.384Y7.072Z-1.346
X71.504Y6.907Z-1.386
X71.57Y6.852Z-1.305
X71.599Y6.731Z-1.48F500
X71.691Y6.553Z-1.556F1000
X71.806Y6.419Z-1.713F500
X71.939Y6.318Z-1.967
X71.942Y6.265Z-1.881F1000
X71.993Y6.065Z-1.686
X72.041Y5.97Z-1.671
X72.087Y5.881Z-1.662
X72.152Y5.802Z-1.683
X72.222Y5.72Z-1.661
X72.342Y5.625Z-1.517
X72.353Y5.563Z-1.624F500
X72.408Y5.417Z-1.789
X72.514Y5.247Z-1.822F1000
X72.655Y5.101Z-1.949F500
X72.703Y5.066Z-1.968F1000
X72.688Y5.075Z-2F500
X72.833Y4.991F1000
X72.825Y4.976
X72.812Y4.953
X72.801Y4.93
X72.796Y4.916
X72.688Y5.075
X72.798Y5.011Z-1.968
X72.883Y5.05Z-1.714
X73.393Y5.008Z-0.576
X73.499Y5.162Z-0.677
X73.65Y5.221Z-0.392
G0Z10
X72.792Y4.921
G1Z-1.967F500
X72.806Y4.84Z-1.872F1000
X72.825Y4.731Z-1.704
X72.863Y4.637Z-1.591
X72.884Y4.585Z-1.508
X72.887Y4.531Z-1.478
X72.95Y4.331Z-1.255
X73.062Y4.166Z-1.253
X73.075Y4.155Z-1.255
X73.159Y4.029Z-1.241
X73.198Y3.997Z-1.236
X73.283Y3.871Z-1.222
X73.321Y3.84Z-1.217
X73.394Y3.732Z-1.211
X73.405Y3.713Z-1.196
X73.484Y3.636Z-1.185
X73.528Y3.555Z-1.177
X73.607Y3.479Z-1.166
X73.64Y3.417Z-1.174
X73.708Y3.343Z-1.167
X73.731Y3.321Z-1.147
X73.764Y3.26Z-1.155
X73.852Y3.162Z-1.137
X73.872Y3.119Z-1.132
X74.004Y2.974Z-1.165
X74.006Y2.97
X74.138Y2.825Z-1.198
X74.14Y2.821
X74.218Y2.736Z-1.219
X74.292Y2.644Z-1.26
X74.294Y2.643
X74.419Y2.488Z-1.33
X74.421Y2.487Z-1.331
X74.489Y2.403Z-1.37
X74.476Y2.286Z-1.088
X74.523Y2.077Z-0.8
X74.573Y2.012Z-0.775
X74.608Y1.902Z-0.703
X74.745Y1.761Z-0.718
X74.906Y1.697Z-0.416
X74.904Y1.626Z-0.593F500
X74.967Y1.428Z-0.837
X75.022Y1.368Z-0.679F1000
X75.126Y1.352Z-0.43
G0Z10
X74.489Y2.403
G1Z-1.37F500
X74.622Y2.404Z-1.014F1000
X74.825Y2.331Z-0.666
G0Z10
X71.939Y6.318
G1Z-1.967F500
X72.261Y6.526Z-1.374F1000
X72.402Y6.589Z-1.099
X72.428Y6.66Z-1.188F500
X72.424Y6.809Z-1F1000
X72.322Y6.95Z-0.614
G0Z10
X69.997Y4.35
G1Z-0.498F500
X70.132Y3.9Z-0.58F1000
X70.244Y3.897Z-0.328
X70.325Y3.365Z-0.225
G0Z10
X69.137Y4.439
G1Z-0.29F500
X69.258Y4.33Z-0.409
X69.279Y4.127Z-0.154F1000
G0Z10
X68.479Y2.644
G1Z-0.311F500
X68.564Y2.888Z-0.326F1000
G0Z10
X68.506Y2.444
G1Z-0.408F500
X68.597Y2.315Z-0.742
X68.659Y2.177Z-0.915
X68.668Y1.972Z-0.732F1000
X68.662Y1.95Z-0.683
X68.783Y1.797Z-0.865F500
X68.854Y1.53Z-0.546F1000
X69.185Y1.443Z-0.118
X69.172Y1.365Z-0.308F500
X69.231Y1.216Z-0.397F1000
G0Z10
X65.616Y3.944
G1Z-0.458F500
X65.76Y3.809Z-0.824
X65.799Y3.544Z-0.657F1000
X65.75Y3.394Z-0.222
X66.235Y3.159Z-0.692F500
X66.253Y2.944Z-0.573F1000
X66.496Y2.85Z-0.592
G0Z10
X65.895Y4.382
G1Z-0.432F500
X65.91Y4.398Z-0.382F1000
X65.911Z-0.38
X65.918Y4.392Z-0.385
G0Z10
X66.831Y5.449
G1Z-0.104F500
X66.832Y5.679Z-0.634
X66.746Y5.861Z-0.72F1000
X66.537Y6.021Z-0.193
X66.603Y6.142Z-0.577F500
X66.628Y6.343Z-0.863
X66.571Y6.539Z-0.664F1000
X66.573Y6.542Z-0.671F500
X66.612Y6.659Z-0.791
X66.642Y6.777Z-0.743F1000
X66.614Y6.923Z-0.335
X66.699Y6.977Z-0.472F500
G0Z10
X66.986Y5.308
G1Z-0.236
X67.194Y5.201Z-0.528
X67.286Y5.023Z-0.333F1000
G0Z10
X64.251Y5.248
G1Z-0.423F500
X64.308Y5.293Z-0.411F1000
X64.315Y5.31Z-0.395
X64.301Y5.33Z-0.457F500
X64.29Y5.531Z-0.524F1000
X64.355Y5.634Z-0.22
G0Z10
X62.861Y5.871
G1Z-0.134F500
X62.893Y6.07Z-0.722
X62.863Y6.173Z-0.897
X62.832Y6.273Z-0.969
X62.768Y6.361Z-0.904F1000
X62.781Y6.451Z-1.1F500
X62.796Y6.476Z-1.155
X62.81Y6.529Z-0.997F1000
X62.948Y6.672Z-0.497
G0Z10
X61.085Y6.165
G1Z-0.161F500
X61.106Y5.957Z-0.558
X61.061Y5.859Z-0.397F1000
X61.131Y5.776Z-0.666F500
X61.167Y5.682Z-0.802
X61.192Y5.584Z-0.753F1000
X61.18Y5.387Z-0.417
X61.163Y5.344Z-0.298
X61.33Y5.233Z-0.703F500
X61.443Y5.063Z-0.622F1000
G0Z10
X62.002Y3.838
G1Z-0.201F500
X61.902Y3.74Z-0.069F1000
X61.993Y3.627Z-0.457F500
X61.992Y3.489Z-0.493F1000
X62.035Y3.43Z-0.514
X62.036Y3.301Z-0.553
X62.035Y3.293Z-0.545
X62.089Y3.186Z-0.577
X62.08Y3.098Z-0.601
X62.132Y2.99Z-0.633
X62.125Y2.91Z-0.663
X62.165Y2.815Z-0.7
X62.175Y2.794Z-0.687
X62.169Y2.715Z-0.717
X62.216Y2.598Z-0.745
X62.211Y2.526Z-0.764
X62.286Y2.335Z-0.877
X62.355Y2.262Z-0.77
X62.329Y1.954Z-0.454
X62.711Y1.784Z-1.183F500
X62.792Y1.788Z-1.061F1000
X62.871Y1.72Z-1.175F500
X62.9Y1.712Z-1.073F1000
G0Z10
X63.912Y2.974
G1Z-0.486F500
X63.895Y2.956Z-0.572
X63.832Y2.755Z-0.597F1000
X63.898Y2.674Z-0.803F500
X63.955Y2.482Z-0.867F1000
X63.935Y2.303Z-0.615
X63.894Y2.19Z-0.346
X63.857Y2.109Z-0.124
X63.896Y2.088Z-0.238F500
X64.059Y1.952Z-0.673
X64.159Y1.771Z-0.742F1000
X64.166Y1.596Z-0.449
X64.205Y1.576Z-0.526F500
X64.283Y1.469Z-0.384F1000
G0Z10
X59.232Y0.091
G1Z-0.248F500
X59.263Y0.329Z-0.528
X59.349Y0.366Z-0.507F1000
X59.363Y0.656Z-0.648
X59.517Y0.768Z-0.484
X59.515Y0.785Z-0.498F500
G0Z10
X57.864Y2.808
G1Z-0.032
X57.695Y2.55Z-0.084F1000
X57.824Y2.45Z-0.605F500
X57.869Y1.995Z-0.733F1000
X57.86Y1.98Z-0.695
X58.067Y1.626Z-1.207F500
X58.088Y1.612Z-1.258
X58.129Y1.556Z-1.156F1000
X58.148Y1.548Z-1.16
X58.169Y1.546Z-1.128
G0Z10
X55.487Y2.483
G1Z-0.406F500
X55.502Y2.265Z-0.54
X55.443Y2.186Z-0.285F1000
X55.601Y1.986Z-0.452F500
G0Z10
X54.453Y4.527
G1Z-0.154
X54.493Y4.408Z-0.494
X54.477Y4.204Z-0.715
X54.377Y4.044Z-0.462F1000
X54.39Y4.021Z-0.516F500
X54.418Y3.661Z-0.399F1000
X54.445Y3.65Z-0.481F500
X54.592Y3.456Z-0.468F1000
X54.55Y3.28Z-0.12
G0Z10
X54.576Y4.806
G1Z-0.076F500
X54.787Y4.95Z-0.435
X54.884Y5.319Z-0.176F1000
G0Z10
X55.394Y5.659
G1Z-1.21F500
X55.475Y5.698Z-1.48
X55.692Y5.417Z-1.002F1000
X55.668Y5.277Z-1.14F500
X55.813Y4.96Z-0.86F1000
X55.832Y4.814Z-0.509
X55.921Y4.792Z-0.679F500
X56.041Y4.721Z-0.79
X56.149Y4.642Z-0.764F1000
X56.242Y4.464Z-0.406
G0Z10
X55.475Y5.698
G1Z-1.48F500
X55.478Y5.855Z-1.43F1000
X55.483Y5.875Z-1.427
X55.486Y6.055Z-1.403
X55.491Y6.075Z-1.4
X55.494Y6.255Z-1.376
X55.5Y6.275Z-1.373
X55.502Y6.455Z-1.349
X55.508Y6.475Z-1.347
X55.51Y6.655Z-1.323
X55.516Y6.675Z-1.32
X55.518Y6.831Z-1.301
X55.528Y6.875Z-1.279
X55.521Y7.008Z-1.261
X55.523Y7.018Z-1.267F500
X55.539Y7.16Z-1.245F1000
X55.53Y7.208Z-1.238
X55.547Y7.36Z-1.218
X55.538Y7.408Z-1.211
X55.556Y7.56Z-1.191
X55.546Y7.608Z-1.184
X55.564Y7.76Z-1.164
X55.555Y7.808Z-1.157
X55.572Y7.96Z-1.137
X55.563Y8.008Z-1.13
X55.582Y8.173Z-1.121
X55.595Y8.2Z-1.119
X55.615Y8.37Z-1.105
X55.628Y8.398Z-1.102
X55.638Y8.484Z-1.11
X55.657Y8.595Z-1.099
X55.656Y8.599
X55.69Y8.793Z-1.083
X55.689Y8.797
X55.721Y8.982Z-1.067
X55.72Y8.994Z-1.057
X55.755Y9.171Z-0.88
X55.725Y9.377Z-0.374
X55.682Y9.472Z-0.048
X55.858Y9.56Z-0.428F500
X56.095Y9.841Z-0.199F1000
G0Z10
X57.803Y9.229
G1Z-0.527F500
X57.678Y9.061Z-0.735
X57.648Y8.885Z-0.812F1000
X57.634Y8.864Z-0.824
X57.615Y8.757Z-0.883
X57.605Y8.688Z-0.893
X57.589Y8.66Z-0.916F500
X57.571Y8.561Z-0.97F1000
X57.56Y8.492Z-0.981
X57.541Y8.457Z-0.999
X57.516Y8.301Z-1.069
X57.496Y8.261Z-1.083
X57.488Y8.204Z-1.125F500
X57.471Y8.105Z-1.157F1000
X57.387Y7.933Z-1.303F500
Y7.918Z-1.332
X57.349Y7.79Z-1.394F1000
X57.352Y7.759Z-1.422F500
X57.365Y7.72Z-1.396F1000
X57.377Y7.555Z-1.254
X57.392Y7.516Z-1.216
X57.402Y7.351Z-1.074
X57.418Y7.312Z-1.036
X57.425Y7.179Z-0.93
X57.478Y7.018Z-0.907
X57.554Y6.931Z-0.737
X57.545Y6.83Z-0.878F500
X57.59Y6.689Z-0.801F1000
X57.727Y6.54Z-0.915
X57.923Y6.448Z-0.878
X57.927Y6.434Z-0.916F500
X58.029Y6.261Z-1.114
X58.115Y6.181Z-0.855F1000
X58.107Y6.073Z-0.963F500
X58.136Y5.958Z-0.939F1000
X58.169Y5.846Z-0.838
X58.236Y5.769Z-0.8
X58.264Y5.669Z-0.762
X58.332Y5.592Z-0.723
X58.358Y5.491Z-0.684
X58.429Y5.416Z-0.645
X58.453Y5.314Z-0.605
X58.487Y5.279Z-0.639F500
X58.559Y5.148Z-0.583F1000
X58.552Y5.039Z-0.329
X58.666Y4.976Z-0.465F500
X58.741Y4.791Z-0.325F1000
G0Z10
X59.513Y4.084
G1Z-0.391F500
X59.458Y3.947Z-0.644
X59.488Y3.872Z-0.836
X59.483Y3.732Z-0.748F1000
X59.528Y3.676Z-0.852F500
X59.581Y3.483Z-0.722F1000
X59.552Y3.294Z-0.262
X59.738Y3.156Z-0.545F500
X59.804Y2.966Z-0.469F1000
X59.745Y2.8Z-0.272
X59.797Y2.759Z-0.446F500
X59.875Y2.572Z-0.547F1000
X59.831Y2.356Z-0.226
G0Z10
X59.745Y6.537
G1Z-0.5F500
X59.756Y6.56Z-0.468F1000
X59.637Y6.781Z-0.663F500
X59.667Y6.864Z-0.569F1000
X59.533Y7.049Z-0.46
X59.558Y7.128Z-0.427
G0Z10
X60.19Y8.613
G1Z-0.158F500
X60.364Y8.457Z-0.081F1000
G0Z10
X59.885Y9.239
G1Z-0.929F500
X59.917Y9.155Z-0.782F1000
X60.012Y9.079Z-0.653
X60.067Y8.94Z-0.556
X60.08Y8.789Z-0.242
G0Z10
X59.489Y9.135
G1Z-0.394F500
X59.494Y9.155Z-0.467
X59.885Y9.239Z-0.929
G0Z10
X59.704Y9.642
G1Z-0.573
X59.728Y9.625Z-0.639
X59.849Y9.451Z-0.833
X59.887Y9.25Z-0.91F1000
X59.885Y9.239Z-0.929F500
G0Z10
X59.418Y9.305
G1Z-0.598
X59.704Y9.642Z-0.573F1000
G0Z10
X59.064Y9.658
G1Z-0.762F500
X59.003Y9.457Z-0.081F1000
X59.418Y9.305Z-0.598F500
G0Z10
X59.064Y9.658
G1Z-0.762
X59.268Y9.749Z-0.131F1000
X59.677Y9.698Z-0.536F500
G0Z10
X59.654Y10.717
G1Z-0.67
X59.679Y10.62Z-0.695F1000
X59.478Y10.301Z-0.174
X59.486Y10.276Z-0.193F500
X59.57Y10.209Z-0.491
X59.681Y10.033Z-0.834
X59.696Y9.93Z-0.849F1000
X59.709Y9.828Z-0.788
X59.677Y9.698Z-0.536
G0Z10
X58.768Y10.405
G1Z-1.024F500
X58.832Y10.23Z-1.131F1000
X58.838Y10.056Z-0.919
X58.863Y10.031Z-0.968F500
X59.064Y9.658Z-0.762F1000
G0Z10
X58.192Y10.341
G1Z-0.589F500
X58.768Y10.405Z-1.024
G0Z10
X58.401Y11.103
G1Z-2
X58.377Y11.099F1000
X58.352Y11.094
X58.326Y11.087
X58.301Y11.08
X58.277Y11.071
X58.252Y11.06
X58.229Y11.049
X58.206Y11.036
X58.183Y11.023
X58.162Y11.008
X58.137Y10.989
X58.126Y11.006
X58.208Y11.166
X58.218Y11.189
X58.228Y11.213
X58.236Y11.237
X58.243Y11.261
X58.249Y11.286
X58.325Y11.635
X58.329Y11.66
X58.332Y11.686
X58.334Y11.712
Y11.738
X58.333Y11.763
X58.331Y11.789
X58.328Y11.815
X58.324Y11.84
X58.318Y11.865
X58.311Y11.89
X58.303Y11.915
X58.294Y11.939
X58.29Y11.948
X58.301Y11.969
X58.386Y12.139
X58.367Y11.315
X58.368Y11.289
X58.37Y11.263
X58.373Y11.238
X58.377Y11.212
X58.401Y11.103
X58.4Y11.111Z-1.967
X58.411Y11.104Z-1.964
X58.6Y10.941Z-1.406
X58.705Y10.788Z-1.147
X58.741Y10.693Z-1.091
X58.768Y10.597Z-1.069
X58.773Y10.421Z-1.047
X58.768Y10.405Z-1.024
G0Z10
X58.137Y10.989
G1Z-1.926F500
X58.103Y10.767Z-1.463F1000
X58.192Y10.341Z-0.589
G0Z10
X57.882Y11.037
G1Z-1.138F500
X58.136Y11.025Z-1.977
G0Z10
X58.373Y11.585
G1Z-1.905
X58.429Y11.731Z-1.804F1000
X58.38Y11.873Z-1.934F500
G0Z10
X58.366Y12.1
G1Z-1.888
X58.378Y12.262Z-1.771F1000
X58.437Y12.342Z-1.835F500
X58.525Y12.527Z-1.784F1000
X58.572Y12.721Z-1.78
X58.574Y12.766Z-1.787
X58.61Y12.918Z-1.81
X58.612Y12.963Z-1.817
X58.641Y13.083Z-1.841
X58.65Y13.114Z-1.835
X58.656Y13.182Z-1.855
X58.67Y13.241Z-1.872
X58.677Y13.28Z-1.879
X58.697Y13.367Z-1.882
X58.698Y13.402Z-1.888
X58.735Y13.563Z-1.913
X58.736Y13.599Z-1.918
X58.767Y13.733Z-1.942
X58.802Y13.753Z-1.833
X58.985Y13.915Z-1.306
X59.092Y14.083Z-1.045
X59.11Y14.159Z-0.988
X59.176Y14.27Z-0.868
X59.203Y14.469Z-0.91
X59.17Y14.596Z-1.095F500
X59.167Y14.679Z-1.19
X59.157Y14.708Z-1.248
X59.223Y14.823Z-1.085F1000
X59.258Y14.918Z-1.024
X59.275Y15.017Z-0.961
X59.274Y15.171Z-0.74
X59.249Y15.244Z-0.553
X59.367Y15.357Z-0.8F500
X59.451Y15.545Z-0.757F1000
X59.443Y15.78Z-0.673
X59.596Y15.914Z-0.891F500
X59.664Y16.421Z-1.938
Z-2
X59.647Y16.436F1000
X59.626Y16.453
X59.605Y16.468
X59.583Y16.483
X59.561Y16.496
X59.538Y16.508
X59.514Y16.519
X59.438Y16.552
X59.606Y16.492
X59.632Y16.485
X59.658Y16.478
X59.685Y16.473
X59.712Y16.469
X59.739Y16.467
X59.766Y16.466
X59.784
X59.761Y16.459
X59.736Y16.451
X59.711Y16.442
X59.687Y16.432
X59.664Y16.421
X59.784Y16.466Z-1.96
X60.153Y16.514Z-1.834
X60.373Y16.388Z-1.626
X60.712Y16.493Z-1.852F500
X60.663Y16.492Z-2
X61.003Y16.571F1000
X60.925Y16.489
X60.904Y16.491
X60.878Y16.493
X60.852Y16.494
X60.663Y16.492
X60.855Y16.537Z-1.947
X60.911Y16.554Z-1.984F500
X60.951Y16.586Z-1.9F1000
X61.404Y16.639Z-1.082
X61.531Y16.93Z-1.34F500
X61.803Y17.089Z-1.004F1000
X61.853Y17.086Z-0.854
G0Z10
X60.928Y16.492
G1Z-1.837F500
X61.087Y15.921Z-0.484F1000
X61.107Y15.895Z-0.384
X60.92Y15.538Z-0.255
G0Z10
X60.868Y14.533
G1Z-0.38F500
X60.96Y14.739Z-0.78
X60.961Y14.939Z-0.755F1000
X60.87Y15.134Z-0.306
G0Z10
X60.871Y14.333
G1Z-0.336F500
X60.996Y14.14Z-0.749
X61.026Y13.941Z-0.753F1000
X61.009Y13.89Z-0.758
X61.031Y13.741Z-0.772
X61.015Y13.69Z-0.777
X61.037Y13.541Z-0.791
X61.022Y13.491Z-0.796
X61.043Y13.341Z-0.81
X61.028Y13.291Z-0.815
X61.048Y13.141Z-0.828
X61.034Y13.091Z-0.833
X61.054Y12.941Z-0.847
X61.04Y12.891Z-0.852
X61.059Y12.751Z-0.869
X61.044Y12.691Z-0.865
X61.051Y12.65Z-0.89F500
X61.064Y12.551Z-0.888F1000
X61.05Y12.491Z-0.884
X61.072Y12.361Z-0.896
X61.056Y12.291Z-0.903
X61.076Y12.17Z-0.919
X61.079Y12.161Z-0.912
X61.066Y12.07Z-0.934
X61.082Y11.97Z-0.937
X61.084Y11.961Z-0.931
X61.069Y11.849Z-0.941
X61.09Y11.761Z-0.95
X61.075Y11.649Z-0.96
X61.096Y11.561Z-0.968
X61.081Y11.45Z-0.979
X61.102Y11.361Z-0.987
X61.087Y11.25Z-0.998
X61.107Y11.161Z-1.006
X61.093Y11.05Z-1.016
X61.113Y10.961Z-1.025
X61.099Y10.85Z-1.035
X61.119Y10.761Z-1.043
X61.105Y10.65Z-1.054
X61.124Y10.561Z-1.062
X61.111Y10.45Z-1.073
X61.13Y10.361Z-1.081
X61.121Y10.283Z-1.071
X61.148Y10.162Z-1.055
X61.138Y10.084Z-1.045
X61.165Y9.963Z-1.03
X61.155Y9.885Z-1.02
X61.183Y9.763Z-1.004
X61.172Y9.685Z-0.994
X61.2Y9.567Z-0.981
X61.201Y9.564Z-0.978
X61.193Y9.445Z-0.963
X61.223Y9.35Z-0.962
X61.216Y9.247Z-0.96
X61.246Y9.151Z-0.959
X61.24Y9.048Z-0.958
X61.27Y8.952Z-0.957
X61.265Y8.883Z-0.938
X61.289Y8.807Z-0.945
X61.302Y8.708Z-0.913
X61.301Y8.686Z-0.886
X61.326Y8.61Z-0.894
X61.341Y8.49Z-0.853
X61.355Y8.466Z-0.845
X61.377Y8.292Z-0.801
X61.392Y8.269Z-0.794
X61.403Y8.179Z-0.79
X61.422Y8.081Z-0.76
X61.428Y8.072Z-0.742
X61.439Y7.982Z-0.739
X61.46Y7.874Z-0.706
X61.458Y7.867Z-0.704
X61.498Y7.671Z-0.667
X61.643Y7.501Z-0.666
X61.709Y7.464Z-0.541
X61.702Y7.369Z-0.76F500
G0Z10
X63.732Y9.604
G1Z-0.393
X63.734Y9.833Z-0.022F1000
G0Z10
X64.237Y10.181
G1Z-0.329F500
X64.333Y10.023Z-0.587
X64.332Y9.943Z-0.577F1000
X64.399Y9.834Z-0.561
X64.396Y9.753Z-0.551
X64.464Y9.645Z-0.536
X64.46Y9.564Z-0.525
X64.535Y9.448Z-0.526
X64.534Y9.438Z-0.541F500
X64.556Y9.339Z-0.561F1000
X64.606Y9.261Z-0.527
X64.605Y9.251Z-0.542F500
X64.636Y9.109Z-0.537F1000
X64.674Y9.073
X64.707Y8.922Z-0.538
X64.72Y8.91Z-0.566F500
X64.787Y8.756Z-0.539F1000
G0Z10
X64.177Y10.35
G1Z-0.111F500
X64.261Y10.585Z-0.226F1000
G0Z10
X64.731Y10.691
G1Z-0.028F500
X64.781Y11.014Z-0.297
X64.755Y11.032Z-0.382
G0Z10
X62.936Y13.003
G1Z-1.299
X63.17Y12.634Z-0.744F1000
X63.176Y12.576Z-0.67
X63.273Y12.456Z-0.573
X63.284Y12.351Z-0.547
X63.293Y12.245Z-0.403
G0Z10
X62.861Y12.961
G1Z-1.562F500
X62.936Y13.003Z-1.299F1000
X62.942Y13.012Z-1.271
X63.142Y13.224Z-0.394
X62.796Y13.74Z-0.215
X63.072Y13.996Z-0.288
X62.939Y14.241Z-0.373
X63.023Y14.372Z-0.27
G0Z10
X62.416Y13.094
G1Z-0.139F500
X62.861Y12.961Z-1.562
X62.594Y12.525Z-0.221F1000
X62.637Y12.489Z-0.344F500
X62.747Y12.2Z-0.285F1000
G0Z10
X64.859Y15.369
G1Z-0.296F500
X64.931Y15.027Z-0.495F1000
X64.978Y14.991Z-0.335
X64.752Y14.478Z-0.238
X64.791Y14.453Z-0.366F500
X64.938Y14.281Z-0.793
X65.001Y14.09Z-0.835F1000
X64.999Y14.074Z-0.831
X65.027Y13.989Z-0.823
X65.057Y13.893Z-0.796
X65.055Y13.882Z-0.786
X65.084Y13.797Z-0.778
X65.114Y13.697Z-0.75
X65.113Y13.69Z-0.748
X65.146Y13.583Z-0.728
X65.176Y13.505Z-0.686
X65.173Y13.486Z-0.701F500
X65.203Y13.391Z-0.683F1000
X65.232Y13.313Z-0.64
X65.227Y13.281Z-0.631
X65.289Y13.121Z-0.593
X65.283Y13.088Z-0.585
X65.388Y12.823Z-0.23
X65.35Y12.795Z-0.365F500
X65.321Y12.614Z-0.318F1000
G0Z10
X66.315Y13.927
G1Z-0.047F500
X66.398Y14.123Z-0.412
X66.341Y14.288Z-0.228F1000
X66.385Y14.324Z-0.37F500
X66.413Y14.433Z-0.399F1000
X66.431Y14.542Z-0.239
G0Z10
X67.344Y15.942
G1Z-0.9F500
X67.41Y16.021Z-1.205
X67.472Y16.055Z-1.203F1000
X67.83Y16.041Z-1.83F500
X67.866Y16.049Z-1.923
G0Z10
X68.482Y15.036
G1Z-1.883
X68.751Y15.207Z-0.811F1000
G0Z10
X68.238Y14.267
G1Z-1.182F500
X68.472Y14.263Z-0.563F1000
X68.547Y14.238Z-0.309
X68.691Y14.353Z-0.31
X68.924Y14.395Z-0.848F500
G0Z10
X68.238Y14.267
G1Z-1.182
X68.109Y13.823Z-0.489F1000
X68.049Y13.774Z-0.241
X68.292Y13.375Z-0.912F500
X68.324Y13.176Z-1.017F1000
X68.293Y13.018Z-1.115F500
X68.314Y12.963Z-1.241
X68.316Y12.936Z-1.274
X68.42Y12.802Z-1.084F1000
X68.485Y12.635Z-0.975
X68.491Y12.63Z-0.982F500
X68.586Y12.45Z-0.876F1000
X68.592Y12.376Z-0.863
X68.654Y12.262Z-0.841
X68.659Y12.188Z-0.828
X68.722Y12.073Z-0.806
X68.726Y11.999Z-0.793
X68.796Y11.873Z-0.787
X68.799Y11.813Z-0.784
X68.869Y11.687Z-0.777
X68.873Y11.627Z-0.774
X68.915Y11.55Z-0.797
X68.949Y11.442Z-0.777
X68.972Y11.418Z-0.775
X68.997Y11.338Z-0.794
X69.038Y11.231Z-0.788
X69.04Y11.23Z-0.787
X69.112Y11.045Z-0.778
X69.113Y11.043
X69.185Y10.859Z-0.769
X69.262Y10.787Z-0.887F500
X69.313Y10.695Z-0.979
X69.484Y10.549Z-1.366
X69.656Y10.468Z-1.815
X69.686Y10.461Z-1.897
G0Z10
X67.595Y9.722
G1Z-0.137
X67.615Y9.58Z-0.221
G0Z10
X67.767Y8.568
G1Z-0.888
X67.791Y8.546Z-0.983
X67.822Y8.469Z-0.955F1000
X67.811Y8.42Z-0.834
X67.972Y8.194Z-0.909
X68.016Y8.008Z-0.694
X68.032Y8Z-0.728F500
X68.127Y7.905Z-0.819
X68.191Y7.825Z-0.801F1000
X68.225Y7.731Z-0.721
X68.255Y7.603Z-0.512
X68.254Y7.598Z-0.498
X68.429Y7.467Z-0.613
X68.503Y7.28Z-0.326
X68.495Y7.215Z-0.115
G0Z10
X67.822Y8.469
G1Z-0.955F500
X67.944Y8.518Z-0.705F1000
G0Z10
X68.078Y12.758
G1Z-0.625F500
X68.316Y12.936Z-1.274
G0Z10
X68.238Y14.267
G1Z-1.182
X68.197Y14.409Z-1.112F1000
X68.205Y14.614Z-1.269F500
X68.239Y14.712Z-1.432
X68.249Y14.776Z-1.53
X68.28Y14.883Z-1.71
X68.324Y14.992Z-1.939
X68.336Y15.015Z-1.963
G0Z10
X65.078Y17.273
G1Z-0.223
X65.086Y16.841Z-0.661
X65.222Y16.717Z-0.178F1000
X65.028Y16.458Z-0.852F500
X65.133Y15.952Z-0.212F1000
X65.218Y15.955Z-0.451F500
G0Z10
X63.331Y18.1
G1Z-0.369
X63.36Y18.334Z-1.028
X63.304Y18.549Z-0.935F1000
X63.132Y18.663Z-0.298
X63.288Y19.045Z-0.769F500
X63.268Y19.176Z-0.556F1000
X63.5Y19.415Z-0.635
G0Z10
X64.085Y20.253
G1Z-0.173F500
X64.09Y20.251Z-0.19
X64.103Z-0.191F1000
X64.108Y20.253Z-0.173
G0Z10
X64.84Y21.416
G1Z-0.199F500
X64.913Y21.194Z-0.555
X64.847Y20.961Z-0.214F1000
G0Z10
X64.923Y21.807
G1Z-0.263F500
X65.066Y21.98Z-0.667
X65.084Y22.082Z-0.663F1000
X65.093Y22.134Z-0.62
X65.13Y22.177Z-0.604
X65.152Y22.326Z-0.562
X65.19Y22.369Z-0.545
X65.199Y22.433Z-0.568
X65.227Y22.547Z-0.521
X65.244Y22.561Z-0.514
X65.287Y22.738Z-0.465
X65.305Y22.753Z-0.457
X65.343Y22.919Z-0.355
X65.332Y22.936Z-0.352
G0Z10
X65.924Y22.975
G1Z-0.356F500
X65.983Y22.711Z-0.048F1000
G0Z10
X65.804Y23.931
G1Z-0.5F500
X65.808Y23.726Z-0.617F1000
X65.908Y23.567Z-0.351
G0Z10
X63.908Y23.169
G1Z-0.253F500
X63.962Y23.534Z-0.674
X63.936Y23.603Z-0.694F1000
X63.954Y23.734Z-0.728
X63.93Y23.804Z-0.748
X63.946Y23.934Z-0.782
X63.923Y24.004Z-0.802
X63.938Y24.133Z-0.836
X63.916Y24.204Z-0.855
X63.92Y24.234Z-0.879F500
X63.93Y24.334Z-0.89F1000
X63.91Y24.405Z-0.908
X63.923Y24.533Z-0.941
X63.918Y24.551Z-0.963F500
X63.903Y24.695Z-0.995F1000
X63.912Y24.733Z-1.006
X63.896Y24.896Z-1.048
X63.946Y25.102Z-1.047
X63.964Y25.134Z-0.999
X63.917Y25.3Z-1.271F500
X63.919Y25.502Z-1.372F1000
X63.927Y25.528Z-1.411F500
X64.185Y25.639Z-0.969F1000
X64.218Y25.678Z-0.915
X64.56Y25.821Z-1.054
X64.691Y25.628Z-0.457
G0Z10
X64.528Y26.562
G1Z-0.169F500
X64.599Y26.433Z-0.487
X64.651Y26.305Z-0.69
X64.628Y26.104Z-0.789F1000
X64.568Y26.009Z-0.794
X64.581Y25.903Z-0.977F500
X64.56Y25.821Z-1.054
G0Z10
X64.633Y26.764
G1Z-0.47
X64.698Y26.983Z-0.33F1000
G0Z10
X63.645Y26.263
G1Z-1.194F500
X63.669Y26.2Z-1.085F1000
X63.638Y26.051Z-0.886
X63.804Y25.743Z-1.024
X63.818Y25.692Z-1.07F500
X63.927Y25.528Z-1.411
G0Z10
X63.645Y26.263
G1Z-1.194
X63.69Y26.36Z-1.011F1000
X64.054Y26.758Z-0.07
G0Z10
X63.152Y26.45
G1Z-0.701F500
X63.645Y26.263Z-1.194
G0Z10
X63.152Y26.45
G1Z-0.701
X63.165Y26.508Z-0.914
X63.247Y26.671Z-0.818F1000
X63.19Y26.978Z-0.214
G0Z10
X63.108Y27.166
G1Z-0.87F500
X63.141Y27.137Z-0.774F1000
X63.2Y27.087Z-0.598
X63.19Y26.978Z-0.214
G0Z10
X62.639Y26.981
G1Z-0.643F500
X62.705Y26.836Z-0.685F1000
X62.688Y26.724Z-0.475
X63.027Y26.359Z-0.17
X63.152Y26.45Z-0.701F500
G0Z10
X62.639Y26.981
G1Z-0.643
X62.877Y27.103Z-0.5F1000
X62.954Y27.112Z-0.608F500
X63.108Y27.166Z-0.87
G0Z10
X63.013Y27.591
G1Z-0.517
X63.108Y27.166Z-0.87
G0Z10
X62.589Y27.21
G1Z-0.328
X62.549Y27.04Z-0.344F1000
X62.639Y26.981Z-0.643F500
G0Z10
X61.258Y27.876
G1Z-0.886
X61.374Y27.787Z-0.806F1000
G0Z10
X61.244Y27.969
G1Z-0.702F500
X61.258Y27.876Z-0.886
G0Z10
X61.486Y28.712
G1Z-0.127
X61.537Y28.537Z-0.085F1000
G0Z10
X58.916Y27.787
G1Z-1.052F500
X59.213Y27.738Z-0.317F1000
G0Z10
X58.916Y27.787
G1Z-1.052F500
X58.911Y27.844Z-0.947F1000
X58.939Y27.939Z-0.831
X58.929Y28.056Z-0.678
X59.009Y28.239Z-0.665
X59.192Y28.378Z-0.264
G0Z10
X58.657Y26.973
G1Z-0.539F500
X58.616Y27.184Z-0.887
X58.643Y27.323Z-0.845F1000
X58.76Y27.49Z-0.898
X58.825Y27.534Z-0.795
X58.847Y27.662Z-1F500
X58.916Y27.787Z-1.052F1000
G0Z10
X57.471Y30.103
G1Z-1.907F500
X57.598Y29.817Z-1.825F1000
X57.684Y29.757Z-1.959F500
G0Z10
X57.131Y30.151
G1Z-0.791
X57.471Y30.103Z-1.907
G0Z10
X55.448Y28.815
G1Z-1.942
X55.539Y28.639Z-1.5F1000
X55.623Y28.6Z-1.248
G0Z10
X53.561Y28.079
G1Z-1.714F500
X53.596Y28.181Z-1.617F1000
G0Z10
X52.975Y27.773
G1Z-1.393F500
X53.144Y27.803Z-1.693
G0Z10
X51.16Y28.159
G1Z-2
X51.145Y28.153F1000
X51.121Y28.142
X51.097Y28.13
X51.074Y28.116
X51.052Y28.102
X51.031Y28.086
X51.01Y28.07
X50.99Y28.052
X50.925Y27.991
X50.954Y28.111
X51.146Y28.399
X51.148Y28.253
X51.15Y28.227
X51.152Y28.2
X51.157Y28.174
X51.16Y28.159
Z-1.804
X51.637Y27.904Z-0.818
X51.75Y27.931Z-0.401
X51.884Y27.713Z-0.358
X51.898Y27.69Z-0.287
G0Z10
X50.935Y28.031
G1Z-1.998F500
X50.933Y28.025Z-1.997F1000
X50.926Y28.01Z-1.985
X50.87Y27.793Z-1.647
X50.864Y27.587Z-1.461
X50.888Y27.479Z-1.464
X50.916Y27.372Z-1.478
X51.014Y27.189Z-1.557
X51.035Y27.165Z-1.537
X51.111Y26.781Z-1.299
X51.418Y26.623Z-1.514F500
X51.455Y26.517Z-1.642
X51.559Y26.339Z-1.717F1000
X51.693Y26.193Z-1.58
Y26.191Z-1.581F500
X51.754Y26.091Z-1.563F1000
X51.816Y25.994Z-1.495
X51.963Y25.857Z-1.524
X52.009Y25.831Z-1.493
X52.065Y25.766Z-1.517
X52.228Y25.65Z-1.53
X52.272Y25.633Z-1.544
X52.398Y25.544Z-1.588
X52.442Y25.526Z-1.601
X52.544Y25.454Z-1.642
X52.607Y25.423Z-1.653
X52.632Y25.404Z-1.674F500
X52.714Y25.347Z-1.701F1000
X52.772Y25.32Z-1.706
X52.858Y25.253Z-1.737
X52.942Y25.213Z-1.764
X53.028Y25.147Z-1.772
X53.112Y25.106Z-1.677
X53.161Y25.068Z-1.571
X53.239Y25.062Z-1.597
X53.65Y24.863Z-1.355
X53.79Y24.723Z-1.125
X54.162Y24.743Z-1.646F500
G0Z10
X56.313Y23.792
G1Z-0.324
X56.321Y23.679Z-0.572
X56.211Y23.483Z-0.356F1000
X56.148Y23.432Z-0.153
X56.242Y23.281Z-0.579F500
X56.259Y23.153Z-0.706
X56.257Y23.031Z-0.71F1000
X56.259Y23.025Z-0.709
X56.256Y22.83Z-0.683
X56.259Y22.825Z-0.682
X56.256Y22.63Z-0.655
X56.259Y22.625
X56.256Y22.43Z-0.628
X56.259Y22.425Z-0.627
X56.257Y22.327Z-0.62
Y22.227Z-0.608
X56.316Y22.129Z-0.58
X56.325Y22.114Z-0.562
X56.298Y22.025Z-0.735F500
X56.334Y21.826Z-0.843F1000
X56.413Y21.71Z-1.017F500
X56.42Y21.668Z-1.109
G0Z10
X56.746Y20.522
G1Z-0.374
X56.768Y20.55Z-0.5
X56.828Y20.902Z-0.413F1000
X56.546Y21.043Z-0.452
X56.621Y21.479Z-0.699
X56.42Y21.668Z-1.109F500
G0Z10
X58.264Y23.439
G1Z-1.729
X58.314Y23.493Z-1.806
Z-2
X58.277Y23.541F1000
X58.064Y24.277
X57.965Y25.017
X58.058Y25.041
X58.083Y25.048
X58.107Y25.057
X58.114Y25.06
X58.126Y25.043
X58.143Y25.024
X58.161Y25.005
X58.18Y24.987
X58.2Y24.969
X58.376Y24.829
X58.398Y24.814
X58.42Y24.8
X58.442Y24.787
X58.466Y24.775
X58.49Y24.764
X58.514Y24.755
X58.539Y24.746
X58.564Y24.739
X58.59Y24.733
X58.615Y24.728
X59.113Y24.662
X59.093Y24.487
X58.938Y24.105
X58.929Y24.08
X58.921Y24.055
X58.787Y23.559
X58.77
X58.743Y23.558
X58.717Y23.556
X58.691Y23.552
X58.314Y23.493
G0Z10
X58.789Y23.567
G1Z-1.978F500
X58.897Y23.393Z-1.443F1000
X58.952Y23.274Z-1.13
X58.981Y23.163Z-0.909
X58.984Y23.121Z-0.803
X59.045Y22.994Z-0.52
X59.011Y22.796Z-0.438
G0Z10
X59.017Y24.675
G1Z-1.947F500
X59.031Y24.705Z-1.881F1000
G0Z10
X58.114Y25.06
G1Z-1.726F500
X58.231Y25.479Z-1.083F1000
X58.533Y25.805Z-0.186
X58.579Y25.836Z-0.027
X58.459Y26.022Z-0.538F500
X58.405Y26.236Z-0.775
X58.442Y26.418Z-0.787F1000
X58.553Y26.586Z-0.552
G0Z10
X57.75Y25.236
G1Z-1.011F500
X57.968Y24.989Z-1.699
G0Z10
X60.976Y25.702
G1Z-0.608
X61.09Y25.919Z-0.352F1000
X60.814Y26.168Z-1.064F500
X60.749Y26.352Z-1.177
X60.805Y26.645Z-1.197F1000
X60.868Y26.698Z-0.97
X60.805Y27.317Z-0.334
X61.087Y27.41Z-0.793F500
X61.258Y27.876Z-0.886F1000
G0Z10
X66.605Y27.306
G1Z-0.409F500
X66.767Y27.454Z-1.167
X66.912Y27.525Z-1.636
X67.007Y27.565Z-1.832
X67.018Y27.588Z-1.885
X67.075Y27.666Z-1.993
G0Z10
X68.353Y28.046
G1Z-1.967
X68.403Y27.612Z-0.371F1000
G0Z10
X67.234Y25.319
G1Z-1.065F500
X67.461Y25.368Z-1.673
X67.566Y25.343Z-1.979
X67.574Y25.344Z-1.98F1000
G0Z10
X67.941Y22.783
G1Z-1.924F500
X67.851Y22.639Z-1.701F1000
X67.767Y22.401Z-1.494
X67.75Y22.229Z-1.365
X67.732Y22.204Z-1.393F500
X67.659Y22.014Z-1.351F1000
X67.639Y21.815Z-1.409
Y21.814
X67.619Y21.615Z-1.467
X67.62Y21.614Z-1.468
X67.603Y21.449Z-1.516
X67.605Y21.414Z-1.506
X67.582Y21.284Z-1.545
X67.586Y21.215Z-1.565
X67.562Y21.084Z-1.604
X67.563Y21.063Z-1.622F500
X67.553Y20.911Z-1.664F1000
X67.545Y20.884Z-1.673
X67.534Y20.711Z-1.723
X67.526Y20.684Z-1.731
X67.523Y20.638Z-1.721
X67.541Y20.511Z-1.68
X67.536Y20.438Z-1.656
X67.555Y20.311Z-1.615
X67.549Y20.238Z-1.591
X67.568Y20.11Z-1.55
X67.562Y20.037Z-1.526
X67.586Y19.886Z-1.494
X67.581Y19.838Z-1.483
X67.605Y19.687Z-1.451
X67.6Y19.639Z-1.44
X67.624Y19.488Z-1.408
X67.619Y19.439Z-1.398
X67.644Y19.288Z-1.365
X67.639Y19.24Z-1.355
X67.656Y19.136Z-1.344
X67.657Y19.04Z-1.31
X67.658Y19.036Z-1.312
X67.675Y18.936Z-1.302
X67.676Y18.841Z-1.267
X67.694Y18.784Z-1.254
Y18.731Z-1.26
X67.698Y18.631Z-1.23
X67.713Y18.584Z-1.211
Y18.532Z-1.217
X67.718Y18.42Z-1.183
X67.731Y18.385Z-1.175
X67.737Y18.221Z-1.14
X67.75Y18.186Z-1.132
X67.756Y18.021Z-1.097
X67.769Y17.986Z-1.089
X67.775Y17.822Z-1.054
X67.804Y17.749Z-1.058
X67.808Y17.625Z-1.064
X67.837Y17.552Z-1.068
X67.841Y17.427Z-1.074
X67.87Y17.354Z-1.078
X67.874Y17.23Z-1.085
X67.901Y17.161Z-1.092
X67.907Y17.06Z-1.107
X67.908Y17.033Z-1.095
X67.934Y16.964Z-1.102
X67.941Y16.836Z-1.107
X67.967Y16.771Z-1.11
X67.978Y16.57Z-1.203
X67.925Y16.357Z-1.486F500
X67.922Y16.351Z-1.487F1000
X67.899Y16.149Z-1.774F500
X67.866Y16.049Z-1.923
G0Z10
X62.529Y20.492
G1Z-1.792
X62.456Y20.31Z-1.408F1000
X62.479Y20.085Z-1.022
X62.597Y19.933Z-0.63
X62.635Y19.929Z-0.615
G0Z10
X62.529Y20.492
G1Z-1.792F500
Z-1.793
X62.718Y20.568Z-1.371F1000
X62.952Y20.524Z-1.08
X62.98Y20.502Z-0.958
G0Z10
X62.455Y21.112
G1Z-0.471F500
X62.328Y20.952Z-0.577F1000
X62.477Y20.54Z-1.582F500
X62.529Y20.492Z-1.792
G0Z10
X60.567Y19.877
G1Z-2
X60.503Y19.184F1000
X60.377Y18.87
X60.241Y18.742
X60.101Y18.635
X59.738Y18.899
X59.651Y18.985
X59.668Y18.986
X59.694Y18.988
X59.72Y18.992
X59.746Y18.997
X59.772Y19.004
X59.797Y19.011
X59.919Y19.054
X59.944Y19.065
X59.968Y19.076
X59.992Y19.088
X60.014Y19.102
X60.036Y19.117
X60.058Y19.133
X60.078Y19.149
X60.098Y19.167
X60.117Y19.186
X60.135Y19.206
X60.151Y19.226
X60.167Y19.248
X60.182Y19.27
X60.195Y19.293
X60.208Y19.316
X60.219Y19.34
X60.229Y19.365
X60.238Y19.39
X60.245Y19.415
X60.252Y19.441
X60.257Y19.467
X60.26Y19.494
X60.263Y19.52
X60.264Y19.547
X60.261Y19.892
X60.286Y19.884
X60.311Y19.877
X60.336Y19.872
X60.362Y19.868
X60.388Y19.865
X60.414Y19.863
X60.44
X60.466Y19.864
X60.492Y19.866
X60.518Y19.869
X60.567Y19.877
X60.566Y19.871Z-1.948
X60.583Y19.894Z-1.942
X60.766Y20.089Z-1.143
X60.808Y20.478Z-0.505
G0Z10
X59.668Y18.968
G1Z-1.746F500
X59.395Y19.032Z-1.448F1000
X59.378Z-1.404
X58.98Y19.451Z-0.896
X59.005Y19.559Z-1.083F500
X58.921Y20.002Z-0.786F1000
X59.063Y20.147Z-1.158F500
X59.104Y20.285Z-0.927F1000
X59.414Y20.466Z-0.892
X59.448Y20.459Z-0.957F500
X59.713Y20.471Z-0.946F1000
X60.016Y20.233Z-1.344F500
X60.018Y20.232Z-1.343F1000
X60.261Y19.892Z-1.787F500
G0Z10
X59.947Y18.551
G1Z-1.409
X60.012Y18.7Z-1.856
G0Z10
X58.749Y16.96
G1Z-2
X58.961Y16.763F1000
X58.981Y16.747
X59.001Y16.731
X59.022Y16.717
X59.044Y16.703
X59.066Y16.691
X59.089Y16.679
X59.112Y16.669
X59.139Y16.659
X59.121Y16.661
X59.095Y16.663
X59.069
X59.043
X59.016Y16.66
X58.99Y16.657
X58.964Y16.653
X58.939Y16.647
X58.914Y16.64
X58.889Y16.631
X58.864Y16.622
X58.847Y16.614
X58.776Y16.886
X58.769Y16.911
X58.76Y16.935
X58.749Y16.96
G0Z10
X59.139Y16.659
G1Z-1.947F500
X59.374Y16.604Z-1.899F1000
X59.404Y16.579Z-1.947F500
X59.519Y16.523Z-1.97F1000
G0Z10
X58.574Y15.737
G1Z-1.495F500
X58.673Y15.516Z-1.151F1000
X58.765Y15.423Z-0.817
X58.804Y15.424Z-0.669
X59.249Y15.244Z-0.553
G0Z10
X58.683Y14.818
G1Z-1.366F500
X58.734Y14.801Z-1.24F1000
X59.157Y14.708Z-1.248
G0Z10
X58.683Y14.818
G1Z-1.366F500
X58.606Y14.707Z-1.103F1000
X58.571Y14.583Z-0.995
X58.553Y14.484Z-0.946
X58.564Y14.383Z-0.985
X58.574Y14.33Z-0.972
X58.559Y14.258Z-1.011
X58.587Y14.056Z-1.156F500
X58.71Y13.805Z-1.706
X58.767Y13.733Z-1.942
G0Z10
X58.683Y14.818
G1Z-1.366
X58.659Y14.904Z-1.26F1000
X58.662Y15.104Z-1.231
X58.765Y15.423Z-0.817
G0Z10
X58.574Y15.737
G1Z-1.495F500
X58.646Y16.011Z-1.274F1000
X58.708Y16.099Z-1.241
X58.813Y16.628Z-1.891F500
X58.835Y16.657Z-1.926
G0Z10
X57.849Y18.025
G1Z-1.339
X58.051Y17.798Z-1.383F1000
X58.059Y17.783Z-1.361
X58.211Y17.676Z-1.406
X58.341Y17.522Z-1.498
X58.402Y17.398Z-1.538
X58.456Y17.267Z-1.509
X58.463Y17.235Z-1.478
X58.603Y17.131Z-1.783F500
X58.738Y16.983Z-1.964
X58.757Y16.953Z-1.97F1000
G0Z10
X57.784Y18.305
G1Z-0.699F500
X57.868Y18.256Z-0.636F1000
X57.849Y18.025Z-1.339F500
G0Z10
X56.83Y18.51
G1Z-0.458
X56.857Y18.429Z-0.442F1000
X57.084Y18.359Z-0.352
X57.089Y18.073Z-0.36
X57.376Y17.988Z-0.916F500
X57.495Y17.921Z-0.895F1000
X57.569Y17.93Z-1.047F500
X57.849Y18.025Z-1.339
G0Z10
X57.375Y12.296
G1Z-0.244
X57.336Y12.676Z-0.781
X57.357Y12.712Z-0.72F1000
X57.297Y12.997Z-0.399
X57.437Y13.101Z-0.512F500
X57.449Y13.381Z-0.417F1000
X57.41Y13.408Z-0.529F500
X57.318Y13.68Z-0.435F1000
X57.072Y13.744Z-0.153
X57.139Y14.318Z-0.481
X56.889Y14.422Z-0.262
X57.057Y15.088Z-0.732F500
X57.078Y15.096Z-0.759
X57.216Y15.582Z-0.358F1000
X57.739Y15.603Z-0.745F500
X57.743Y15.613Z-0.777
X57.941Y15.807Z-0.962
X58.574Y15.737Z-1.495
G0Z10
X57.671Y12.095
G1Z-0.635
X57.689Y12.076Z-0.605F1000
X58.087Y11.958Z-1.322F500
X58.29Y11.948Z-1.835
G0Z10
X55.9Y12.353
G1Z-0.255
X55.868Y12.114Z-0.677
X55.933Y11.923Z-0.643F1000
X55.98Y11.882Z-0.65
X56.026Y11.751Z-0.669
X56.075Y11.706Z-0.67
X56.116Y11.579Z-0.685
X56.135Y11.561Z-0.717F500
X56.215Y11.429Z-0.729F1000
X56.217Y11.405Z-0.732
X56.309Y11.252Z-0.752
X56.311Y11.229Z-0.754
X56.403Y11.075Z-0.691
X56.422Y10.869Z-0.219
X56.67Y10.844Z-0.491F500
X56.77Y10.639Z-0.417F1000
X56.915Y10.613Z-0.44
X56.935Y10.624Z-0.407
G0Z10
X57.959Y9.423
G1Z-0.158F500
X57.881Y9.648Z-0.665
X57.892Y9.779Z-0.756
X57.921Y9.906Z-0.759F1000
X58.062Y10.078Z-0.614
X58.148Y10.132Z-0.408
X58.16Y10.26Z-0.568F500
X58.192Y10.341Z-0.589F1000
G0Z10
X55.843Y12.548
G1Z-0.205F500
X55.469Y12.796Z-0.147F1000
X55.641Y13.142Z-0.592F500
X55.825Y13.297Z-0.01F1000
G0Z10
X52.207Y11.855
G1Z-0.073F500
X52.217Y11.919Z-0.3
X52.33Y12.084Z-0.806
X52.519Y12.198Z-1.161
X52.644Y12.227Z-1.465
X52.668Y12.238Z-1.531
X52.799Y12.289Z-1.844
X52.856Y12.299Z-1.875F1000
G0Z10
X53.78Y7.207
G1Z-1.174F500
X53.852Y7.161Z-0.968F1000
X54.049Y7.163Z-0.478
G0Z10
X53.78Y7.207
G1Z-1.174F500
X53.774Y7.247Z-1.113F1000
X53.836Y7.596Z-0.755
G0Z10
X53.319Y6.217
G1Z-1.047F500
X53.223Y6.405Z-0.912F1000
X53.204Y6.624Z-0.465
X53.296Y6.761Z-0.296
X53.272Y6.816Z-0.317
X53.321Y6.918Z-0.281
X53.387Y7.011Z-0.318
X53.424Y7.014Z-0.413F500
X53.562Y7.14Z-0.634
X53.724Y7.174Z-1.032
X53.78Y7.207Z-1.174
G0Z10
X53.319Y6.217
G1Z-1.047
X53.382Y6.244Z-0.798F1000
G0Z10
X52.652Y4.933
G1Z-0.029F500
X52.585Y5.166Z-0.562
X52.634Y5.361Z-0.581F1000
X52.774Y5.491Z-0.603
X52.926Y5.548Z-0.301
X52.915Y5.646Z-0.57F500
X52.938Y5.755Z-0.768
X52.962Y5.855Z-0.926
X53.018Y5.939Z-0.979F1000
X53.082Y6.028Z-1.051F500
X53.271Y6.159Z-1.252
X53.285Y6.164Z-1.247F1000
X53.319Y6.217Z-1.047
G0Z10
X52.692Y4.132
G1Z-0.561F500
X52.974Y4.134Z-0.053F1000
G0Z10
X53.076Y3.737
G1Z-0.172F500
X53.086Y3.735Z-0.203
X53.089Y3.737Z-0.215
G0Z10
X52.929Y3.305
G1Z-0.177
X52.936Y3.303Z-0.2
X52.948Z-0.194F1000
X52.949Z-0.189
G0Z10
X52.849Y2.603
G1Z-0.414F500
X52.861Y2.81Z-0.405F1000
X52.932Y2.878Z-0.144
G0Z10
X52.317Y4.091
G1Z-0.567F500
X52.306Y4.259Z-0.704
X52.321Y4.295Z-0.678F1000
X52.316Y4.466Z-0.498
X52.42Y4.616Z-0.442
X52.527Y4.686Z-0.156
G0Z10
X50.768Y1.819
G1Z-0.196F500
X50.84Y1.735Z-0.462
X50.903Y1.531Z-0.572F1000
X50.864Y1.399Z-0.345
G0Z10
X49.943Y0.845
G1Z-0.394F500
X50.021Y1.033Z-0.655
X49.996Y1.242Z-0.568F1000
X49.897Y1.416Z-0.129
X49.941Y1.446Z-0.278F500
X50.015Y1.534Z-0.514
X50.084Y1.622Z-0.732
X50.138Y1.805Z-0.784F1000
X50.109Y1.989Z-0.491
X50.136Y2.009Z-0.562F500
X50.349Y2.35Z-0.59F1000
X50.492Z-0.155
G0Z10
X52.563Y0.959
G1Z-0.616F500
X52.571Y1.006Z-0.776
X52.616Y1.13Z-0.938
X52.598Y1.229Z-0.834F1000
X52.468Y1.423Z-0.276
X52.64Y1.583Z-0.855F500
X52.633Y1.935Z-0.626F1000
X52.734Y2.112Z-0.487
G0Z10
X63.945Y22.425
G1Z-0.189F500
X63.95Y22.427Z-0.203
X63.96Y22.424Z-0.19F1000
G0Z10
X54.532Y31.924
G1Z-1.498F500
X54.605Y31.871Z-1.592
X54.762Y31.709Z-1.684F1000
X54.872Y31.534Z-1.569
X54.925Y31.378Z-1.52
X54.934Y31.365Z-1.527
X54.971Y31.271Z-1.498
X54.998Y31.191Z-1.46
X55.007Y31.178Z-1.467
X55.073Y31.01Z-1.413
X55.074Y31.006Z-1.412
X55.142Y30.834Z-1.357
X55.149Y30.824Z-1.343
X55.206Y30.66Z-1.291
X55.222Y30.637Z-1.283
X55.278Y30.473Z-1.231
X55.295Y30.45Z-1.223
X55.36Y30.261Z-1.194
X55.365Y30.054Z-1.035
X55.312Y29.83Z-0.617
X55.313Y29.829Z-0.62F500
X55.638Y29.512Z-0.906
X55.578Y29.018Z-1.454
X55.448Y28.815Z-1.942
G0Z10
X54.532Y31.924
G1Z-1.498
X54.631Y32.088Z-1.836
X54.714Y32.322Z-1.286F1000
X54.727Y32.534Z-1.011
X54.661Y32.753Z-0.948
X54.737Y33.114Z-0.15
X54.4Y33.217Z-0.953F500
G0Z10
X53.819Y33.684
G1Z-0.545
X53.83Y33.683Z-0.569
X53.991Y33.65Z-0.894
X54.176Y33.553Z-1.071
X54.313Y33.407Z-1.107F1000
X54.4Y33.217Z-0.953
G0Z10
X53.793Y32.663
G1Z-1.171F500
X53.795Y32.659Z-1.172F1000
X53.933Y32.52Z-1.191
X53.935Y32.516
X54.075Y32.374Z-1.215
X54.16Y32.328Z-1.249
X54.518Y31.924Z-1.455
X54.532Z-1.498F500
G0Z10
X53.793Y32.663
G1Z-1.171
X54.191Y33.073Z-0.009F1000
X54.216Y33.076Z-0.087F500
X54.4Y33.217Z-0.953
G0Z10
X53.729Y33.78
G1Z-0.574
X53.73Y33.779Z-0.575
X53.819Y33.684Z-0.545F1000
G0Z10
X53.33Y33.142
G1Z-1.095F500
X53.412Y33.05Z-1.115F1000
X53.472Y33.001Z-1.1
X53.485Y32.982Z-1.12F500
X53.552Y32.907Z-1.135F1000
X53.56Y32.901Z-1.14
X53.653Y32.806Z-1.152
X53.655Y32.803
X53.793Y32.663Z-1.171
G0Z10
X53.33Y33.142
G1Z-1.095F500
X53.807Y33.633Z-0.375F1000
X53.819Y33.684Z-0.545F500
G0Z10
X53.08Y33.605
G1Z-0.764
X53.291Y34.457Z-1.098F1000
X53.336Y34.461Z-0.961
X53.66Y33.995Z-0.981
X53.729Y33.78Z-0.574
G0Z10
X53.08Y33.605
G1Z-0.764F500
X53.729Y33.78Z-0.574F1000
G0Z10
X53.075Y33.601
G1Z-0.788F500
X53.089Y33.498Z-0.968
X53.173Y33.303Z-1.104
X53.307Y33.154Z-1.092F1000
X53.33Y33.142Z-1.095
G0Z10
X53.075Y33.601
G1Z-0.788F500
X53.08Y33.605Z-0.764F1000
G0Z10
X52.858Y34.533
G1Z-2F500
X52.861Y34.585F1000
X52.896Y34.544
X52.874Y34.538
X52.858Y34.533
X52.859Y34.545Z-1.969
X52.683Y34.355Z-1.377
X52.661Y33.948Z-1.086
X52.794Y33.769Z-1.25F500
X52.957Y33.648Z-1.045F1000
X53.075Y33.601Z-0.788
G0Z10
X52.892Y34.549
G1Z-1.949F500
X53.291Y34.457Z-1.098F1000
G0Z10
X52.454Y35.326
G1Z-1.866F500
X52.568Y35.148Z-1.785F1000
X52.716Y35.052Z-1.534
X52.861Y34.579Z-1.977F500
G0Z10
X52.454Y35.326
G1Z-1.866
X52.508Y35.665Z-1.302F1000
X52.535Y35.69Z-1.181
G0Z10
X52.334Y35.809
G1Z-0.776F500
X52.508Y35.665Z-1.302
G0Z10
X53.756Y36.363
G1Z-1.113
X53.757Y36.369Z-1.134
X53.847Y36.445Z-1.371
X54.033Y36.563Z-0.92F1000
X54.08Y36.807Z-1.074F500
X54.182Y36.982Z-0.973F1000
X54.31Y37.099Z-0.652
X54.3Y37.131Z-0.722F500
X54.291Y37.241Z-0.881
X54.288Y37.349Z-1.014
X54.332Y37.526Z-1.007F1000
X54.412Y37.645Z-1.107F500
X54.433Y37.702Z-1.131F1000
X54.562Y37.867Z-1.366F500
X54.696Y37.966Z-1.591
X55.051Y37.804Z-0.706F1000
Y37.796Z-0.719F500
X55.159Y37.237Z-1.047F1000
X55.169Y37.227Z-1.015
X55.185Y36.979Z-1.012
X55.15Y36.862Z-0.995
X55.156Y36.781Z-0.983
X55.121Y36.664Z-0.965
Y36.652Z-0.974F500
X55.117Y36.551Z-0.967F1000
X55.091Y36.466Z-0.936
X55.092Y36.454Z-0.945F500
X55.086Y36.32Z-0.921F1000
X55.063Y36.268Z-0.912
X55.057Y36.122Z-0.891
X55.033Y36.07Z-0.883
X55.028Y35.924Z-0.862
X55.011Y35.888Z-0.874
X54.992Y35.705Z-0.88
X55.034Y35.57Z-0.835
X55.005Y35.502Z-0.97F500
X54.995Y35.302Z-1.055F1000
X55.058Y35.094Z-1.37F500
X55.146Y34.952Z-1.453F1000
X55.139Y34.722Z-1.075
X55.263Y34.641Z-1.374F500
X55.489Y34.303Z-1.363F1000
X55.86Y34.147Z-0.446
X55.779Y33.631Z-0.529
X55.965Y33.527Z-0.883F500
X56.101Y33.374Z-0.908F1000
X56.144Y33.251Z-0.922
X56.193Y33.196Z-0.93
X56.236Y33.074Z-0.944
X56.285Y33.018Z-0.953
X56.328Y32.896Z-0.967
X56.376Y32.84Z-0.975
X56.42Y32.718Z-0.989
X56.468Y32.662Z-0.998
X56.511Y32.543Z-1.013
X56.512Y32.541Z-1.011
X56.569Y32.461Z-1.035
X56.603Y32.365
X56.604Y32.363Z-1.033
X56.675Y32.262Z-1.047
X56.696Y32.185Z-1.056
X56.767Y32.084Z-1.069
X56.783Y32.026Z-1.09
X56.856Y31.905Z-1.101
X56.865Y31.864Z-1.106
X56.948Y31.727Z-1.123
X56.957Y31.686Z-1.128
X57.04Y31.55Z-1.145
X57.049Y31.508Z-1.15
X57.132Y31.372Z-1.168
X57.141Y31.331Z-1.172
X57.223Y31.194Z-1.19
X57.233Y31.153Z-1.194
X57.296Y31.048Z-1.181
X57.315Y30.97Z-1.173
X57.378Y30.865Z-1.16
X57.411Y30.725Z-1.23
X57.418Y30.659Z-1.219
X57.455Y30.589Z-1.286F500
X57.498Y30.39Z-1.422
X57.488Y30.169Z-1.771
X57.471Y30.103Z-1.907
G0Z10
X51.146Y28.387
G1Z-1.975
X51.153Y28.4Z-1.973F1000
X51.218Y28.676Z-1.394
X51.497Y28.891Z-1.432
X51.684Y28.97Z-1.243
X51.767Y28.984Z-1.09
X51.783Y29.011Z-1.13F500
X51.843Y29.11Z-1.278
X51.989Y29.253Z-1.298F1000
X52.166Y29.348Z-1.359
X52.47Y29.418Z-1.362
X52.536Y29.521Z-1.274
X53.11Y29.603Z-1.323
X53.344Y29.434Z-1.099
