(Created with grbl post processor 2024/12/13 12:46)
G21
(G-code Generated with Fabex and NC library)
G17G90
S12000M03
G00 Z10.0

G0X0Y0Z10
X4.499Y1.5
G1Z0F500
X5.419F1000
Y13.38
X23.699
Y1.5
X24.62
Y25.78
X23.699
Y13.9
X5.419
Y25.78
X4.499
Y1.5
X3.499Y0.5
X6.419
Y12.38
X22.699
Y0.5
X25.62
Y26.78
X22.699
Y14.9
X6.419
Y26.78
X3.499
Y0.5
G0Z10
X32.532Y7.046
G1Z0F500
X32.559Y6.924F1000
X32.589Y6.803
X32.619Y6.682
X32.652Y6.563
X32.686Y6.444
X32.721Y6.326
X32.758Y6.208
X32.796Y6.092
X32.836Y5.976
X32.877Y5.862
X32.92Y5.748
X32.964Y5.635
X33.01Y5.523
X33.057Y5.412
X33.105Y5.303
X33.155Y5.194
X33.206Y5.086
X33.259Y4.979
X33.313Y4.874
X33.368Y4.769
X33.425Y4.666
X33.483Y4.564
X33.543Y4.463
X33.604Y4.363
X33.666Y4.264
X33.729Y4.167
X33.794Y4.071
X33.86Y3.976
X33.928Y3.883
X33.996Y3.79
X34.066Y3.7
X34.138Y3.61
X34.21Y3.522
X34.284Y3.435
X34.359Y3.349
X34.436Y3.265
X34.513Y3.183
X34.592Y3.101
X34.672Y3.021
X34.754Y2.943
X34.836Y2.866
X34.92Y2.791
X35.005Y2.717
X35.092Y2.644
X35.179Y2.573
X35.268Y2.504
X35.358Y2.436
X35.449Y2.369
X35.542Y2.305
X35.636Y2.241
X35.731Y2.18
X35.828Y2.119
X35.925Y2.061
X36.024Y2.004
X36.125Y1.949
X36.226Y1.895
X36.329Y1.843
X36.434Y1.793
X36.539Y1.744
X36.646Y1.697
X36.755Y1.652
X36.865Y1.609
X36.976Y1.567
X37.089Y1.527
X37.203Y1.489
X37.318Y1.453
X37.435Y1.418
X37.554Y1.386
X37.674Y1.355
X37.795Y1.326
X37.918Y1.299
X38.043Y1.274
X38.169Y1.252
X38.297Y1.231
X38.426Y1.212
X38.557Y1.195
X38.69Y1.181
X38.824Y1.168
X38.96Y1.158
X39.097Y1.15
X39.236Y1.144
X39.377Y1.141
X39.524Y1.14
X39.687
X39.852Y1.143
X40.013Y1.146
X40.172Y1.152
X40.328Y1.158
X40.405Y1.162
X40.482Y1.166
X40.557Y1.171
X40.632Y1.176
X40.707Y1.181
X40.781Y1.187
X40.854Y1.193
X40.926Y1.2
X40.998Y1.207
X41.07Y1.214
X41.141Y1.221
X41.211Y1.229
X41.28Y1.237
X41.35Y1.246
X41.418Y1.255
X41.486Y1.264
X41.554Y1.274
X41.621Y1.284
X41.687Y1.294
X41.753Y1.305
X41.819Y1.316
X41.884Y1.328
X41.949Y1.339
X42.013Y1.352
X42.077Y1.364
X42.14Y1.377
X42.203Y1.39
X42.265Y1.404
X42.328Y1.417
X42.389Y1.432
X42.451Y1.446
X42.512Y1.461
X42.573Y1.476
X42.633Y1.492
X42.693Y1.508
X42.753Y1.524
X42.812Y1.541
X42.872Y1.558
X42.931Y1.576
X42.989Y1.593
X43.048Y1.612
X43.106Y1.63
X43.164Y1.649
X43.222Y1.668
X43.279Y1.688
X43.337Y1.708
X43.394Y1.728
X43.451Y1.749
X43.508Y1.77
X43.565Y1.792
X43.622Y1.814
X43.678Y1.836
X43.735Y1.859
X43.791Y1.882
X43.904Y1.929
X44.016Y1.979
X44.128Y2.029
X44.24Y2.082
X44.353Y2.136
X44.465Y2.192
X44.577Y2.249
X44.69Y2.309
X44.803Y2.37
X44.917Y2.433
X45.031Y2.498
X45.145Y2.565
X45.18Y2.586
Y2.647
X45.053Y2.59
X44.984Y2.559
X44.914Y2.529
X44.845Y2.499
X44.775Y2.469
X44.705Y2.44
X44.635Y2.411
X44.565Y2.383
X44.495Y2.355
X44.425Y2.328
X44.355Y2.3
X44.284Y2.274
X44.214Y2.247
X44.143Y2.222
X44.072Y2.196
X44.001Y2.171
X43.931Y2.147
X43.859Y2.123
X43.788Y2.099
X43.717Y2.076
X43.646Y2.053
X43.574Y2.031
X43.503Y2.009
X43.431Y1.988
X43.359Y1.967
X43.287Y1.946
X43.215Y1.926
X43.143Y1.907
X43.071Y1.888
X42.998Y1.869
X42.926Y1.851
X42.853Y1.833
X42.781Y1.816
X42.708Y1.8
X42.635Y1.783
X42.562Y1.768
X42.489Y1.753
X42.416Y1.738
X42.342Y1.724
X42.269Y1.71
X42.195Y1.697
X42.122Y1.684
X42.048Y1.672
X41.974Y1.661
X41.9Y1.649
X41.826Y1.639
X41.752Y1.629
X41.677Y1.619
X41.603Y1.61
X41.528Y1.602
X41.454Y1.594
X41.379Y1.586
X41.304Y1.579
X41.229Y1.573
X41.154Y1.567
X41.079Y1.562
X41.004Y1.557
X40.929Y1.553
X40.853Y1.55
X40.778Y1.546
X40.702Y1.544
X40.627Y1.542
X40.551Y1.541
X40.475Y1.54
X40.398Y1.539
X40.281Y1.54
X40.162Y1.542
X40.044Y1.545
X39.927Y1.55
X39.811Y1.556
X39.695Y1.563
X39.579Y1.571
X39.464Y1.581
X39.35Y1.592
X39.237Y1.605
X39.124Y1.618
X39.011Y1.634
X38.899Y1.65
X38.788Y1.668
X38.678Y1.688
X38.568Y1.708
X38.458Y1.73
X38.35Y1.754
X38.242Y1.779
X38.135Y1.806
X38.028Y1.833
X37.922Y1.863
X37.817Y1.894
X37.712Y1.926
X37.608Y1.96
X37.505Y1.995
X37.403Y2.032
X37.302Y2.07
X37.201Y2.11
X37.101Y2.151
X37.002Y2.194
X36.903Y2.238
X36.806Y2.284
X36.709Y2.331
X36.614Y2.38
X36.519Y2.43
X36.425Y2.482
X36.332Y2.535
X36.24Y2.589
X36.149Y2.646
X36.059Y2.703
X35.97Y2.763
X35.883Y2.823
X35.796Y2.885
X35.71Y2.949
X35.626Y3.014
X35.542Y3.08
X35.46Y3.148
X35.378Y3.217
X35.298Y3.287
X35.22Y3.359
X35.142Y3.432
X35.066Y3.507
X34.99Y3.583
X34.916Y3.66
X34.844Y3.738
X34.772Y3.818
X34.702Y3.899
X34.633Y3.981
X34.565Y4.064
X34.499Y4.148
X34.434Y4.234
X34.37Y4.321
X34.307Y4.408
X34.246Y4.497
X34.186Y4.587
X34.127Y4.678
X34.07Y4.771
X34.014Y4.864
X33.959Y4.958
X33.906Y5.053
X33.853Y5.149
X33.802Y5.246
X33.752Y5.345
X33.704Y5.444
X33.657Y5.544
X33.611Y5.645
X33.566Y5.747
X33.522Y5.849
X33.48Y5.953
X33.439Y6.057
X33.399Y6.163
X33.36Y6.269
X33.323Y6.376
X33.286Y6.484
X33.251Y6.593
X33.217Y6.703
X33.184Y6.814
X33.153Y6.925
X33.122Y7.038
X33.093Y7.151
X33.065Y7.265
X33.037Y7.38
X33.011Y7.495
X32.986Y7.612
X32.962Y7.729
X32.94Y7.847
X32.918Y7.966
X32.897Y8.086
X32.7Y9.3
X32.656
X32.679Y9.43
X32.596Y9.94
X32.767
X32.978Y11.148
X32.996Y11.247
X33.015Y11.344
X33.034Y11.441
X33.055Y11.538
X33.077Y11.634
X33.099Y11.729
X33.122Y11.824
X33.147Y11.918
X33.172Y12.011
X33.198Y12.104
X33.225Y12.197
X33.253Y12.289
X33.282Y12.38
X33.312Y12.47
X33.342Y12.56
X33.374Y12.649
X33.407Y12.738
X33.441Y12.826
X33.475Y12.914
X33.511Y13
X33.548Y13.086
X33.585Y13.172
X33.624Y13.257
X33.664Y13.341
X33.704Y13.424
X33.746Y13.507
X33.789Y13.589
X33.833Y13.67
X33.877Y13.75
X33.923Y13.83
X33.97Y13.909
X34.018Y13.987
X34.067Y14.064
X34.117Y14.141
X34.169Y14.217
X34.221Y14.292
X34.274Y14.366
X34.329Y14.439
X34.384Y14.511
X34.441Y14.583
X34.498Y14.653
X34.557Y14.723
X34.616Y14.791
X34.677Y14.859
X34.739Y14.926
X34.802Y14.991
X34.866Y15.056
X34.931Y15.119
X34.997Y15.182
X35.064Y15.243
X35.132Y15.304
X35.201Y15.363
X35.271Y15.421
X35.341Y15.478
X35.413Y15.533
X35.486Y15.588
X35.56Y15.641
X35.634Y15.694
X35.71Y15.745
X35.786Y15.794
X35.864Y15.843
X35.942Y15.89
X36.021Y15.936
X36.1Y15.981
X36.181Y16.024
X36.262Y16.067
X36.344Y16.108
X36.427Y16.147
X36.511Y16.186
X36.595Y16.223
X36.68Y16.258
X36.765Y16.293
X36.851Y16.326
X36.938Y16.358
X37.026Y16.388
X37.114Y16.417
X37.203Y16.445
X37.292Y16.472
X37.382Y16.497
X37.472Y16.521
X37.563Y16.544
X37.654Y16.565
X37.746Y16.586
X37.839Y16.604
X37.932Y16.622
X38.025Y16.638
X38.119Y16.654
X38.213Y16.667
X38.308Y16.68
X38.403Y16.691
X38.499Y16.702
X38.595Y16.711
X38.691Y16.718
X38.788Y16.725
X38.886Y16.73
X38.984Y16.734
X39.082Y16.737
X39.181Y16.739
X39.28Y16.74
X39.375Y16.739
X39.471Y16.737
X39.566Y16.734
X39.661Y16.729
X39.755Y16.723
X39.849Y16.716
X39.943Y16.707
X40.036Y16.697
X40.129Y16.686
X40.221Y16.673
X40.313Y16.659
X40.405Y16.644
X40.496Y16.627
X40.586Y16.609
X40.676Y16.589
X40.766Y16.568
X40.855Y16.546
X40.943Y16.522
X41.031Y16.497
X41.118Y16.471
X41.205Y16.443
X41.291Y16.414
X41.377Y16.384
X41.462Y16.352
X41.546Y16.318
X41.629Y16.284
X41.712Y16.248
X41.794Y16.21
X41.875Y16.172
X41.956Y16.131
X42.035Y16.09
X42.114Y16.047
X42.192Y16.003
X42.27Y15.958
X42.346Y15.911
X42.421Y15.863
X42.496Y15.814
X42.57Y15.763
X42.642Y15.712
X42.714Y15.659
X42.785Y15.604
X42.855Y15.549
X42.923Y15.492
X42.991Y15.434
X43.058Y15.375
X43.123Y15.315
X43.188Y15.254
X43.251Y15.192
X43.314Y15.128
X43.375Y15.064
X43.435Y14.999
X43.494Y14.932
X43.552Y14.865
X43.609Y14.796
X43.665Y14.727
X43.719Y14.656
X43.773Y14.585
X43.825Y14.513
X43.876Y14.44
X43.926Y14.366
X43.974Y14.291
X44.022Y14.215
X44.068Y14.139
X44.113Y14.062
X44.157Y13.984
X44.2Y13.905
X44.242Y13.825
X44.282Y13.745
X44.321Y13.664
X44.36Y13.582
X44.397Y13.5
X44.432Y13.417
X44.467Y13.333
X44.5Y13.249
X44.533Y13.164
X44.564Y13.079
X44.594Y12.993
X44.623Y12.906
X44.651Y12.819
X44.677Y12.731
X44.703Y12.642
X44.727Y12.553
X44.75Y12.464
X44.772Y12.374
X44.793Y12.283
X44.813Y12.192
X44.832Y12.1
X44.85Y12.008
X44.866Y11.916
X44.882Y11.822
X44.896Y11.729
X44.91Y11.635
X44.922Y11.54
X44.933Y11.445
X44.943Y11.35
X44.952Y11.254
X44.96Y11.157
X44.967Y11.061
X44.973Y10.963
X45.024Y9.94
X45.439
X45.432Y10.017
X45.417Y10.181
X45.4Y10.342
X45.381Y10.502
X45.361Y10.659
X45.34Y10.814
X45.317Y10.966
X45.292Y11.116
X45.266Y11.264
X45.239Y11.41
X45.21Y11.553
X45.18Y11.694
X45.149Y11.833
X45.116Y11.97
X45.082Y12.104
X45.046Y12.236
X45.01Y12.366
X44.972Y12.494
X44.932Y12.619
X44.892Y12.742
X44.85Y12.863
X44.807Y12.982
X44.763Y13.098
X44.718Y13.213
X44.672Y13.325
X44.624Y13.435
X44.576Y13.543
X44.526Y13.648
X44.476Y13.752
X44.424Y13.853
X44.371Y13.953
X44.318Y14.05
X44.263Y14.145
X44.207Y14.238
X44.151Y14.33
X44.093Y14.419
X44.035Y14.506
X43.975Y14.592
X43.915Y14.675
X43.853Y14.757
X43.791Y14.836
X43.728Y14.914
X43.664Y14.99
X43.599Y15.064
X43.533Y15.137
X43.467Y15.208
X43.399Y15.277
X43.33Y15.344
X43.261Y15.41
X43.19Y15.474
X43.119Y15.536
X43.047Y15.597
X42.974Y15.656
X42.899Y15.714
X42.824Y15.77
X42.748Y15.825
X42.67Y15.878
X42.592Y15.93
X42.513Y15.98
X42.432Y16.029
X42.351Y16.076
X42.268Y16.122
X42.184Y16.166
X42.099Y16.209
X42.013Y16.251
X41.926Y16.291
X41.837Y16.33
X41.748Y16.367
X41.657Y16.403
X41.564Y16.438
X41.471Y16.471
X41.376Y16.502
X41.28Y16.533
X41.183Y16.561
X41.084Y16.589
X40.984Y16.615
X40.883Y16.639
X40.78Y16.662
X40.676Y16.683
X40.57Y16.703
X40.464Y16.721
X40.356Y16.738
X40.246Y16.753
X40.135Y16.767
X40.023Y16.779
X39.909Y16.79
X39.795Y16.799
X39.678Y16.806
X39.561Y16.812
X39.442Y16.816
X39.321Y16.819
X39.2
X39.074
X38.949Y16.816
X38.825Y16.811
X38.702Y16.805
X38.58Y16.796
X38.46Y16.786
X38.34Y16.774
X38.222Y16.761
X38.104Y16.746
X37.988Y16.729
X37.873Y16.71
X37.759Y16.689
X37.646Y16.667
X37.534Y16.644
X37.424Y16.618
X37.314Y16.591
X37.206Y16.563
X37.098Y16.532
X36.992Y16.501
X36.887Y16.467
X36.783Y16.432
X36.68Y16.396
X36.578Y16.358
X36.477Y16.318
X36.377Y16.277
X36.279Y16.235
X36.181Y16.191
X36.085Y16.145
X35.989Y16.098
X35.895Y16.05
X35.802Y16
X35.71Y15.948
X35.619Y15.896
X35.529Y15.841
X35.441Y15.786
X35.353Y15.729
X35.266Y15.67
X35.181Y15.61
X35.096Y15.549
X35.013Y15.486
X34.931Y15.422
X34.85Y15.356
X34.77Y15.289
X34.691Y15.221
X34.613Y15.151
X34.536Y15.08
X34.461Y15.007
X34.386Y14.933
X34.313Y14.858
X34.241Y14.781
X34.17Y14.703
X34.1Y14.623
X34.031Y14.542
X33.963Y14.46
X33.897Y14.376
X33.831Y14.291
X33.767Y14.205
X33.704Y14.117
X33.642Y14.027
X33.582Y13.937
X33.523Y13.845
X33.464Y13.751
X33.408Y13.656
X33.352Y13.56
X33.297Y13.463
X33.244Y13.364
X33.193Y13.263
X33.142Y13.162
X33.093Y13.058
X33.045Y12.954
X32.998Y12.848
X32.953Y12.741
X32.909Y12.632
X32.867Y12.522
X32.826Y12.411
X32.786Y12.298
X32.748Y12.184
X32.711Y12.069
X32.676Y11.952
X32.642Y11.834
X32.61Y11.715
X32.579Y11.594
X32.549Y11.472
X32.522Y11.348
X32.495Y11.224
X32.471Y11.098
X32.448Y10.97
X32.426Y10.842
X32.406Y10.712
X32.388Y10.581
X32.371Y10.448
X32.356Y10.314
X32.343Y10.179
X32.332Y10.043
X32.322Y9.905
X32.314Y9.767
X32.308Y9.627
X32.303Y9.486
X32.3Y9.343
Y9.199
Y9.07
X32.303Y8.94
X32.307Y8.811
X32.313Y8.682
X32.32Y8.553
X32.329Y8.425
X32.339Y8.297
X32.351Y8.17
X32.365Y8.043
X32.38Y7.916
X32.397Y7.79
X32.416Y7.665
X32.436Y7.54
X32.457Y7.415
X32.481Y7.291
X32.505Y7.168
X32.532Y7.046
X31.555Y6.83
X31.586Y6.695
X31.618Y6.561
X31.652Y6.428
X31.688Y6.295
X31.726Y6.163
X31.765Y6.032
X31.806Y5.902
X31.848Y5.773
X31.893Y5.644
X31.939Y5.517
X31.986Y5.39
X32.035Y5.264
X32.086Y5.139
X32.139Y5.015
X32.193Y4.892
X32.249Y4.771
X32.306Y4.65
X32.365Y4.53
X32.426Y4.412
X32.488Y4.294
X32.552Y4.178
X32.618Y4.063
X32.685Y3.949
X32.754Y3.836
X32.824Y3.725
X32.896Y3.614
X32.969Y3.505
X33.044Y3.398
X33.121Y3.292
X33.199Y3.187
X33.279Y3.083
X33.36Y2.981
X33.443Y2.88
X33.527Y2.781
X33.613Y2.683
X33.701Y2.587
X33.79Y2.492
X33.88Y2.399
X33.972Y2.307
X34.066Y2.217
X34.161Y2.129
X34.258Y2.042
X34.356Y1.956
X34.455Y1.873
X34.556Y1.791
X34.659Y1.711
X34.763Y1.632
X34.869Y1.555
X34.976Y1.48
X35.084Y1.407
X35.195Y1.336
X35.306Y1.266
X35.419Y1.198
X35.534Y1.132
X35.65Y1.068
X35.768Y1.006
X35.887Y0.946
X36.008Y0.888
X36.13Y0.832
X36.253Y0.778
X36.379Y0.726
X36.505Y0.675
X36.633Y0.627
X36.763Y0.581
X36.894Y0.538
X37.027Y0.496
X37.161Y0.456
X37.297Y0.419
X37.435Y0.384
X37.574Y0.351
X37.714Y0.32
X37.856Y0.292
X37.999Y0.266
X38.144Y0.242
X38.291Y0.221
X38.439Y0.202
X38.589Y0.186
X38.74Y0.172
X38.893Y0.16
X39.047Y0.151
X39.203Y0.145
X39.36Y0.141
X39.521Y0.14
X39.696
X39.783Y0.141
X39.87Y0.143
X39.956Y0.144
X40.041Y0.147
X40.126Y0.149
X40.21Y0.152
X40.293Y0.156
X40.376Y0.159
X40.459Y0.164
X40.54Y0.168
X40.621Y0.173
X40.702Y0.179
X40.782Y0.184
X40.861Y0.19
X40.94Y0.197
X41.018Y0.204
X41.096Y0.211
X41.173Y0.219
X41.249Y0.227
X41.325Y0.236
X41.401Y0.245
X41.476Y0.254
X41.551Y0.264
X41.625Y0.274
X41.699Y0.285
X41.772Y0.295
X41.844Y0.307
X41.917Y0.319
X41.989Y0.331
X42.06Y0.343
X42.131Y0.356
X42.202Y0.369
X42.272Y0.383
X42.342Y0.397
X42.411Y0.412
X42.48Y0.427
X42.549Y0.442
X42.617Y0.458
X42.685Y0.474
X42.753Y0.491
X42.82Y0.508
X42.887Y0.525
X42.954Y0.543
X43.02Y0.561
X43.086Y0.579
X43.152Y0.598
X43.217Y0.618
X43.283Y0.637
X43.348Y0.658
X43.412Y0.678
X43.477Y0.699
X43.541Y0.721
X43.605Y0.743
X43.669Y0.765
X43.733Y0.788
X43.796Y0.811
X43.86Y0.834
X43.923Y0.858
X43.986Y0.882
X44.048Y0.907
X44.111Y0.932
X44.174Y0.958
X44.236Y0.984
X44.298Y1.011
X44.36Y1.037
X44.422Y1.065
X44.484Y1.093
X44.546Y1.121
X44.608Y1.149
X44.669Y1.179
X44.731Y1.208
X44.793Y1.238
X44.854Y1.268
X44.916Y1.299
X44.977Y1.331
X45.1Y1.394
X45.223Y1.46
X45.346Y1.528
X45.469Y1.597
X45.592Y1.668
X45.716Y1.741
X45.84Y1.816
X45.964Y1.892
X46.088Y1.971
X46.179Y2.029
Y4.3
X46.058Y4.229
X45.93Y4.156
X45.802Y4.084
X45.674Y4.013
X45.546Y3.944
X45.417Y3.877
X45.289Y3.811
X45.161Y3.746
X45.032Y3.683
X44.903Y3.622
X44.774Y3.562
X44.645Y3.503
X44.516Y3.446
X44.387Y3.391
X44.257Y3.337
X44.127Y3.285
X43.997Y3.235
X43.932Y3.21
X43.867Y3.186
X43.802Y3.162
X43.737Y3.138
X43.672Y3.115
X43.607Y3.093
X43.541Y3.071
X43.476Y3.049
X43.41Y3.028
X43.345Y3.007
X43.279Y2.986
X43.214Y2.966
X43.148Y2.947
X43.082Y2.928
X43.017Y2.909
X42.951Y2.891
X42.885Y2.873
X42.819Y2.855
X42.753Y2.839
X42.687Y2.822
X42.621Y2.806
X42.555Y2.79
X42.488Y2.775
X42.422Y2.76
X42.356Y2.746
X42.289Y2.732
X42.223Y2.719
X42.156Y2.706
X42.089Y2.694
X42.023Y2.682
X41.956Y2.67
X41.889Y2.659
X41.822Y2.649
X41.755Y2.639
X41.688Y2.629
X41.621Y2.62
X41.553Y2.612
X41.486Y2.603
X41.419Y2.596
X41.351Y2.589
X41.284Y2.582
X41.216Y2.576
X41.149Y2.57
X41.081Y2.565
X41.013Y2.56
X40.945Y2.556
X40.877Y2.552
X40.809Y2.549
X40.741Y2.546
X40.673Y2.544
X40.605Y2.542
X40.536Y2.541
X40.468Y2.54
X40.399Y2.539
X40.291Y2.54
X40.184Y2.542
X40.077Y2.545
X39.971Y2.549
X39.866Y2.554
X39.762Y2.56
X39.658Y2.568
X39.555Y2.577
X39.453Y2.587
X39.352Y2.598
X39.251Y2.61
X39.152Y2.624
X39.052Y2.638
X38.954Y2.654
X38.857Y2.671
X38.76Y2.69
X38.664Y2.709
X38.569Y2.73
X38.475Y2.752
X38.381Y2.775
X38.288Y2.799
X38.196Y2.825
X38.105Y2.851
X38.015Y2.879
X37.925Y2.908
X37.836Y2.939
X37.748Y2.97
X37.661Y3.003
X37.575Y3.037
X37.489Y3.072
X37.405Y3.109
X37.321Y3.146
X37.238Y3.185
X37.156Y3.226
X37.075Y3.267
X36.995Y3.309
X36.915Y3.353
X36.837Y3.398
X36.759Y3.444
X36.682Y3.492
X36.606Y3.541
X36.531Y3.59
X36.457Y3.641
X36.384Y3.694
X36.312Y3.747
X36.241Y3.802
X36.171Y3.858
X36.102Y3.915
X36.033Y3.973
X35.966Y4.032
X35.899Y4.093
X35.834Y4.154
X35.77Y4.217
X35.706Y4.281
X35.644Y4.346
X35.582Y4.412
X35.522Y4.48
X35.462Y4.548
X35.404Y4.618
X35.346Y4.688
X35.29Y4.76
X35.234Y4.833
X35.18Y4.907
X35.126Y4.982
X35.074Y5.058
X35.023Y5.135
X34.972Y5.214
X34.923Y5.293
X34.874Y5.373
X34.827Y5.455
X34.781Y5.537
X34.735Y5.621
X34.691Y5.705
X34.648Y5.791
X34.605Y5.877
X34.564Y5.965
X34.523Y6.053
X34.484Y6.143
X34.446Y6.233
X34.408Y6.325
X34.372Y6.417
X34.337Y6.511
X34.302Y6.606
X34.269Y6.701
X34.236Y6.798
X34.205Y6.895
X34.174Y6.993
X34.145Y7.093
X34.116Y7.193
X34.089Y7.295
X34.062Y7.397
X34.036Y7.5
X34.012Y7.605
X33.988Y7.71
X33.965Y7.816
X33.943Y7.923
X33.922Y8.032
X33.903Y8.141
X33.884Y8.251
X33.772Y8.94
X46.493
X46.492Y9.014
X46.485Y9.201
X46.477Y9.386
X46.468Y9.569
X46.456Y9.75
X46.443Y9.929
X46.429Y10.105
X46.412Y10.28
X46.394Y10.452
X46.374Y10.623
X46.353Y10.791
X46.33Y10.957
X46.305Y11.121
X46.278Y11.283
X46.25Y11.443
X46.221Y11.6
X46.19Y11.756
X46.157Y11.909
X46.123Y12.061
X46.087Y12.21
X46.049Y12.357
X46.01Y12.502
X45.97Y12.645
X45.928Y12.786
X45.885Y12.925
X45.84Y13.061
X45.793Y13.196
X45.745Y13.328
X45.696Y13.459
X45.645Y13.587
X45.593Y13.714
X45.54Y13.838
X45.485Y13.96
X45.428Y14.08
X45.37Y14.198
X45.311Y14.314
X45.251Y14.428
X45.189Y14.54
X45.126Y14.65
X45.061Y14.758
X44.996Y14.864
X44.929Y14.968
X44.86Y15.07
X44.79Y15.17
X44.72Y15.269
X44.647Y15.365
X44.574Y15.459
X44.499Y15.551
X44.423Y15.641
X44.346Y15.73
X44.267Y15.816
X44.188Y15.901
X44.107Y15.983
X44.024Y16.064
X43.941Y16.143
X43.856Y16.22
X43.77Y16.295
X43.683Y16.368
X43.595Y16.44
X43.505Y16.509
X43.415Y16.577
X43.323Y16.643
X43.229Y16.707
X43.135Y16.77
X43.039Y16.83
X42.942Y16.889
X42.844Y16.946
X42.745Y17.001
X42.644Y17.054
X42.543Y17.106
X42.44Y17.156
X42.335Y17.203
X42.23Y17.25
X42.123Y17.294
X42.015Y17.337
X41.906Y17.377
X41.796Y17.417
X41.684Y17.454
X41.572Y17.489
X41.458Y17.523
X41.342Y17.555
X41.226Y17.585
X41.108Y17.613
X40.989Y17.64
X40.869Y17.664
X40.748Y17.687
X40.625Y17.708
X40.502Y17.727
X40.377Y17.745
X40.251Y17.761
X40.123Y17.774
X39.995Y17.786
X39.865Y17.796
X39.734Y17.805
X39.602Y17.811
X39.469Y17.816
X39.335Y17.819
X39.2
X39.059Y17.818
X38.919Y17.815
X38.78Y17.81
X38.642Y17.803
X38.505Y17.794
X38.369Y17.782
X38.234Y17.769
X38.1Y17.754
X37.967Y17.736
X37.835Y17.717
X37.705Y17.696
X37.575Y17.672
X37.446Y17.647
X37.319Y17.62
X37.192Y17.591
X37.067Y17.56
X36.943Y17.527
X36.819Y17.493
X36.697Y17.456
X36.576Y17.418
X36.457Y17.378
X36.338Y17.336
X36.22Y17.292
X36.104Y17.246
X35.989Y17.199
X35.875Y17.15
X35.762Y17.099
X35.65Y17.046
X35.54Y16.991
X35.43Y16.935
X35.322Y16.877
X35.215Y16.817
X35.11Y16.756
X35.005Y16.693
X34.902Y16.628
X34.8Y16.562
X34.699Y16.494
X34.6Y16.424
X34.501Y16.352
X34.404Y16.279
X34.309Y16.205
X34.214Y16.128
X34.121Y16.05
X34.029Y15.971
X33.939Y15.89
X33.85Y15.807
X33.762Y15.722
X33.675Y15.636
X33.59Y15.549
X33.507Y15.46
X33.424Y15.369
X33.343Y15.277
X33.264Y15.184
X33.185Y15.088
X33.108Y14.992
X33.033Y14.893
X32.959Y14.794
X32.887Y14.692
X32.815Y14.59
X32.746Y14.485
X32.678Y14.38
X32.611Y14.273
X32.546Y14.164
X32.482Y14.054
X32.42Y13.942
X32.359Y13.83
X32.3Y13.715
X32.243Y13.599
X32.187Y13.482
X32.133Y13.364
X32.08Y13.244
X32.029Y13.122
X31.979Y13
X31.931Y12.875
X31.885Y12.75
X31.84Y12.623
X31.797Y12.495
X31.756Y12.366
X31.716Y12.235
X31.679Y12.103
X31.642Y11.969
X31.608Y11.835
X31.575Y11.699
X31.544Y11.561
X31.515Y11.423
X31.488Y11.283
X31.462Y11.142
X31.439Y11
X31.417Y10.856
X31.397Y10.711
X31.378Y10.565
X31.362Y10.418
X31.347Y10.27
X31.335Y10.121
X31.324Y9.97
X31.315Y9.818
X31.308Y9.665
X31.303Y9.511
X31.301Y9.356
X31.3Y9.199
Y9.057
X31.303Y8.915
X31.308Y8.773
X31.314Y8.632
X31.322Y8.49
X31.332Y8.349
X31.343Y8.209
X31.357Y8.069
X31.372Y7.929
X31.388Y7.79
X31.407Y7.651
X31.427Y7.513
X31.449Y7.375
X31.473Y7.238
X31.499Y7.101
X31.526Y6.965
X31.555Y6.83
G0Z10
X33.845Y10.3
G1Z0F500
X33.962Y10.972F1000
X33.978Y11.061
X33.995Y11.149
X34.013Y11.237
X34.032Y11.323
X34.051Y11.409
X34.071Y11.495
X34.092Y11.579
X34.114Y11.663
X34.136Y11.746
X34.159Y11.829
X34.183Y11.911
X34.208Y11.992
X34.233Y12.072
X34.26Y12.152
X34.287Y12.231
X34.314Y12.309
X34.343Y12.386
X34.372Y12.463
X34.402Y12.539
X34.433Y12.614
X34.465Y12.689
X34.498Y12.763
X34.531Y12.836
X34.565Y12.908
X34.6Y12.979
X34.636Y13.05
X34.672Y13.12
X34.709Y13.189
X34.747Y13.257
X34.786Y13.325
X34.826Y13.392
X34.867Y13.458
X34.908Y13.523
X34.95Y13.587
X34.993Y13.651
X35.037Y13.714
X35.081Y13.775
X35.127Y13.836
X35.173Y13.897
X35.22Y13.956
X35.268Y14.014
X35.316Y14.072
X35.366Y14.129
X35.416Y14.185
X35.467Y14.24
X35.518Y14.294
X35.571Y14.347
X35.624Y14.399
X35.679Y14.45
X35.734Y14.501
X35.789Y14.55
X35.846Y14.599
X35.903Y14.646
X35.961Y14.693
X36.02Y14.738
X36.079Y14.783
X36.14Y14.827
X36.201Y14.87
X36.263Y14.911
X36.325Y14.952
X36.389Y14.992
X36.453Y15.03
X36.517Y15.068
X36.583Y15.105
X36.649Y15.141
X36.716Y15.175
X36.783Y15.209
X36.851Y15.242
X36.92Y15.273
X36.99Y15.304
X37.06Y15.333
X37.131Y15.362
X37.203Y15.39
X37.275Y15.416
X37.348Y15.441
X37.421Y15.466
X37.496Y15.489
X37.57Y15.511
X37.646Y15.533
X37.722Y15.553
X37.798Y15.572
X37.876Y15.59
X37.954Y15.607
X38.032Y15.623
X38.111Y15.638
X38.191Y15.652
X38.271Y15.665
X38.352Y15.677
X38.433Y15.688
X38.515Y15.698
X38.598Y15.707
X38.681Y15.714
X38.765Y15.721
X38.849Y15.727
X38.934Y15.731
X39.02Y15.735
X39.106Y15.737
X39.192Y15.739
X39.28Y15.74
X39.362Y15.739
X39.443Y15.737
X39.525Y15.734
X39.605Y15.731
X39.685Y15.725
X39.765Y15.719
X39.844Y15.712
X39.923Y15.704
X40.001Y15.694
X40.078Y15.683
X40.155Y15.672
X40.231Y15.659
X40.307Y15.645
X40.382Y15.63
X40.457Y15.614
X40.531Y15.596
X40.604Y15.578
X40.677Y15.559
X40.749Y15.538
X40.821Y15.516
X40.892Y15.494
X40.963Y15.47
X41.032Y15.445
X41.101Y15.419
X41.17Y15.392
X41.238Y15.363
X41.305Y15.334
X41.371Y15.304
X41.437Y15.273
X41.502Y15.24
X41.566Y15.207
X41.63Y15.172
X41.693Y15.137
X41.755Y15.1
X41.817Y15.063
X41.877Y15.024
X41.937Y14.984
X41.997Y14.944
X42.055Y14.902
X42.113Y14.859
X42.17Y14.816
X42.226Y14.771
X42.281Y14.726
X42.335Y14.679
X42.389Y14.632
X42.442Y14.584
X42.494Y14.534
X42.545Y14.484
X42.595Y14.433
X42.645Y14.381
X42.693Y14.328
X42.741Y14.274
X42.788Y14.22
X42.834Y14.164
X42.879Y14.108
X42.924Y14.051
X42.967Y13.993
X43.009Y13.934
X43.051Y13.874
X43.092Y13.813
X43.132Y13.752
X43.171Y13.69
X43.209Y13.627
X43.246Y13.564
X43.282Y13.499
X43.318Y13.434
X43.352Y13.368
X43.386Y13.302
X43.419Y13.234
X43.45Y13.166
X43.481Y13.097
X43.511Y13.028
X43.54Y12.958
X43.568Y12.887
X43.596Y12.815
X43.622Y12.743
X43.647Y12.67
X43.672Y12.597
X43.695Y12.522
X43.718Y12.447
X43.74Y12.372
X43.761Y12.296
X43.781Y12.219
X43.8Y12.141
X43.818Y12.063
X43.835Y11.985
X43.851Y11.905
X43.867Y11.826
X43.881Y11.745
X43.894Y11.664
X43.907Y11.582
X43.919Y11.5
X43.93Y11.417
X43.939Y11.334
X43.948Y11.25
X43.956Y11.165
X43.963Y11.08
X43.97Y10.995
X43.975Y10.908
X44.005Y10.3
X33.845
G0Z10
X52.42Y1.5
G1Z0F500
X52.98F1000
Y25.78
X52.42
Y1.5
X51.42Y0.5
X53.98
Y26.78
X51.42
Y0.5
G0Z10
X61.18Y1.5
G1Z0F500
X61.74F1000
Y25.78
X61.18
Y1.5
X60.18Y0.5
X62.739
Y26.78
X60.18
Y0.5
G0Z10
X69.685Y5.222
G1Z0F500
X69.741Y5.114F1000
X69.799Y5.007
X69.859Y4.902
X69.92Y4.797
X69.983Y4.694
X70.047Y4.592
X70.113Y4.492
X70.18Y4.392
X70.248Y4.294
X70.318Y4.198
X70.39Y4.102
X70.463Y4.008
X70.537Y3.915
X70.613Y3.824
X70.69Y3.734
X70.769Y3.645
X70.849Y3.558
X70.931Y3.472
X71.013Y3.387
X71.098Y3.304
X71.183Y3.222
X71.27Y3.141
X71.358Y3.062
X71.448Y2.985
X71.539Y2.908
X71.631Y2.833
X71.724Y2.76
X71.819Y2.688
X71.915Y2.618
X72.013Y2.549
X72.111Y2.481
X72.211Y2.415
X72.313Y2.35
X72.415Y2.287
X72.519Y2.226
X72.624Y2.166
X72.73Y2.107
X72.838Y2.05
X72.947Y1.995
X73.057Y1.941
X73.168Y1.889
X73.28Y1.839
X73.394Y1.79
X73.509Y1.743
X73.625Y1.697
X73.742Y1.653
X73.861Y1.611
X73.981Y1.57
X74.102Y1.531
X74.224Y1.494
X74.347Y1.459
X74.471Y1.425
X74.597Y1.393
X74.724Y1.363
X74.852Y1.335
X74.981Y1.309
X75.111Y1.284
X75.242Y1.261
X75.375Y1.241
X75.508Y1.222
X75.643Y1.205
X75.779Y1.19
X75.915Y1.176
X76.053Y1.165
X76.193Y1.156
X76.333Y1.149
X76.474Y1.144
X76.616Y1.141
X76.76Y1.14
X76.912Y1.141
X77.063Y1.144
X77.212Y1.149
X77.361Y1.156
X77.508Y1.165
X77.654Y1.176
X77.799Y1.188
X77.942Y1.203
X78.084Y1.22
X78.225Y1.238
X78.364Y1.259
X78.502Y1.281
X78.639Y1.305
X78.775Y1.331
X78.909Y1.359
X79.042Y1.388
X79.173Y1.419
X79.303Y1.452
X79.432Y1.487
X79.559Y1.523
X79.685Y1.562
X79.81Y1.601
X79.933Y1.643
X80.055Y1.686
X80.176Y1.731
X80.295Y1.777
X80.412Y1.825
X80.529Y1.874
X80.644Y1.925
X80.757Y1.978
X80.869Y2.032
X80.98Y2.088
X81.089Y2.145
X81.197Y2.204
X81.304Y2.264
X81.409Y2.326
X81.513Y2.389
X81.615Y2.454
X81.716Y2.52
X81.815Y2.588
X81.913Y2.657
X82.01Y2.728
X82.105Y2.8
X82.199Y2.873
X82.291Y2.948
X82.382Y3.024
X82.472Y3.102
X82.56Y3.181
X82.646Y3.261
X82.731Y3.343
X82.815Y3.426
X82.897Y3.51
X82.978Y3.596
X83.058Y3.684
X83.136Y3.772
X83.212Y3.862
X83.287Y3.954
X83.36Y4.046
X83.432Y4.14
X83.503Y4.236
X83.572Y4.333
X83.64Y4.431
X83.706Y4.53
X83.77Y4.631
X83.833Y4.734
X83.895Y4.837
X83.955Y4.942
X84.013Y5.048
X84.07Y5.156
X84.125Y5.265
X84.179Y5.376
X84.231Y5.487
X84.281Y5.6
X84.33Y5.715
X84.377Y5.831
X84.423Y5.948
X84.466Y6.066
X84.509Y6.186
X84.549Y6.307
X84.588Y6.43
X84.625Y6.554
X84.66Y6.679
X84.694Y6.805
X84.726Y6.933
X84.756Y7.063
X84.784Y7.193
X84.81Y7.325
X84.835Y7.458
X84.858Y7.593
X84.878Y7.729
X84.897Y7.866
X84.914Y8.005
X84.93Y8.144
X84.943Y8.286
X84.954Y8.428
X84.963Y8.572
X84.97Y8.717
X84.975Y8.863
X84.978Y9.011
X84.979Y9.159
X84.978Y9.296
X84.975Y9.431
X84.97Y9.565
X84.963Y9.698
X84.954Y9.83
X84.942Y9.961
X84.929Y10.091
X84.914Y10.22
X84.897Y10.348
X84.878Y10.474
X84.857Y10.6
X84.834Y10.725
X84.81Y10.849
X84.783Y10.971
X84.755Y11.093
X84.724Y11.213
X84.692Y11.333
X84.659Y11.451
X84.623Y11.568
X84.586Y11.684
X84.547Y11.799
X84.506Y11.913
X84.463Y12.026
X84.419Y12.138
X84.373Y12.249
X84.326Y12.358
X84.276Y12.467
X84.225Y12.574
X84.173Y12.68
X84.119Y12.785
X84.063Y12.889
X84.005Y12.992
X83.946Y13.094
X83.886Y13.195
X83.823Y13.294
X83.76Y13.392
X83.694Y13.489
X83.627Y13.585
X83.559Y13.68
X83.489Y13.774
X83.417Y13.866
X83.344Y13.957
X83.27Y14.047
X83.194Y14.136
X83.116Y14.223
X83.037Y14.31
X82.956Y14.395
X82.874Y14.479
X82.791Y14.561
X82.706Y14.643
X82.62Y14.723
X82.532Y14.801
X82.442Y14.879
X82.352Y14.955
X82.26Y15.03
X82.166Y15.104
X82.071Y15.176
X81.975Y15.247
X81.877Y15.316
X81.778Y15.384
X81.677Y15.451
X81.575Y15.516
X81.472Y15.58
X81.367Y15.643
X81.261Y15.704
X81.154Y15.764
X81.045Y15.822
X80.935Y15.878
X80.824Y15.934
X80.711Y15.987
X80.597Y16.04
X80.482Y16.09
X80.366Y16.139
X80.248Y16.187
X80.129Y16.233
X80.008Y16.277
X79.886Y16.32
X79.764Y16.361
X79.639Y16.4
X79.514Y16.438
X79.387Y16.474
X79.259Y16.509
X79.13Y16.541
X79Y16.572
X78.869Y16.602
X78.736Y16.629
X78.602Y16.655
X78.467Y16.679
X78.331Y16.701
X78.194Y16.721
X78.055Y16.74
X77.916Y16.756
X77.775Y16.771
X77.633Y16.784
X77.49Y16.795
X77.346Y16.803
X77.201Y16.81
X77.055Y16.815
X76.908Y16.818
X76.76Y16.819
X76.621Y16.818
X76.484Y16.815
X76.348Y16.81
X76.212Y16.803
X76.078Y16.794
X75.944Y16.783
X75.811Y16.77
X75.678Y16.755
X75.547Y16.738
X75.417Y16.719
X75.287Y16.699
X75.159Y16.676
X75.031Y16.652
X74.904Y16.625
X74.778Y16.597
X74.653Y16.568
X74.529Y16.536
X74.406Y16.503
X74.284Y16.468
X74.163Y16.431
X74.043Y16.392
X73.924Y16.352
X73.806Y16.31
X73.69Y16.266
X73.574Y16.221
X73.459Y16.174
X73.345Y16.126
X73.232Y16.075
X73.121Y16.024
X73.01Y15.97
X72.901Y15.915
X72.793Y15.859
X72.686Y15.801
X72.58Y15.742
X72.475Y15.681
X72.372Y15.618
X72.269Y15.554
X72.168Y15.489
X72.068Y15.422
X71.969Y15.354
X71.872Y15.284
X71.776Y15.213
X71.681Y15.141
X71.587Y15.067
X71.495Y14.992
X71.404Y14.915
X71.314Y14.838
X71.225Y14.759
X71.138Y14.678
X71.053Y14.597
X70.968Y14.514
X70.885Y14.429
X70.804Y14.344
X70.723Y14.257
X70.645Y14.169
X70.567Y14.08
X70.491Y13.99
X70.417Y13.899
X70.344Y13.806
X70.273Y13.713
X70.202Y13.618
X70.134Y13.522
X70.067Y13.425
X70.002Y13.327
X69.938Y13.227
X69.875Y13.127
X69.815Y13.026
X69.755Y12.923
X69.698Y12.82
X69.642Y12.716
X69.587Y12.61
X69.535Y12.504
X69.484Y12.396
X69.434Y12.288
X69.387Y12.179
X69.34Y12.068
X69.296Y11.957
X69.253Y11.845
X69.213Y11.732
X69.173Y11.618
X69.136Y11.503
X69.1Y11.387
X69.067Y11.27
X69.034Y11.153
X69.004Y11.034
X68.976Y10.915
X68.949Y10.795
X68.925Y10.674
X68.902Y10.552
X68.881Y10.43
X68.862Y10.306
X68.845Y10.182
X68.83Y10.057
X68.816Y9.931
X68.805Y9.804
X68.796Y9.677
X68.789Y9.549
X68.784Y9.42
X68.781Y9.29
X68.78Y9.159
X68.781Y9.016
X68.784Y8.873
X68.789Y8.732
X68.796Y8.591
X68.805Y8.452
X68.816Y8.314
X68.829Y8.176
X68.844Y8.04
X68.861Y7.905
X68.88Y7.771
X68.9Y7.638
X68.923Y7.506
X68.947Y7.376
X68.974Y7.246
X69.002Y7.118
X69.032Y6.99
X69.063Y6.864
X69.097Y6.739
X69.132Y6.615
X69.169Y6.493
X69.207Y6.371
X69.248Y6.251
X69.29Y6.132
X69.333Y6.014
X69.378Y5.897
X69.425Y5.782
X69.474Y5.667
X69.524Y5.554
X69.576Y5.442
X69.63Y5.332
X69.685Y5.222
X70.201Y5.4
X70.152Y5.508
X70.104Y5.618
X70.058Y5.728
X70.014Y5.839
X69.971Y5.952
X69.929Y6.065
X69.889Y6.179
X69.851Y6.294
X69.815Y6.41
X69.78Y6.527
X69.746Y6.644
X69.715Y6.763
X69.684Y6.882
X69.656Y7.002
X69.629Y7.123
X69.604Y7.245
X69.58Y7.368
X69.558Y7.491
X69.538Y7.615
X69.519Y7.74
X69.502Y7.866
X69.486Y7.992
X69.472Y8.119
X69.46Y8.247
X69.449Y8.375
X69.44Y8.504
X69.433Y8.634
X69.427Y8.764
X69.423Y8.895
X69.42Y9.027
X69.419Y9.16
X69.42Y9.284
X69.423Y9.407
X69.427Y9.531
X69.434Y9.654
X69.441Y9.776
X69.451Y9.898
X69.462Y10.019
X69.476Y10.139
X69.49Y10.259
X69.507Y10.379
X69.525Y10.498
X69.545Y10.616
X69.567Y10.734
X69.59Y10.85
X69.615Y10.967
X69.642Y11.082
X69.67Y11.197
X69.7Y11.311
X69.732Y11.424
X69.765Y11.537
X69.8Y11.649
X69.837Y11.76
X69.875Y11.87
X69.915Y11.979
X69.956Y12.088
X69.999Y12.195
X70.044Y12.302
X70.09Y12.408
X70.138Y12.513
X70.187Y12.617
X70.238Y12.72
X70.29Y12.822
X70.344Y12.923
X70.4Y13.023
X70.456Y13.123
X70.515Y13.221
X70.575Y13.318
X70.636Y13.414
X70.699Y13.508
X70.763Y13.602
X70.829Y13.695
X70.896Y13.786
X70.965Y13.876
X71.035Y13.966
X71.106Y14.054
X71.179Y14.14
X71.253Y14.226
X71.329Y14.31
X71.406Y14.393
X71.484Y14.475
X71.563Y14.555
X71.644Y14.634
X71.726Y14.712
X71.809Y14.789
X71.894Y14.864
X71.98Y14.938
X72.067Y15.01
X72.155Y15.081
X72.244Y15.15
X72.335Y15.219
X72.426Y15.285
X72.519Y15.35
X72.613Y15.414
X72.708Y15.476
X72.805Y15.537
X72.902Y15.596
X73Y15.654
X73.099Y15.71
X73.2Y15.764
X73.301Y15.817
X73.404Y15.869
X73.507Y15.919
X73.611Y15.967
X73.716Y16.013
X73.823Y16.058
X73.93Y16.101
X74.037Y16.143
X74.146Y16.183
X74.256Y16.221
X74.366Y16.258
X74.477Y16.293
X74.589Y16.326
X74.702Y16.357
X74.816Y16.387
X74.93Y16.415
X75.045Y16.441
X75.161Y16.465
X75.277Y16.488
X75.394Y16.509
X75.512Y16.528
X75.63Y16.545
X75.749Y16.561
X75.868Y16.575
X75.988Y16.586
X76.109Y16.597
X76.23Y16.605
X76.352Y16.611
X76.474Y16.616
X76.596Y16.619
X76.719Y16.62
X76.847Y16.619
X76.975Y16.616
X77.101Y16.611
X77.228Y16.605
X77.353Y16.597
X77.478Y16.587
X77.603Y16.575
X77.727Y16.562
X77.85Y16.547
X77.973Y16.53
X78.095Y16.511
X78.216Y16.491
X78.337Y16.468
X78.457Y16.444
X78.576Y16.419
X78.695Y16.391
X78.812Y16.362
X78.929Y16.331
X79.046Y16.299
X79.161Y16.264
X79.276Y16.228
X79.389Y16.191
X79.502Y16.151
X79.614Y16.11
X79.726Y16.068
X79.836Y16.023
X79.945Y15.978
X80.054Y15.93
X80.161Y15.881
X80.268Y15.83
X80.373Y15.778
X80.478Y15.724
X80.581Y15.668
X80.683Y15.611
X80.785Y15.553
X80.885Y15.492
X80.984Y15.431
X81.082Y15.367
X81.179Y15.303
X81.275Y15.237
X81.369Y15.169
X81.463Y15.1
X81.555Y15.029
X81.646Y14.957
X81.736Y14.883
X81.824Y14.809
X81.911Y14.732
X81.997Y14.655
X82.082Y14.575
X82.165Y14.495
X82.247Y14.413
X82.328Y14.33
X82.407Y14.246
X82.485Y14.16
X82.561Y14.073
X82.636Y13.985
X82.71Y13.895
X82.782Y13.805
X82.853Y13.713
X82.922Y13.62
X82.99Y13.525
X83.056Y13.43
X83.12Y13.333
X83.184Y13.235
X83.245Y13.137
X83.305Y13.037
X83.364Y12.936
X83.421Y12.834
X83.476Y12.73
X83.529Y12.626
X83.581Y12.521
X83.632Y12.415
X83.681Y12.308
X83.728Y12.2
X83.773Y12.091
X83.817Y11.981
X83.859Y11.871
X83.899Y11.759
X83.938Y11.646
X83.975Y11.533
X84.01Y11.419
X84.043Y11.304
X84.075Y11.188
X84.105Y11.072
X84.133Y10.955
X84.16Y10.837
X84.184Y10.718
X84.207Y10.599
X84.228Y10.479
X84.247Y10.358
X84.265Y10.237
X84.28Y10.115
X84.294Y9.992
X84.306Y9.869
X84.316Y9.746
X84.325Y9.621
X84.331Y9.497
X84.336Y9.371
X84.339Y9.246
X84.34Y9.12
X84.339Y8.985
X84.336Y8.852
X84.332Y8.719
X84.326Y8.586
X84.319Y8.455
X84.31Y8.324
X84.299Y8.194
X84.287Y8.065
X84.273Y7.936
X84.257Y7.808
X84.24Y7.681
X84.221Y7.555
X84.2Y7.43
X84.178Y7.305
X84.154Y7.181
X84.128Y7.058
X84.101Y6.936
X84.072Y6.814
X84.041Y6.694
X84.009Y6.574
X83.975Y6.455
X83.939Y6.337
X83.902Y6.22
X83.863Y6.104
X83.822Y5.989
X83.779Y5.875
X83.735Y5.762
X83.689Y5.65
X83.642Y5.539
X83.593Y5.428
X83.542Y5.319
X83.489Y5.211
X83.435Y5.105
X83.379Y4.999
X83.321Y4.894
X83.262Y4.791
X83.201Y4.688
X83.138Y4.587
X83.074Y4.487
X83.008Y4.389
X82.941Y4.292
X82.872Y4.196
X82.801Y4.101
X82.729Y4.007
X82.655Y3.915
X82.579Y3.825
X82.503Y3.735
X82.424Y3.648
X82.344Y3.561
X82.263Y3.476
X82.18Y3.393
X82.095Y3.311
X82.009Y3.23
X81.922Y3.151
X81.833Y3.074
X81.743Y2.998
X81.651Y2.924
X81.559Y2.852
X81.464Y2.781
X81.369Y2.711
X81.272Y2.644
X81.174Y2.577
X81.075Y2.513
X80.974Y2.45
X80.873Y2.389
X80.77Y2.33
X80.666Y2.272
X80.561Y2.216
X80.455Y2.162
X80.348Y2.11
X80.239Y2.059
X80.13Y2.01
X80.02Y1.963
X79.908Y1.917
X79.796Y1.873
X79.683Y1.831
X79.568Y1.791
X79.453Y1.752
X79.337Y1.715
X79.22Y1.68
X79.103Y1.647
X78.984Y1.615
X78.864Y1.585
X78.744Y1.557
X78.623Y1.531
X78.501Y1.506
X78.379Y1.483
X78.255Y1.462
X78.131Y1.442
X78.006Y1.424
X77.881Y1.408
X77.754Y1.394
X77.627Y1.381
X77.5Y1.37
X77.371Y1.361
X77.242Y1.353
X77.113Y1.347
X76.982Y1.343
X76.851Y1.34
X76.719Y1.339
X76.595Y1.34
X76.47Y1.343
X76.346Y1.348
X76.223Y1.354
X76.1Y1.362
X75.978Y1.372
X75.856Y1.384
X75.735Y1.398
X75.614Y1.414
X75.494Y1.431
X75.375Y1.45
X75.256Y1.471
X75.138Y1.494
X75.021Y1.519
X74.904Y1.545
X74.789Y1.574
X74.673Y1.604
X74.559Y1.636
X74.446Y1.67
X74.333Y1.705
X74.221Y1.742
X74.11Y1.781
X74Y1.822
X73.89Y1.865
X73.782Y1.909
X73.674Y1.955
X73.568Y2.003
X73.462Y2.053
X73.358Y2.104
X73.254Y2.157
X73.152Y2.212
X73.05Y2.268
X72.95Y2.327
X72.851Y2.386
X72.753Y2.448
X72.656Y2.511
X72.56Y2.576
X72.465Y2.642
X72.372Y2.71
X72.279Y2.779
X72.188Y2.85
X72.098Y2.923
X72.01Y2.997
X71.923Y3.073
X71.837Y3.15
X71.752Y3.228
X71.669Y3.308
X71.587Y3.39
X71.506Y3.473
X71.427Y3.557
X71.349Y3.643
X71.273Y3.73
X71.198Y3.818
X71.125Y3.908
X71.053Y3.999
X70.982Y4.091
X70.913Y4.185
X70.845Y4.28
X70.779Y4.376
X70.714Y4.473
X70.651Y4.572
X70.59Y4.671
X70.529Y4.772
X70.471Y4.874
X70.414Y4.977
X70.358Y5.081
X70.304Y5.186
X70.252Y5.293
X70.201Y5.4
X71.108Y5.821
X71.065Y5.915
X71.024Y6.01
X70.984Y6.106
X70.945Y6.204
X70.907Y6.302
X70.871Y6.401
X70.836Y6.501
X70.803Y6.602
X70.771Y6.704
X70.74Y6.806
X70.71Y6.91
X70.682Y7.015
X70.656Y7.12
X70.631Y7.227
X70.607Y7.334
X70.584Y7.442
X70.563Y7.551
X70.544Y7.66
X70.525Y7.771
X70.509Y7.882
X70.493Y7.995
X70.479Y8.108
X70.467Y8.221
X70.456Y8.336
X70.446Y8.451
X70.438Y8.568
X70.431Y8.684
X70.426Y8.802
X70.422Y8.921
X70.42Y9.04
X70.419Y9.16
X70.42Y9.27
X70.423Y9.379
X70.426Y9.488
X70.432Y9.596
X70.439Y9.704
X70.447Y9.811
X70.457Y9.918
X70.469Y10.024
X70.482Y10.13
X70.496Y10.235
X70.512Y10.339
X70.53Y10.442
X70.549Y10.545
X70.569Y10.647
X70.591Y10.749
X70.614Y10.85
X70.639Y10.95
X70.665Y11.049
X70.693Y11.148
X70.722Y11.246
X70.752Y11.343
X70.784Y11.439
X70.817Y11.535
X70.852Y11.63
X70.888Y11.724
X70.925Y11.817
X70.963Y11.91
X71.003Y12.001
X71.045Y12.092
X71.087Y12.182
X71.131Y12.271
X71.176Y12.359
X71.223Y12.446
X71.27Y12.532
X71.32Y12.617
X71.37Y12.702
X71.421Y12.785
X71.474Y12.868
X71.528Y12.949
X71.583Y13.03
X71.64Y13.109
X71.698Y13.188
X71.756Y13.265
X71.816Y13.342
X71.878Y13.417
X71.94Y13.491
X72.004Y13.565
X72.068Y13.637
X72.134Y13.708
X72.201Y13.778
X72.269Y13.847
X72.338Y13.915
X72.408Y13.981
X72.48Y14.047
X72.552Y14.111
X72.625Y14.174
X72.7Y14.236
X72.775Y14.297
X72.852Y14.356
X72.929Y14.414
X73.008Y14.471
X73.087Y14.527
X73.168Y14.582
X73.249Y14.635
X73.331Y14.687
X73.415Y14.738
X73.499Y14.787
X73.584Y14.835
X73.67Y14.882
X73.757Y14.927
X73.845Y14.971
X73.934Y15.014
X74.023Y15.055
X74.113Y15.095
X74.205Y15.134
X74.297Y15.171
X74.39Y15.207
X74.483Y15.241
X74.578Y15.274
X74.673Y15.306
X74.769Y15.336
X74.865Y15.364
X74.963Y15.392
X75.061Y15.417
X75.16Y15.441
X75.259Y15.464
X75.36Y15.485
X75.461Y15.505
X75.562Y15.523
X75.664Y15.54
X75.767Y15.555
X75.871Y15.568
X75.975Y15.58
X76.079Y15.591
X76.185Y15.599
X76.291Y15.607
X76.397Y15.612
X76.504Y15.616
X76.611Y15.619
X76.719Y15.62
X76.833Y15.619
X76.946Y15.616
X77.059Y15.612
X77.17Y15.607
X77.282Y15.6
X77.392Y15.591
X77.502Y15.58
X77.612Y15.569
X77.72Y15.555
X77.828Y15.54
X77.936Y15.524
X78.042Y15.506
X78.148Y15.486
X78.253Y15.465
X78.358Y15.443
X78.462Y15.419
X78.565Y15.393
X78.667Y15.366
X78.768Y15.338
X78.869Y15.308
X78.969Y15.276
X79.068Y15.244
X79.166Y15.209
X79.264Y15.174
X79.36Y15.137
X79.456Y15.098
X79.551Y15.059
X79.645Y15.017
X79.738Y14.975
X79.83Y14.931
X79.921Y14.886
X80.012Y14.839
X80.101Y14.791
X80.19Y14.742
X80.277Y14.691
X80.363Y14.639
X80.449Y14.586
X80.533Y14.531
X80.617Y14.476
X80.699Y14.419
X80.781Y14.36
X80.861Y14.301
X80.94Y14.24
X81.019Y14.178
X81.096Y14.115
X81.172Y14.051
X81.247Y13.985
X81.321Y13.918
X81.393Y13.85
X81.465Y13.781
X81.535Y13.711
X81.604Y13.64
X81.672Y13.567
X81.739Y13.494
X81.805Y13.419
X81.869Y13.343
X81.932Y13.267
X81.994Y13.189
X82.055Y13.11
X82.114Y13.03
X82.172Y12.949
X82.229Y12.867
X82.285Y12.784
X82.339Y12.7
X82.392Y12.615
X82.444Y12.529
X82.494Y12.442
X82.543Y12.354
X82.591Y12.265
X82.637Y12.176
X82.682Y12.085
X82.725Y11.993
X82.767Y11.901
X82.808Y11.808
X82.847Y11.714
X82.885Y11.619
X82.921Y11.523
X82.956Y11.426
X82.989Y11.329
X83.021Y11.231
X83.052Y11.132
X83.081Y11.032
X83.108Y10.932
X83.135Y10.83
X83.159Y10.728
X83.182Y10.626
X83.204Y10.522
X83.223Y10.418
X83.242Y10.314
X83.259Y10.208
X83.274Y10.102
X83.288Y9.995
X83.3Y9.888
X83.31Y9.78
X83.319Y9.671
X83.326Y9.562
X83.332Y9.452
X83.336Y9.342
X83.339Y9.231
X83.34Y9.12
X83.339Y8.997
X83.337Y8.876
X83.333Y8.756
X83.328Y8.636
X83.321Y8.517
X83.313Y8.4
X83.303Y8.283
X83.292Y8.166
X83.28Y8.051
X83.266Y7.937
X83.25Y7.823
X83.233Y7.711
X83.215Y7.599
X83.195Y7.488
X83.174Y7.378
X83.151Y7.269
X83.127Y7.161
X83.101Y7.054
X83.074Y6.948
X83.046Y6.842
X83.016Y6.738
X82.984Y6.635
X82.952Y6.532
X82.918Y6.431
X82.882Y6.331
X82.845Y6.231
X82.807Y6.133
X82.767Y6.036
X82.726Y5.939
X82.683Y5.844
X82.639Y5.75
X82.594Y5.657
X82.547Y5.565
X82.499Y5.474
X82.449Y5.384
X82.398Y5.295
X82.346Y5.208
X82.293Y5.121
X82.238Y5.036
X82.182Y4.951
X82.124Y4.868
X82.065Y4.787
X82.005Y4.706
X81.943Y4.626
X81.88Y4.548
X81.816Y4.471
X81.751Y4.395
X81.684Y4.321
X81.616Y4.247
X81.547Y4.175
X81.477Y4.104
X81.405Y4.035
X81.332Y3.966
X81.258Y3.899
X81.183Y3.834
X81.106Y3.769
X81.028Y3.706
X80.95Y3.645
X80.87Y3.584
X80.788Y3.525
X80.706Y3.468
X80.623Y3.412
X80.538Y3.357
X80.452Y3.303
X80.366Y3.251
X80.278Y3.2
X80.189Y3.151
X80.099Y3.103
X80.008Y3.057
X79.916Y3.012
X79.822Y2.968
X79.728Y2.926
X79.633Y2.885
X79.537Y2.846
X79.44Y2.808
X79.342Y2.771
X79.243Y2.736
X79.143Y2.703
X79.042Y2.671
X78.94Y2.64
X78.837Y2.611
X78.733Y2.583
X78.629Y2.557
X78.523Y2.532
X78.417Y2.509
X78.31Y2.487
X78.201Y2.467
X78.092Y2.448
X77.983Y2.431
X77.872Y2.415
X77.76Y2.401
X77.648Y2.388
X77.535Y2.377
X77.421Y2.367
X77.306Y2.358
X77.19Y2.352
X77.074Y2.346
X76.956Y2.343
X76.838Y2.34
X76.719Y2.339
X76.609Y2.34
X76.5Y2.343
X76.391Y2.347
X76.282Y2.352
X76.174Y2.36
X76.067Y2.368
X75.961Y2.379
X75.855Y2.391
X75.75Y2.404
X75.646Y2.42
X75.542Y2.436
X75.439Y2.455
X75.336Y2.474
X75.235Y2.496
X75.134Y2.519
X75.034Y2.543
X74.934Y2.569
X74.836Y2.597
X74.738Y2.626
X74.641Y2.656
X74.545Y2.688
X74.45Y2.722
X74.355Y2.757
X74.261Y2.794
X74.169Y2.832
X74.077Y2.871
X73.986Y2.912
X73.895Y2.954
X73.806Y2.998
X73.718Y3.043
X73.63Y3.09
X73.544Y3.138
X73.458Y3.188
X73.374Y3.239
X73.29Y3.291
X73.208Y3.345
X73.126Y3.4
X73.046Y3.456
X72.966Y3.514
X72.888Y3.573
X72.81Y3.633
X72.734Y3.695
X72.658Y3.758
X72.584Y3.823
X72.511Y3.888
X72.439Y3.955
X72.368Y4.023
X72.298Y4.093
X72.23Y4.163
X72.162Y4.235
X72.096Y4.308
X72.03Y4.383
X71.966Y4.458
X71.904Y4.535
X71.842Y4.613
X71.781Y4.692
X71.722Y4.772
X71.664Y4.854
X71.607Y4.936
X71.552Y5.02
X71.497Y5.105
X71.444Y5.19
X71.392Y5.277
X71.342Y5.365
X71.293Y5.454
X71.245Y5.544
X71.198Y5.636
X71.152Y5.728
X71.108Y5.821
X68.859Y4.644
X68.924Y4.523
X68.992Y4.403
X69.061Y4.285
X69.132Y4.168
X69.205Y4.052
X69.28Y3.938
X69.356Y3.825
X69.434Y3.714
X69.514Y3.604
X69.595Y3.496
X69.678Y3.389
X69.762Y3.283
X69.849Y3.179
X69.937Y3.077
X70.026Y2.976
X70.117Y2.876
X70.21Y2.778
X70.304Y2.682
X70.4Y2.587
X70.497Y2.494
X70.596Y2.402
X70.697Y2.312
X70.798Y2.224
X70.902Y2.137
X71.007Y2.052
X71.113Y1.968
X71.221Y1.887
X71.33Y1.806
X71.441Y1.728
X71.553Y1.651
X71.667Y1.576
X71.782Y1.503
X71.898Y1.431
X72.016Y1.361
X72.135Y1.293
X72.256Y1.227
X72.377Y1.163
X72.501Y1.1
X72.625Y1.039
X72.751Y0.98
X72.878Y0.923
X73.006Y0.868
X73.136Y0.815
X73.267Y0.763
X73.399Y0.714
X73.533Y0.666
X73.667Y0.621
X73.803Y0.577
X73.94Y0.535
X74.078Y0.496
X74.218Y0.458
X74.359Y0.422
X74.5Y0.389
X74.643Y0.357
X74.788Y0.327
X74.933Y0.3
X75.079Y0.275
X75.227Y0.252
X75.375Y0.23
X75.525Y0.212
X75.676Y0.195
X75.827Y0.18
X75.98Y0.168
X76.134Y0.158
X76.289Y0.15
X76.445Y0.144
X76.602Y0.141
X76.76Y0.14
X76.925Y0.141
X77.089Y0.144
X77.253Y0.149
X77.415Y0.157
X77.576Y0.167
X77.736Y0.179
X77.894Y0.193
X78.051Y0.209
X78.208Y0.228
X78.362Y0.248
X78.516Y0.27
X78.669Y0.295
X78.82Y0.322
X78.969Y0.35
X79.118Y0.381
X79.265Y0.414
X79.411Y0.448
X79.556Y0.485
X79.699Y0.523
X79.841Y0.564
X79.982Y0.607
X80.121Y0.651
X80.259Y0.697
X80.396Y0.746
X80.531Y0.796
X80.664Y0.848
X80.797Y0.902
X80.928Y0.957
X81.057Y1.015
X81.185Y1.074
X81.312Y1.135
X81.437Y1.198
X81.561Y1.263
X81.683Y1.33
X81.804Y1.398
X81.923Y1.468
X82.041Y1.54
X82.157Y1.614
X82.271Y1.689
X82.385Y1.766
X82.496Y1.844
X82.606Y1.925
X82.715Y2.007
X82.822Y2.091
X82.927Y2.176
X83.031Y2.263
X83.133Y2.352
X83.234Y2.442
X83.333Y2.534
X83.43Y2.627
X83.526Y2.722
X83.62Y2.819
X83.712Y2.917
X83.803Y3.017
X83.892Y3.118
X83.98Y3.221
X84.065Y3.326
X84.149Y3.432
X84.232Y3.539
X84.312Y3.648
X84.391Y3.759
X84.468Y3.871
X84.544Y3.985
X84.617Y4.1
X84.689Y4.216
X84.759Y4.334
X84.827Y4.454
X84.894Y4.574
X84.958Y4.697
X85.021Y4.821
X85.082Y4.946
X85.141Y5.072
X85.198Y5.2
X85.253Y5.33
X85.306Y5.461
X85.358Y5.593
X85.407Y5.726
X85.455Y5.861
X85.5Y5.998
X85.544Y6.135
X85.585Y6.274
X85.625Y6.415
X85.663Y6.556
X85.698Y6.7
X85.732Y6.844
X85.763Y6.989
X85.792Y7.136
X85.82Y7.285
X85.845Y7.434
X85.868Y7.585
X85.889Y7.737
X85.908Y7.89
X85.925Y8.044
X85.939Y8.2
X85.951Y8.357
X85.961Y8.515
X85.969Y8.674
X85.975Y8.835
X85.978Y8.997
X85.979Y9.159
X85.978Y9.311
X85.975Y9.461
X85.969Y9.611
X85.961Y9.76
X85.951Y9.907
X85.938Y10.054
X85.923Y10.2
X85.906Y10.344
X85.887Y10.488
X85.866Y10.631
X85.842Y10.772
X85.816Y10.913
X85.789Y11.052
X85.759Y11.191
X85.727Y11.328
X85.692Y11.464
X85.656Y11.599
X85.618Y11.733
X85.578Y11.866
X85.535Y11.998
X85.491Y12.129
X85.445Y12.258
X85.396Y12.387
X85.346Y12.514
X85.294Y12.64
X85.239Y12.764
X85.183Y12.888
X85.125Y13.01
X85.065Y13.131
X85.003Y13.251
X84.94Y13.37
X84.874Y13.487
X84.807Y13.603
X84.738Y13.718
X84.667Y13.832
X84.594Y13.944
X84.519Y14.055
X84.443Y14.164
X84.364Y14.272
X84.285Y14.379
X84.203Y14.485
X84.119Y14.589
X84.034Y14.692
X83.948Y14.793
X83.859Y14.893
X83.769Y14.991
X83.677Y15.088
X83.584Y15.184
X83.488Y15.278
X83.392Y15.371
X83.293Y15.462
X83.193Y15.551
X83.092Y15.639
X82.989Y15.726
X82.884Y15.811
X82.778Y15.895
X82.67Y15.977
X82.561Y16.057
X82.45Y16.136
X82.338Y16.213
X82.224Y16.289
X82.108Y16.362
X81.992Y16.435
X81.874Y16.505
X81.754Y16.574
X81.633Y16.642
X81.51Y16.707
X81.387Y16.771
X81.261Y16.833
X81.135Y16.893
X81.007Y16.952
X80.877Y17.009
X80.747Y17.064
X80.615Y17.117
X80.481Y17.168
X80.347Y17.218
X80.211Y17.266
X80.074Y17.312
X79.935Y17.356
X79.795Y17.398
X79.654Y17.438
X79.512Y17.476
X79.369Y17.513
X79.224Y17.547
X79.079Y17.579
X78.932Y17.61
X78.784Y17.638
X78.634Y17.665
X78.484Y17.689
X78.333Y17.712
X78.18Y17.732
X78.026Y17.75
X77.872Y17.766
X77.716Y17.78
X77.559Y17.792
X77.401Y17.802
X77.242Y17.81
X77.082Y17.815
X76.921Y17.818
X76.76Y17.819
X76.607Y17.818
X76.454Y17.815
X76.303Y17.809
X76.152Y17.801
X76.003Y17.791
X75.854Y17.779
X75.706Y17.764
X75.558Y17.748
X75.412Y17.729
X75.267Y17.708
X75.122Y17.685
X74.978Y17.66
X74.836Y17.633
X74.694Y17.603
X74.553Y17.572
X74.414Y17.539
X74.275Y17.503
X74.137Y17.466
X74Y17.426
X73.865Y17.385
X73.73Y17.342
X73.597Y17.297
X73.464Y17.249
X73.333Y17.2
X73.203Y17.15
X73.073Y17.097
X72.946Y17.042
X72.819Y16.986
X72.693Y16.928
X72.569Y16.868
X72.446Y16.806
X72.324Y16.742
X72.203Y16.677
X72.084Y16.61
X71.966Y16.541
X71.849Y16.471
X71.733Y16.398
X71.619Y16.325
X71.506Y16.249
X71.394Y16.172
X71.284Y16.093
X71.176Y16.013
X71.068Y15.931
X70.962Y15.848
X70.858Y15.763
X70.755Y15.676
X70.653Y15.588
X70.553Y15.499
X70.454Y15.408
X70.357Y15.315
X70.262Y15.221
X70.168Y15.126
X70.075Y15.029
X69.984Y14.931
X69.895Y14.831
X69.807Y14.73
X69.721Y14.628
X69.637Y14.524
X69.554Y14.419
X69.473Y14.313
X69.393Y14.205
X69.315Y14.096
X69.239Y13.986
X69.165Y13.875
X69.093Y13.762
X69.022Y13.648
X68.953Y13.533
X68.886Y13.417
X68.82Y13.299
X68.757Y13.181
X68.695Y13.061
X68.635Y12.94
X68.577Y12.818
X68.521Y12.695
X68.467Y12.571
X68.415Y12.446
X68.364Y12.32
X68.316Y12.193
X68.269Y12.064
X68.225Y11.935
X68.183Y11.805
X68.142Y11.673
X68.104Y11.541
X68.068Y11.408
X68.033Y11.274
X68.001Y11.139
X67.971Y11.003
X67.943Y10.866
X67.917Y10.728
X67.894Y10.59
X67.872Y10.45
X67.853Y10.31
X67.836Y10.169
X67.821Y10.027
X67.808Y9.884
X67.798Y9.741
X67.79Y9.597
X67.784Y9.452
X67.781Y9.306
X67.78Y9.159
X67.781Y9.002
X67.784Y8.845
X67.79Y8.689
X67.798Y8.534
X67.808Y8.379
X67.82Y8.226
X67.834Y8.074
X67.851Y7.924
X67.87Y7.774
X67.891Y7.625
X67.914Y7.477
X67.939Y7.33
X67.966Y7.185
X67.995Y7.04
X68.026Y6.897
X68.06Y6.755
X68.095Y6.614
X68.132Y6.474
X68.172Y6.335
X68.213Y6.197
X68.257Y6.061
X68.302Y5.926
X68.349Y5.792
X68.398Y5.659
X68.449Y5.528
X68.502Y5.398
X68.557Y5.269
X68.614Y5.141
X68.672Y5.015
X68.732Y4.89
X68.795Y4.766
X68.859Y4.644
G0Z10
 
