(Created with grbl post processor 2025/12/06 10:35)
G20
(G-code Generated with Fabex and NC library)
G17G90
S12000M03
G00 Z0.39

G0X0Y0Z0.3937
X1.7609Y0.0614
G1Z-0.0787F19.68
X1.8185Y0.0747F39.37
X1.8194Y0.075
X1.8203Y0.0753
X1.8447Y0.084
X1.835Y0.0774
X1.814Y0.0668
X1.806Y0.0636
X1.805Y0.0631
X1.8041Y0.0627
X1.8032Y0.0621
X1.8024Y0.0616
X1.8016Y0.061
X1.8008Y0.0603
X1.8Y0.0596
X1.7993Y0.0589
X1.7986Y0.0582
X1.7979Y0.0574
X1.7973Y0.0566
X1.7967Y0.0557
X1.7962Y0.0548
X1.7957Y0.0539
X1.7952Y0.053
X1.7948Y0.0521
X1.7944Y0.0511
X1.7941Y0.0501
X1.7939Y0.0491
X1.7937Y0.0481
X1.7935Y0.0472
X1.7929Y0.0475
X1.792Y0.048
X1.791Y0.0484
X1.79Y0.0487
X1.789Y0.0491
X1.7773Y0.0524
X1.7763Y0.0526
X1.7753Y0.0528
X1.7743Y0.0529
X1.7733Y0.053
X1.7723
X1.7712
X1.7702
X1.7692Y0.0529
X1.7648Y0.0523
X1.7647Y0.0532
X1.7644Y0.0542
X1.7641Y0.0552
X1.7638Y0.0562
X1.7634Y0.0572
X1.7629Y0.0581
X1.7625Y0.059
X1.7619Y0.0599
X1.7614Y0.0608
X1.7609Y0.0614
Z-0.0741
X1.7565Y0.063Z-0.0691
X1.7563Y0.0631Z-0.0685
X1.7476Y0.0655Z-0.0522
X1.7395Y0.0656Z-0.0452
X1.7341Y0.0639Z-0.046
X1.7243Y0.063Z-0.0369
X1.7178Y0.0529Z-0.0612F19.68
X1.7173Y0.051Z-0.0619F39.37
X1.7175Y0.0499Z-0.0628F19.68
X1.7178Y0.0445Z-0.0604F39.37
X1.7191Y0.0419Z-0.0555
X1.721Y0.0406Z-0.0546
X1.7293Y0.0374Z-0.0413
X1.7373Y0.0373Z-0.0368
X1.7407Y0.0385Z-0.0362
X1.7442Y0.0383Z-0.0371
X1.7481Y0.0392Z-0.0385
X1.7519Y0.0404Z-0.0411F19.68
X1.7584Y0.0446Z-0.0536
X1.7652Y0.0523Z-0.0783
G0Z0.3937
X1.7855Y0.0265
G1Z0
X1.7889Y0.026Z-0.0075
X1.795Y0.0325Z-0.0344
X1.796Y0.0392Z-0.0555
X1.7962Y0.04Z-0.057
X1.7955Y0.0431Z-0.067
X1.7935Y0.0472Z-0.0701
G0Z0.3937
X1.7889Y0.026
G1Z-0.0074
Z-0.0075
X1.7881Y0.0262Z-0.0056F39.37
G0Z0.3937
X1.8439Y0.0835
G1Z-0.0787F19.68
X1.8443Y0.0837F39.37
X1.8493Y0.0865Z-0.0758
X1.8506Y0.0869Z-0.0752
X1.8564Y0.0901Z-0.0721
X1.8577Y0.0905Z-0.0714
X1.8634Y0.0937Z-0.0683
X1.8647Y0.0941Z-0.0676
X1.8705Y0.0973Z-0.0645
X1.8718Y0.0977Z-0.0638
X1.878Y0.1012Z-0.0615
X1.8834Y0.1057Z-0.0585
X1.8884Y0.1123Z-0.0471
X1.8901Y0.1159Z-0.0391
X1.8953Y0.1161Z-0.0483F19.68
X1.9034Y0.1182Z-0.0573
X1.9104Y0.1219F39.37
X1.9131Y0.1244Z-0.0574
X1.9175Y0.1311Z-0.0527
X1.9186Y0.1341Z-0.0475
X1.9233Y0.1365Z-0.0535F19.68
X1.9293Y0.1417Z-0.0533F39.37
X1.9323Y0.1463Z-0.0551
X1.9328Y0.1473Z-0.0548
X1.9347Y0.1494Z-0.0562
X1.9369Y0.1527Z-0.0573
X1.9375Y0.1537Z-0.057
X1.9404Y0.1569Z-0.0583
X1.9421Y0.1601Z-0.0593
X1.945Y0.1633Z-0.0605
X1.9454Y0.1639Z-0.0611F19.68
X1.9475Y0.1672Z-0.0623F39.37
X1.9496Y0.1696Z-0.0628
X1.95Y0.1703Z-0.0633F19.68
X1.9527Y0.1745Z-0.0615F39.37
X1.9562Y0.178Z-0.0549
X1.9566Y0.1813Z-0.0584F19.68
X1.9595Y0.1888Z-0.0582F39.37
X1.964Y0.1953Z-0.0588
X1.9706Y0.201Z-0.0506
X1.9751Y0.2036Z-0.042
X1.9753Y0.2074Z-0.0497F19.68
X1.9773Y0.2154Z-0.0604
X1.9808Y0.2225Z-0.0628F39.37
X1.9817Y0.2236Z-0.0627
X1.9846Y0.2294Z-0.0622
X1.9855Y0.2305Z-0.0621
X1.9884Y0.2362Z-0.0616
X1.9893Y0.2374Z-0.0615
X1.9922Y0.2431Z-0.061
X1.9931Y0.2442Z-0.0609
X1.996Y0.25Z-0.0604
X1.997Y0.2511Z-0.0603
X1.9991Y0.2554Z-0.0602
X2.0009Y0.258Z-0.0594
X2.0019Y0.2609Z-0.0592
X2.0047Y0.2649Z-0.0588
X2.0057Y0.2678Z-0.0586
X2.0073Y0.27Z-0.0591
X2.0091Y0.2735Z-0.0588
X2.0095Y0.2746Z-0.058
X2.0111Y0.2769Z-0.0585
X2.0135Y0.2815Z-0.058
X2.0139Y0.2819Z-0.0579
X2.0173Y0.2884Z-0.0574
X2.0177Y0.2888
X2.0211Y0.2952Z-0.0568
X2.0215Y0.2957
X2.0249Y0.3021Z-0.0562
X2.0253Y0.3026
X2.0287Y0.309Z-0.0556
X2.0292Y0.3095
X2.0326Y0.3159Z-0.055
X2.033Y0.3164
X2.0373Y0.3247Z-0.0567
X2.043Y0.3309Z-0.0525
X2.0467Y0.3335Z-0.0466
X2.0468Y0.3378Z-0.0552F19.68
X2.0479Y0.3421Z-0.061
X2.049Y0.3464Z-0.0664
X2.0527Y0.3534Z-0.0695F39.37
X2.0579Y0.3597Z-0.0786F19.68
X2.0582Y0.3595Z-0.0787F39.37
X2.0577Y0.3593
X2.0626Y0.3713
X2.063Y0.3723
X2.0905Y0.46
X2.0908Y0.461
X2.091Y0.462
X2.0911Y0.463
X2.0912Y0.4641
X2.0913Y0.4651
Y0.4661
Y0.4672
X2.0912Y0.4682
X2.091Y0.4692
X2.0909Y0.4702
X2.0906Y0.4712
X2.0903Y0.4722
X2.09Y0.4732
X2.0896Y0.4742
X2.0892Y0.4751
X2.0887Y0.476
X2.0882Y0.4769
X2.0876Y0.4778
X2.087Y0.4786
X2.0863Y0.4794
X2.0857Y0.4802
X2.0849Y0.481
X2.0842Y0.4817
X2.0834Y0.4823
X2.0825Y0.4829
X2.0817Y0.4835
X2.0808Y0.4841
X2.0955Y0.5062
X2.096Y0.507
X2.114Y0.54
X2.1144Y0.541
X2.1148Y0.5419
X2.1152Y0.5429
X2.1225Y0.5648
X2.1396Y0.6092
X2.1342Y0.5804
X2.1144Y0.4978
X2.0882Y0.4188
X2.0647Y0.361
X2.0637Y0.3609
X2.0626Y0.3607
X2.0616Y0.3605
X2.0606Y0.3603
X2.0596Y0.36
X2.0587Y0.3596
X2.0582Y0.3595
X2.0647Y0.3612Z-0.0743
X2.0662Y0.3595Z-0.0714
X2.0695Y0.3533Z-0.0462
G0Z0.3937
X2.1195Y0.3126
G1Z-0.0096F19.68
X2.1271Y0.3178Z-0.0279
X2.1312Y0.3246Z-0.0294F39.37
X2.132Y0.3329Z-0.0185
G0Z0.3937
X2.1377Y0.3454
G1Z-0.0143F19.68
X2.1448Y0.3508Z-0.0251
X2.1477Y0.3581Z-0.0192F39.37
G0Z0.3937
X2.1697Y0.3983
G1Z-0.0081F19.68
X2.1699Y0.398Z-0.0084
Y0.3979Z-0.0082F39.37
G0Z0.3937
X2.1612Y0.4532
G1Z-0.0073F19.68
X2.1696Y0.451Z-0.0168
X2.1706Y0.4487Z-0.0184
X2.1726Y0.448Z-0.018F39.37
G0Z0.3937
X2.1576Y0.4803
G1Z-0.001F19.68
X2.1604Y0.5083Z-0.0084F39.37
X2.1603Y0.5089Z-0.0081
X2.1616Y0.5127Z-0.0067
X2.1603Y0.5139Z-0.0075
X2.1623Y0.5205Z-0.0093
X2.1612Y0.5218Z-0.01
X2.163Y0.5284Z-0.0118
X2.1621Y0.5296Z-0.0123
X2.1638Y0.5369Z-0.0163
X2.1635Y0.5375Z-0.0168F19.68
X2.1652Y0.5447Z-0.0208F39.37
X2.1649Y0.5453Z-0.0212F19.68
X2.1665Y0.5526Z-0.0209F39.37
X2.1649Y0.5575Z-0.009
G0Z0.3937
X2.1678Y0.5648
G1Z-0.0094F19.68
X2.1722Y0.5678Z-0.0208
X2.1753Y0.5751Z-0.0161F39.37
G0Z0.3937
X2.1953Y0.5402
G1Z-0.0201F19.68
X2.1955Y0.548F39.37
X2.1977Y0.5509Z-0.0206
X2.1979Y0.5554Z-0.0212
X2.2002Y0.5584Z-0.0217
X2.2004Y0.5629Z-0.0223
X2.2026Y0.5659Z-0.0228
X2.2028Y0.5704Z-0.0235
X2.205Y0.5734Z-0.024
X2.2055Y0.5816Z-0.0165
G0Z0.3937
X2.2127Y0.6008
G1Z-0.0093F19.68
X2.2193Y0.6068Z-0.0162
X2.2201Y0.6149Z-0.0003F39.37
G0Z0.3937
X2.1393Y0.6082
G1Z-0.0787F19.68
X2.1413Y0.6146Z-0.0764F39.37
X2.1417Y0.6183Z-0.076
X2.143Y0.6223Z-0.0755
X2.1434Y0.626Z-0.0751
X2.1437Y0.627Z-0.0753
X2.145Y0.6317Z-0.0746
X2.1451Y0.6329Z-0.0748
X2.1466Y0.6394Z-0.074
Y0.6399
X2.1483Y0.6471Z-0.0731
Y0.6476
X2.15Y0.6548Z-0.0722
Y0.6553
X2.1517Y0.6625Z-0.0713
X2.1518Y0.6665Z-0.0722
X2.1522Y0.6684
X2.1524Y0.6743Z-0.0724
X2.1528Y0.6762
X2.1529Y0.6807Z-0.0728
X2.1534Y0.6841Z-0.0725
X2.1533Y0.687Z-0.0726
X2.154Y0.6919Z-0.0727
X2.1539Y0.6949Z-0.0728
X2.1542Y0.6968Z-0.0734
X2.1547Y0.7016Z-0.0733
X2.1546Y0.7027
X2.1552Y0.7095Z-0.0735
X2.155Y0.7121Z-0.074
X2.1555Y0.7174Z-0.0749
X2.1553Y0.72Z-0.0753
X2.1554Y0.7211Z-0.0751
X2.1548Y0.7279Z-0.0737
X2.1549Y0.729Z-0.0735
X2.1542Y0.7357Z-0.072
X2.1543Y0.7368Z-0.0718
X2.1538Y0.7426Z-0.0707
X2.1536Y0.7436Z-0.07
Y0.7465Z-0.0699
X2.1533Y0.7504Z-0.069
X2.1531Y0.7515Z-0.0683
X2.1532Y0.7562Z-0.0673
X2.1525Y0.7594Z-0.0666
X2.1526Y0.7641Z-0.0656
X2.152Y0.7672Z-0.065
X2.1521Y0.7704Z-0.0638
X2.1511Y0.7751Z-0.062
X2.1512Y0.7783Z-0.0608
X2.1502Y0.783Z-0.059
X2.1504Y0.7862Z-0.0578
X2.1494Y0.7908Z-0.056
X2.1495Y0.7931Z-0.0557
X2.1488Y0.797Z-0.0543
X2.1485Y0.7987Z-0.053
X2.1486Y0.8009Z-0.0527
X2.1477Y0.8065Z-0.0504
X2.1479Y0.8079Z-0.0499
X2.1468Y0.8144Z-0.0474
X2.147Y0.8157Z-0.0469
X2.1464Y0.8194Z-0.0461
X2.146Y0.8244Z-0.0448
X2.1464Y0.826
X2.1459Y0.8323Z-0.0447
X2.1463Y0.8338
X2.1458Y0.8401Z-0.0446
X2.1462Y0.8417
X2.1457Y0.848Z-0.0445
X2.1461Y0.8496
X2.1456Y0.8559Z-0.0444
X2.1459Y0.8622Z-0.0443
X2.1455Y0.8638
X2.1458Y0.87Z-0.0442
X2.1454Y0.8716
X2.1457Y0.8779Z-0.0441
X2.1453Y0.8795
X2.1457Y0.8874Z-0.046
X2.1462Y0.8886Z-0.0466
X2.1465Y0.8953Z-0.0495
X2.147Y0.8965Z-0.05
X2.1474Y0.9032Z-0.0529
X2.1478Y0.9044Z-0.0535
X2.1481Y0.9092Z-0.0559
Y0.911Z-0.056
X2.1487Y0.9131Z-0.0574F19.68
X2.1489Y0.9171Z-0.0593F39.37
X2.149Y0.9189Z-0.0595
X2.1497Y0.9219Z-0.0608
X2.1498Y0.9268Z-0.0629
X2.1506Y0.9297Z-0.0642
X2.1507Y0.9347Z-0.0664
X2.1534Y0.946Z-0.0733F19.68
X2.1527Y0.9456Z-0.0787
X2.1523Y0.9466F39.37
X2.1519Y0.9475
X2.1429Y0.9663
X2.1424Y0.9673
X2.1518Y0.9644
X2.1529Y0.9641
X2.154Y0.9639
X2.1637Y0.9626
X2.1528Y0.9451
X2.1527Y0.9456
G0Z0.3937
X2.1625Y0.9627
G1Z-0.067F19.68
X2.1679Y0.9675Z-0.0584F39.37
X2.1787Y0.9678Z-0.035
G0Z0.3937
X2.1323Y0.9741
G1Z-0.0648F19.68
X2.143Y0.9671Z-0.0766
G0Z0.3937
X2.1323Y0.9741
G1Z-0.0648
X2.1333Y0.9854Z-0.0231F39.37
G0Z0.3937
X2.1435Y1.0508
G1Z-0.0787F19.68
X2.1154Y1.0649F39.37
X2.0989Y1.0824
X2.0903Y1.0982
X2.108Y1.1059
X2.114Y1.1014
X2.1149Y1.1008
X2.1158Y1.1002
X2.1167Y1.0997
X2.1176Y1.0993
X2.1186Y1.0989
X2.1195Y1.0985
X2.1205Y1.0982
X2.1393Y1.0933
X2.1571Y1.0835
X2.1727Y1.065
X2.1772Y1.0463
X2.1774Y1.0408
X2.1769Y1.0397
X2.1435Y1.0508
G0Z0.3937
X2.1771Y1.0402
G1Z-0.0761F19.68
X2.1784Y1.0384Z-0.0716F39.37
X2.181Y1.0299Z-0.0415
G0Z0.3937
X2.2096Y1.0124
G1Z-0.023F19.68
Y1.015Z-0.0289
X2.2108Y1.0175Z-0.0258F39.37
G0Z0.3937
X2.2255Y1.0508
G1Z-0.0192F19.68
X2.2276Y1.059Z-0.02F39.37
X2.2314Y1.0621Z-0.0202
X2.2323Y1.0653Z-0.0204
X2.2361Y1.0685Z-0.0207
X2.2364Y1.0696Z-0.0224F19.68
X2.2395Y1.0746Z-0.0225F39.37
X2.2404Y1.075
X2.2442Y1.0809Z-0.0229
X2.2451Y1.0814Z-0.023
X2.2476Y1.0853Z-0.0239
X2.2487Y1.0874Z-0.0225
X2.2501Y1.0883Z-0.0237F19.68
X2.2523Y1.0916Z-0.0243F39.37
X2.2533Y1.0938Z-0.0229
X2.2554Y1.095Z-0.0231
X2.2576Y1.0993Z-0.022
X2.2606Y1.101Z-0.0212
X2.2627Y1.1053Z-0.0201
X2.2657Y1.107Z-0.0193
X2.2665Y1.1085Z-0.0207F19.68
X2.2693Y1.1127Z-0.0189F39.37
X2.2712Y1.1133Z-0.0188
X2.2747Y1.1184Z-0.0186
X2.2766Y1.119Z-0.0185
X2.2801Y1.1241Z-0.0182
X2.282Y1.1247
X2.285Y1.1291Z-0.0212F19.68
X2.287Y1.1344Z-0.0291
X2.2858Y1.1463Z-0.0624
X2.2851Y1.1482Z-0.0677
X2.2848Y1.1524Z-0.0735
X2.2852Y1.152Z-0.0787
X2.2741Y1.1659F39.37
X2.2702Y1.1729
X2.2781Y1.1644
X2.2788Y1.1637
X2.2796Y1.163
X2.2804Y1.1623
X2.2812Y1.1617
X2.2821Y1.1611
X2.283Y1.1606
X2.2839Y1.1601
X2.2849Y1.1597
X2.2858Y1.1593
X2.2868Y1.1589
X2.2878Y1.1586
X2.2888Y1.1584
X2.2899Y1.1582
X2.2909Y1.1581
X2.2919Y1.158
X2.293Y1.1579
X2.2936
X2.2902Y1.1561
X2.2893Y1.1555
X2.2884Y1.1549
X2.2876Y1.1543
X2.2868Y1.1536
X2.286Y1.1529
X2.2852Y1.152
G0Z0.3937
X2.2933Y1.1577
G1Z-0.074F19.68
X2.3005Y1.159Z-0.0701F39.37
X2.3043Y1.162Z-0.0658
X2.322Y1.1647Z-0.0646
X2.3304Y1.1641Z-0.0615
X2.3357Y1.1627Z-0.0557
X2.3363Y1.1632Z-0.0573F19.68
X2.3398Y1.1653Z-0.0649
X2.3434Y1.167Z-0.0708
X2.3445Y1.1674Z-0.0724
X2.3576Y1.1567Z-0.0259F39.37
G0Z0.3937
X2.3445Y1.1674
G1Z-0.0724F19.68
X2.3478Y1.1708Z-0.0711F39.37
X2.3547Y1.1754Z-0.062
X2.3555Y1.1757Z-0.061
X2.3615Y1.1799Z-0.0534
X2.3675Y1.182Z-0.0511
X2.3755Y1.1824Z-0.0531
X2.383Y1.1809Z-0.0464
X2.3881Y1.1788Z-0.0381
X2.3904Y1.1806Z-0.0445F19.68
X2.3977Y1.1842Z-0.0574
X2.4054Y1.1861Z-0.0618F39.37
X2.4245Y1.1862Z-0.0625
X2.4295Y1.1807Z-0.0758F19.68
X2.4323Y1.1802Z-0.0767F39.37
X2.429Y1.1818Z-0.0787
X2.439Y1.1817
X2.4504Y1.1773
X2.4499Y1.1767
X2.4493Y1.1759
X2.4486Y1.1751
X2.448Y1.1743
X2.4475Y1.1734
X2.4473Y1.1729
X2.4467Y1.1733
X2.4458Y1.1739
X2.4449Y1.1744
X2.429Y1.1818
G0Z0.3937
X2.4473Y1.1729
G1Z-0.0722F19.68
X2.4511Y1.1571Z-0.0416F39.37
X2.4478Y1.1462Z-0.0026
G0Z0.3937
X2.4504Y1.1773
G1Z-0.0749F19.68
X2.4535Y1.178Z-0.072F39.37
X2.4608Y1.1786Z-0.0601
X2.4612Y1.1787Z-0.0594
X2.4696Z-0.0476
X2.4772Y1.1765Z-0.0452
X2.488Y1.1691Z-0.0359
X2.4959Y1.1723Z-0.0578F19.68
X2.5031Y1.1718Z-0.063
X2.5162Y1.175Z-0.0585F39.37
X2.517Y1.1762Z-0.0614F19.68
X2.5225Y1.1818Z-0.073
X2.5268Y1.1848Z-0.0724F39.37
X2.5284Y1.187Z-0.0741F19.68
X2.5325Y1.191Z-0.0705F39.37
X2.5356Y1.1935Z-0.0654
X2.539Y1.1956Z-0.0589
X2.5429Y1.1977Z-0.0502
X2.5433Y1.1994Z-0.0524F19.68
X2.5466Y1.2076Z-0.0577
X2.5513Y1.2142Z-0.0537F39.37
X2.5574Y1.2191Z-0.0524
X2.5633Y1.2218Z-0.0442
X2.5711Y1.2232Z-0.0276
X2.5713Y1.224Z-0.0294F19.68
X2.5734Y1.2289Z-0.037
X2.5757Y1.2337Z-0.0437
X2.5812Y1.2397Z-0.0433F39.37
X2.5859Y1.2423Z-0.0432
X2.5876Y1.2442Z-0.0431
X2.5924Y1.2468
X2.595Y1.2497Z-0.0438
X2.5986Y1.2517Z-0.0446
X2.6012Y1.2545Z-0.0454
X2.602Y1.255Z-0.0461F19.68
X2.6053Y1.2572Z-0.0468F39.37
X2.6072Y1.2592Z-0.0471
X2.6082Y1.2598Z-0.0479F19.68
X2.6105Y1.2614Z-0.0485F39.37
X2.6121Y1.2625Z-0.0482
X2.6134Y1.264Z-0.0489
X2.6183Y1.2674Z-0.05
X2.6193Y1.2687Z-0.0503
X2.6258Y1.2732Z-0.0488
X2.6338Y1.276Z-0.0369
X2.6344Y1.2761Z-0.0355
X2.6385Y1.2848Z-0.0497F19.68
X2.6436Y1.2908Z-0.052F39.37
X2.6502Y1.2953Z-0.0441
X2.6545Y1.2969Z-0.0355
X2.6586Y1.2984Z-0.0271
X2.6589Z-0.0263
X2.6598Y1.3027Z-0.0339F19.68
X2.6608Y1.3073Z-0.042
X2.6645Y1.3146Z-0.0479
X2.6699Y1.3203Z-0.048F39.37
X2.6771Y1.3244Z-0.0445
X2.685Y1.3265Z-0.0322
X2.687Y1.3324Z-0.0445F19.68
X2.7119Y1.3276Z-0.0074F39.37
X2.7198Y1.3435Z-0.0651F19.68
X2.7341Y1.3396Z-0.0735F39.37
X2.7349Y1.3289Z-0.0537
X2.7331Y1.3239Z-0.0422
X2.7343Y1.3193Z-0.0348
G0Z0.3937
X2.7341Y1.3396
G1Z-0.0735F19.68
X2.7342Y1.3397Z-0.0732F39.37
X2.7397Y1.3459Z-0.063
X2.7436Y1.3529Z-0.0599
X2.7452Y1.3588Z-0.0604
X2.7461Y1.3603Z-0.0618F19.68
X2.7476Y1.3646Z-0.0627F39.37
X2.749Y1.369Z-0.0643
X2.7497Y1.3772Z-0.0652
X2.7496Y1.3776Z-0.0649
X2.7527Y1.3845Z-0.0738F19.68
X2.753Y1.3855F39.37
X2.7562Y1.3926Z-0.0744
Y1.3927
X2.7595Y1.3998Z-0.0751
Y1.3999
X2.7617Y1.4047Z-0.0755
X2.7629Y1.4069Z-0.0751
X2.7633Y1.4083Z-0.0758
X2.7649Y1.4119Z-0.0762
X2.7661Y1.4141Z-0.0757
X2.767Y1.4168Z-0.076
X2.7694Y1.4212Z-0.0764
X2.7702Y1.424Z-0.0766
X2.7726Y1.4284Z-0.077
X2.7735Y1.4312Z-0.0772
X2.7758Y1.4356Z-0.0776
X2.7767Y1.4383Z-0.0779
X2.7791Y1.4428Z-0.0783
X2.7794Y1.4437Z-0.0782
X2.7824Y1.4493Z-0.0777
X2.7829Y1.4508Z-0.0773
X2.7841Y1.4528Z-0.0775
X2.7859Y1.4563Z-0.077
X2.7865Y1.4578Z-0.0766
X2.7893Y1.4628Z-0.0761
X2.79Y1.4648Z-0.0759
X2.7929Y1.4698Z-0.0754
X2.7932Y1.4708Z-0.0759
X2.795Y1.4743Z-0.0756
X2.7964Y1.4768Z-0.0748
X2.7968Y1.4778Z-0.0752
X2.7998Y1.4839Z-0.0747
X2.7999Z-0.0746
X2.8034Y1.4909Z-0.074
X2.8069Y1.4979Z-0.0733
X2.807Y1.498
X2.8105Y1.5049Z-0.0726
Y1.505
X2.8141Y1.512Z-0.072
X2.8154Y1.5137Z-0.0722
X2.819Y1.5207Z-0.0705
X2.8198Y1.5236Z-0.0672
X2.8235Y1.5272Z-0.0716F19.68
X2.828Y1.5337Z-0.0715F39.37
X2.8305Y1.5395Z-0.075
X2.8318Y1.5441Z-0.0787F19.68
X2.8336Y1.5449Z-0.0756F39.37
X2.8407Y1.5498Z-0.0627
X2.8461Y1.5557Z-0.0573
X2.8512Y1.5656Z-0.0493
X2.8516Y1.5669Z-0.0471
X2.8577Y1.5703Z-0.0557F19.68
X2.8634Y1.5758Z-0.0568F39.37
X2.8663Y1.5803Z-0.059
X2.8681Y1.5821Z-0.0601
X2.871Y1.5867Z-0.0623
X2.8728Y1.5884Z-0.0633
X2.8757Y1.5931Z-0.0656
X2.8775Y1.5948Z-0.0666
X2.8804Y1.5994Z-0.0689
X2.8862Y1.6052Z-0.0688
X2.8898Y1.6077Z-0.0651
X2.891Y1.6115Z-0.0716F19.68
X2.8933Y1.6161Z-0.0765
X2.894Y1.6189Z-0.0762F39.37
X2.8962Y1.6234Z-0.0745
X2.898Y1.6269Z-0.0741
X2.9004Y1.6301Z-0.0753
X2.9011Y1.6309
X2.9031Y1.6344Z-0.0763
X2.9053Y1.6369Z-0.0779
Z-0.0787F19.68
X2.9065Y1.639F39.37
X2.9066Y1.6379
X2.9058Y1.6374
X2.9053Y1.6369
X2.9066Y1.6382Z-0.0781
X2.9188Y1.6337Z-0.0353
X2.9212Y1.629Z-0.0284
G0Z0.3937
X2.9065Y1.6389
G1Z-0.0779F19.68
X2.9068Y1.6413Z-0.0752F39.37
X2.9092Y1.649Z-0.0687
X2.9131Y1.6559Z-0.0637
X2.9185Y1.6618Z-0.0511
X2.9193Y1.6625Z-0.0488
X2.9196Y1.6703Z-0.0561F19.68
X2.9218Y1.6781Z-0.0547F39.37
X2.9253Y1.684Z-0.0541
X2.9256Y1.685Z-0.054
X2.9291Y1.6909Z-0.0534
X2.9312Y1.6987Z-0.0511
X2.9314Y1.7047Z-0.0429
X2.9336Y1.7063Z-0.0481F19.68
X2.9389Y1.7125Z-0.0572
X2.9424Y1.7195Z-0.0583F39.37
X2.9434Y1.7241Z-0.0629F19.68
X2.9441Y1.7282Z-0.0675
Y1.7284F39.37
X2.9443Y1.7288Z-0.067
X2.9462Y1.7315Z-0.0662
X2.9522Y1.7407Z-0.062
X2.9533Y1.7419Z-0.0606
X2.9555Y1.7462Z-0.0587
X2.9576Y1.7485Z-0.0575
X2.9598Y1.7528Z-0.0557
X2.9619Y1.7551Z-0.0545
X2.9642Y1.7595Z-0.0526
X2.9663Y1.7618Z-0.0514
X2.9692Y1.7675Z-0.0504
X2.9709Y1.7693Z-0.0503
X2.9733Y1.7742Z-0.0502
X2.975Y1.776Z-0.0501
X2.9775Y1.7809Z-0.05
X2.9792Y1.7827Z-0.0499
X2.9817Y1.7876Z-0.0498
X2.9833Y1.7894Z-0.0497
X2.9855Y1.7938Z-0.0498
X2.9858Y1.7943Z-0.0494
X2.9879Y1.7969Z-0.0498
X2.9897Y1.8005Z-0.0496
X2.9899Y1.801Z-0.0492
X2.9927Y1.8043Z-0.0491
X2.9941Y1.8077Z-0.049
X2.9968Y1.811Z-0.0489
X2.9978Y1.8134Z-0.0495
X3.0001Y1.8167Z-0.0494
X3.001Y1.8177Z-0.0487
X3.002Y1.8201Z-0.0493
X3.0059Y1.8258Z-0.0506
X3.0061Y1.8259Z-0.0507
X3.0105Y1.8322Z-0.0524
X3.0107Y1.8323
X3.0151Y1.8386Z-0.0542
X3.0153Y1.8387
X3.0198Y1.845Z-0.056
X3.0199Y1.8451
X3.0244Y1.8514Z-0.0578
X3.0245Y1.8515
X3.0277Y1.856Z-0.0591
X3.0288Y1.8579Z-0.0588
X3.0311Y1.8603Z-0.0595
X3.0334Y1.8643Z-0.0606
X3.0356Y1.8667Z-0.0614
X3.038Y1.8707Z-0.0624
X3.0402Y1.8731Z-0.0632
X3.0406Y1.8737Z-0.063
X3.0455Y1.8789Z-0.0616
X3.0459Y1.8795Z-0.0614
X3.0496Y1.8834Z-0.0608
X3.0517Y1.8852Z-0.0598
X3.0532Y1.8875Z-0.0595
X3.0571Y1.8909Z-0.059
X3.0586Y1.8932Z-0.0588
X3.0626Y1.8966Z-0.0583
X3.0641Y1.8988Z-0.058
X3.068Y1.9023Z-0.0575
X3.0688Y1.9034Z-0.0571
X3.0737Y1.9077Z-0.0554
X3.0745Y1.9088Z-0.0551
X3.0785Y1.9123Z-0.054
X3.0795Y1.9131Z-0.0529
X3.0812Y1.9152
X3.0842Y1.9178Z-0.0519
X3.0853Y1.9185Z-0.0509
X3.0878Y1.9217Z-0.0498
X3.091Y1.924Z-0.0488
X3.0935Y1.9271Z-0.0478
X3.0951Y1.9283Z-0.0483
X3.0979Y1.931Z-0.0473
X3.0992Y1.9326Z-0.0457
X3.1008Y1.9337Z-0.0463
X3.1051Y1.9379Z-0.0448
X3.1058Y1.9392
X3.1104Y1.9436Z-0.0446
X3.1112Y1.945
X3.1158Y1.9494Z-0.0444
X3.1161Y1.95Z-0.045F19.68
X3.1208Y1.9551Z-0.0448F39.37
X3.121Y1.9553
X3.1261Y1.9609Z-0.0446
X3.1264Y1.9611
X3.1314Y1.9667Z-0.0444
X3.1317Y1.9669
X3.137Y1.9727Z-0.0446
X3.1375Y1.9739Z-0.0449
X3.1413Y1.9781Z-0.0453
X3.1422Y1.9802Z-0.0454
X3.146Y1.9844Z-0.0458
X3.1469Y1.9865Z-0.046
X3.1507Y1.9907Z-0.0464
X3.1516Y1.9928Z-0.0466
X3.1554Y1.9971Z-0.047
X3.1563Y1.999Z-0.0472
X3.1598Y2.003Z-0.0477
X3.1609Y2.0054Z-0.0475
X3.1619Y2.0064Z-0.0482
X3.1645Y2.0094
X3.1656Y2.0117Z-0.0481
X3.169Y2.0153Z-0.0484
X3.1703Y2.018Z-0.0487
X3.1737Y2.0216Z-0.049
X3.1755Y2.0253Z-0.05
X3.1781Y2.0281Z-0.0508
X3.18Y2.0318Z-0.0518
X3.1834Y2.0356Z-0.0544
X3.1864Y2.0384Z-0.0541
X3.1901Y2.0408Z-0.0508
X3.1947Y2.0435Z-0.0458
Y2.0438Z-0.0467F19.68
X3.1971Y2.0516Z-0.061
X3.2009Y2.0585Z-0.068
X3.2086Y2.0673Z-0.076
X3.208Y2.0669Z-0.0787
X3.2114Y2.0774F39.37
X3.2115Y2.0777
X3.2296Y2.0807
X3.2274Y2.0789
X3.208Y2.0669
G0Z0.3937
X3.2293Y2.0806
G1Z-0.0783F19.68
X3.2336Y2.093Z-0.0318F39.37
G0Z0.3937
X3.2294Y2.0805
G1Z-0.0783F19.68
X3.2509Y2.0789Z-0.0233F39.37
X3.2537Y2.0859Z-0.0368F19.68
X3.2623Y2.0957Z-0.0424F39.37
X3.2655Y2.0975Z-0.0422
X3.2684Y2.1008Z-0.0419
X3.2715Y2.1026Z-0.0417
X3.2744Y2.1059Z-0.0414
X3.2775Y2.1076Z-0.0412
X3.2804Y2.111Z-0.0409
X3.2835Y2.1127Z-0.0407
X3.2864Y2.116Z-0.0405
X3.2895Y2.1178Z-0.0402
X3.2914Y2.1199Z-0.041
X3.2933Y2.1214Z-0.0411
X3.2944Y2.1224Z-0.0409
X3.2975Y2.1246Z-0.04
X3.2976Y2.1248Z-0.0401F19.68
X3.3022Y2.1292Z-0.0397F39.37
X3.3035Y2.1297Z-0.0396
X3.3082Y2.1343Z-0.0392
X3.3095Y2.1348Z-0.0391
X3.3142Y2.1393Z-0.0387
X3.3155Y2.1399
X3.3202Y2.1444Z-0.0383
X3.3278Y2.1476Z-0.0469F19.68
X3.3372Y2.1485Z-0.0664
X3.3385Y2.1484Z-0.07
X3.3391Y2.1483Z-0.0715
X3.3405Y2.1493Z-0.0707F39.37
X3.3445Y2.1533Z-0.0704
X3.3463Y2.1546
X3.3503Y2.1586Z-0.0701
X3.3521Y2.1599Z-0.07
X3.3561Y2.1639Z-0.0698
X3.358Y2.1652Z-0.0697
X3.3619Y2.1692Z-0.0695
X3.3638Y2.1705Z-0.0694
X3.3672Y2.174
X3.3677Y2.1746Z-0.069
X3.371Y2.177Z-0.0688
X3.3735Y2.1799Z-0.0687
X3.3769Y2.1823Z-0.0685
X3.3775Y2.1831Z-0.0689
X3.3803Y2.1859Z-0.0688
X3.3827Y2.1876Z-0.0682
X3.3833Y2.1884Z-0.0686
X3.3869Y2.192Z-0.0682
X3.3885Y2.193Z-0.0681
X3.3927Y2.1973Z-0.0679
X3.3943Y2.1983Z-0.0678
X3.3985Y2.2026Z-0.0675
X3.4052Y2.2069Z-0.0684
X3.413Y2.21Z-0.0614
X3.4157Y2.2105Z-0.0574
X3.4186Y2.2156Z-0.0671F19.68
X3.4236Y2.2217Z-0.0754
X3.428Y2.2254Z-0.076F39.37
X3.4333Y2.2283Z-0.0781
X3.4331Y2.2281Z-0.0787F19.68
X3.433F39.37
X3.4427Y2.235
X3.4428Y2.2344
X3.4429Y2.2334
X3.4431Y2.2323
X3.4434Y2.2313
X3.4438Y2.2301
X3.4352Y2.2286
X3.4341Y2.2284
X3.4331Y2.2281
G0Z0.3937
X3.4426Y2.2299
G1Z-0.0749F19.68
X3.4457Y2.2273Z-0.0673F39.37
X3.4645Y2.2232Z-0.0321
X3.4766Y2.2329Z-0.0326
X3.4802Y2.2341Z-0.0337
X3.481Y2.2339Z-0.034
X3.4975Y2.2443Z-0.0215
X3.4978Y2.2531Z-0.0054
X3.4991Y2.2546Z-0.004
X3.5006Y2.2558Z-0.0037
G0Z0.3937
X3.4826Y2.2738
G1Z-0.0514F19.68
X3.4991Y2.2546Z-0.004F39.37
G0Z0.3937
X3.4826Y2.2738
G1Z-0.0514F19.68
X3.4855Y2.2765Z-0.0508F39.37
X3.4887Y2.2789
X3.4904Y2.28Z-0.0499
X3.4919Y2.2819Z-0.0498
X3.4964Y2.285Z-0.0493
X3.498Y2.2869Z-0.0492
X3.5021Y2.2898Z-0.0484
X3.5039Y2.2921Z-0.0479
X3.5081Y2.2949Z-0.0472
X3.5099Y2.2972Z-0.0467
X3.514Y2.3Z-0.046
X3.5164Y2.3031Z-0.0459
X3.5198Y2.3054Z-0.0458
X3.5222Y2.3084
X3.5256Y2.3107Z-0.0457
X3.528Y2.3138Z-0.0456
X3.5314Y2.3161Z-0.0455
X3.5338Y2.3191
X3.5372Y2.3214Z-0.0454
X3.5395Y2.3245Z-0.0453
X3.5429Y2.3268
X3.5453Y2.3298Z-0.0452
X3.5487Y2.3321Z-0.0451
X3.5511Y2.3352Z-0.045
X3.5545Y2.3375
X3.5569Y2.3405Z-0.0449
X3.5603Y2.3428Z-0.0448
X3.5627Y2.3459
X3.5651Y2.3475Z-0.0454
X3.5685Y2.3511Z-0.045
X3.5701Y2.352Z-0.0449
X3.5723Y2.3544Z-0.0456
X3.5752Y2.357Z-0.0455
X3.5759Y2.3574Z-0.0448
X3.5781Y2.3597Z-0.0455
X3.5816Y2.3628Z-0.0453
X3.5817Y2.3632
X3.5874Y2.3682Z-0.0451
X3.5875Y2.3685
X3.5931Y2.3735Z-0.045
X3.5933Y2.3738
X3.5989Y2.3789Z-0.0448
X3.5991Y2.3792
X3.6047Y2.3842Z-0.0447
X3.6049Y2.3845
X3.6105Y2.3896Z-0.0446
X3.6107Y2.3899
X3.6163Y2.3949Z-0.0444
X3.6164Y2.3952
X3.622Y2.4003Z-0.0443
X3.6222Y2.4006
X3.6281Y2.4058Z-0.0446
X3.6298Y2.4066Z-0.0451
X3.6343Y2.4107Z-0.0471
X3.636Y2.4114Z-0.0477
X3.6406Y2.4155Z-0.0496
X3.6423Y2.4163Z-0.0502
X3.6475Y2.4208Z-0.047
X3.65Y2.4242Z-0.0409
X3.6524Y2.4277Z-0.0337
X3.6538Y2.4309Z-0.0261
X3.6587Y2.4306Z-0.036F19.68
X3.6671Y2.4321Z-0.0467
X3.677Y2.4371Z-0.044F39.37
X3.6833Y2.443Z-0.0304
X3.6834Y2.4431Z-0.0302
X3.6919Y2.4421Z-0.0435F19.68
X3.6983Y2.4432Z-0.0464F39.37
X3.7043Y2.4455Z-0.0473
X3.7124Y2.4214Z-0.0081
X3.7136Y2.4207Z-0.0129F19.68
X3.7149Y2.4211Z-0.015
X3.7152Y2.421Z-0.0157
X3.7238Y2.4223Z-0.0324
X3.7305Y2.4263Z-0.0347F39.37
X3.7355Y2.4331Z-0.0456F19.68
X3.7387Y2.4424Z-0.0682
X3.7389Y2.4423Z-0.0676F39.37
X3.7484Y2.4422Z-0.0478
X3.7563Y2.4445Z-0.0379
X3.757Y2.4451Z-0.0356
X3.7646Y2.4461Z-0.0269
X3.7702Y2.4502Z-0.0245
X3.7714Z-0.0261F19.68
X3.7782Y2.4541Z-0.024F39.37
X3.7808Y2.4587Z-0.031F19.68
X3.7836Y2.4609Z-0.0351
X3.7878Y2.4691Z-0.053
X3.7894Y2.4764Z-0.0691
X3.7917Y2.4778Z-0.0662F39.37
X3.7976Y2.4833Z-0.0524
X3.7998Y2.4861Z-0.0443
X3.8032Y2.4858Z-0.0487F19.68
X3.8102Y2.4859Z-0.0552
X3.8182Y2.4878Z-0.054F39.37
X3.8237Y2.4909Z-0.0517
X3.8254Y2.4913Z-0.0511
X3.8308Y2.4943Z-0.0489
X3.8385Y2.496Z-0.0491
X3.8444Y2.4957Z-0.0421
X3.8493Y2.495Z-0.0347
X3.8503Y2.4954Z-0.035
X3.8533Y2.4959Z-0.0335
X3.8648Y2.4815Z-0.0125
X3.8819Y2.4782Z-0.0002
X3.8875Y2.5065Z-0.073F19.68
Z-0.0787
X3.8868Y2.5073F39.37
X3.886Y2.508
X3.8857Y2.5082
X3.8936Y2.5138
X3.8937Y2.5128
Y2.5117
X3.8938Y2.5107
X3.894Y2.5095
X3.8875Y2.5065
X3.8933Y2.5092Z-0.0772
X3.9108Y2.5032Z-0.0303
X3.9127Y2.4996Z-0.0253
X3.9256Y2.4941Z-0.0118
X3.9264Y2.482Z-0.0496F19.68
X3.9412Y2.4816Z-0.0271F39.37
X3.9438Y2.4812Z-0.0219
X3.9526Y2.4967Z-0.0535F19.68
X3.9581Y2.4998Z-0.0666
X3.9742Y2.4935Z-0.0363F39.37
X3.984Y2.5007Z-0.058F19.68
X3.9896Y2.5029Z-0.0634
X3.9956Y2.4973Z-0.0442F39.37
X4.0033Y2.4939Z-0.0338
X4.0097Y2.4938Z-0.0295
X4.0111Y2.4928Z-0.0316F19.68
X4.0188Y2.4911Z-0.028F39.37
X4.0211Y2.4917
X4.0228Y2.4913Z-0.0289
X4.0267Y2.4904Z-0.0281
X4.0289Y2.491Z-0.028
X4.0307Y2.4906Z-0.0289
X4.0346Y2.4898Z-0.0281
X4.0368Y2.4904
X4.0425Y2.4892
X4.0445Y2.4897Z-0.0282
X4.0503Y2.4885
X4.0522Y2.4891
X4.06Y2.4875Z-0.0317
X4.0675Y2.4821Z-0.0498F19.68
X4.0683Y2.4809Z-0.0537
X4.0732Y2.4766Z-0.0488F39.37
X4.0749Y2.476Z-0.0463
X4.0767Y2.4749Z-0.0418
X4.0925Y2.4818Z-0.0564F19.68
X4.0946Y2.4815Z-0.0592
X4.1003Y2.478Z-0.044F39.37
X4.1009Y2.477Z-0.04
X4.0946Y2.4815Z-0.0592F19.68
X4.0993Y2.4881Z-0.0387F39.37
X4.1025Y2.4955Z-0.0203
X4.1029Y2.5047Z-0.0146
X4.1011Y2.5078Z-0.0058
X4.114Y2.5179Z-0.0158F19.68
G0Z0.3937
X4.1709Y2.4957
G1Z-0.0084
X4.1838Y2.494Z-0.0377
X4.1906Y2.5009Z-0.0613
X4.1963Y2.5045Z-0.0724
X4.2081Y2.5005Z-0.0691F39.37
X4.2107Y2.5015Z-0.064
X4.2175Y2.5062Z-0.0549
X4.2249Y2.5149Z-0.0408
X4.2257Y2.5166Z-0.0366
X4.2259Y2.5168Z-0.0362
X4.2325Y2.5178Z-0.0441F19.68
X4.2398Y2.5213Z-0.0428F39.37
X4.2429Y2.5244Z-0.043
X4.2459Y2.5275Z-0.0405
X4.2498Y2.5353Z-0.026
X4.251Y2.5408Z-0.0126
X4.2602Y2.5403Z-0.0348F19.68
X4.2681Y2.5419Z-0.0478
X4.2751Y2.5456Z-0.0512F39.37
X4.2768Y2.5472Z-0.0525
X4.28Y2.549Z-0.055F19.68
X4.2835Y2.5515Z-0.0569F39.37
X4.2851Y2.5522Z-0.0578
X4.2902Y2.5558Z-0.0612
X4.2917Y2.5565Z-0.0621
X4.2969Y2.5602Z-0.0655
X4.3011Y2.562Z-0.0694F19.68
X4.3029Y2.5632Z-0.0717
X4.3065Y2.5651Z-0.0751
X4.3083Y2.5658Z-0.0762F39.37
X4.31Y2.567Z-0.0785F19.68
X4.3102Y2.5671F39.37
X4.3101Y2.567Z-0.0787F19.68
X4.3218Y2.5773F39.37
Y2.5764
X4.3217Y2.5753
X4.3218Y2.5743
X4.3219Y2.5733
X4.322Y2.5723
X4.3222Y2.5712
X4.3224Y2.5704
X4.3101Y2.567
G0Z0.3937
X4.3222Y2.5703
G1Z-0.0755F19.68
X4.3236Y2.5694Z-0.0738F39.37
X4.3329Y2.5655Z-0.0506
X4.3413Y2.5645Z-0.0387
X4.3472Y2.5659Z-0.0328
X4.3588Y2.562Z-0.0241
X4.3638Y2.5583Z-0.0101
X4.3645Z-0.0102
X4.3735Y2.5466Z-0.0016
X4.374Y2.5457Z-0.0053F19.68
X4.3799Y2.5444Z-0.0194
X4.3877Y2.5465Z-0.0208F39.37
X4.3931Y2.553Z-0.0325F19.68
X4.3955Y2.5616Z-0.0564
X4.3972Y2.5621Z-0.055F39.37
X4.3975Y2.5623Z-0.0546
X4.4028Y2.5637Z-0.0504
X4.4052Y2.5648Z-0.0474
X4.4066Y2.5649Z-0.0472
X4.4105Y2.566Z-0.044
X4.4158Y2.5683Z-0.0413
X4.4217Y2.5739Z-0.0274
X4.423Y2.576Z-0.0212
X4.4301Y2.5751Z-0.032F19.68
X4.443Y2.578Z-0.0393F39.37
X4.4441Y2.5787Z-0.0408F19.68
X4.4525Y2.5805Z-0.0534
X4.4625Y2.58Z-0.0768
X4.4632Y2.5798Z-0.077F39.37
X4.4629Y2.5797Z-0.0787F19.68
X4.492Y2.6005F39.37
X4.4923Y2.5997
X4.4926Y2.5987
X4.4929Y2.5977
X4.4934Y2.5968
X4.4938Y2.5958
X4.4943Y2.5949
X4.4949Y2.5941
X4.4955Y2.5931
X4.467Y2.5731
X4.4637Y2.5785
X4.4631Y2.5794
X4.4629Y2.5797
G0Z0.3937
X4.4953Y2.593
G1Z-0.0756F19.68
X4.4967Y2.5927Z-0.0748F39.37
X4.5071Y2.5923Z-0.0515
X4.5153Y2.5943Z-0.041
X4.5218Y2.5986Z-0.0372
X4.5264Y2.6047Z-0.0226
X4.5276Y2.6075Z-0.0146
X4.5337Y2.6065Z-0.0263F19.68
X4.5421Y2.6081Z-0.0291F39.37
X4.5474Y2.6122
X4.549Y2.6125Z-0.0292
X4.5541Y2.6164Z-0.0296
X4.5556Y2.6167Z-0.0298
X4.5576Y2.6182Z-0.0308
X4.5607Y2.6206Z-0.0302
X4.5623Y2.6209Z-0.0303
X4.5667Y2.6243Z-0.0309
X4.5673Y2.6249Z-0.0301
X4.5702Y2.6261Z-0.0315
X4.5734Y2.6285
X4.574Y2.6291Z-0.0307
X4.5775Y2.6306Z-0.0302
X4.5786Y2.6305Z-0.0292
X4.5852Y2.6332Z-0.0235
X4.5863Y2.633Z-0.0224
X4.592Y2.6355Z-0.0177
X4.5992Y2.6344Z-0.0035
X4.5972Y2.6523Z-0.0106
X4.6026Y2.6604Z-0.0455F19.68
X4.6043Y2.6601Z-0.0459F39.37
X4.6087Y2.66Z-0.0504F19.68
X4.6123Y2.6594Z-0.052F39.37
X4.6206Y2.6599Z-0.0522
X4.6325Y2.6691Z-0.0439
X4.6401Y2.6676Z-0.0552F19.68
X4.643Y2.6686Z-0.0516F39.37
X4.6435Z-0.0499
G0Z0.3937
X4.592Y2.6712
G1Z-0.0722F19.68
X4.6026Y2.6604Z-0.0455F39.37
G0Z0.3937
X4.592Y2.6712
G1Z-0.0722F19.68
X4.5963Y2.6795Z-0.0467F39.37
X4.5965Y2.6821Z-0.0374
G0Z0.3937
X4.5297Y2.6499
G1Z-0.0671F19.68
X4.534Y2.6523Z-0.0636F39.37
X4.5353Y2.6527Z-0.0631
X4.5386Y2.6543Z-0.0608
X4.5419Y2.6558Z-0.0579
X4.5432Y2.6567Z-0.0568
X4.5491Y2.6592Z-0.0525
X4.5504Y2.6602Z-0.0514
X4.5577Y2.6633Z-0.0478
X4.5715Y2.6646Z-0.0492
X4.5778Y2.6718Z-0.0478
X4.592Y2.6712Z-0.0722F19.68
G0Z0.3937
X4.5132Y2.6317
G1Z-0.0373
Z-0.0374
X4.5198Y2.6351Z-0.0446
X4.5253Y2.6408Z-0.0496
X4.5294Y2.6486Z-0.0641
X4.5297Y2.6499Z-0.0671
G0Z0.3937
X4.4967Y2.6473
G1Z-0.0083
X4.5132Y2.6317Z-0.0373
G0Z0.3937
X4.4967Y2.6473
G1Z-0.0083
X4.5Y2.6505Z-0.0205
X4.5074Y2.6545Z-0.035
X4.5153Y2.6552Z-0.0368F39.37
X4.5258Y2.6522Z-0.0557F19.68
X4.5297Y2.6499Z-0.0671
G0Z0.3937
X4.5272Y2.6086
G1Z-0.01
X4.5276Y2.6075Z-0.0146
G0Z0.3937
X4.492Y2.6005
G1Z-0.0743
X4.4942Y2.606Z-0.0668F39.37
X4.4985Y2.6124Z-0.0531
X4.4987Y2.6132Z-0.0526
X4.5025Y2.6214Z-0.038
X4.5132Y2.6317Z-0.0373
G0Z0.3937
X4.3926Y2.5626
G1Z-0.0513F19.68
X4.3955Y2.5616Z-0.0564
G0Z0.3937
X4.3735Y2.5466
G1Z-0.0016
X4.3926Y2.5626Z-0.0513
G0Z0.3937
X4.3645Y2.5583
G1Z-0.0102
X4.3668Y2.5606Z-0.0188
X4.374Y2.5646Z-0.0338
X4.3779Y2.5654Z-0.0365
X4.3818Y2.566Z-0.0366F39.37
X4.3895Y2.5644Z-0.0443F19.68
X4.3926Y2.5626Z-0.0513
G0Z0.3937
X4.339Y2.5946
G1Z-0.063
X4.3496Y2.5825Z-0.0031F39.37
X4.3472Y2.5659Z-0.0328F19.68
G0Z0.3937
X4.3216Y2.5771
G1Z-0.0777
X4.3253Y2.5833Z-0.0702F39.37
X4.3307Y2.5892Z-0.0669
X4.3371Y2.5938Z-0.0654
X4.339Y2.5946Z-0.063
X4.3412Y2.5975Z-0.0659F19.68
X4.3414Y2.5981Z-0.0666
X4.3461Y2.6052Z-0.0556F39.37
X4.3506Y2.6093Z-0.0529
X4.3557Y2.6127Z-0.0469
X4.3568Y2.6131Z-0.0447
X4.3608Y2.619Z-0.0459
X4.3671Y2.6238Z-0.0448
X4.3704Y2.625Z-0.0445
X4.375Y2.6285Z-0.0344
X4.3776Y2.628Z-0.0379F19.68
X4.3858Y2.629Z-0.0365F39.37
X4.3896Y2.631Z-0.0364
X4.3905Y2.6316Z-0.0356
X4.3934Y2.632Z-0.0355
X4.3969Y2.6339Z-0.0353
X4.3978Y2.6345Z-0.0345
X4.4011Y2.635Z-0.034
X4.4047Y2.6371Z-0.0337
X4.4085Y2.6378Z-0.0328
X4.4114Y2.6399Z-0.0322
X4.4175Y2.641Z-0.0336
X4.419Y2.6421Z-0.034
X4.4251Y2.6432Z-0.0354
X4.4266Y2.6442Z-0.0358
X4.4322Y2.6453Z-0.0366
X4.4327Y2.6452Z-0.0365
X4.44Y2.6467Z-0.0351
X4.4404Y2.6466Z-0.035
X4.4477Y2.648Z-0.0336
Z-0.0335
X4.455Y2.6491Z-0.0321
X4.4555Y2.6494Z-0.032
X4.4628Y2.6504Z-0.0306
X4.4633Y2.6507Z-0.0304
X4.4696Y2.6516Z-0.0293
X4.4706Y2.6514Z-0.0279
X4.4758Y2.6532Z-0.0269
X4.4839Y2.6518Z-0.0252
X4.4923Y2.6465Z-0.0054
X4.4925Y2.6466Z-0.0057F19.68
X4.4967Y2.6473Z-0.0083
G0Z0.3937
X4.3255Y2.5188
G1Z-0.0177
X4.332Y2.5238Z-0.0239
X4.3361Y2.5242Z-0.0236F39.37
X4.3393Y2.5267Z-0.0232
X4.3434Y2.5271Z-0.0228
X4.3467Y2.5296Z-0.0224
X4.3508Y2.53Z-0.022
X4.354Y2.5325Z-0.0216
X4.3549Y2.5326Z-0.0225F19.68
X4.3588Y2.5334Z-0.0221F39.37
X4.3613Y2.5354Z-0.0208
X4.3622Y2.5355Z-0.0217F19.68
X4.367Y2.5365Z-0.0207F39.37
X4.3729Y2.5427Z-0.0137
X4.374Y2.5457Z-0.0053
G0Z0.3937
X4.3409Y2.4743
G1Z-0.0677F19.68
X4.3471Y2.4774Z-0.0682F39.37
X4.3513Y2.4785Z-0.0633
X4.354Y2.4811Z-0.0662F19.68
X4.3606Y2.4851Z-0.0645F39.37
X4.3608Y2.4853
X4.3674Y2.4893Z-0.0611
X4.3675Y2.4895Z-0.061
X4.3741Y2.4935Z-0.0577
X4.3753Y2.4947Z-0.0573
X4.3806Y2.4979Z-0.0556
X4.3818Y2.4991Z-0.0552
X4.3872Y2.5024Z-0.0535
X4.3883Y2.5036Z-0.0531
X4.393Y2.5064Z-0.0518
X4.3937Y2.5067Z-0.0511
X4.3973Y2.5098Z-0.0498
X4.4003Y2.5112Z-0.049
X4.4038Y2.5143Z-0.0477
X4.4068Y2.5156Z-0.0469
X4.4103Y2.5188Z-0.0456
X4.4132Y2.52Z-0.0449
X4.4168Y2.5232Z-0.0435
X4.4196Y2.5244Z-0.0427
X4.4244Y2.5286Z-0.0425
X4.4258Y2.5292
X4.4306Y2.5335Z-0.0423
X4.432Y2.534
X4.4356Y2.5372Z-0.0425
X4.4383Y2.5388Z-0.0416
X4.4403Y2.5411Z-0.0415
X4.4445Y2.5436Z-0.0414
X4.4465Y2.546Z-0.0413
X4.4508Y2.5485Z-0.0412
X4.4527Y2.5508Z-0.0411
X4.457Y2.5533Z-0.0409
X4.4626Y2.5601Z-0.0486F19.68
X4.4662Y2.5686Z-0.0668
X4.467Y2.5731Z-0.0733
G0Z0.3937
X4.3109Y2.4648
G1Z-0.0257
X4.3121Y2.4616Z-0.013F39.37
X4.3322Y2.4594Z-0.0161
X4.34Y2.4677Z-0.0458F19.68
X4.3409Y2.4743Z-0.0677
G0Z0.3937
X4.3109Y2.4648
G1Z-0.0257
X4.3163Y2.4706Z-0.0394
X4.3233Y2.4744Z-0.0419F39.37
X4.3313Y2.4757Z-0.0503F19.68
X4.3401Y2.4746Z-0.068
X4.3409Y2.4743Z-0.0677F39.37
G0Z0.3937
X4.2888Y2.4653
G1Z-0.0575F19.68
X4.2907Y2.4652Z-0.0541F39.37
X4.3015Y2.4675Z-0.0449
X4.3109Y2.4648Z-0.0257
G0Z0.3937
X4.2755Y2.4929
G1Z-0.0595F19.68
X4.2812Y2.4859Z-0.0453F39.37
X4.2813Y2.4796Z-0.0464
X4.2888Y2.4653Z-0.0575F19.68
G0Z0.3937
X4.2755Y2.4929
G1Z-0.0595
X4.2796Y2.5Z-0.0399F39.37
X4.2861Y2.5053Z-0.0296
X4.2894Y2.5061Z-0.0253
X4.2927Y2.51Z-0.0218
X4.3004Y2.512Z-0.0222
X4.3098Y2.5094Z-0.002
G0Z0.3937
X4.2613Y2.4933
G1Z-0.027F19.68
X4.2636Y2.4922Z-0.0357
X4.2738Y2.4932Z-0.0563
X4.2755Y2.4929Z-0.0595
G0Z0.3937
X4.2204Y2.5417
G1Z-0.0115
X4.2259Y2.5168Z-0.0362
G0Z0.3937
X4.2204Y2.5417
G1Z-0.0115
X4.2228Y2.5448F39.37
X4.2498Y2.5424Z-0.0048
X4.251Y2.5408Z-0.0126F19.68
G0Z0.3937
X4.2228Y2.5448
G1Z-0.0115
Y2.5453Z-0.013
X4.2236Y2.5545Z-0.0316
X4.227Y2.5618Z-0.0358F39.37
X4.2361Y2.5702Z-0.0274
X4.2355Y2.5727Z-0.0251
X4.2418Y2.5782Z-0.023
G0Z0.3937
X4.2672Y2.6346
G1Z-0.0541F19.68
X4.2835Y2.6397Z-0.028F39.37
G0Z0.3937
X4.2023Y2.5271
G1Z-0.0361F19.68
X4.2257Y2.5166Z-0.0366F39.37
G0Z0.3937
X4.2023Y2.5271
G1Z-0.0361F19.68
X4.2033Y2.5305Z-0.0351F39.37
X4.2082Y2.5365Z-0.0354
X4.2158Y2.5407Z-0.0227
X4.2204Y2.5417Z-0.0115
G0Z0.3937
X4.1963Y2.5045
G1Z-0.0724F19.68
X4.1959Y2.5068Z-0.0662F39.37
X4.1965Y2.5162Z-0.0467
X4.1994Y2.5239Z-0.0383
X4.2023Y2.5271Z-0.0361
G0Z0.3937
X4.1996Y2.475
G1Z-0.021F19.68
X4.2056Y2.4803Z-0.0299
X4.2086Y2.488Z-0.0387
X4.2087Y2.4955Z-0.0556
X4.2081Y2.5005Z-0.0691
G0Z0.3937
X4.1378Y2.5825
G1Z-0.0644
X4.1438Y2.5719Z-0.0429F39.37
X4.1444Y2.568Z-0.0369
X4.1429Y2.5634Z-0.0214
G0Z0.3937
X4.1378Y2.5825
G1Z-0.0644F19.68
X4.1401Y2.5855Z-0.0588F39.37
X4.1464Y2.5905Z-0.0541
X4.1523Y2.5931Z-0.0475
X4.1531Y2.5945Z-0.0491F19.68
X4.1586Y2.5995Z-0.047F39.37
X4.1651Y2.6025Z-0.0469
X4.1656Y2.603
X4.1721Y2.6061
X4.1722Z-0.047F19.68
X4.1787Y2.6095Z-0.0469F39.37
X4.1791Y2.6096
X4.1833Y2.6118Z-0.0471
X4.1856Y2.6132Z-0.0462
X4.1869Y2.6135Z-0.0469
X4.1904Y2.6154Z-0.047
X4.1927Y2.6168Z-0.0462
X4.1947Y2.6173Z-0.0461
X4.1983Y2.6194Z-0.045
X4.202Y2.6203Z-0.044
X4.2055Y2.6225Z-0.0429
X4.2113Y2.6238Z-0.043
X4.2153Y2.6241Z-0.0392
X4.2196Y2.6237Z-0.033
X4.2252Y2.6225Z-0.0221
X4.2258Y2.6235Z-0.0249F19.68
X4.232Y2.6298Z-0.0403
X4.239Y2.6337Z-0.0436F39.37
X4.2502Y2.6358Z-0.0426
X4.2589Y2.6412Z-0.0263
X4.2672Y2.6346Z-0.0541F19.68
G0Z0.3937
X4.046Y2.4632
G1Z-0.0112
X4.0732Y2.4766Z-0.0488
G0Z0.3937
X3.9896Y2.5029
G1Z-0.0634
X3.9905Y2.505Z-0.0588F39.37
X3.9937Y2.5091Z-0.0529
X3.9971Y2.5128Z-0.0483
X4.0034Y2.5166Z-0.0446
X4.0037Y2.5171Z-0.0453F19.68
X4.0095Y2.5226Z-0.0435F39.37
X4.0156Y2.5255Z-0.0445
X4.0239Y2.5266Z-0.0339
X4.0302Y2.5258Z-0.0207
X4.0304Y2.5264Z-0.0223F19.68
X4.0337Y2.5323Z-0.0361
X4.0395Y2.5382Z-0.0461
X4.0464Y2.542Z-0.0464F39.37
X4.047Y2.5421
X4.0526Y2.5451Z-0.0461
X4.0542Y2.5454Z-0.046
X4.0597Y2.5484Z-0.0456
X4.0613Y2.5487Z-0.0455
X4.0662Y2.5514Z-0.0454
X4.0685Y2.552Z-0.0447
X4.0699Y2.5528Z-0.0454
X4.0733Y2.5547Z-0.0449
X4.0756Y2.5553Z-0.0442
X4.0797Y2.5579Z-0.044
X4.0815Y2.5583Z-0.0448
X4.085Y2.56Z-0.0446
X4.0869Y2.5612Z-0.0435
X4.0886Y2.5616Z-0.0443
X4.0941Y2.5643Z-0.0439
X4.0946Y2.5644
X4.1017Y2.5679Z-0.0441
X4.1022Y2.5683Z-0.0442
X4.1087Y2.5715Z-0.0451
X4.1091Y2.572Z-0.0452
X4.1156Y2.5752Z-0.0461
X4.1161Y2.5757Z-0.0462
X4.1206Y2.5779Z-0.0473
X4.1243Y2.5794Z-0.0494
X4.1284Y2.58Z-0.053F19.68
X4.1288Y2.5801Z-0.0532F39.37
X4.1332Y2.5818Z-0.0578F19.68
X4.1378Y2.5825Z-0.0644
G0Z0.3937
X3.9566Y2.5975
G1Z-0.0741
X3.9595Y2.5924Z-0.0661F39.37
X3.9621Y2.5843Z-0.0539
X3.9624Y2.5767Z-0.0466
G0Z0.3937
X3.9566Y2.5975
G1Z-0.0787F19.68
X3.956Y2.5977F39.37
X3.955Y2.598
X3.954Y2.5983
X3.953Y2.5986
X3.952Y2.5988
X3.9515Y2.5989
X3.9577Y2.6092
X3.9566Y2.5975
G0Z0.3937
X3.9577Y2.6092
G1Z-0.0781F19.68
X3.9578Y2.6101Z-0.0775F39.37
X3.9597Y2.6151Z-0.0733
X3.9603Y2.6178Z-0.0706
X3.962Y2.6218Z-0.067
X3.9628Y2.6255Z-0.0638
X3.9645Y2.6295Z-0.0602
X3.966Y2.6372Z-0.0444
X3.9657Y2.6413Z-0.0333
X3.9702Y2.6448Z-0.0367F19.68
X3.973Y2.649Z-0.0296F39.37
G0Z0.3937
X3.9313Y2.576
G1Z-0.0484F19.68
X3.9417Y2.5688Z-0.0011F39.37
X3.9624Y2.5767Z-0.0466F19.68
G0Z0.3937
X3.9313Y2.576
G1Z-0.0484
X3.9364Y2.5867Z-0.0534F39.37
X3.9417Y2.5928Z-0.0588F19.68
X3.9486Y2.5976Z-0.0716
X3.9516Y2.5989Z-0.0764
G0Z0.3937
X3.9581Y2.4998
G1Z-0.0666
X3.9578Y2.5125Z-0.0509F39.37
X3.9588Y2.5163Z-0.0501
X3.9586Y2.5203Z-0.0493
X3.9596Y2.5241Z-0.0485
X3.9595Y2.5282Z-0.0477
X3.9605Y2.532Z-0.0469
Y2.5327Z-0.0472
Y2.5373Z-0.046
X3.9614Y2.5398Z-0.0454
Y2.5451Z-0.0444
X3.9617Y2.546Z-0.0449F19.68
X3.9626Y2.5522Z-0.0436F39.37
X3.9625Y2.5529Z-0.0434
X3.9635Y2.56Z-0.042
X3.9633Y2.5608Z-0.0418
X3.9643Y2.5679Z-0.0404
X3.9626Y2.5763Z-0.0469F19.68
X3.9624Y2.5767Z-0.0466F39.37
G0Z0.3937
X3.8909Y2.5119
G1Z-0.0767F19.68
X3.8915Y2.5145Z-0.072F39.37
X3.9012Y2.5241Z-0.0622
X3.9054Y2.5308Z-0.0583
X3.9078Y2.5384Z-0.0484
X3.9079Y2.5399Z-0.0452
X3.9113Y2.5427Z-0.0485F19.68
X3.9142Y2.5457Z-0.0502F39.37
X3.9164Y2.549Z-0.0488
X3.9189Y2.5538Z-0.0476
X3.9204Y2.5617Z-0.041
X3.9197Y2.5711Z-0.0234
X3.9313Y2.576Z-0.0484F19.68
G0Z0.3937
X3.8533Y2.4959
G1Z-0.0335
X3.857Y2.4999Z-0.0444
X3.8637Y2.5046Z-0.0543
X3.8711Y2.5072Z-0.0555F39.37
X3.8863Y2.5086Z-0.0765F19.68
G0Z0.3937
X3.8992Y2.4561
G1Z-0.0104
X3.9153Y2.4697Z-0.0362
X3.9164Z-0.034F39.37
X3.9227Y2.4799Z-0.0454F19.68
X3.9264Y2.482Z-0.0496
G0Z0.3937
X3.8646Y2.4189
G1Z-0.0008
X3.8654Y2.4124Z-0.0054
G0Z0.3937
X3.7538Y2.4707
G1Z-0.0471
X3.7584Y2.4635Z-0.0151F39.37
X3.757Y2.4451Z-0.0356F19.68
G0Z0.3937
X3.7538Y2.4707
G1Z-0.0471
X3.7539Y2.4708
X3.7573Y2.4733Z-0.0483F39.37
X3.7619Y2.4761Z-0.0457
X3.7695Y2.4779Z-0.0456
X3.7733Y2.4776Z-0.049F19.68
X3.7776Y2.4782Z-0.0517
X3.7894Y2.4764Z-0.0691
G0Z0.3937
X3.7318Y2.454
G1Z-0.0768
X3.7363Y2.4455Z-0.069F39.37
X3.7387Y2.4424Z-0.0682
G0Z0.3937
X3.7318Y2.454
G1Z-0.0768F19.68
X3.7344Y2.4621Z-0.0621F39.37
X3.7378Y2.4651Z-0.0631
X3.745Y2.4689Z-0.0571
X3.75Y2.4701Z-0.0528
X3.7538Y2.4707Z-0.0471
G0Z0.3937
X3.7043Y2.4455
G1Z-0.0473F19.68
X3.7108Y2.4507Z-0.0442F39.37
X3.7114Y2.4513Z-0.0429
X3.7318Y2.454Z-0.0768F19.68
G0Z0.3937
X3.6878Y2.3535
G1Z-0.0154
X3.6945Y2.3578Z-0.0172F39.37
X3.6963Y2.3638Z-0.0171
X3.7117Y2.3683Z-0.0185
Y2.3689Z-0.0204F19.68
X3.7143Y2.3742Z-0.033
X3.7198Y2.3801Z-0.0413
X3.7259Y2.3833Z-0.0373F39.37
X3.7265Y2.3844Z-0.0388F19.68
X3.73Y2.3875Z-0.0359F39.37
X3.7323Y2.3893Z-0.0305
X3.7327Y2.3907Z-0.0311
X3.7351Y2.3942Z-0.0277
X3.7383Y2.398Z-0.0223
X3.7429Y2.3993Z-0.0254F19.68
X3.7454Y2.4014Z-0.026F39.37
X3.7512Y2.4023Z-0.03F19.68
X3.7531Y2.4039Z-0.0334
X3.761Y2.4063Z-0.0235F39.37
X3.7668Y2.406Z-0.0088
X3.77Y2.4208Z-0.0089
X3.7776Z-0.0215F19.68
X3.7799Y2.4203F39.37
X3.7872Y2.4235Z-0.0182
X3.788Y2.4252Z-0.0185
X3.7938Y2.4278Z-0.0195
X3.7947Y2.4294Z-0.0198
X3.8004Y2.4321Z-0.0207
X3.8013Y2.4336Z-0.021
X3.8071Y2.4363Z-0.022
X3.808Y2.4378Z-0.0223
X3.8126Y2.4401Z-0.0236
X3.8145Y2.4422Z-0.0227
X3.8157Y2.4426Z-0.0242F19.68
X3.8182Y2.4438Z-0.0251F39.37
X3.8193Y2.4443Z-0.0248
X3.8212Y2.4464Z-0.024
X3.8251Y2.4476Z-0.0246
X3.8278Y2.4506Z-0.0252
X3.8317Y2.4519Z-0.0258
X3.8344Y2.4549Z-0.0265
X3.8383Y2.4561Z-0.0271
X3.8411Y2.4591Z-0.0277
X3.845Y2.4604Z-0.0283
X3.8477Y2.4633Z-0.0289
X3.8554Y2.466Z-0.0211
X3.8571Y2.4659Z-0.0169
X3.8648Y2.4815Z-0.0125
G0Z0.3937
X3.7724Y2.3085
G1Z-0.0076F19.68
X3.7727Y2.3086Z-0.008
X3.7728Y2.3087Z-0.0078F39.37
G0Z0.3937
X3.7553Y2.2602
G1Z-0.0157F19.68
X3.7706Y2.2404Z-0.0059F39.37
X3.7702Y2.2375Z-0.0161F19.68
X3.7715Y2.2315Z-0.0392
X3.7774Y2.2257Z-0.0649
X3.7778Z-0.0653
X3.7877Y2.2269Z-0.064F39.37
X3.7956Y2.2261Z-0.0498
Z-0.0499F19.68
X3.802Y2.2296Z-0.0523F39.37
X3.8084Y2.2318Z-0.0484
X3.8162Y2.2321Z-0.0372
X3.8201Y2.2311Z-0.0269
X3.8241Y2.2348Z-0.032F19.68
X3.8292Y2.2368Z-0.0214F39.37
G0Z0.3937
X3.7553Y2.2602
G1Z-0.0157F19.68
X3.7563Y2.2656Z-0.0008F39.37
X3.7618Y2.2647Z-0.0149F19.68
X3.769Y2.266Z-0.0256
X3.7725Y2.2679Z-0.0265F39.37
X3.7756Y2.2703Z-0.0269
X3.7786Y2.2753Z-0.0266
X3.7797Y2.2756Z-0.0292F19.68
X3.7848Y2.2799Z-0.0321F39.37
X3.7861Y2.2802Z-0.032
X3.7912Y2.2845Z-0.0312
X3.793Y2.285
X3.7977Y2.2889
X3.7996Y2.2894
X3.8042Y2.2933
X3.8061Y2.2938
X3.8107Y2.2977
X3.8126Y2.2982
X3.8147Y2.2999Z-0.0323
X3.8178Y2.3023Z-0.032
X3.8191Y2.3026Z-0.0312
X3.8212Y2.3044Z-0.0323
X3.8248Y2.307Z-0.0319
X3.8256Y2.3072
X3.8313Y2.3114
X3.8321Y2.3116
X3.8379Y2.3158Z-0.032
X3.8386Y2.316
X3.8444Y2.3203
X3.8451Y2.3204
X3.8509Y2.3247
X3.8516Y2.3248
X3.8574Y2.3291
X3.8582Y2.3292
X3.864Y2.3335Z-0.0321
X3.8647Y2.3336
X3.8685Y2.3364Z-0.0325
X3.8704Y2.3381Z-0.0314
X3.8726Y2.3387
X3.8769Y2.3425Z-0.0315
X3.8791Y2.3432
X3.8834Y2.3469
X3.8856Y2.3476Z-0.0316
X3.8899Y2.3514
X3.8921Y2.352Z-0.0317
X3.8946Y2.3542Z-0.0328
X3.8985Y2.3566Z-0.0325
X3.899Y2.3573
X3.905Y2.361Z-0.0326
X3.9055Y2.3617
X3.9115Y2.3654Z-0.0327
X3.912Y2.3661
X3.9181Y2.3699
X3.9185Y2.3705Z-0.0328
X3.9246Y2.3743
X3.925Y2.375
X3.9311Y2.3787Z-0.0329
X3.9316Y2.3794
X3.9375Y2.3831Z-0.0328
X3.9376
X3.9442Y2.3871Z-0.0314
X3.9458Y2.3873Z-0.0316
X3.9496Y2.3897Z-0.0327
X3.9529Y2.3908Z-0.0321
X3.9548Y2.3925Z-0.0324
X3.9599Y2.3943Z-0.0331
X3.9618Y2.3961Z-0.0334
X3.9648Y2.3971Z-0.0348
X3.9683Y2.3991Z-0.035
X3.9688Y2.3996Z-0.0343
X3.9719Y2.4007Z-0.0358
X3.9746Y2.4023Z-0.0341
X3.9772Y2.4025Z-0.0336
X3.9819Y2.4052Z-0.0326
X3.9845Y2.4055Z-0.0321
X3.9861Y2.4064Z-0.0328
X3.9901Y2.4085Z-0.0313
X3.9933Y2.4086Z-0.0318
X3.9976Y2.4108Z-0.0325
X4.0008Y2.4109Z-0.033
X4.0051Y2.4131Z-0.0336
X4.0084Y2.4133Z-0.0341
X4.0138Y2.416Z-0.0319
X4.0188Y2.4198Z-0.0221
X4.0215Y2.4235Z-0.0109
X4.0267Y2.4211Z-0.0239F19.68
X4.0421Y2.4193Z-0.0351
X4.0433Y2.4201Z-0.0323F39.37
X4.053Y2.418Z-0.0324
X4.0595Y2.4132Z-0.0232
X4.0599Y2.4126Z-0.0213
X4.0658Y2.4129Z-0.0272F19.68
X4.0697Y2.4121Z-0.0254F39.37
X4.0732Y2.4103Z-0.0166
X4.0741Y2.4095Z-0.0134
X4.0805Y2.4119Z-0.0105
X4.0871Y2.4075Z-0.0154F19.68
X4.0881Y2.4027Z-0.0199
X4.0925Y2.4003Z-0.0298
X4.0956Y2.396Z-0.0211F39.37
X4.1035Y2.3968Z-0.0342F19.68
X4.1067Y2.3984Z-0.0272F39.37
X4.1116Y2.3967Z-0.0302F19.68
X4.1194Y2.3976Z-0.0285F39.37
X4.1265Y2.4024Z-0.0185
X4.128Y2.4044Z-0.0124
X4.133Y2.4023Z-0.0236F19.68
X4.1371Y2.4018Z-0.0289
X4.1411Y2.4019Z-0.0303F39.37
X4.1472Y2.4039Z-0.0333
X4.1541Y2.4101Z-0.0233
X4.1542Z-0.0232
X4.1623Y2.4091Z-0.0394F19.68
X4.1682Y2.4103Z-0.0421F39.37
X4.1751Y2.4144Z-0.0477F19.68
X4.1757Y2.415Z-0.0473F39.37
X4.1831Y2.4155Z-0.0424
X4.1888Y2.4179Z-0.0345
X4.1908Y2.4173Z-0.0364F19.68
X4.1977Y2.4177Z-0.0327F39.37
X4.2014Y2.4191Z-0.033
X4.2049Y2.421Z-0.031
X4.2101Y2.4261Z-0.0201
X4.2135Y2.4323Z-0.003
X4.2169Y2.4306Z-0.0134F19.68
X4.2258Y2.4289Z-0.0312
X4.2325Y2.4302Z-0.0327F39.37
X4.2373Y2.4334Z-0.0334
X4.2395Y2.4338Z-0.0336
X4.2443Y2.4371Z-0.0343
X4.2464Y2.4375Z-0.0345
X4.248Y2.4386Z-0.0355
X4.2513Y2.4408Z-0.0352
X4.2534Y2.4412Z-0.0354
X4.2582Y2.4445Z-0.0361
X4.2603Y2.4449Z-0.0363
X4.2652Y2.4482Z-0.037
X4.2657Y2.4483Z-0.0375F19.68
X4.2714Y2.4509Z-0.0381F39.37
X4.2761Y2.4557Z-0.0401
X4.2776Y2.4561Z-0.043F19.68
X4.2844Y2.4602Z-0.048
X4.2888Y2.4653Z-0.0575
G0Z0.3937
X3.735Y2.2309
G1Z-0.0598
X3.7561Y2.2286Z-0.0361F39.37
X3.7715Y2.2315Z-0.0392
G0Z0.3937
X3.735Y2.2309
G1Z-0.0598F19.68
X3.7346Y2.235Z-0.0466F39.37
X3.7335Y2.2401Z-0.0291
X3.7512Y2.2527Z-0.0307
X3.7553Y2.2602Z-0.0157
G0Z0.3937
X3.7318Y2.222
G1Z-0.0787F19.68
X3.7317Y2.2213F39.37
X3.7316Y2.2202
Y2.2192
Y2.2181
X3.7317Y2.2171
X3.7318Y2.2161
X3.732Y2.215
X3.7322Y2.214
X3.7325Y2.213
X3.7328Y2.212
X3.7333Y2.2109
X3.7209Y2.2064
X3.7143Y2.2042
X3.7166Y2.2074
X3.7282Y2.2193
X3.7318Y2.222
X3.7311Y2.2215Z-0.07
X3.735Y2.2309Z-0.0598
G0Z0.3937
X3.7331Y2.2109
G1Z-0.075F19.68
X3.7403Y2.2082Z-0.0602F39.37
X3.7411Y2.2078Z-0.0577
X3.7505Y2.205Z-0.036
X3.7551Y2.2054Z-0.0316
X3.7591Y2.2061Z-0.029
X3.7625Y2.2083Z-0.0324F19.68
X3.7663Y2.2112Z-0.0376
X3.7664Y2.2113Z-0.038
X3.7725Y2.2172Z-0.0507
X3.7774Y2.2257Z-0.0649
G0Z0.3937
X3.6468Y2.3198
G1Z-0.0074
X3.6471Y2.32Z-0.0089
X3.6472Z-0.009
X3.6476Y2.3198Z-0.0075F39.37
G0Z0.3937
X3.6347Y2.3546
G1Z-0.0114F19.68
X3.6382Y2.3626Z-0.0226
X3.6441Y2.3665Z-0.0244F39.37
Y2.3667Z-0.0245
X3.6506Y2.3709Z-0.025
X3.6507Y2.3711
X3.6571Y2.3753Z-0.0255
X3.6572Y2.3755
X3.6636Y2.3798Z-0.026
X3.6637Y2.3799
X3.6699Y2.3841Z-0.0265
X3.6702Z-0.0261
X3.676Y2.3884Z-0.0266
X3.6767Y2.3885Z-0.0267
X3.6826Y2.3929Z-0.0271
X3.6832Y2.393Z-0.0272
X3.6891Y2.3973Z-0.0277
X3.6897Y2.3974
X3.6956Y2.4017Z-0.0282
X3.6962Y2.4018Z-0.0283
X3.7021Y2.4061Z-0.0287
X3.7027Y2.4062Z-0.0288
X3.7091Y2.4109Z-0.0304
X3.7119Y2.4163Z-0.0217
X3.7136Y2.4207Z-0.0129
G0Z0.3937
X3.6185Y2.2858
G1Z-0.0081F19.68
X3.6186Z-0.0083
X3.6188Y2.2856Z-0.0085
G0Z0.3937
X3.5258Y2.2632
G1Z-0.0173
X3.5285Y2.2683Z-0.0282
X3.5309Y2.2715Z-0.0336
X3.534Y2.274Z-0.035F39.37
X3.5389Y2.2767Z-0.0328
X3.5462Y2.2778Z-0.0207
X3.5467Y2.2799Z-0.0261F19.68
X3.5506Y2.2872Z-0.0398
X3.5553Y2.2913Z-0.0401F39.37
X3.5564Y2.2918Z-0.0398
X3.5614Y2.2963Z-0.0378
X3.5626Y2.2967Z-0.0374
X3.5654Y2.2993Z-0.037
X3.5686Y2.3016Z-0.0354
X3.5687Y2.3017Z-0.0351
X3.5715Y2.3042Z-0.0347
X3.5726Y2.305Z-0.0343
X3.5753Y2.3076Z-0.0324
X3.5768Y2.308Z-0.032
X3.5815Y2.3125Z-0.0301
X3.5829Y2.313Z-0.0296
X3.5876Y2.3175Z-0.0278
X3.5968Y2.3201Z-0.02
X3.6014Y2.3198Z-0.0096
X3.6028Y2.3253Z-0.0237F19.68
X3.6073Y2.3321Z-0.0329
X3.6104Y2.334Z-0.0258F39.37
X3.6111Y2.3367Z-0.027
X3.6132Y2.3404Z-0.024
X3.616Y2.3431Z-0.0233
X3.6215Y2.3458Z-0.0183
G0Z0.3937
X3.4629Y2.2573
G1Z-0.0527F19.68
X3.4796Y2.2379Z-0.0198F39.37
X3.4802Y2.2341Z-0.0337F19.68
G0Z0.3937
X3.4629Y2.2573
G1Z-0.0527
X3.4669Y2.2612Z-0.0522F39.37
X3.469Y2.2623Z-0.0521
X3.4729Y2.2662Z-0.0516
X3.475Y2.2674Z-0.0515
X3.479Y2.2712Z-0.051
X3.4794Y2.2715Z-0.0514F19.68
X3.4826Y2.2738F39.37
G0Z0.3937
X3.4541Y2.2497
G1Z-0.0576F19.68
X3.4766Y2.2329Z-0.0326F39.37
G0Z0.3937
X3.4541Y2.2497
G1Z-0.0576F19.68
X3.4544Y2.2503F39.37
X3.4601Y2.2558Z-0.0532
X3.4629Y2.2573Z-0.0527
G0Z0.3937
X3.4427Y2.235
G1Z-0.0778F19.68
X3.4429Y2.2355Z-0.0777F39.37
X3.4449Y2.2394Z-0.0703
X3.4487Y2.2448Z-0.0618
X3.4541Y2.2497Z-0.0576
G0Z0.3937
X3.4248Y2.1718
G1Z-0.0068F19.68
Z-0.0066F39.37
G0Z0.3937
X3.4132Y2.1201
G1Z-0.0071F19.68
X3.4133Y2.1205Z-0.0077
G0Z0.3937
X3.3337Y2.1213
G1Z-0.009
X3.3392Y2.1391Z-0.0462
X3.3391Y2.1483Z-0.0715
G0Z0.3937
X3.3192Y2.0626
G1Z-0.0141
X3.3193Y2.0655Z-0.0209
X3.3199Y2.0675Z-0.0239
X3.3305Y2.0789Z-0.0136F39.37
X3.3293Y2.0824Z-0.0189F19.68
X3.3267Y2.0836Z-0.0175F39.37
G0Z0.3937
X3.2965Y2.0214
G1Z-0.0096F19.68
X3.3022Y2.0365Z-0.0139F39.37
G0Z0.3937
X3.2604Y2.0305
G1Z-0.0177F19.68
X3.2681Y2.0431Z-0.0142F39.37
X3.2717Z-0.0098
G0Z0.3937
X3.2457Y2.0099
G1Z-0.0052F19.68
X3.2456Y2.0103Z-0.0064
X3.2486Y2.0171Z-0.0108
G0Z0.3937
X3.2164Y2.0122
G1Z-0.0093
X3.2182Y2.0144Z-0.0118
X3.2179Y2.0163Z-0.0077F39.37
G0Z0.3937
X3.229Y1.9858
G1Z-0.0009F19.68
X3.2303Y1.9869Z-0.0062
G0Z0.3937
X3.1874Y1.9817
G1Z-0.0125
X3.198Y1.9893Z-0.0027F39.37
G0Z0.3937
X3.1459Y1.9259
G1Z-0.0151F19.68
X3.1499Y1.9304Z-0.0169F39.37
X3.1544Y1.9329Z-0.0058
X3.1537Y1.935Z-0.0115F19.68
X3.1557Y1.9432Z-0.0121F39.37
X3.1593Y1.9449Z-0.0129
X3.1606Y1.9494Z-0.0137
X3.1641Y1.9512Z-0.0145
X3.1654Y1.9556Z-0.0154
X3.1688Y1.9575Z-0.0161
X3.1713Y1.965Z-0.0099
G0Z0.3937
X3.1625Y1.9059
G1Z-0.0072F19.68
X3.1645Y1.9052Z-0.0132
X3.1663Y1.9053Z-0.0082F39.37
X3.1669Y1.9043Z-0.0094F19.68
G0Z0.3937
X3.1219Y1.8719
G1Z-0.0334
X3.1242Y1.8726Z-0.0301F39.37
X3.1317Y1.8711Z-0.0208
X3.1409Y1.8795Z-0.0238
G0Z0.3937
X3.1152Y1.8833
G1Z-0.0102F19.68
X3.113Y1.8809Z-0.002F39.37
X3.1219Y1.8719Z-0.0334F19.68
G0Z0.3937
X3.0699Y1.8316
G1Z-0.0073
X3.0771Y1.8357Z-0.0303
X3.0811Y1.8401Z-0.0391
X3.0829Y1.8411Z-0.0349F39.37
X3.0831Y1.8413Z-0.034
X3.0921Y1.8433Z-0.0202
X3.0948Y1.8464Z-0.0182
X3.0955Y1.8467Z-0.0183
X3.0997Y1.8492Z-0.0137
X3.1016Y1.858Z-0.0285F19.68
X3.1015Y1.8585Z-0.0284F39.37
X3.1031Y1.8623Z-0.0327F19.68
X3.106Y1.8647Z-0.0345F39.37
X3.1062Y1.8651Z-0.0335
X3.1065Y1.8654Z-0.0334
X3.1194Y1.8685Z-0.0229
X3.1219Y1.8719Z-0.0334F19.68
G0Z0.3937
X3.0782Y1.7797
G1Z-0.0123
X3.0834Y1.7817Z-0.0103F39.37
X3.0841Y1.7872Z-0.0141F19.68
X3.0815Y1.7908Z-0.0044F39.37
X3.0885Y1.7984Z-0.0137F19.68
X3.0891Y1.7982Z-0.0128F39.37
X3.0938Y1.8038Z-0.0079
G0Z0.3937
X3.043Y1.7973
G1Z-0.0064F19.68
X3.0436Y1.7977Z-0.0037F39.37
X3.0428Y1.7931Z-0.013F19.68
X3.043Y1.7973Z-0.0064F39.37
G0Z0.3937
X3.0269Y1.7786
G1Z-0.0012F19.68
X3.0264Y1.7793Z-0.0043
X3.0312Y1.7969Z-0.0133F39.37
X3.043Y1.7973Z-0.0064
G0Z0.3937
X3.0037Y1.6823
G1Z-0.0016F19.68
X3.0026Y1.6875Z-0.012
X3.01Y1.6937Z-0.0077F39.37
X3.0102Z-0.007
G0Z0.3937
X2.9773Y1.6451
G1Z-0.016F19.68
X2.9763Y1.6462Z-0.0156F39.37
X2.9773Y1.6505Z-0.0135
G0Z0.3937
X2.9329Y1.7294
G1Z-0.0307F19.68
X2.9441Y1.7284Z-0.0675
G0Z0.3937
X2.8269Y1.5487
G1Z-0.0584
X2.8274Y1.5485Z-0.0605
X2.8318Y1.5441Z-0.0787
X2.8322F39.37
X2.8317Y1.5434
X2.8318Y1.5441
G0Z0.3937
X2.7785Y1.4417
G1Z-0.0787F19.68
X2.7778Y1.4403F39.37
X2.7781Y1.441
X2.7785Y1.4417
G0Z0.3937
X2.8251Y1.3715
G1Z-0.0628F19.68
X2.8249Y1.3729Z-0.0608F39.37
X2.8256Y1.3824Z-0.0407
X2.829Y1.3898Z-0.033
X2.8349Y1.3951Z-0.0269
X2.8382Y1.3964Z-0.0186
X2.8383Y1.3976Z-0.0206F19.68
X2.8387Y1.4024Z-0.0283
X2.8406Y1.4059Z-0.0288F39.37
X2.8426Y1.4094Z-0.0268
X2.8454Y1.4112Z-0.0273
X2.8478Y1.4154Z-0.0281
X2.8506Y1.4171Z-0.0286
X2.853Y1.4213Z-0.0293
X2.8558Y1.4231Z-0.0298
X2.8582Y1.4272Z-0.0305
X2.861Y1.429Z-0.031
X2.8634Y1.4331Z-0.0317
X2.8661Y1.435Z-0.0322
X2.8683Y1.4385Z-0.0323
X2.8715Y1.4407Z-0.0324
X2.8737Y1.4443Z-0.0325
X2.8769Y1.4465Z-0.0326
X2.8791Y1.45Z-0.0327
X2.8823Y1.4522Z-0.0328
X2.8845Y1.4558Z-0.0329
X2.8855Y1.4565Z-0.0339F19.68
X2.8884Y1.4592Z-0.034F39.37
X2.8899Y1.4615Z-0.033
X2.8909Y1.4622Z-0.0341F19.68
X2.8948Y1.4659Z-0.0339F39.37
X2.8954Y1.4671
X2.9002Y1.4716Z-0.034
X2.9008Y1.4729Z-0.0341
X2.9043Y1.4762Z-0.0346
X2.9057Y1.4773Z-0.0336
X2.9072Y1.48Z-0.0337
X2.9111Y1.483Z-0.0338
X2.9126Y1.4857Z-0.0339
X2.9164Y1.4888Z-0.034
X2.918Y1.4915
X2.9218Y1.4945Z-0.0341
X2.9233Y1.4972Z-0.0342
X2.9272Y1.5003Z-0.0343
X2.9287Y1.503Z-0.0344
X2.932Y1.5055Z-0.0338
X2.9339Y1.509Z-0.0333
X2.9371Y1.5115Z-0.0327
X2.939Y1.5149Z-0.0322
X2.9423Y1.5174Z-0.0316
X2.9441Y1.5209Z-0.0311
X2.9474Y1.5234Z-0.0305
X2.9499Y1.5281Z-0.0314
X2.952Y1.5297Z-0.032
X2.9546Y1.5344Z-0.0327
X2.9566Y1.5359Z-0.0331
X2.9592Y1.5407Z-0.034
X2.9612Y1.5423Z-0.0344
X2.9624Y1.5444Z-0.0359F19.68
X2.9646Y1.5476Z-0.0363F39.37
X2.9659Y1.5486Z-0.0357
X2.9671Y1.5507Z-0.0372F19.68
X2.9698Y1.5547Z-0.0371F39.37
X2.9768Y1.5595Z-0.0249
X2.9828Y1.5614Z-0.0098
X2.9822Y1.5653Z-0.0196F19.68
X2.9832Y1.5741Z-0.0345
X2.9861Y1.5798Z-0.0338F39.37
X2.9901Y1.5831Z-0.0334
X2.9914Y1.5856Z-0.0331
X2.9955Y1.5889Z-0.0327
X2.9967Y1.5914Z-0.0324
X3.0008Y1.5947Z-0.032
Y1.5948Z-0.0321F19.68
X3.0031Y1.5981Z-0.0324F39.37
X3.0051Y1.5997Z-0.0321
X3.0059Y1.6009Z-0.0327
X3.0076Y1.6028Z-0.0325
X3.0092Y1.6051Z-0.0309
X3.0103Y1.6057Z-0.0321F19.68
X3.0147Y1.6105Z-0.0315F39.37
X3.0148Y1.6107
X3.0201Y1.6163Z-0.0308
Y1.6165
X3.0254Y1.6221Z-0.0301
Y1.6223
X3.0307Y1.6279Z-0.0294
X3.031Y1.6292Z-0.0296
X3.0356Y1.6341Z-0.0307
X3.036Y1.6354Z-0.0309
X3.0388Y1.6385Z-0.0322
X3.0408Y1.6416Z-0.0319
X3.0411Y1.6417Z-0.0323F19.68
X3.0437Y1.6446Z-0.0334F39.37
X3.0457Y1.6477Z-0.0332
X3.0473Y1.6487Z-0.0335
X3.0497Y1.6525Z-0.0347
X3.0522Y1.6548Z-0.0344
X3.0534Y1.6574Z-0.0348
X3.0566Y1.6605Z-0.0349
X3.0581Y1.6638Z-0.035
X3.0613Y1.6668Z-0.0351
X3.0627Y1.6701
X3.066Y1.6732Z-0.0352
X3.0674Y1.6764Z-0.0353
X3.0707Y1.6795Z-0.0354
X3.0721Y1.6828Z-0.0355
X3.0753Y1.6858
X3.0764Y1.6883Z-0.0351
X3.08Y1.6917Z-0.0345
X3.0814Y1.6944Z-0.0337
X3.0849Y1.6975Z-0.033
X3.0863Y1.7005Z-0.0325
X3.0899Y1.7036Z-0.0317
X3.0913Y1.7067Z-0.0312
X3.0948Y1.7097Z-0.0305
X3.0962Y1.7128Z-0.0299
X3.0998Y1.7158Z-0.0292
X3.1012Y1.7189Z-0.0286
X3.1054Y1.7223Z-0.0288
X3.1065Y1.7248
X3.1106Y1.7282Z-0.029
X3.1117Y1.7306
X3.1159Y1.7341Z-0.0291
X3.117Y1.7365Z-0.0292
X3.1211Y1.7399Z-0.0293
X3.1222Y1.7424Z-0.0294
X3.1264Y1.7458Z-0.0295
X3.1275Y1.7482Z-0.0296
X3.1312Y1.7513Z-0.03
X3.1317Y1.7516Z-0.0295
X3.1334Y1.7546Z-0.0303
X3.1365Y1.7572Z-0.0302
X3.1369Y1.7575Z-0.0297
X3.1391Y1.7613Z-0.0298
X3.1422Y1.7634Z-0.0299
X3.1444Y1.7671Z-0.03
X3.1474Y1.7692Z-0.0301
X3.1496Y1.773Z-0.0302
X3.1527Y1.7751Z-0.0303
X3.1549Y1.7789Z-0.0304
X3.1579Y1.781Z-0.0305
X3.1601Y1.7847Z-0.0306
X3.1632Y1.7868Z-0.0307
X3.1653Y1.7905Z-0.0309
X3.1654Y1.7906Z-0.0308
X3.1685Y1.7929Z-0.031
X3.1706Y1.7963Z-0.0311
Y1.7965Z-0.031
X3.1739Y1.7988Z-0.0311
X3.1759Y1.8023Z-0.0312
X3.1792Y1.8047Z-0.0313
X3.1811Y1.8082Z-0.0314
X3.1844Y1.8106Z-0.0315
X3.1864Y1.8141Z-0.0316
X3.1897Y1.8164Z-0.0317
X3.1917Y1.8199Z-0.0318
X3.1949Y1.8223Z-0.0319
X3.1969Y1.8258Z-0.032
X3.2002Y1.8282Z-0.0321
X3.2019Y1.8312Z-0.0318
X3.2056Y1.8339Z-0.0315
X3.2073Y1.837Z-0.0312
X3.211Y1.8396Z-0.0308
X3.2127Y1.8427Z-0.0306
X3.2164Y1.8453Z-0.0302
X3.2181Y1.8484Z-0.03
X3.2218Y1.8511Z-0.0296
X3.2235Y1.8542Z-0.0294
X3.2273Y1.8568Z-0.029
X3.2289Y1.8599Z-0.0287
X3.2331Y1.8628Z-0.029
X3.2345Y1.8655Z-0.0291
X3.2386Y1.8683Z-0.0293
X3.2395Y1.87Z-0.0307F19.68
X3.244Y1.8741Z-0.0308F39.37
X3.2443Y1.8748
X3.2496Y1.8797Z-0.0311
X3.2498Y1.8803
X3.2552Y1.8852Z-0.0314
X3.2554Y1.8859Z-0.0315
X3.2591Y1.8893Z-0.032
X3.2608Y1.8916Z-0.0308
X3.2618Y1.8922Z-0.032F19.68
X3.2647Y1.8949Z-0.0323F39.37
X3.2664Y1.8972Z-0.0311
X3.269Y1.8986Z-0.0312
X3.272Y1.9027Z-0.0314
X3.2746Y1.9042Z-0.0316
X3.2776Y1.9083Z-0.0318
X3.2802Y1.9097Z-0.0319
X3.2831Y1.9138Z-0.0321
X3.2857Y1.9153Z-0.0323
X3.2882Y1.9186Z-0.0316
X3.2921Y1.9208Z-0.0314
X3.2942Y1.9237Z-0.0313
X3.2982Y1.9259Z-0.0312
X3.3003Y1.9287Z-0.0311
X3.3042Y1.9309Z-0.0309
X3.3063Y1.9337Z-0.0308
X3.3103Y1.9359Z-0.0306
X3.3124Y1.9388Z-0.0305
X3.3164Y1.941Z-0.0304
X3.3184Y1.9438Z-0.0303
X3.3221Y1.9458Z-0.0304
X3.3244Y1.9489Z-0.03
X3.3246Y1.949Z-0.0301F19.68
X3.3281Y1.9509F39.37
X3.3305Y1.9539Z-0.0297
X3.334Y1.9556Z-0.0296
X3.3365Y1.959Z-0.0294
X3.34Y1.9606Z-0.0293
X3.3426Y1.964Z-0.0292
X3.3461Y1.9657Z-0.029
X3.3462Y1.9659Z-0.0292F19.68
X3.3487Y1.9691Z-0.0289F39.37
X3.3521Y1.9707Z-0.0288
X3.3523Y1.9709Z-0.0289F19.68
X3.3548Y1.9741Z-0.0286F39.37
X3.3585Y1.9759Z-0.0288
X3.3609Y1.9791Z-0.029
X3.3646Y1.9808Z-0.0291
X3.3671Y1.984Z-0.0293
X3.3708Y1.9857Z-0.0295
X3.3732Y1.9889Z-0.0297
X3.3769Y1.9907Z-0.0298
X3.3794Y1.9938Z-0.03
X3.3831Y1.9956Z-0.0302
X3.3855Y1.9987Z-0.0303
X3.3892Y2.0005Z-0.0305
X3.3917Y2.0036Z-0.0307
X3.3954Y2.0054Z-0.0309
X3.3978Y2.0085Z-0.031
X3.4015Y2.0103Z-0.0312
X3.404Y2.0135Z-0.0314
X3.4076Y2.0153Z-0.0316
X3.4101Y2.0184Z-0.0317
X3.4138Y2.0202Z-0.0319
X3.4163Y2.0233Z-0.0321
X3.4199Y2.0251Z-0.0322
X3.4221Y2.0278Z-0.032
X3.4237Y2.0286Z-0.0331F19.68
X3.4279Y2.0314Z-0.0324F39.37
X3.4285Y2.0324Z-0.0323
X3.4342Y2.0361Z-0.0319
X3.4348Y2.0371Z-0.0318
X3.4405Y2.0408Z-0.0314
X3.4411Y2.0419Z-0.0313
X3.4467Y2.0456Z-0.0308
X3.4474Y2.0466
X3.453Y2.0503Z-0.0303
X3.4537Y2.0514
X3.4593Y2.0551Z-0.0298
X3.46Y2.0561Z-0.0297
X3.4656Y2.0598Z-0.0293
X3.4662Y2.0609Z-0.0292
X3.4699Y2.0632Z-0.0296
X3.472Y2.0644Z-0.0284
X3.4729Y2.0658Z-0.0288
X3.4762Y2.068Z-0.0291
X3.4783Y2.0692Z-0.0278
X3.4794Y2.071Z-0.0277
X3.4846Y2.0739Z-0.0273
X3.4857Y2.0757Z-0.0272
X3.4926Y2.0796Z-0.0269
X3.5018Y2.0803Z-0.0092
G0Z0.3937
X3.5092Y2.0835
G1Z-0.0034F19.68
X3.5123Y2.0927Z-0.0248
X3.5177Y2.0987Z-0.0282F39.37
X3.5253Y2.1016Z-0.0331F19.68
X3.5302Y2.1015Z-0.0277F39.37
X3.5327Y2.1048Z-0.0371F19.68
X3.5381Y2.1084Z-0.0424
X3.546Y2.1105Z-0.0491
X3.5509Y2.1104Z-0.0475F39.37
X3.5537Y2.1125Z-0.0544F19.68
X3.5538Y2.1127Z-0.0552
X3.559Y2.1195Z-0.045F39.37
X3.5652Y2.1237Z-0.039
X3.5662Y2.124Z-0.0368
X3.5681Y2.1265
X3.5709Y2.1296Z-0.0338
X3.5774Y2.1331Z-0.0335
X3.586Y2.1338Z-0.0198
X3.5901Y2.133Z-0.0095
X3.5923Y2.1387Z-0.0238F19.68
X3.5977Y2.1452Z-0.0327
X3.6047Y2.1485Z-0.0343F39.37
X3.6048Y2.1487Z-0.0344
X3.6108Y2.1516Z-0.0343
X3.6119
X3.618Y2.1546Z-0.034
X3.6192Y2.1547
X3.6253Y2.1576Z-0.0337
X3.6265Y2.1577
X3.6326Y2.1607Z-0.0334
X3.6337
X3.6379Y2.1627Z-0.0337
X3.6388Y2.1633Z-0.0331
X3.6417Y2.1639Z-0.0327
X3.6449Y2.166Z-0.0321
X3.645Y2.1661Z-0.0322F19.68
X3.6496Y2.1671Z-0.032F39.37
X3.6522Y2.1691Z-0.0318
X3.6569Y2.1701Z-0.0317
X3.6595Y2.1721Z-0.0315
X3.6641Y2.1731Z-0.0314
X3.6667Y2.1751Z-0.0312
X3.6714Y2.1762Z-0.031
X3.674Y2.1782Z-0.0309
X3.6794Y2.1793Z-0.0316
X3.686Y2.1844Z-0.0337
X3.6867Y2.1854Z-0.0321
X3.6935Y2.1867Z-0.0412F19.68
X3.6992Y2.1901Z-0.0464
X3.7024Y2.193Z-0.0528
X3.7054Y2.1963Z-0.0606
X3.7071Y2.1989Z-0.0642
X3.7105Y2.2014Z-0.0731
X3.7125Y2.2037Z-0.0745F39.37
X3.7148Y2.2049Z-0.0765F19.68
G0Z0.3937
X3.175Y2.0945
G1Z-0.0121
X3.1785Y2.0931Z-0.0132F39.37
X3.1846Y2.0969Z-0.0018
X3.1896Y2.0901Z-0.0178F19.68
X3.2133Y2.0867Z-0.0468
X3.2172Y2.0786Z-0.0751
G0Z0.3937
X2.8251Y1.3715
G1Z-0.0628
X2.831Y1.3718Z-0.0432F39.37
G0Z0.3937
X2.7018Y1.3531
G1Z-0.0787F19.68
X2.7008Y1.3529F39.37
X2.6998Y1.3526
X2.6988Y1.3523
X2.6979Y1.3519
X2.6969Y1.3515
X2.696Y1.351
X2.6951Y1.3505
X2.6943Y1.3499
X2.6934Y1.3493
X2.6915Y1.3477
Y1.3487
Y1.3497
X2.6914Y1.3507
X2.6913Y1.3518
X2.6911Y1.3528
X2.6909Y1.3538
X2.6906Y1.3549
X2.684Y1.3754
X2.6865Y1.3712
X2.6871Y1.3703
X2.6877Y1.3695
X2.6884Y1.3687
X2.7018Y1.3531
X2.7013Y1.3538Z-0.074
X2.7156Y1.3469Z-0.0622
X2.7198Y1.3435Z-0.0651
G0Z0.3937
X2.687Y1.3324
G1Z-0.0445F19.68
X2.6881Y1.3403Z-0.065
X2.6915Y1.3478Z-0.0713
G0Z0.3937
X2.6544Y1.362
G1Z-0.0064
X2.6549Y1.3619Z-0.0068
G0Z0.3937
X2.6573Y1.4354
G1Z-0.0218
X2.6622Y1.4334Z-0.0186F39.37
X2.6626Y1.4281Z-0.035F19.68
X2.666Y1.4206Z-0.0475
X2.6706Y1.4152Z-0.0438F39.37
X2.6728Y1.4132Z-0.041
X2.6722Y1.4094Z-0.0503F19.68
X2.6727Y1.4015Z-0.0645
X2.6739Y1.3974Z-0.0679
X2.6777Y1.3903Z-0.0706F39.37
X2.6821Y1.3849Z-0.0666
X2.6822Y1.3835Z-0.0691F19.68
X2.6833Y1.3788Z-0.0747
X2.6843Y1.375Z-0.0787
Y1.3749F39.37
G0Z0.3937
X2.6575Y1.1203
G1Z-0.0787F19.68
X2.6584Y1.1197F39.37
X2.6593Y1.1192
X2.671Y1.1126
X2.6719Y1.1121
X2.6729Y1.1117
X2.6739Y1.1113
X2.6749Y1.111
X2.6759Y1.1107
X2.6769Y1.1105
X2.6779Y1.1103
X2.679Y1.1102
X2.68Y1.1101
X2.6811
X2.6821
X2.752Y1.114
X2.7629Y1.1127
X2.7636Y1.1121
X2.7644Y1.1115
X2.7653Y1.1109
X2.7662Y1.1104
X2.7671Y1.1099
X2.768Y1.1095
X2.769Y1.1091
X2.8012Y1.0968
X2.8214Y1.0865
X2.8338Y1.077
X2.8258Y1.0759
X2.8248Y1.0757
X2.8238Y1.0754
X2.8228Y1.0751
X2.8218Y1.0748
X2.8209Y1.0744
X2.82Y1.074
X2.8191Y1.0735
X2.8182Y1.073
X2.8173Y1.0724
X2.8165Y1.0718
X2.8157Y1.0712
X2.8149Y1.0705
X2.8142Y1.0698
X2.8135Y1.069
X2.8128Y1.0682
X2.8122Y1.0674
X2.8068Y1.0595
X2.8062Y1.0586
X2.8057Y1.0577
X2.8053Y1.0567
X2.8049Y1.0558
X2.8047Y1.0553
X2.7988Y1.0651
X2.7983Y1.066
X2.7977Y1.0668
X2.7971Y1.0676
X2.7964Y1.0683
X2.7957Y1.069
X2.771Y1.0933
X2.7702Y1.094
X2.7693Y1.0947
X2.7685Y1.0953
X2.7676Y1.0959
X2.7667Y1.0964
X2.7657Y1.0969
X2.7648Y1.0973
X2.7466Y1.1045
X2.7456Y1.1048
X2.7447Y1.105
X2.7437Y1.1053
X2.7427Y1.1055
X2.7417Y1.1056
X2.7407Y1.1057
X2.7397
X2.7099Y1.1062
X2.7088
X2.7077Y1.1061
X2.6739Y1.1021
X2.6729Y1.102
X2.6719Y1.1017
X2.671Y1.1015
X2.67Y1.1012
X2.6466Y1.0927
X2.6457Y1.0923
X2.6447Y1.0918
X2.6438Y1.0913
X2.6429Y1.0907
X2.642Y1.0901
X2.6406Y1.0891
X2.6496Y1.1097
X2.6575Y1.1203
Z-0.0712
X2.6566Y1.1259Z-0.0636
X2.6573Y1.1352Z-0.0447
X2.6604Y1.1428Z-0.0371
X2.6638Y1.1463Z-0.0366
X2.6649Y1.1492Z-0.0363
X2.6683Y1.1527Z-0.0359
X2.6692Y1.155Z-0.0362
X2.6718Y1.158Z-0.0361
X2.6729Y1.1591Z-0.0351
X2.6738Y1.1614Z-0.0355
X2.6773Y1.1656Z-0.0347
X2.6779Y1.1673Z-0.0345
X2.6819Y1.172Z-0.034
X2.6824Y1.1737Z-0.0338
X2.6863Y1.1783Z-0.0333
X2.6869Y1.1802Z-0.0328
X2.6908Y1.1844Z-0.0323
X2.6915Y1.1866Z-0.032
X2.6953Y1.1909Z-0.0315
X2.696Y1.1931Z-0.0312
X2.6999Y1.1973Z-0.0307
X2.7006Y1.1995Z-0.0305
X2.7044Y1.2037Z-0.0299
X2.7051Y1.2059Z-0.0297
X2.7093Y1.2104
X2.7099Y1.2125Z-0.0298
X2.7139Y1.2168Z-0.0302
X2.7145Y1.2188Z-0.0303
X2.7185Y1.2232Z-0.0307
X2.7192Y1.2252Z-0.0308
X2.7232Y1.2296Z-0.0311
X2.7238Y1.2316Z-0.0313
X2.7267Y1.2347Z-0.0322
X2.727Y1.2352Z-0.0325F19.68
X2.7288Y1.2381Z-0.0326F39.37
X2.729Y1.2386Z-0.0322
X2.7313Y1.2411Z-0.0327
X2.7316Y1.2416Z-0.033F19.68
X2.7342Y1.2456Z-0.0328F39.37
X2.7351Y1.2462Z-0.0329
X2.7388Y1.252Z-0.0333
X2.7397Y1.2526Z-0.0334
X2.7435Y1.2584Z-0.0338
X2.7443Y1.2589
X2.7481Y1.2647Z-0.0342
X2.7483Y1.2649
X2.7525Y1.2713Z-0.0335
X2.7527Y1.2714
X2.757Y1.278Z-0.0332
Y1.2783
X2.7612Y1.2847Z-0.0333
Y1.285
X2.7654Y1.2914Z-0.0335
Y1.2917
X2.7695Y1.298Z-0.0336
X2.7696Y1.2983
X2.7718Y1.3017Z-0.0339
X2.7737Y1.305Z-0.0336
X2.7739Y1.3051Z-0.0338F19.68
X2.776Y1.3084Z-0.0341F39.37
X2.7779Y1.3117Z-0.0338
X2.7784Y1.312
X2.7821Y1.3184Z-0.0339
X2.7826Y1.3187
X2.7843Y1.3216Z-0.0344
X2.7863Y1.3251Z-0.0341
X2.7868Y1.3254
X2.7905Y1.3317Z-0.0343
X2.7909Y1.332
X2.7947Y1.3384Z-0.0344
X2.7951Y1.3387
X2.7989Y1.3451Z-0.0346
X2.8057Y1.3501Z-0.0318
X2.8063Y1.3503Z-0.0308
X2.8089Y1.3574Z-0.0418F19.68
X2.8139Y1.3636Z-0.0456F39.37
X2.8208Y1.3681Z-0.0579F19.68
X2.8211Y1.3684Z-0.0588
X2.8247Y1.3709Z-0.0618
X2.8251Y1.3715Z-0.0628
G0Z0.3937
X2.7595Y1.1131
G1Z-0.0691
X2.7606Y1.1173Z-0.0627F39.37
G0Z0.3937
X2.7794Y1.0767
G1Z-0.0565F19.68
X2.7835Y1.081Z-0.0652
G0Z0.3937
X2.8036Y1.0572
G1Z-0.073
X2.8031Y1.0539Z-0.071F39.37
X2.8128Y1.0311Z-0.0761
X2.8131Y1.0299Z-0.0764
Z-0.0787F19.68
X2.8144Y1.0288F39.37
X2.8152Y1.0281
X2.8161Y1.0275
X2.8169Y1.027
X2.8178Y1.0264
X2.8187Y1.026
X2.8197Y1.0256
X2.8206Y1.0252
X2.8216Y1.0248
X2.8226Y1.0246
X2.8236Y1.0243
X2.8246Y1.0241
X2.8253Y1.024
X2.8251Y1.0234
X2.8247Y1.0225
X2.8244Y1.0215
X2.8241Y1.0205
X2.8239Y1.0194
X2.8238Y1.0184
X2.8237Y1.0174
X2.8236Y1.0163
Y1.0155
X2.8224Y1.0159
X2.8214Y1.0162
X2.8204Y1.0164
X2.8194Y1.0166
X2.8184Y1.0167
X2.8174Y1.0168
X2.8163Y1.0169
X2.8153Y1.0168
X2.8143
X2.8133Y1.0167
X2.8122Y1.0165
X2.8112Y1.0163
X2.8018Y1.0138
X2.8079Y1.0199
X2.8086Y1.0207
X2.8092Y1.0215
X2.8098Y1.0223
X2.8104Y1.0232
X2.8109Y1.0241
X2.8114Y1.025
X2.8118Y1.0259
X2.8122Y1.0269
X2.8126Y1.0278
X2.8129Y1.0288
X2.8131Y1.0299
G0Z0.3937
X2.8253Y1.024
G1Z-0.0707F19.68
X2.8349Y1.0295Z-0.0566F39.37
X2.8388Y1.0354Z-0.0508
X2.8458Y1.0404Z-0.0463
X2.8505Y1.0468Z-0.0506
X2.8519Y1.0506Z-0.0555F19.68
X2.8542Y1.0542Z-0.0602
X2.8564Y1.0606Z-0.0711
X2.8572Y1.0643Z-0.0773
Z-0.0787
X2.8569Y1.0651F39.37
X2.8564Y1.0662
X2.857Y1.066
X2.858Y1.0656
X2.8583Y1.0655
X2.8572Y1.0643
X2.8582Y1.0653Z-0.0775
X2.86Y1.0657Z-0.0748
X2.8681Y1.0688Z-0.0592
X2.8684Y1.069Z-0.0582
X2.8796Y1.0715Z-0.0298
G0Z0.3937
X2.8338Y1.077
G1Z-0.0762F19.68
X2.8482Y1.0738Z-0.0658F39.37
X2.8564Y1.0662Z-0.0772F19.68
G0Z0.3937
X2.8236Y1.0155
G1Z-0.0696
X2.83Y1.0064Z-0.0541F39.37
X2.8379Y1.0033Z-0.0427
X2.8382Y1.0029Z-0.0425
G0Z0.3937
X2.7412Y1.0556
G1Z-0.0375F19.68
X2.7511Y1.0503Z-0.0463
X2.7629Y1.0524Z-0.0216F39.37
X2.7734Y1.0623Z-0.0024
X2.7794Y1.0767Z-0.0565F19.68
G0Z0.3937
X2.7412Y1.0556
G1Z-0.0375
X2.7428Y1.064Z-0.0055F39.37
X2.7794Y1.0767Z-0.0565F19.68
G0Z0.3937
X2.706Y1.0485
G1Z-0.0787
X2.6939Y1.0475F39.37
X2.6929Y1.0474
X2.6919Y1.0472
X2.6909Y1.047
X2.6899Y1.0467
X2.689Y1.0464
X2.688Y1.046
X2.6871Y1.0456
X2.6862Y1.0452
X2.6853Y1.0447
X2.6845Y1.0441
X2.6833Y1.0433
X2.6854Y1.0471
X2.6871Y1.0489
X2.706Y1.0485
X2.6997Y1.048Z-0.0775
X2.7039Y1.0476Z-0.0758
X2.7072Y1.0466Z-0.0713
X2.7118Y1.0481Z-0.0754F19.68
X2.7197Y1.0491F39.37
X2.7307Y1.0484Z-0.0643
X2.7412Y1.0556Z-0.0375
G0Z0.3937
X2.6818Y1.0569
G1Z-0.0438F19.68
X2.6867Y1.0485Z-0.0748
G0Z0.3937
X2.6681Y1.0203
G1Z-0.0719
X2.6697Y1.0257Z-0.0672F39.37
X2.672Y1.0297Z-0.0671
X2.6743Y1.0336Z-0.0676
X2.6799Y1.0394Z-0.0742F19.68
X2.6804Y1.0398F39.37
X2.6833Y1.0433Z-0.077F19.68
G0Z0.3937
X2.6604Y1.0219
G1Z-0.0439
X2.6681Y1.0203Z-0.0719
G0Z0.3937
X2.6689Y1.0098
G1Z-0.0787
X2.6714Y1.003F39.37
X2.6718Y1.002
X2.6723Y1.0011
X2.6728Y1.0002
X2.6733Y0.9993
X2.6739Y0.9985
X2.6745Y0.9976
X2.6752Y0.9969
X2.6759Y0.9961
X2.6766Y0.9954
X2.6774Y0.9947
X2.6782Y0.9941
X2.6791Y0.9935
X2.6799Y0.9929
X2.6808Y0.9924
X2.6815Y0.992
X2.6808Y0.9914
X2.68Y0.9908
X2.6792Y0.9901
X2.6785Y0.9894
X2.6778Y0.9886
X2.6771Y0.9878
X2.6765Y0.987
X2.6736Y0.983
X2.6733Y0.9839
X2.6729Y0.9849
X2.6725Y0.9858
X2.672Y0.9868
X2.6715Y0.9877
X2.6709Y0.9886
X2.6703Y0.9894
X2.6696Y0.9902
X2.6689Y0.991
X2.6682Y0.9917
X2.6674Y0.9925
X2.6666Y0.9931
X2.66Y0.998
X2.6645Y1.0027
X2.6652Y1.0034
X2.6659Y1.0042
X2.6665Y1.0051
X2.667Y1.0059
X2.6675Y1.0068
X2.668Y1.0078
X2.6684Y1.0087
X2.6689Y1.0098
X2.6691Y1.0093Z-0.0781
X2.6681Y1.0203Z-0.0719
G0Z0.3937
X2.6815Y0.992
G1Z-0.0728F19.68
X2.6958Y0.9931Z-0.061F39.37
X2.7021Y0.995Z-0.0491
X2.7036Y0.9941Z-0.0511F19.68
X2.7118Y0.9914Z-0.0546F39.37
X2.7178Y0.9911Z-0.0512
X2.7217Y0.9914Z-0.0509
X2.7256Y0.9923Z-0.0507
X2.7313Y0.9945Z-0.0464
X2.7382Y0.9993Z-0.0331
X2.7387Y0.999Z-0.0345F19.68
X2.7607Y0.9921Z-0.0341F39.37
X2.7728Y1.0044Z-0.0502F19.68
X2.7946Y1.004F39.37
X2.8016Y1.0134Z-0.0776F19.68
X2.8025Y1.014Z-0.0777F39.37
G0Z0.3937
X2.6738Y0.9832
G1Z-0.0777F19.68
X2.6704Y0.9684Z-0.0562F39.37
X2.6748Y0.9582Z-0.0551
X2.6734Y0.9497Z-0.0601F19.68
X2.674Y0.9418Z-0.0643F39.37
X2.6742Y0.9411Z-0.0648F19.68
X2.6748Y0.9339Z-0.0692
X2.675Y0.9331Z-0.0697
X2.6755Y0.9266Z-0.0738
Y0.9259F39.37
X2.6763Y0.9202Z-0.0774F19.68
X2.6764Y0.9201F39.37
Y0.9186Z-0.0779
X2.6763Y0.919Z-0.0787F19.68
X2.6813Y0.9005F39.37
X2.6819Y0.8987
X2.6813Y0.8986
X2.6802Y0.8985
X2.6792Y0.8983
X2.6782Y0.8981
X2.6772Y0.8978
X2.6763Y0.8974
X2.6753Y0.8971
X2.6748Y0.8968
X2.6763Y0.919
G0Z0.3937
X2.6819Y0.8987
G1Z-0.074F19.68
X2.6848Y0.8969Z-0.0705F39.37
X2.6913Y0.8908Z-0.0546
X2.6938Y0.8865Z-0.0493
X2.6962Y0.8841Z-0.0449
X2.6996Y0.8769Z-0.0411
X2.6998Y0.8748Z-0.0408
X2.7023Y0.8695Z-0.0399
X2.7025Y0.8674Z-0.0396
X2.7051Y0.8621Z-0.0387
X2.7052Y0.8601Z-0.0383
X2.7078Y0.8547Z-0.0375
X2.708Y0.8527Z-0.0371
X2.7105Y0.8474Z-0.0362
X2.7106Y0.8469Z-0.0367F19.68
X2.7125Y0.8408Z-0.0356F39.37
X2.7132Y0.8399Z-0.0354
X2.7152Y0.8334Z-0.0344
X2.7159Y0.8326Z-0.0342
X2.7176Y0.8269Z-0.0335
X2.7177Y0.8259Z-0.0324
X2.7192Y0.8233Z-0.0331
X2.7204Y0.8195Z-0.0333
X2.7205Y0.8177Z-0.0318
X2.7226Y0.8141Z-0.032
X2.7229Y0.8101Z-0.0321
X2.7249Y0.8066Z-0.0323
X2.7253Y0.8026Z-0.0324
X2.7273Y0.799Z-0.0326
X2.7276Y0.7951Z-0.0327
X2.7296Y0.7915Z-0.0329
X2.73Y0.7876Z-0.033
X2.732Y0.784Z-0.0332
X2.7324Y0.7801Z-0.0333
X2.7344Y0.7765Z-0.0335
X2.7347Y0.7726Z-0.0336
X2.7367Y0.769Z-0.0338
X2.7368Y0.7683Z-0.0343F19.68
X2.7375Y0.7644Z-0.0345F39.37
X2.7391Y0.7615Z-0.0341
Y0.7608Z-0.0346F19.68
X2.74Y0.7561Z-0.0345F39.37
X2.7414Y0.7539Z-0.0346
X2.7423Y0.7486Z-0.0348
X2.7437Y0.7464Z-0.0349
X2.7447Y0.7411Z-0.0351
X2.7461Y0.7389
X2.747Y0.7336Z-0.0353
X2.7479Y0.7322Z-0.0351
X2.749Y0.726Z-0.0341
X2.7499Y0.7246Z-0.0339
X2.751Y0.7185Z-0.033
Y0.7183Z-0.0328
X2.7531Y0.7126Z-0.0316
X2.7525Y0.7044Z-0.0144
X2.752Y0.7033Z-0.0108
X2.759Y0.6978Z-0.0168F19.68
G0Z0.3937
X2.6719Y0.6318
G1Z-0.0757
X2.6857Y0.6158Z-0.0548F39.37
X2.6854Y0.6115Z-0.0629F19.68
X2.6865Y0.6037Z-0.0721
X2.6891Y0.5962Z-0.0771
X2.6897Y0.5951Z-0.0776F39.37
Y0.5953Z-0.0787F19.68
X2.6905Y0.5946F39.37
X2.6912Y0.5939
X2.692Y0.5932
X2.6929Y0.5925
X2.6932Y0.5923
X2.6926Y0.5921
X2.6916Y0.5917
X2.6907Y0.5912
X2.6904Y0.5911
X2.6896Y0.5954
X2.6897Y0.5953
X2.6932Y0.5923Z-0.0768
X2.6961Y0.5919Z-0.0741
X2.7127Y0.5791Z-0.0247
X2.716Y0.5774Z-0.0143
X2.7135Y0.5667Z-0.0334F19.68
X2.7145Y0.5598Z-0.0339F39.37
X2.716Y0.5573Z-0.0343
X2.7167Y0.5523Z-0.0348
X2.7182Y0.5498Z-0.0351
X2.7189Y0.5447Z-0.0357
X2.7193Y0.544Z-0.0365F19.68
X2.7206Y0.5404Z-0.0372F39.37
X2.7211Y0.5372Z-0.0366
X2.7215Y0.5365Z-0.0373F19.68
X2.7235Y0.5311Z-0.0378F39.37
X2.7234Y0.5296Z-0.0379
X2.7257Y0.5235Z-0.0386
Y0.523Z-0.0392F19.68
X2.7267Y0.5192Z-0.0398F39.37
X2.7279Y0.5159Z-0.0395
Y0.5155Z-0.04F19.68
X2.7296Y0.5091Z-0.0403F39.37
Y0.5087
X2.7315Y0.5014Z-0.04
Y0.5011
X2.7334Y0.4938Z-0.0398
Y0.4934Z-0.0397
X2.7354Y0.4862Z-0.0395
X2.7353Y0.4858
X2.7373Y0.4785Z-0.0392
X2.7372Y0.4773Z-0.0394
X2.7389Y0.4708Z-0.0401
X2.7388Y0.4696Z-0.0402
X2.7402Y0.4643Z-0.0411
X2.7403Y0.4619Z-0.0405
X2.7418Y0.4578Z-0.0409
Y0.4568Z-0.0417F19.68
X2.7424Y0.4529Z-0.0423F39.37
X2.7434Y0.4501Z-0.0418
X2.7435Y0.4491Z-0.0426F19.68
X2.7442Y0.4439Z-0.0429F39.37
X2.745Y0.4424Z-0.0431
X2.7458Y0.4362Z-0.0438
X2.7466Y0.4347Z-0.044
X2.7477Y0.4268Z-0.0468
X2.7463Y0.4184Z-0.0593F19.68
X2.7435Y0.4118Z-0.0747
X2.7446Y0.4099Z-0.0732F39.37
X2.746Y0.4051Z-0.0706
X2.7489Y0.3998Z-0.0694
X2.7495Y0.398Z-0.069
X2.7524Y0.3927Z-0.0678
X2.7529Y0.391Z-0.0674
X2.7557Y0.3859Z-0.0663
X2.7559Y0.3856Z-0.066
X2.7573Y0.3822Z-0.0657
X2.7592Y0.3788Z-0.0646
X2.7594Y0.3785Z-0.0644
X2.7614Y0.3735Z-0.0633
X2.7615Y0.3734Z-0.0632
X2.7642Y0.3688Z-0.0621
X2.7649Y0.3663Z-0.0616
X2.7676Y0.3617Z-0.0605
X2.7684Y0.3592Z-0.06
X2.7711Y0.3546Z-0.0589
X2.7734Y0.347Z-0.0508
X2.7738Y0.3403Z-0.0379
X2.7755Y0.3394Z-0.0413F19.68
X2.783Y0.3328Z-0.0504
X2.7872Y0.3261Z-0.0488F39.37
X2.788Y0.3233Z-0.049
X2.7907Y0.319Z-0.0494
X2.7915Y0.3163Z-0.0497
X2.7923Y0.315Z-0.0504
X2.7943Y0.3116
X2.795Y0.3092Z-0.0503
X2.7958Y0.3079Z-0.051
X2.798Y0.3042Z-0.0509
X2.7985Y0.3022Z-0.0511
X2.8015Y0.2971Z-0.0515
X2.802Y0.2952Z-0.0517
X2.8048Y0.2905Z-0.0522
X2.8051Y0.2901Z-0.052
X2.8063Y0.2868Z-0.0528
X2.8083Y0.2834
X2.8086Y0.283Z-0.0526
X2.8103Y0.2784Z-0.053
X2.8151Y0.2719Z-0.0545
X2.8177Y0.2697Z-0.0514
X2.8188Y0.265Z-0.0582F19.68
X2.8224Y0.258Z-0.0612F39.37
X2.827Y0.2527Z-0.0674F19.68
X2.8322Y0.2487Z-0.0774
X2.8323Y0.2466Z-0.074F39.37
X2.8343Y0.2387Z-0.0663
X2.8362Y0.235Z-0.0657
X2.838Y0.2315Z-0.0654
X2.8406Y0.2284Z-0.0662
X2.8433Y0.2251Z-0.0654
X2.8481Y0.2214Z-0.0597
X2.8485Y0.219Z-0.0639F19.68
X2.8507Y0.2132Z-0.0704
X2.8549Y0.2066Z-0.0717F39.37
X2.8604Y0.2008Z-0.0767F19.68
X2.8623Y0.1994Z-0.0774F39.37
X2.8617Y0.1998Z-0.0787F19.68
X2.8674Y0.1965F39.37
X2.8671Y0.1959
X2.8666Y0.195
X2.8662Y0.1941
X2.8659Y0.1935
X2.8617Y0.1998
X2.8661Y0.1972Z-0.0774
X2.8694Y0.1988Z-0.0675
X2.8895Y0.1971Z-0.0226
X2.8936Y0.2032Z-0.0266
X2.8996Y0.2055Z-0.0154
G0Z0.3937
X2.8658Y0.1937
G1Z-0.0774F19.68
X2.8664Y0.1905Z-0.0737F39.37
X2.8671Y0.1862Z-0.0671
X2.8686Y0.1825Z-0.0626
X2.8694Y0.1805Z-0.0593
X2.8696Y0.1783Z-0.0582
X2.872Y0.1705Z-0.0494
X2.8764Y0.164Z-0.0493
X2.8769Y0.1635Z-0.0494
X2.8803Y0.1586Z-0.0488
X2.8818Y0.1574Z-0.0486
X2.8851Y0.1524Z-0.0481
X2.8866Y0.1512Z-0.0479
X2.8895Y0.1469Z-0.0476
X2.8899Y0.1461Z-0.047
X2.893Y0.1431Z-0.0466
X2.8948Y0.1399Z-0.0463
X2.8979Y0.1369Z-0.0459
X2.8992Y0.1345Z-0.0462
X2.9018Y0.1316Z-0.0459
X2.9028Y0.1307Z-0.0451
X2.904Y0.1283Z-0.0455
X2.9075Y0.1245Z-0.0447
X2.9083Y0.1228Z-0.0445
X2.9135Y0.1171Z-0.0458
X2.9136Y0.1169
X2.9188Y0.1112Z-0.0471
X2.9189Y0.111
X2.9219Y0.1077Z-0.048
X2.9249Y0.1041Z-0.0496
Y0.104
X2.9298Y0.0979Z-0.0523
X2.9299Z-0.0524
X2.9326Y0.0946Z-0.0539
X2.9321Y0.09Z-0.0428
X2.9339Y0.0817Z-0.0315
X2.9359Y0.0792Z-0.0305
X2.9373Y0.0748Z-0.0277
X2.9427Y0.0693Z-0.0282
X2.949Y0.0668Z-0.0164
X2.9489Y0.064Z-0.0233F19.68
X2.9514Y0.0562Z-0.0329
X2.9536Y0.0538Z-0.0267F39.37
X2.9577Y0.0532Z-0.0169
G0Z0.3937
X2.9326Y0.0946
G1Z-0.0539F19.68
X2.9378Z-0.0399F39.37
X2.9459Y0.0917Z-0.0262
G0Z0.3937
X2.8322Y0.2487
G1Z-0.0774F19.68
X2.8449Y0.2569Z-0.0541F39.37
X2.8505Y0.2594Z-0.0433
X2.8514Y0.2622Z-0.0467F19.68
X2.8513Y0.268Z-0.0393F39.37
X2.8473Y0.2736Z-0.0241
G0Z0.3937
X2.7558Y0.1712
G1Z-0.0196F19.68
X2.7611Y0.1535Z-0.0228F39.37
X2.7655Y0.1534Z-0.0129
X2.7687Y0.1324Z-0.0088
G0Z0.3937
X2.7219Y0.1747
G1Z-0.0114F19.68
X2.7267Y0.1705Z-0.0161
X2.7275Y0.1624Z-0.006F39.37
G0Z0.3937
X2.696Y0.1041
G1Z-0.0122F19.68
X2.6994Y0.1137Z-0.0128F39.37
G0Z0.3937
X2.6971Y0.0962
G1Z-0.016F19.68
X2.7006Y0.0911Z-0.0292
X2.7031Y0.0857Z-0.036
X2.7034Y0.0776Z-0.0288F39.37
X2.7032Y0.0768Z-0.0268
X2.708Y0.0707Z-0.034F19.68
X2.7108Y0.0602Z-0.0215F39.37
X2.7238Y0.0568Z-0.0046
X2.7233Y0.0537Z-0.0121F19.68
X2.7256Y0.0478Z-0.0156F39.37
G0Z0.3937
X2.5833Y0.1552
G1Z-0.018F19.68
X2.5889Y0.1499Z-0.0324
X2.5905Y0.1395Z-0.0259F39.37
X2.5886Y0.1336Z-0.0087
X2.6077Y0.1244Z-0.0272F19.68
X2.6084Y0.1159Z-0.0225F39.37
X2.6179Y0.1122Z-0.0233
G0Z0.3937
X2.5943Y0.1725
G1Z-0.017F19.68
X2.5949Y0.1731Z-0.015F39.37
Z-0.0149
X2.5952Y0.1729Z-0.0151
G0Z0.3937
X2.6311Y0.2145
G1Z-0.0041F19.68
Y0.2236Z-0.0249
X2.6278Y0.2307Z-0.0283F39.37
X2.6195Y0.237Z-0.0076
X2.6221Y0.2418Z-0.0227F19.68
X2.6231Y0.2497Z-0.0339
X2.6209Y0.2574Z-0.0261F39.37
Y0.2575Z-0.0264F19.68
X2.6225Y0.2622Z-0.0311
X2.6237Y0.2668Z-0.0292F39.37
X2.6226Y0.2725Z-0.0132
X2.6259Y0.2747Z-0.0185F19.68
G0Z0.3937
X2.6372Y0.209
G1Z-0.0093
X2.6454Y0.2047Z-0.0208
X2.649Y0.1977Z-0.0131F39.37
G0Z0.3937
X2.5295Y0.2066
G1Z-0.0166F19.68
X2.5318Y0.2084Z-0.0161F39.37
X2.532Y0.209Z-0.0155
X2.5315Y0.2098Z-0.018F19.68
X2.5311Y0.2177Z-0.0206F39.37
X2.5336Y0.2218Z-0.0086
G0Z0.3937
X2.4748Y0.2311
G1Z-0.0052F19.68
X2.4761Y0.239Z-0.0284
X2.4749Y0.243Z-0.0353
X2.4737Y0.247Z-0.0381
X2.4711Y0.2504Z-0.0355F39.37
X2.4717Y0.254Z-0.0433F19.68
X2.4723Y0.2549Z-0.0454
X2.4728Y0.257Z-0.0392F39.37
X2.4783Y0.2627Z-0.0195
G0Z0.3937
X2.4049Y0.2427
G1Z-0.0063F19.68
X2.4057Y0.2345Z-0.022
X2.4039Y0.2307Z-0.0156F39.37
X2.4067Y0.2274Z-0.0262F19.68
X2.4081Y0.2237Z-0.0316
X2.4091Y0.2198Z-0.0296F39.37
X2.4086Y0.2121Z-0.0164
X2.408Y0.2104Z-0.0117
X2.4145Y0.206Z-0.0276F19.68
X2.419Y0.1993Z-0.0245F39.37
G0Z0.3937
X2.441Y0.1511
G1Z-0.0079F19.68
X2.4371Y0.1472Z-0.0027F39.37
X2.4406Y0.1427Z-0.018F19.68
Y0.1373Z-0.0194F39.37
X2.4423Y0.135Z-0.0202
Y0.1299Z-0.0218
Y0.1296Z-0.0214
X2.4444Y0.1254Z-0.0227
X2.4441Y0.1219Z-0.0236
X2.4461Y0.1177Z-0.0249
X2.4458Y0.1145Z-0.0261
X2.4474Y0.1108Z-0.0275
X2.4478Y0.11Z-0.027
X2.4476Y0.1068Z-0.0282
X2.4494Y0.1023Z-0.0293
X2.4492Y0.0994Z-0.0301
X2.4522Y0.0919Z-0.0345
X2.4549Y0.089Z-0.0303
X2.4539Y0.0769Z-0.0178
X2.4689Y0.0702Z-0.0465F19.68
X2.4721Y0.0704Z-0.0417F39.37
X2.4752Y0.0677Z-0.0462F19.68
X2.4764Y0.0674Z-0.0422F39.37
G0Z0.3937
X2.5162Y0.1171
G1Z-0.0191F19.68
X2.5155Y0.1163Z-0.0225
X2.513Y0.1084Z-0.0235F39.37
X2.5156Y0.1052Z-0.0316F19.68
X2.5179Y0.0977Z-0.0341F39.37
X2.5171Y0.0906Z-0.0242
X2.5155Y0.0862Z-0.0136
X2.514Y0.083Z-0.0049
X2.5155Y0.0822Z-0.0093F19.68
X2.522Y0.0768Z-0.0264
X2.5259Y0.0697Z-0.0292F39.37
X2.5262Y0.0628Z-0.0177
X2.5277Y0.062Z-0.0207F19.68
X2.5308Y0.0578Z-0.0151F39.37
G0Z0.3937
X2.332Y0.0036
G1Z-0.0097F19.68
X2.3331Y0.0129Z-0.0208
X2.3366Y0.0144Z-0.0199F39.37
X2.3371Y0.0258Z-0.0255
X2.3431Y0.0302Z-0.019
Y0.0309Z-0.0196F19.68
G0Z0.3937
X2.2781Y0.1105
G1Z-0.0012
X2.2714Y0.1004Z-0.0033F39.37
X2.2765Y0.0964Z-0.0238F19.68
X2.2783Y0.0785Z-0.0288F39.37
X2.2779Y0.0779Z-0.0273
X2.2861Y0.064Z-0.0475F19.68
X2.2869Y0.0634Z-0.0495
X2.2885Y0.0612Z-0.0455F39.37
X2.2893Y0.0609Z-0.0456
X2.2901Y0.0608Z-0.0444
G0Z0.3937
X2.1845Y0.0977
G1Z-0.0159F19.68
X2.1851Y0.0892Z-0.0212
X2.1827Y0.0861Z-0.0112F39.37
X2.189Y0.0782Z-0.0178F19.68
G0Z0.3937
X2.1438Y0.1782
G1Z-0.0061
X2.1454Y0.1735Z-0.0194
X2.1447Y0.1655Z-0.0281
X2.1408Y0.1592Z-0.0182F39.37
X2.1413Y0.1583Z-0.0203F19.68
X2.1424Y0.1441Z-0.0157F39.37
X2.1435Y0.1437Z-0.0189F19.68
X2.1492Y0.136Z-0.0184F39.37
X2.1476Y0.1291Z-0.0047
G0Z0.3937
X2.1487Y0.1892
G1Z-0.003F19.68
X2.1569Y0.1949Z-0.0171
X2.1608Y0.2094Z-0.0069F39.37
G0Z0.3937
X2.1809Y0.2228
G1Z-0.0476F19.68
X2.184Y0.2243Z-0.0582
X2.1926Y0.2132Z-0.0394F39.37
X2.1916Y0.2077Z-0.0449F19.68
X2.1973Y0.1953Z-0.0338F39.37
X2.1981Y0.1895Z-0.02
X2.2016Y0.1886Z-0.0267F19.68
X2.2063Y0.1858Z-0.0311
X2.2106Y0.1827Z-0.03F39.37
X2.2142Y0.1757Z-0.0159
G0Z0.3937
X2.184Y0.2243
G1Z-0.0582F19.68
X2.1841Y0.2305Z-0.0563F39.37
X2.1843Y0.2313Z-0.0561
X2.1845Y0.2384Z-0.0552
X2.1847Y0.2391Z-0.0551
X2.1848Y0.2462Z-0.0541
X2.185Y0.247Z-0.054
X2.1851Y0.2541Z-0.0531
X2.1853Y0.2549Z-0.053
X2.1854Y0.262Z-0.052
X2.1856Y0.2628Z-0.0519
X2.1857Y0.2689Z-0.0512
X2.1861Y0.2706Z-0.0503
X2.1858Y0.2759Z-0.0496
X2.1859Y0.2763Z-0.0498F19.68
X2.1865Y0.2819Z-0.049F39.37
X2.1862Y0.2837Z-0.0487
X2.1869Y0.2897Z-0.0479
X2.1865Y0.2916Z-0.0477
X2.1872Y0.2976Z-0.0469
X2.1868Y0.2995Z-0.0466
X2.1875Y0.3055Z-0.0458
X2.1872Y0.3074Z-0.0455
X2.1879Y0.3134Z-0.0447
X2.1875Y0.3152Z-0.0445
X2.1882Y0.3217Z-0.0441
X2.1887Y0.3228Z-0.044
X2.1895Y0.3295Z-0.0435
X2.19Y0.3306Z-0.0434
X2.1904Y0.334Z-0.0437
X2.1912Y0.3384Z-0.0432
Y0.3385
X2.1925Y0.3461Z-0.0426
Y0.3463
X2.1937Y0.3536Z-0.042
Y0.3541Z-0.0416
X2.1951Y0.361Z-0.0346
X2.1939Y0.3692Z-0.0147
X2.1922Y0.3729Z-0.0019
X2.1991Y0.3764Z-0.0168F19.68
X2.2084Y0.3874Z-0.0078F39.37
G0Z0.3937
X2.2757Y0.3633
G1Z-0.0207F19.68
X2.2708Y0.3567Z-0.0289
X2.2696Y0.3498Z-0.032F39.37
X2.269Y0.349Z-0.0324
X2.2683Y0.3447Z-0.0347
X2.2679Y0.342Z-0.0351
X2.2672Y0.3409Z-0.036F19.68
X2.2665Y0.337Z-0.0382F39.37
X2.2661Y0.3343Z-0.0386
X2.2654Y0.3329Z-0.0393
X2.2644Y0.3268Z-0.042
X2.2636Y0.3252Z-0.0426
X2.2633Y0.3229Z-0.0443F19.68
X2.2626Y0.3191Z-0.0455F39.37
X2.2593Y0.3123Z-0.0513F19.68
Y0.3117Z-0.0524
X2.2578Y0.3066Z-0.0548F39.37
X2.2579Y0.3055Z-0.056F19.68
X2.2585Y0.3039Z-0.0549F39.37
X2.2589Y0.2974Z-0.0493
X2.2595Y0.2959Z-0.0479
X2.2599Y0.2894Z-0.0423
X2.2605Y0.2878Z-0.0408
X2.2608Y0.2826Z-0.0366
X2.2629Y0.2763Z-0.0357
X2.2659Y0.2728Z-0.029
X2.2655Y0.2689Z-0.0346F19.68
X2.2673Y0.2633Z-0.0315F39.37
X2.2727Y0.2575Z-0.036
X2.2804Y0.2538Z-0.0345
X2.2806Y0.2533Z-0.0361F19.68
X2.2846Y0.2465Z-0.0438
X2.288Y0.2433Z-0.0336F39.37
X2.2876Y0.2391Z-0.0379F19.68
X2.2888Y0.2345Z-0.0369F39.37
X2.2901Y0.2301Z-0.033
X2.2927Y0.2271Z-0.0315
X2.2938Y0.2232Z-0.03
X2.2965Y0.2201Z-0.0284
X2.2975Y0.2162Z-0.0269
X2.3003Y0.2132Z-0.0254
X2.3013Y0.2092Z-0.0238
X2.3026Y0.2078Z-0.0251F19.68
X2.3054Y0.2027Z-0.0229F39.37
X2.3052Y0.1984Z-0.0129
X2.3096Y0.1959Z-0.0183F19.68
X2.3126Y0.1886Z-0.0128F39.37
G0Z0.3937
X2.343Y0.1607
G1Z-0.0154F19.68
X2.3409Y0.1554Z-0.0253
X2.342Y0.1524Z-0.0329
X2.3418Y0.1469Z-0.0294F39.37
X2.3436Y0.1447Z-0.0335F19.68
X2.3457Y0.1371Z-0.0284F39.37
X2.3445Y0.1297Z-0.0103
X2.3519Y0.1242Z-0.0214F19.68
X2.3544Y0.1167Z-0.0184F39.37
X2.3521Y0.1102Z-0.0107
X2.3542Y0.1086Z-0.0175F19.68
X2.3572Y0.1012Z-0.0215F39.37
X2.3555Y0.0927Z-0.0089
G0Z0.3937
X2.3521Y0.2573
G1Z-0.0196F19.68
X2.3526Y0.2582Z-0.0184F39.37
X2.3479Y0.267Z-0.0261F19.68
X2.3491Y0.2702Z-0.0224F39.37
X2.3438Y0.2775Z-0.0181
X2.3448Y0.2806Z-0.0168
G0Z0.3937
X2.3697Y0.3391
G1Z-0.0062F19.68
X2.3765Y0.3329Z-0.0032F39.37
G0Z0.3937
X2.3577Y0.3637
G1Z-0.0366F19.68
X2.3589Y0.3604Z-0.0308F39.37
X2.3626Y0.3574Z-0.0257
X2.3648Y0.3519Z-0.0219
X2.3653Y0.346Z-0.0095
G0Z0.3937
X2.3421Y0.3596
G1Z-0.0155F19.68
X2.3422Y0.3604Z-0.0184
X2.3577Y0.3637Z-0.0366
G0Z0.3937
X2.3505Y0.3796
G1Z-0.0225
X2.3515Y0.3789Z-0.0251
X2.3562Y0.3721Z-0.0328
X2.3577Y0.3641Z-0.0358F39.37
Y0.3637Z-0.0366F19.68
G0Z0.3937
X2.3393Y0.3663
G1Z-0.0235
X2.3505Y0.3796Z-0.0225F39.37
G0Z0.3937
X2.3253Y0.3802
G1Z-0.03F19.68
X2.3229Y0.3723Z-0.0031F39.37
X2.3393Y0.3663Z-0.0235F19.68
G0Z0.3937
X2.3253Y0.3802
G1Z-0.03
X2.3334Y0.3838Z-0.0051F39.37
X2.3495Y0.3818Z-0.0211F19.68
G0Z0.3937
X2.3485Y0.4219
G1Z-0.0263
X2.3495Y0.4181Z-0.0273F39.37
X2.3416Y0.4055Z-0.0068
X2.3419Y0.4045Z-0.0076F19.68
X2.3453Y0.4019Z-0.0193
X2.3496Y0.395Z-0.0328
X2.3502Y0.3909Z-0.0334F39.37
X2.3507Y0.3869Z-0.031
X2.3495Y0.3818Z-0.0211
G0Z0.3937
X2.3137Y0.4096
G1Z-0.0403F19.68
X2.3162Y0.4027Z-0.0445F39.37
X2.3164Y0.3959Z-0.0361
X2.3174Y0.3949Z-0.0381F19.68
X2.3253Y0.3802Z-0.03F39.37
G0Z0.3937
X2.291Y0.4071
G1Z-0.0232F19.68
X2.3137Y0.4096Z-0.0403
G0Z0.3937
X2.2992Y0.4371
G1Z-0.0787
X2.2983Y0.437F39.37
X2.2973Y0.4367
X2.2963Y0.4365
X2.2953Y0.4362
X2.2943Y0.4358
X2.2934Y0.4354
X2.2924Y0.435
X2.2915Y0.4345
X2.2907Y0.4339
X2.2898Y0.4334
X2.2888Y0.4326
X2.2884Y0.4333
X2.2916Y0.4396
X2.292Y0.4405
X2.2924Y0.4414
X2.2927Y0.4424
X2.293Y0.4433
X2.2933Y0.4443
X2.2962Y0.458
X2.2964Y0.459
X2.2965Y0.46
X2.2966Y0.4611
Y0.4621
Y0.4631
X2.2965Y0.4641
X2.2964Y0.4651
X2.2962Y0.4661
X2.296Y0.4671
X2.2957Y0.4681
X2.2954Y0.4691
X2.295Y0.47
X2.2949Y0.4703
X2.2953Y0.4712
X2.2986Y0.4779
X2.2979Y0.4454
Y0.4444
X2.298Y0.4434
X2.2981Y0.4424
X2.2983Y0.4414
X2.2992Y0.4371
Y0.4374Z-0.0774
X2.2996Y0.4371Z-0.0773
X2.307Y0.4307Z-0.0553
X2.3112Y0.4247Z-0.0451
X2.3126Y0.421Z-0.0429
X2.3137Y0.4172Z-0.0421
X2.3139Y0.4103Z-0.0412
X2.3137Y0.4096Z-0.0403
G0Z0.3937
X2.2888Y0.4326
G1Z-0.0758F19.68
X2.2875Y0.4239Z-0.0576F39.37
X2.291Y0.4071Z-0.0232
G0Z0.3937
X2.2788Y0.4345
G1Z-0.0448F19.68
X2.2888Y0.434Z-0.0778
G0Z0.3937
X2.2981Y0.4561
G1Z-0.075
X2.3003Y0.4618Z-0.071F39.37
X2.2984Y0.4674Z-0.0761F19.68
G0Z0.3937
X2.2979Y0.4764
G1Z-0.0743
X2.2983Y0.4827Z-0.0697F39.37
X2.3007Y0.4859Z-0.0722F19.68
X2.3041Y0.4932Z-0.0702F39.37
X2.306Y0.5008Z-0.07
Y0.5026Z-0.0703
X2.3075Y0.5085Z-0.0712
Y0.5103Z-0.0715
X2.3087Y0.5151Z-0.0725
X2.309Y0.5163Z-0.0722
X2.3092Y0.519Z-0.073
X2.3098Y0.5213Z-0.0737
X2.3101Y0.5228Z-0.0739
X2.3109Y0.5262Z-0.0741
Y0.5276Z-0.0743
X2.3124Y0.534Z-0.0753
Y0.5353Z-0.0755
X2.3136Y0.5406Z-0.0764
X2.315Y0.5414Z-0.0721
X2.3222Y0.5478Z-0.0514
X2.3264Y0.5544Z-0.0411
X2.3271Y0.5574Z-0.0389
X2.3298Y0.5618Z-0.0342
X2.3308Y0.5696Z-0.0358
X2.3295Y0.5746Z-0.0431F19.68
X2.3294Y0.5779Z-0.0468
X2.329Y0.579Z-0.0491
X2.3316Y0.5836Z-0.0427F39.37
X2.333Y0.5873Z-0.0403
X2.3336Y0.5912Z-0.0378
Y0.5973Z-0.0291
X2.3326Y0.6001Z-0.0217
X2.3372Y0.6046Z-0.0315F19.68
X2.3406Y0.612Z-0.0298F39.37
X2.3402Y0.6212Z-0.0265
X2.3463Y0.6265Z-0.035F19.68
X2.349Y0.6464Z-0.0763
Z-0.0787
X2.3483Y0.6471F39.37
X2.3475Y0.6477
X2.3466Y0.6483
X2.3458Y0.6489
X2.3449Y0.6494
X2.344Y0.6499
X2.343Y0.6503
X2.34Y0.6516
X2.3467Y0.6493
X2.3477Y0.649
X2.3487Y0.6487
X2.3498Y0.6485
X2.3508Y0.6484
X2.3519Y0.6483
X2.353Y0.6482
X2.3537
X2.3528Y0.648
X2.3518Y0.6477
X2.3508Y0.6473
X2.3498Y0.6469
X2.349Y0.6464
X2.3537Y0.6482Z-0.0771
X2.3682Y0.6501Z-0.0722
X2.3769Y0.6452Z-0.064
X2.3902Y0.6493Z-0.0729F19.68
X2.3883Z-0.0787
X2.4017Y0.6524F39.37
X2.3986Y0.6491
X2.3978Y0.6492
X2.3967Y0.6493
X2.3957Y0.6494
X2.3883Y0.6493
X2.3958Y0.651Z-0.0766
X2.3981Y0.6517Z-0.0781F19.68
X2.3996Y0.653Z-0.0748F39.37
X2.4175Y0.655Z-0.0426
X2.4225Y0.6665Z-0.0527F19.68
X2.4332Y0.6728Z-0.0395F39.37
X2.4351Y0.6726Z-0.0336
G0Z0.3937
X2.3987Y0.6493
G1Z-0.0723F19.68
X2.405Y0.6268Z-0.019F39.37
X2.4058Y0.6258Z-0.0151
X2.3984Y0.6117Z-0.01
G0Z0.3937
X2.3963Y0.5722
G1Z-0.0149F19.68
X2.4Y0.5802Z-0.0307
Y0.5881Z-0.0297F39.37
X2.3964Y0.5958Z-0.012
G0Z0.3937
X2.3965Y0.5643
G1Z-0.0132F19.68
X2.4014Y0.5567Z-0.0294
X2.4026Y0.5488Z-0.0296F39.37
X2.4019Y0.5468Z-0.0298
X2.4028Y0.541Z-0.0304
X2.4022Y0.539Z-0.0306
X2.403Y0.5331Z-0.0311
X2.4024Y0.5311Z-0.0313
X2.4032Y0.5252Z-0.0318
X2.4026Y0.5232Z-0.032
X2.4035Y0.5173Z-0.0326
X2.4029Y0.5153Z-0.0328
X2.4037Y0.5095Z-0.0333
X2.4031Y0.5075Z-0.0335
X2.4038Y0.502Z-0.0342
X2.4033Y0.4996Z-0.034
X2.4036Y0.498Z-0.035F19.68
X2.4041Y0.4941Z-0.0349F39.37
X2.4035Y0.4917Z-0.0348
X2.4044Y0.4866Z-0.0352
X2.4038Y0.4839Z-0.0355
X2.4046Y0.4791Z-0.0361
Y0.4788Z-0.0359
X2.4041Y0.4752Z-0.0367
X2.4048Y0.4712Z-0.0369
X2.4049Y0.4709Z-0.0366
X2.4042Y0.4665Z-0.037
X2.4051Y0.463Z-0.0374
X2.4045Y0.4586Z-0.0378
X2.4053Y0.4551Z-0.0381
X2.4047Y0.4507Z-0.0385
X2.4055Y0.4473Z-0.0388
X2.405Y0.4429Z-0.0392
X2.4058Y0.4394Z-0.0396
X2.4052Y0.435Z-0.04
X2.406Y0.4315Z-0.0403
X2.4054Y0.4271Z-0.0407
X2.4062Y0.4236Z-0.0411
X2.4057Y0.4192Z-0.0415
X2.4064Y0.4158Z-0.0418
X2.4059Y0.4114Z-0.0422
X2.4067Y0.4079Z-0.0425
X2.4063Y0.4048Z-0.0421
X2.4074Y0.4Z-0.0415
X2.407Y0.397Z-0.0411
X2.4081Y0.3922Z-0.0405
X2.4077Y0.3891Z-0.0401
X2.4087Y0.3844Z-0.0395
X2.4083Y0.3813Z-0.0391
X2.4094Y0.3766Z-0.0386
Y0.3765Z-0.0385
X2.4091Y0.3718Z-0.0379
X2.4103Y0.3681Z-0.0378
X2.4101Y0.364
X2.4112Y0.3602Z-0.0377
X2.411Y0.3562
X2.4122Y0.3524Z-0.0376
X2.412Y0.3497Z-0.0369
X2.4129Y0.3467Z-0.0372
X2.4135Y0.3428Z-0.0359
X2.4134Y0.3419Z-0.0349
X2.4144Y0.3389Z-0.0352
X2.415Y0.3342Z-0.0335
X2.4155Y0.3333Z-0.0332
X2.4164Y0.3264Z-0.0315
X2.417Y0.3255Z-0.0312
X2.4174Y0.322Z-0.0311
X2.4182Y0.3181Z-0.0299
X2.4184Y0.3178Z-0.0292
X2.4188Y0.3142Z-0.0291
X2.4197Y0.31Z-0.0278
X2.4196Y0.3097Z-0.0277
X2.4211Y0.302Z-0.0262
X2.4269Y0.2953
X2.4294Y0.2938Z-0.0213
X2.4292Y0.2901Z-0.0299F19.68
G0Z0.3937
X2.5091Y0.3781
G1Z-0.0154
X2.5092Y0.3871Z-0.0008F39.37
G0Z0.3937
X2.529Y0.4008
G1Z-0.0129F19.68
X2.5328Y0.3946Z-0.0231
X2.5327Y0.3914Z-0.0227F39.37
X2.5354Y0.3871Z-0.0221
X2.5352Y0.384Z-0.0217
X2.5379Y0.3797Z-0.0211
X2.5378Y0.3765Z-0.0207
X2.5407Y0.3719
Y0.3715Z-0.0213F19.68
X2.5415Y0.3677Z-0.022F39.37
X2.5435Y0.3646Z-0.0207
Y0.3642Z-0.0213F19.68
X2.5447Y0.3586Z-0.0211F39.37
X2.5462Y0.3572
X2.5475Y0.3512
X2.548Y0.3508Z-0.0223F19.68
X2.5507Y0.3447Z-0.0212F39.37
G0Z0.3937
X2.5266Y0.4074
G1Z-0.0044F19.68
X2.5299Y0.4167Z-0.0089F39.37
G0Z0.3937
X2.5484Y0.4209
G1Z-0.0011F19.68
X2.5504Y0.4336Z-0.0117
X2.5494Y0.4343Z-0.015
G0Z0.3937
X2.4778Y0.5119
G1Z-0.0511
X2.487Y0.4974Z-0.0292F39.37
X2.4872Y0.4951Z-0.0264
X2.491Y0.4904Z-0.0225
X2.4915Y0.4862Z-0.0215
X2.4918Y0.4821Z-0.0158
G0Z0.3937
X2.4748Y0.5103
G1Z-0.0615F19.68
X2.4778Y0.5119Z-0.0511F39.37
X2.478Y0.5123Z-0.05
X2.4859Y0.5206Z-0.0155
X2.4722Y0.5409Z-0.0084
X2.4831Y0.551Z-0.0113
X2.4779Y0.5606Z-0.0146
X2.4812Y0.5658Z-0.0106
G0Z0.3937
X2.4573Y0.5155
G1Z-0.0055F19.68
X2.4748Y0.5103Z-0.0615
X2.4643Y0.4931Z-0.0087F39.37
X2.466Y0.4917Z-0.0135F19.68
X2.4703Y0.4803Z-0.0112F39.37
G0Z0.3937
X2.5535Y0.605
G1Z-0.0116F19.68
X2.5563Y0.5916Z-0.0195F39.37
X2.5582Y0.5902Z-0.0132
X2.5493Y0.57Z-0.0093
X2.5508Y0.569Z-0.0144F19.68
X2.5566Y0.5622Z-0.0312
X2.5591Y0.5547Z-0.0329F39.37
X2.559Y0.5541Z-0.0327
X2.5601Y0.5507Z-0.0324
X2.5613Y0.5469Z-0.0313
X2.5612Y0.5465Z-0.0309
X2.5623Y0.5431Z-0.0306
X2.5635Y0.5392Z-0.0295
Y0.5389Z-0.0294
X2.5648Y0.5347Z-0.0286
X2.5659Y0.5317Z-0.027
X2.5658Y0.5309Z-0.0276F19.68
X2.567Y0.5272Z-0.0269F39.37
X2.5682Y0.5241Z-0.0252
X2.568Y0.5228Z-0.0248
X2.5704Y0.5165Z-0.0233
X2.5702Y0.5153Z-0.023
X2.5743Y0.5048Z-0.009
X2.5728Y0.5037Z-0.0143F19.68
X2.5717Y0.4966Z-0.0125F39.37
G0Z0.3937
X2.6108Y0.5483
G1Z-0.0018F19.68
X2.6141Y0.556Z-0.0162
X2.6118Y0.5625Z-0.009F39.37
X2.6136Y0.5639Z-0.0145F19.68
X2.6147Y0.5682Z-0.0157F39.37
X2.6153Y0.5725Z-0.0094
G0Z0.3937
X2.6513Y0.6276
G1Z-0.0354F19.68
X2.6539Y0.6307Z-0.0474
X2.6563Y0.632Z-0.0473F39.37
X2.6704Y0.6315Z-0.072F19.68
X2.6719Y0.6318Z-0.0757
G0Z0.3937
X2.6961Y0.5919
G1Z-0.0741
X2.7067Y0.5987Z-0.0319F39.37
G0Z0.3937
X2.6865Y0.5617
G1Z-0.0465F19.68
X2.6957Y0.5615Z-0.0221F39.37
X2.6987Y0.5605Z-0.0121
X2.7043Y0.5651Z-0.0122
X2.7135Y0.5667Z-0.0334F19.68
G0Z0.3937
X2.6865Y0.5617
G1Z-0.0465
X2.6814Y0.5442Z-0.0192F39.37
X2.6791Y0.5423Z-0.0095
X2.6886Y0.5265Z-0.0359F19.68
X2.6899Y0.5187Z-0.04F39.37
X2.6887Y0.5125Z-0.0439F19.68
X2.6895Y0.5103Z-0.0488
X2.6896Y0.5093Z-0.0501
X2.6937Y0.504Z-0.0426F39.37
X2.6962Y0.4974Z-0.0384
X2.6965Y0.4972Z-0.0386F19.68
X2.7002Y0.4901Z-0.0345F39.37
X2.7005Y0.4872Z-0.034
X2.7029Y0.4827Z-0.0331
X2.7031Y0.4798Z-0.0326
X2.7055Y0.4753Z-0.0317
X2.7057Y0.4724Z-0.0312
X2.7085Y0.4674Z-0.0309
X2.7086Y0.465Z-0.0308
X2.7114Y0.4601Z-0.0306
X2.7115Y0.4577Z-0.0304
X2.7132Y0.4547Z-0.0314
X2.7145Y0.4504Z-0.0306
X2.7154Y0.4495Z-0.0305
X2.7164Y0.4463Z-0.0312
X2.718Y0.4421Z-0.031
X2.7181
X2.7209Y0.4348Z-0.0306
X2.721
X2.7238Y0.4275Z-0.0302
X2.7268Y0.4247Z-0.0349F19.68
X2.7288Y0.421Z-0.0385
X2.7356Y0.4153Z-0.0537
X2.7423Y0.4121Z-0.0714
X2.7435Y0.4118Z-0.0747
G0Z0.3937
X2.6612Y0.3827
G1Z-0.0054
X2.662Y0.3771Z-0.0087
G0Z0.3937
X2.668Y0.3373
G1Z-0.0349
X2.6689Y0.3364Z-0.0387
X2.6701Y0.3334Z-0.0376F39.37
X2.6697Y0.3315Z-0.0328
X2.676Y0.3226Z-0.0358
X2.6778Y0.3152Z-0.0273
X2.6784Y0.3149Z-0.0286F19.68
X2.6821Y0.3112Z-0.0322
X2.6847Y0.3081Z-0.0315F39.37
X2.686Y0.3043Z-0.0284
X2.6872Y0.2993Z-0.0201
X2.6871Y0.2991Z-0.0196
X2.694Y0.2939Z-0.0241
X2.697Y0.2866Z-0.0128
X2.6966Y0.284Z-0.0045
G0Z0.3937
X2.6701Y0.3334
G1Z-0.0376F19.68
X2.675Y0.3353Z-0.0277F39.37
G0Z0.3937
X2.6802Y0.5023
G1Z-0.0246F19.68
X2.6896Y0.5093Z-0.0501
G0Z0.3937
X2.6865Y0.5617
G1Z-0.0465
X2.6849Y0.5673Z-0.0438F39.37
X2.6852Y0.5753Z-0.0499F19.68
X2.6865Y0.5792Z-0.0564
X2.6869Y0.5817Z-0.0602
X2.6882Y0.5859Z-0.0673
X2.6899Y0.5902Z-0.0763
X2.6904Y0.5911Z-0.0772
G0Z0.3937
X2.5621Y0.68
G1Z-0.0088
X2.5624Y0.663Z-0.026
X2.5678Y0.6581Z-0.007F39.37
X2.5601Y0.6479Z-0.0335F19.68
X2.5643Y0.628Z-0.0083F39.37
X2.5676Y0.6281Z-0.0177F19.68
G0Z0.3937
X2.4933Y0.7126
G1Z-0.0145
X2.4945Y0.7218Z-0.0404
X2.4922Y0.7303Z-0.0368F39.37
X2.4855Y0.7347Z-0.0117
X2.4916Y0.7498Z-0.0303F19.68
X2.4908Y0.7549Z-0.0219F39.37
X2.5Y0.7644Z-0.025
G0Z0.3937
X2.523Y0.7973
G1Z-0.0068F19.68
X2.5232Z-0.0074
X2.5237Z-0.0075F39.37
X2.5239Z-0.0068
G0Z0.3937
X2.5527Y0.8431
G1Z-0.0078F19.68
X2.5556Y0.8344Z-0.0218
X2.553Y0.8252Z-0.0084F39.37
G0Z0.3937
X2.556Y0.8585
G1Z-0.0103F19.68
X2.5616Y0.8653Z-0.0262
X2.5623Y0.8693Z-0.0261F39.37
X2.5627Y0.8714Z-0.0244
X2.5641Y0.8731Z-0.0237
X2.565Y0.879Z-0.0221
X2.5665Y0.8806Z-0.0214
X2.5669Y0.8831Z-0.0223
X2.568Y0.8876Z-0.0205
X2.5686Y0.8882Z-0.0202
X2.5703Y0.8952Z-0.0183
X2.571Y0.8957Z-0.018
X2.5725Y0.9023Z-0.0139
X2.5721Y0.9029Z-0.0138
G0Z0.3937
X2.5954Y0.9045
G1Z-0.014F19.68
X2.5977Y0.8941Z-0.0018F39.37
G0Z0.3937
X2.5907Y0.9421
G1Z-0.0197F19.68
X2.5908Y0.9341Z-0.0243F39.37
X2.5948Y0.9278Z-0.0138
G0Z0.3937
X2.516Y0.9121
G1Z-0.0099F19.68
X2.5182Y0.9265Z-0.0265
X2.5172Y0.9292Z-0.0273F39.37
X2.5179Y0.9344Z-0.0287
X2.5169Y0.9371Z-0.0294
X2.5175Y0.9423Z-0.0308
X2.5166Y0.945Z-0.0315
X2.5172Y0.9501Z-0.0329
X2.5164Y0.9529Z-0.0336
X2.5165Y0.9541Z-0.0346F19.68
X2.5169Y0.958Z-0.035F39.37
X2.5161Y0.9608Z-0.0357
X2.5166Y0.9658Z-0.037
X2.5164Y0.9666Z-0.0379F19.68
X2.5158Y0.9722Z-0.0392F39.37
X2.5162Y0.9737Z-0.0396
X2.5155Y0.9801Z-0.0412
X2.5175Y0.9882
X2.5182Y0.9895Z-0.0393
X2.5164Y0.996Z-0.05F19.68
X2.5165Y1.004Z-0.054F39.37
X2.5168Y1.005Z-0.0555F19.68
X2.527Y1.0094Z-0.0381F39.37
X2.5282Y1.0109Z-0.036
X2.5417Y1.0166Z-0.0415
X2.5469Y1.0089Z-0.018
G0Z0.3937
X2.5404Y1.0457
G1Z-0.0066F19.68
X2.5432Y1.0407Z-0.0192
X2.5453Y1.0356Z-0.0271
X2.5444Y1.0277Z-0.0311F39.37
X2.542Y1.0239Z-0.0312
X2.5425Y1.0198Z-0.0384F19.68
X2.5417Y1.0166Z-0.0415
G0Z0.3937
X2.5446Y1.0537
G1Z-0.0185
X2.5472Y1.0623Z-0.013F39.37
G0Z0.3937
X2.5057Y1.034
G1Z-0.047F19.68
X2.5066Y1.0315Z-0.0427F39.37
X2.5054Y1.0256Z-0.0348
X2.512Y1.0135Z-0.0403
X2.5125Y1.0115Z-0.0421F19.68
X2.5168Y1.005Z-0.0555
G0Z0.3937
X2.5057Y1.034
G1Z-0.047
X2.5074Y1.0378Z-0.0398F39.37
X2.5218Y1.0534Z-0.0027
G0Z0.3937
X2.4863Y1.0413
G1Z-0.0276F19.68
X2.5057Y1.034Z-0.047
G0Z0.3937
X2.4863Y1.0413
G1Z-0.0276
X2.4868Y1.0436Z-0.0359
X2.49Y1.05Z-0.0322F39.37
X2.4878Y1.0621Z-0.0084
G0Z0.3937
X2.4846Y1.0695
G1Z-0.0342F19.68
X2.4858Y1.0684Z-0.0304F39.37
X2.4882Y1.0664Z-0.0235
X2.4878Y1.0621Z-0.0084
G0Z0.3937
X2.4661Y1.0622
G1Z-0.0253F19.68
X2.4687Y1.0565Z-0.0269F39.37
X2.468Y1.0521Z-0.0187
X2.4814Y1.0377Z-0.0067
X2.4863Y1.0413Z-0.0276F19.68
G0Z0.3937
X2.4661Y1.0622
G1Z-0.0253
X2.4755Y1.067Z-0.0197F39.37
X2.4785Y1.0674Z-0.0239F19.68
X2.4846Y1.0695Z-0.0342
G0Z0.3937
X2.4808Y1.0862
G1Z-0.0203
X2.4846Y1.0695Z-0.0342
G0Z0.3937
X2.4641Y1.0712
G1Z-0.0129
X2.4625Y1.0645Z-0.0135F39.37
X2.4661Y1.0622Z-0.0253F19.68
G0Z0.3937
X2.4117Y1.0974
G1Z-0.0349
X2.4163Y1.0939Z-0.0317F39.37
G0Z0.3937
X2.4112Y1.1011
G1Z-0.0276F19.68
X2.4117Y1.0974Z-0.0349
G0Z0.3937
X2.4207Y1.1303
G1Z-0.005
X2.4227Y1.1235Z-0.0033F39.37
G0Z0.3937
X2.3195Y1.0939
G1Z-0.0414F19.68
X2.3312Y1.092Z-0.0124F39.37
G0Z0.3937
X2.3195Y1.0939
G1Z-0.0414F19.68
X2.3193Y1.0962Z-0.0372F39.37
X2.3204Y1.0999Z-0.0327
X2.32Y1.1045Z-0.0267
X2.3231Y1.1117Z-0.0261
X2.3304Y1.1172Z-0.0103
G0Z0.3937
X2.3093Y1.0619
G1Z-0.0212F19.68
X2.3077Y1.0702Z-0.0349
X2.3088Y1.0757Z-0.0332F39.37
X2.3134Y1.0823Z-0.0353
X2.3159Y1.084Z-0.0313
X2.3168Y1.089Z-0.0393F19.68
X2.3195Y1.0939Z-0.0414F39.37
G0Z0.3937
X2.2626Y1.1851
G1Z-0.0751F19.68
X2.2676Y1.1739Z-0.0718F39.37
X2.271Y1.1715Z-0.0771F19.68
G0Z0.3937
X2.2492Y1.187
G1Z-0.0311
X2.2626Y1.1851Z-0.0751
G0Z0.3937
X2.183Y1.1344
G1Z-0.0764
X2.1865Y1.1275Z-0.059F39.37
X2.1899Y1.126Z-0.0491
G0Z0.3937
X2.1087Y1.1054
G1Z-0.0675F19.68
X2.1101Y1.1094Z-0.0636F39.37
G0Z0.3937
X2.0856Y1.0934
G1Z-0.0548F19.68
X2.0923Y1.0946Z-0.0666
G0Z0.3937
X2.0141Y1.1086
G1Z-0.0787
X2.0135Y1.1084F39.37
X2.0126Y1.1079
X2.0117Y1.1074
X2.0108Y1.1069
X2.0099Y1.1063
X2.0091Y1.1057
X2.0082Y1.1051
X2.0075Y1.1044
X2.0049Y1.102
X2.006Y1.1067
X2.0136Y1.118
X2.0137Y1.1123
Y1.1113
X2.0138Y1.1102
X2.014Y1.1092
X2.0141Y1.1086
Z-0.071
X2.0329Y1.0985Z-0.0322
X2.0374Y1.0996Z-0.0158
X2.0426Y1.091Z-0.0141
X2.0432Y1.0901Z-0.0113
G0Z0.3937
X2.0053Y1.1036
G1Z-0.0786F19.68
X2.0052Y1.1033F39.37
X2.0049Y1.1027Z-0.0781
X2.0027Y1.0942Z-0.0648
X2.0025Y1.0861Z-0.0575
X2.0035Y1.0818Z-0.0576
X2.0045Y1.0776Z-0.0581
X2.0084Y1.0704Z-0.0613
X2.0092Y1.0695Z-0.0605
X2.0122Y1.0544Z-0.0511
X2.0243Y1.0481Z-0.0596F19.68
X2.0258Y1.044Z-0.0646
X2.0298Y1.0369Z-0.0676F39.37
X2.0351Y1.0312Z-0.0622
Y1.0311F19.68
X2.0375Y1.0272Z-0.0615F39.37
X2.04Y1.0234Z-0.0588
X2.0457Y1.018Z-0.06
X2.0476Y1.017Z-0.0588
X2.0498Y1.0144Z-0.0597
X2.0562Y1.0098Z-0.0602
X2.0579Y1.0091Z-0.0608
X2.0629Y1.0056Z-0.0625
X2.0646Y1.0049Z-0.063
X2.0686Y1.0021Z-0.0646
X2.0711Y1.0009Z-0.0651
X2.0721Y1.0001Z-0.0659F19.68
X2.0753Y0.9979Z-0.0669F39.37
X2.0776Y0.9968Z-0.0672
X2.081Y0.9942Z-0.0684
X2.0843Y0.9926Z-0.0694
X2.0877Y0.99Z-0.0697
X2.091Y0.9884Z-0.066
X2.0929Y0.9869Z-0.0618
X2.096Y0.9867Z-0.0628
X2.1122Y0.9788Z-0.0533
X2.1177Y0.9733Z-0.0443
X2.1323Y0.9741Z-0.0648F19.68
G0Z0.3937
X2.217Y0.9367
G1Z-0.0127
X2.2173Y0.9322Z-0.0225
X2.213Y0.9245Z-0.014F39.37
X2.2105Y0.9225Z-0.006
X2.2142Y0.9166Z-0.0228F19.68
X2.2149Y0.9115Z-0.0278
X2.2148Y0.9067Z-0.0279F39.37
X2.2149Y0.9065
X2.2148Y0.8988Z-0.0268
X2.2149Y0.8986
X2.2148Y0.8909Z-0.0258
X2.2149Y0.8907Z-0.0257
X2.2148Y0.883Z-0.0247
X2.2149Y0.8828
X2.2148Y0.879Z-0.0244
Y0.875Z-0.0239
X2.2171Y0.8712Z-0.0228
X2.2175Y0.8706Z-0.0221
X2.2164Y0.8671Z-0.0289F19.68
X2.2179Y0.8592Z-0.0332F39.37
X2.221Y0.8547Z-0.04F19.68
X2.2212Y0.8531Z-0.0436
G0Z0.3937
X2.2341Y0.8079
G1Z-0.0147
X2.235Y0.809Z-0.0197
X2.2373Y0.8229Z-0.0162F39.37
X2.2262Y0.8284Z-0.0178
X2.2291Y0.8456Z-0.0275
X2.2212Y0.8531Z-0.0436F19.68
G0Z0.3937
X2.2938Y0.9228
G1Z-0.0681
X2.2958Y0.9249Z-0.0711
Z-0.0787
X2.2944Y0.9268F39.37
X2.286Y0.9558
X2.282Y0.9849
X2.2857Y0.9858
X2.2867Y0.9861
X2.2877Y0.9865
X2.2879Y0.9866
X2.2884Y0.9859
X2.2891Y0.9852
X2.2898Y0.9844
X2.2905Y0.9837
X2.2913Y0.983
X2.2982Y0.9775
X2.2991Y0.9769
X2.3Y0.9764
X2.3009Y0.9758
X2.3018Y0.9754
X2.3027Y0.9749
X2.3037Y0.9746
X2.3046Y0.9742
X2.3056Y0.9739
X2.3066Y0.9737
X2.3077Y0.9735
X2.3272Y0.9709
X2.3265Y0.964
X2.3204Y0.949
X2.32Y0.948
X2.3197Y0.947
X2.3144Y0.9275
X2.3137
X2.3127
X2.3117Y0.9274
X2.3106Y0.9272
X2.2958Y0.9249
G0Z0.3937
X2.3145Y0.9278
G1Z-0.0779F19.68
X2.3187Y0.9209Z-0.0568F39.37
X2.3209Y0.9163Z-0.0444
X2.3221Y0.9119Z-0.0357
X2.3222Y0.9102Z-0.0316
X2.3246Y0.9053Z-0.0204
X2.3232Y0.8975Z-0.0172
G0Z0.3937
X2.3235Y0.9714
G1Z-0.0766F19.68
X2.324Y0.9726Z-0.074F39.37
G0Z0.3937
X2.2879Y0.9866
G1Z-0.0679F19.68
X2.2925Y1.0031Z-0.0426F39.37
X2.3044Y1.0159Z-0.0073
X2.3062Y1.0171Z-0.001
X2.3015Y1.0245Z-0.0211F19.68
X2.2994Y1.0329Z-0.0305
X2.3008Y1.04Z-0.031F39.37
X2.3052Y1.0466Z-0.0217
G0Z0.3937
X2.2736Y0.9935
G1Z-0.0398F19.68
X2.2822Y0.9838Z-0.0669
G0Z0.3937
X2.4006Y1.0119
G1Z-0.0239
X2.4051Y1.0204Z-0.0138F39.37
X2.3942Y1.0302Z-0.0418F19.68
X2.3917Y1.0375Z-0.0463
X2.3939Y1.049Z-0.0471F39.37
X2.3963Y1.0511Z-0.0382
X2.3939Y1.0754Z-0.0131
X2.405Y1.0791Z-0.0312F19.68
X2.4117Y1.0974Z-0.0349F39.37
G0Z0.3937
X2.6222Y1.075
G1Z-0.0161F19.68
X2.6286Y1.0808Z-0.0459
X2.6343Y1.0836Z-0.0644
X2.638Y1.0852Z-0.0721
X2.6385Y1.0861Z-0.0742
X2.6407Y1.0892Z-0.0784
G0Z0.3937
X2.691Y1.1041
G1Z-0.0774
X2.693Y1.0871Z-0.0146F39.37
G0Z0.3937
X2.647Y0.9968
G1Z-0.0419F19.68
X2.6559Y0.9987Z-0.0658
X2.66Y0.9977Z-0.0779
X2.6604Y0.9978F39.37
G0Z0.3937
X2.6748Y0.8969
G1Z-0.0757F19.68
X2.6713Y0.8913Z-0.0669F39.37
X2.6679Y0.8819Z-0.0588
X2.6673Y0.8751Z-0.0537
X2.6666Y0.8742Z-0.0548F19.68
X2.6637Y0.8667Z-0.0532F39.37
X2.6629Y0.8588Z-0.0554
Z-0.0555
X2.6622Y0.851Z-0.0577
Y0.8509Z-0.0578
X2.6615Y0.8444Z-0.0597
X2.6616Y0.8431Z-0.0593
X2.6607Y0.8379Z-0.0608
X2.6608Y0.8352Z-0.0616
X2.6599Y0.8301Z-0.0631
Y0.8292Z-0.0638F19.68
X2.6595Y0.8232Z-0.0655F39.37
X2.6592Y0.8222Z-0.0658
X2.6588Y0.8154Z-0.0678
X2.6585Y0.8143Z-0.0681
X2.6583Y0.8125Z-0.0677
X2.6591Y0.8075Z-0.0661
X2.6589Y0.8046Z-0.0652
X2.6596Y0.7996Z-0.0635
X2.6594Y0.7967Z-0.0626
X2.6601Y0.7917Z-0.061
X2.6599Y0.7888Z-0.06
X2.6608Y0.7829Z-0.0588
X2.6607Y0.781Z-0.0584
X2.6616Y0.7751Z-0.0571
X2.6614Y0.7731Z-0.0567
X2.6623Y0.7672Z-0.0554
X2.6622Y0.7653Z-0.055
X2.6631Y0.7594Z-0.0537
X2.6629Y0.7574Z-0.0533
X2.6636Y0.7533Z-0.0529
Y0.7496Z-0.0515
X2.6637Y0.7494Z-0.0516
X2.6643Y0.7455Z-0.0512
X2.6644Y0.7417Z-0.0498
X2.6651Y0.7395Z-0.0493
Y0.7374Z-0.0496
X2.6653Y0.7335Z-0.0484
X2.6658Y0.7316Z-0.0476
X2.6659Y0.7296Z-0.0479
X2.666Y0.7252Z-0.0465
X2.6665Y0.7238Z-0.0462
X2.6668Y0.7173Z-0.0448
X2.6673Y0.7159Z-0.0445
X2.6675Y0.7095Z-0.0432
X2.6681Y0.7081Z-0.0428
X2.6683Y0.7016Z-0.0415
X2.6694Y0.6987Z-0.0416
X2.6696Y0.6939Z-0.0419
X2.6707Y0.691Z-0.042
X2.6709Y0.6861Z-0.0423
X2.672Y0.6832Z-0.0424
X2.6722Y0.6783Z-0.0427
X2.6732Y0.6756Z-0.043
X2.6735Y0.6716Z-0.0435
Y0.6706Z-0.0431
X2.6745Y0.6678Z-0.0434
X2.6748Y0.6628Z-0.0435
X2.6758Y0.6603Z-0.0437
X2.6763Y0.6523Z-0.0473
X2.6742Y0.644Z-0.0585F19.68
X2.6741Y0.6437F39.37
X2.6732Y0.6358Z-0.0698F19.68
X2.6719Y0.6318Z-0.0757
G0Z0.3937
X2.4617Y0.8067
G1Z-0.0705
X2.4589Y0.7996Z-0.0554F39.37
X2.4598Y0.7907Z-0.0402
X2.4644Y0.7848Z-0.0248
X2.4659Y0.7846Z-0.0242
G0Z0.3937
X2.4617Y0.8067
G1Z-0.0705F19.68
Z-0.0706
X2.4692Y0.8097Z-0.054F39.37
X2.4784Y0.808Z-0.0425
X2.4795Y0.8071Z-0.0377
G0Z0.3937
X2.4588Y0.8311
G1Z-0.0185F19.68
X2.4538Y0.8249Z-0.0227F39.37
X2.4597Y0.8086Z-0.0623F19.68
X2.4617Y0.8067Z-0.0705
G0Z0.3937
X2.3845Y0.7825
G1Z-0.0787
X2.382Y0.7552F39.37
X2.377Y0.7429
X2.3717Y0.7378
X2.3661Y0.7336
X2.3518Y0.744
X2.3484Y0.7474
X2.3491
X2.3501Y0.7475
X2.3512Y0.7477
X2.3522Y0.7479
X2.3532Y0.7481
X2.3542Y0.7484
X2.359Y0.7501
X2.36Y0.7505
X2.3609Y0.751
X2.3618Y0.7515
X2.3627Y0.752
X2.3636Y0.7526
X2.3644Y0.7532
X2.3653Y0.7539
X2.366Y0.7546
X2.3668Y0.7553
X2.3675Y0.7561
X2.3681Y0.7569
X2.3688Y0.7578
X2.3693Y0.7586
X2.3699Y0.7595
X2.3704Y0.7604
X2.3708Y0.7614
X2.3712Y0.7624
X2.3715Y0.7634
X2.3718Y0.7644
X2.3721Y0.7654
X2.3723Y0.7664
X2.3724Y0.7674
X2.3725Y0.7685
X2.3726Y0.7695
X2.3725Y0.7831
X2.3734Y0.7828
X2.3744Y0.7825
X2.3754Y0.7823
X2.3764Y0.7822
X2.3774Y0.7821
X2.3785Y0.782
X2.3795
X2.3805
X2.3815Y0.7821
X2.3826Y0.7822
X2.3845Y0.7825
Y0.7823Z-0.0767
X2.3851Y0.7832Z-0.0764
X2.3923Y0.7909Z-0.045
X2.394Y0.8062Z-0.0199
G0Z0.3937
X2.3491Y0.7467
G1Z-0.0687F19.68
X2.3384Y0.7493Z-0.057F39.37
X2.3377Z-0.0552
X2.322Y0.7658Z-0.0352
X2.323Y0.77Z-0.0426F19.68
X2.3197Y0.7874Z-0.0309F39.37
X2.3253Y0.7932Z-0.0456F19.68
X2.3269Y0.7986Z-0.0365F39.37
X2.3391Y0.8057Z-0.0351
X2.3404Y0.8054Z-0.0377F19.68
X2.3509Y0.8059Z-0.0372F39.37
X2.3628Y0.7965Z-0.0529F19.68
X2.3629Z-0.0528F39.37
X2.3724Y0.7831Z-0.0703F19.68
G0Z0.3937
X2.3601Y0.7303
G1Z-0.0555
X2.3626Y0.7362Z-0.073
G0Z0.3937
X2.3129Y0.6677
G1Z-0.0787
X2.3213Y0.6599F39.37
X2.322Y0.6593
X2.3228Y0.6587
X2.3237Y0.6581
X2.3245Y0.6576
X2.3254Y0.6571
X2.3263Y0.6566
X2.3272Y0.6562
X2.3283Y0.6558
X2.3276Y0.6559
X2.3265Y0.656
X2.3255
X2.3245
X2.3234Y0.6559
X2.3224Y0.6558
X2.3214Y0.6556
X2.3204Y0.6553
X2.3194Y0.6551
X2.3184Y0.6547
X2.3175Y0.6544
X2.3168Y0.6541
X2.314Y0.6648
X2.3137Y0.6657
X2.3133Y0.6667
X2.3129Y0.6677
G0Z0.3937
X2.3283Y0.6558
G1Z-0.0766F19.68
X2.3375Y0.6537Z-0.0748F39.37
X2.3387Y0.6527Z-0.0766F19.68
X2.3432Y0.6505Z-0.0775F39.37
G0Z0.3937
X2.306Y0.6195
G1Z-0.0588F19.68
X2.3099Y0.6109Z-0.0453F39.37
X2.3135Y0.6072Z-0.0321
X2.3151Z-0.0263
X2.3326Y0.6001Z-0.0217
G0Z0.3937
X2.3103Y0.5833
G1Z-0.0538F19.68
X2.3123Y0.5827Z-0.0488F39.37
X2.329Y0.579Z-0.0491
G0Z0.3937
X2.3103Y0.5833
G1Z-0.0538F19.68
X2.3073Y0.579Z-0.0434F39.37
X2.3059Y0.5741Z-0.0392
X2.3052Y0.5702Z-0.0372
X2.3056Y0.5662Z-0.0387
X2.306Y0.5641Z-0.0382
X2.3054Y0.5613Z-0.0398
X2.3066Y0.5534Z-0.0455F19.68
X2.3114Y0.5435Z-0.0672
X2.3136Y0.5406Z-0.0764
G0Z0.3937
X2.3103Y0.5833
G1Z-0.0538
X2.3094Y0.5868Z-0.0496F39.37
X2.3095Y0.5946Z-0.0484
X2.3135Y0.6072Z-0.0321
G0Z0.3937
X2.306Y0.6195
G1Z-0.0588F19.68
X2.3089Y0.6303Z-0.0501F39.37
X2.3113Y0.6338Z-0.0488
X2.3154Y0.6546Z-0.0744F19.68
X2.3163Y0.6558Z-0.0758
G0Z0.3937
X2.2775Y0.7096
G1Z-0.0527
X2.2854Y0.7007Z-0.0544F39.37
X2.2858Y0.7001Z-0.0535
X2.2917Y0.6959Z-0.0553
X2.2969Y0.6898Z-0.0589
X2.2993Y0.6849Z-0.0605
X2.3014Y0.6798Z-0.0594
X2.3017Y0.6785Z-0.0582
X2.3072Y0.6744Z-0.0701F19.68
X2.3125Y0.6686Z-0.0773
X2.3132Y0.6674Z-0.0775F39.37
G0Z0.3937
X2.2749Y0.7207
G1Z-0.0275F19.68
X2.2782Y0.7187Z-0.025F39.37
X2.2775Y0.7096Z-0.0527F19.68
G0Z0.3937
X2.2374Y0.7287
G1Z-0.018
X2.2384Y0.7255Z-0.0174F39.37
X2.2474Y0.7228Z-0.0138
X2.2476Y0.7115Z-0.0141
X2.2589Y0.7082Z-0.036F19.68
X2.2635Y0.7055Z-0.0352F39.37
X2.2664Y0.7059Z-0.0412F19.68
X2.2775Y0.7096Z-0.0527
G0Z0.3937
X2.2588Y0.484
G1Z-0.0096
X2.2573Y0.499Z-0.0307
X2.2581Y0.5004Z-0.0283F39.37
X2.2557Y0.5117Z-0.0157
X2.2613Y0.5158Z-0.0201F19.68
X2.2617Y0.5268Z-0.0164F39.37
X2.2602Y0.5278Z-0.0208F19.68
X2.2566Y0.5385Z-0.0171F39.37
X2.2469Y0.5411Z-0.006
X2.2495Y0.5637Z-0.0189
X2.2397Y0.5678Z-0.0103
X2.2463Y0.594Z-0.0288F19.68
X2.2471Y0.5943Z-0.0299
X2.2526Y0.6134Z-0.0141F39.37
X2.2732Y0.6143Z-0.0293F19.68
X2.2733Y0.6146Z-0.0306
X2.2811Y0.6223Z-0.0379
X2.306Y0.6195Z-0.0588
G0Z0.3937
X2.2705Y0.4761
G1Z-0.025
X2.2712Y0.4754Z-0.0238F39.37
X2.2869Y0.4707Z-0.052F19.68
X2.2949Y0.4703Z-0.0722
G0Z0.3937
X2.2008Y0.4863
G1Z-0.01
X2.1995Y0.4769Z-0.0266
X2.2021Y0.4694Z-0.0253F39.37
X2.2039Y0.4678Z-0.0256
X2.2057Y0.4626Z-0.0263
X2.2077Y0.4608
X2.2093Y0.4558Z-0.0269
X2.21Y0.4551Z-0.0282F19.68
X2.2132Y0.4499Z-0.0287F39.37
Y0.449Z-0.0288
X2.2169Y0.443Z-0.0296
Y0.4421Z-0.0297
X2.2206Y0.436Z-0.0272
X2.2213Y0.4279Z-0.0086
X2.2311Y0.4269Z-0.0193F19.68
X2.235Y0.4188Z-0.0164F39.37
X2.2407Y0.4178Z-0.0173
X2.2415Y0.4182Z-0.016
G0Z0.3937
X2.2818Y0.371
G1Z-0.0062F19.68
X2.2787Y0.3798Z-0.0261
X2.2792Y0.385Z-0.0297
X2.2803Y0.39Z-0.0299F39.37
X2.2859Y0.3967Z-0.0241
X2.2893Y0.3989Z-0.016
X2.2898Y0.4039Z-0.0223F19.68
X2.291Y0.4071Z-0.0232F39.37
G0Z0.3937
X2.1985Y0.494
G1Z-0.0081F19.68
X2.1838Y0.5037Z-0.0058F39.37
X2.1905Y0.5174Z-0.0233F19.68
X2.1978Y0.5235Z-0.0004F39.37
G0Z0.3937
X2.0554Y0.4667
G1Z-0.0029F19.68
X2.0558Y0.4692Z-0.0118
X2.0602Y0.4757Z-0.0317
X2.0677Y0.4802Z-0.0457
X2.0726Y0.4814Z-0.0577
X2.0735Y0.4818Z-0.0602
X2.0787Y0.4838Z-0.0726
X2.0809Y0.4842Z-0.0738F39.37
G0Z0.3937
X2.1173Y0.2837
G1Z-0.0462F19.68
X2.1201Y0.2819Z-0.0381F39.37
X2.1279Y0.282Z-0.0188
G0Z0.3937
X2.1173Y0.2837
G1Z-0.0462F19.68
X2.1171Y0.2853Z-0.0438F39.37
X2.1195Y0.299Z-0.0297
G0Z0.3937
X2.0991Y0.2447
G1Z-0.0412F19.68
X2.0954Y0.2521Z-0.0359F39.37
X2.0946Y0.2608Z-0.0183
X2.0982Y0.2661Z-0.0116
X2.0973Y0.2683Z-0.0124
X2.0992Y0.2723Z-0.011
X2.1018Y0.276Z-0.0125
X2.1033Y0.2761Z-0.0162F19.68
X2.1087Y0.2811Z-0.0249
X2.1151Y0.2824Z-0.0406
X2.1173Y0.2837Z-0.0462
G0Z0.3937
X2.0991Y0.2447
G1Z-0.0412
X2.1016Y0.2458Z-0.0314F39.37
G0Z0.3937
X2.0729Y0.1942
G1Z-0.0011F19.68
X2.0702Y0.2034Z-0.0221
X2.0722Y0.211Z-0.0229F39.37
X2.0777Y0.2162Z-0.0237
X2.0837Y0.2184Z-0.0118
X2.0832Y0.2222Z-0.0224F19.68
X2.0841Y0.2266Z-0.0302
X2.0851Y0.2305Z-0.0364
X2.0873Y0.2338Z-0.0385F39.37
X2.0898Y0.2373Z-0.0413F19.68
X2.0973Y0.2425Z-0.0493
X2.0978Y0.2427Z-0.0491F39.37
X2.0991Y0.2447Z-0.0412
G0Z0.3937
X2.0745Y0.1626
G1Z-0.0221F19.68
X2.0856Y0.1627Z-0.0021F39.37
G0Z0.3937
X2.0896Y0.1471
G1Z-0.0067F19.68
X2.09Y0.147Z-0.0079
X2.0901Y0.1471Z-0.0084
G0Z0.3937
X2.0838Y0.1301
G1Z-0.0069
X2.0841Y0.13Z-0.0079
X2.0845Z-0.0076F39.37
X2.0846Z-0.0074
G0Z0.3937
X2.0807Y0.1024
G1Z-0.0163F19.68
X2.0811Y0.1106Z-0.0159F39.37
X2.0839Y0.1133Z-0.0056
G0Z0.3937
X2.0597Y0.161
G1Z-0.0223F19.68
X2.0592Y0.1677Z-0.0277
X2.0599Y0.169Z-0.0267F39.37
X2.0596Y0.1758Z-0.0196
X2.0638Y0.1817Z-0.0174
X2.068Y0.1844Z-0.0061
G0Z0.3937
X1.9987Y0.0716
G1Z-0.0077F19.68
X2.0016Y0.0683Z-0.0181
X2.004Y0.0603Z-0.0225F39.37
X2.0025Y0.055Z-0.0135
G0Z0.3937
X1.9662Y0.0332
G1Z-0.0155F19.68
X1.9693Y0.0407Z-0.0258
X1.9683Y0.0489Z-0.0223F39.37
