(Created with grbl post processor 2025/12/06 09:13)
G20
(G-code Generated with Fabex and NC library)
G17G90
S12000M03
G00 Z0.39

G0X0Y0Z0.3937
X0.2071Y0.5282
G1Z-0.1469F19.68
X0.2094Y0.5307F39.37
X0.2159Y0.5366
X0.2164Y0.537
X0.2159Y0.5374
X0.2094Y0.5432
X0.2071Y0.5457
Y0.5282
X0.22Y0.5201
X0.2254Y0.5249
X0.2312Y0.5293
X0.2375Y0.533
X0.244Y0.5361
X0.2464Y0.537
X0.244Y0.5378
X0.2375Y0.5409
X0.2312Y0.5446
X0.2254Y0.549
X0.22Y0.5539
X0.2151Y0.5592
X0.2108Y0.5651
X0.207Y0.5713
X0.2039Y0.5779
X0.2015Y0.5847
X0.1997Y0.5918
X0.1987Y0.599
X0.1983Y0.6054
Y0.9999
X0.1921
Y0.074
X0.1983
Y0.4685
X0.1987Y0.4749
X0.1997Y0.4821
X0.2015Y0.4892
X0.2039Y0.496
X0.207Y0.5026
X0.2108Y0.5088
X0.2151Y0.5147
X0.22Y0.5201
G0Z0.3937
X0.93Y0.537
G1Z-0.1469F19.68
X0.9305Y0.5366F39.37
X0.937Y0.5307
X0.9392Y0.5282
Y0.5457
X0.937Y0.5432
X0.9305Y0.5374
X0.93Y0.537
X0.921Y0.5249
X0.9264Y0.5201
X0.9312Y0.5147
X0.9356Y0.5088
X0.9393Y0.5026
X0.9424Y0.496
X0.9449Y0.4892
X0.9466Y0.4821
X0.9477Y0.4749
X0.948Y0.4685
Y0.074
X0.9542
Y0.9999
X0.948
Y0.6054
X0.9477Y0.599
X0.9466Y0.5918
X0.9449Y0.5847
X0.9424Y0.5779
X0.9393Y0.5713
X0.9356Y0.5651
X0.9312Y0.5592
X0.9264Y0.5539
X0.921Y0.549
X0.9151Y0.5446
X0.9089Y0.5409
X0.9023Y0.5378
X0.9Y0.537
X0.9023Y0.5361
X0.9089Y0.533
X0.9151Y0.5293
X0.921Y0.5249
X0.9114Y0.5133
X0.9157Y0.5094
X0.9196Y0.5051
X0.9231Y0.5005
X0.9261Y0.4955
X0.9285Y0.4903
X0.9305Y0.4848
X0.9319Y0.4792
X0.9328Y0.4735
X0.933Y0.4682
Y0.059
X0.9692
Y1.0149
X0.933
Y0.6058
X0.9328Y0.6005
X0.9319Y0.5947
X0.9305Y0.5891
X0.9285Y0.5836
X0.9261Y0.5784
X0.9231Y0.5734
X0.9196Y0.5688
X0.9157Y0.5645
X0.9114Y0.5606
X0.9068Y0.5571
X0.9018Y0.5541
X0.8966Y0.5517
X0.8911Y0.5497
X0.8855Y0.5483
X0.8798Y0.5475
X0.8744Y0.5472
X0.2719
X0.2666Y0.5475
X0.2609Y0.5483
X0.2552Y0.5497
X0.2498Y0.5517
X0.2445Y0.5541
X0.2396Y0.5571
X0.2349Y0.5606
X0.2306Y0.5645
X0.2267Y0.5688
X0.2233Y0.5734
X0.2203Y0.5784
X0.2178Y0.5836
X0.2159Y0.5891
X0.2144Y0.5947
X0.2136Y0.6005
X0.2133Y0.6058
Y1.0149
X0.1771
Y0.059
X0.2133
Y0.4682
X0.2136Y0.4735
X0.2144Y0.4792
X0.2159Y0.4848
X0.2178Y0.4903
X0.2203Y0.4955
X0.2233Y0.5005
X0.2267Y0.5051
X0.2306Y0.5094
X0.2349Y0.5133
X0.2396Y0.5168
X0.2445Y0.5198
X0.2498Y0.5222
X0.2552Y0.5242
X0.2609Y0.5256
X0.2666Y0.5265
X0.2719Y0.5267
X0.8744
X0.8798Y0.5265
X0.8855Y0.5256
X0.8911Y0.5242
X0.8966Y0.5222
X0.9018Y0.5198
X0.9068Y0.5168
X0.9114Y0.5133
G0Z0.3937
X1.2879Y0.3955
G1Z-0.1469F19.68
X1.2878Y0.3942F39.37
X1.2875Y0.389
X1.2872Y0.3837
X1.2869Y0.3784
X1.2867Y0.373
X1.2866Y0.3676
Y0.3656
X1.2881Y0.3686
X1.2919Y0.3746
X1.2963Y0.3802
X1.2967Y0.3807
X1.2948Y0.3832
X1.291Y0.3893
X1.2879Y0.3955
X1.3016Y0.4017
X1.2996Y0.407
X1.2981Y0.4125
X1.2972Y0.4182
X1.2968Y0.4239
X1.2969Y0.4296
X1.2976Y0.4348
X1.2983Y0.4391
X1.2991Y0.443
X1.2998Y0.4468
X1.3006Y0.4506
X1.3014Y0.4545
X1.3023Y0.4582
X1.3031Y0.462
X1.3041Y0.4657
X1.305Y0.4694
X1.306Y0.4731
X1.307Y0.4768
X1.3081Y0.4804
X1.3092Y0.484
X1.3104Y0.4876
X1.3115Y0.4912
X1.3128Y0.4947
X1.314Y0.4983
X1.3153Y0.5017
X1.3166Y0.5052
X1.318Y0.5087
X1.3194Y0.5121
X1.3209Y0.5155
X1.3224Y0.5188
X1.3239Y0.5222
X1.3254Y0.5255
X1.3271Y0.5288
X1.3287Y0.532
X1.3304Y0.5352
X1.3321Y0.5384
X1.3339Y0.5416
X1.3357Y0.5448
X1.3376Y0.5479
X1.3395Y0.5509
X1.3414Y0.554
X1.3434Y0.557
X1.3454Y0.56
X1.3475Y0.5629
X1.3496Y0.5659
X1.3517Y0.5687
X1.3539Y0.5716
X1.3561Y0.5744
X1.3584Y0.5772
X1.3607Y0.5799
X1.3631Y0.5826
X1.3655Y0.5853
X1.3679Y0.5879
X1.3704Y0.5905
X1.3729Y0.593
X1.3755Y0.5955
X1.3781Y0.5979
X1.3807Y0.6004
X1.3834Y0.6027
X1.3861Y0.6051
X1.3889Y0.6073
X1.3917Y0.6096
X1.3945Y0.6118
X1.3974Y0.6139
X1.4003Y0.616
X1.4032Y0.6181
X1.4062Y0.6201
X1.4092Y0.622
X1.4123Y0.6239
X1.4153Y0.6258
X1.4185Y0.6276
X1.4216Y0.6293
X1.4248Y0.631
X1.428Y0.6327
X1.4312Y0.6343
X1.4345Y0.6359
X1.4378Y0.6374
X1.4411Y0.6388
X1.4444Y0.6402
X1.4478Y0.6416
X1.4512Y0.6429
X1.4546Y0.6441
X1.458Y0.6453
X1.4615Y0.6464
X1.465Y0.6475
X1.4685Y0.6486
X1.472Y0.6496
X1.4756Y0.6505
X1.4792Y0.6514
X1.4828Y0.6522
X1.4864Y0.653
X1.49Y0.6538
X1.4937Y0.6544
X1.4973Y0.6551
X1.501Y0.6557
X1.5048Y0.6562
X1.5085Y0.6567
X1.5122Y0.6571
X1.516Y0.6575
X1.5198Y0.6579
X1.5236Y0.6582
X1.5274Y0.6584
X1.5312Y0.6586
X1.5351Y0.6588
X1.5389Y0.6589
X1.5428Y0.659
X1.5467
X1.5505
X1.5543Y0.6589
X1.558Y0.6588
X1.5618Y0.6586
X1.5655Y0.6583
X1.5692Y0.658
X1.5729Y0.6577
X1.5766Y0.6573
X1.5802Y0.6568
X1.5839Y0.6563
X1.5875Y0.6558
X1.5911Y0.6552
X1.5947Y0.6545
X1.5982Y0.6538
X1.6018Y0.653
X1.6053Y0.6522
X1.6088Y0.6513
X1.6123Y0.6504
X1.6158Y0.6494
X1.6192Y0.6483
X1.6226Y0.6472
X1.626Y0.6461
X1.6294Y0.6448
X1.6327Y0.6436
X1.636Y0.6423
X1.6393Y0.6409
X1.6426Y0.6395
X1.6458Y0.638
X1.649Y0.6365
X1.6521Y0.6349
X1.6553Y0.6332
X1.6584Y0.6315
X1.6615Y0.6298
X1.6645Y0.628
X1.6675Y0.6262
X1.6705Y0.6243
X1.6734Y0.6223
X1.6763Y0.6203
X1.6791Y0.6183
X1.682Y0.6162
X1.6847Y0.614
X1.6875Y0.6119
X1.6902Y0.6096
X1.6929Y0.6073
X1.6955Y0.605
X1.6981Y0.6026
X1.7006Y0.6002
X1.7031Y0.5978
X1.7055Y0.5953
X1.7079Y0.5927
X1.7103Y0.5902
X1.7126Y0.5875
X1.7149Y0.5849
X1.7171Y0.5822
X1.7193Y0.5794
X1.7214Y0.5767
X1.7235Y0.5739
X1.7256Y0.571
X1.7276Y0.5681
X1.7295Y0.5652
X1.7315Y0.5623
X1.7333Y0.5593
X1.7351Y0.5563
X1.7369Y0.5532
X1.7386Y0.5502
X1.7403Y0.5471
X1.7419Y0.5439
X1.7435Y0.5408
X1.7451Y0.5376
X1.7466Y0.5344
X1.748Y0.5311
X1.7494Y0.5279
X1.7508Y0.5246
X1.7521Y0.5213
X1.7533Y0.5179
X1.7546Y0.5146
X1.7557Y0.5112
X1.7569Y0.5078
X1.758Y0.5043
X1.759Y0.5009
X1.76Y0.4974
X1.761Y0.4939
X1.7619Y0.4904
X1.7627Y0.4868
X1.7636Y0.4832
X1.7643Y0.4797
X1.7651Y0.4761
X1.7658Y0.4724
X1.7664Y0.4688
X1.767Y0.4651
X1.7676Y0.4614
X1.7681Y0.4577
X1.7686Y0.454
X1.769Y0.4503
X1.7694Y0.4465
X1.7698Y0.4428
X1.7701Y0.439
X1.7704Y0.4352
X1.7706Y0.4313
X1.7708Y0.4276
Y0.4224
X1.7703Y0.4168
X1.7692Y0.4113
X1.7676Y0.4059
X1.7655Y0.4007
X1.763Y0.3957
X1.7602Y0.3913
X1.7889
X1.7887Y0.3943
X1.788Y0.4008
X1.7874Y0.4071
X1.7866Y0.4134
X1.7859Y0.4196
X1.785Y0.4257
X1.7841Y0.4317
X1.7831Y0.4376
X1.7821Y0.4434
X1.781Y0.4492
X1.7799Y0.4548
X1.7787Y0.4604
X1.7775Y0.4658
X1.7762Y0.4712
X1.7748Y0.4765
X1.7734Y0.4817
X1.772Y0.4868
X1.7705Y0.4918
X1.769Y0.4968
X1.7674Y0.5016
X1.7657Y0.5064
X1.764Y0.5111
X1.7623Y0.5157
X1.7605Y0.5202
X1.7587Y0.5246
X1.7568Y0.5289
X1.7549Y0.5331
X1.753Y0.5373
X1.751Y0.5414
X1.7489Y0.5454
X1.7469Y0.5493
X1.7448Y0.5531
X1.7426Y0.5569
X1.7404Y0.5605
X1.7382Y0.5641
X1.7359Y0.5676
X1.7336Y0.5711
X1.7313Y0.5744
X1.7289Y0.5777
X1.7265Y0.5809
X1.724Y0.5841
X1.7215Y0.5871
X1.719Y0.5901
X1.7165Y0.5931
X1.7139Y0.5959
X1.7113Y0.5987
X1.7086Y0.6014
X1.7059Y0.6041
X1.7032Y0.6066
X1.7004Y0.6092
X1.6976Y0.6116
X1.6947Y0.614
X1.6918Y0.6164
X1.6889Y0.6186
X1.686Y0.6208
X1.683Y0.623
X1.6799Y0.6251
X1.6768Y0.6271
X1.6737Y0.6291
X1.6705Y0.631
X1.6673Y0.6329
X1.6641Y0.6347
X1.6608Y0.6364
X1.6574Y0.6381
X1.654Y0.6398
X1.6506Y0.6414
X1.6471Y0.6429
X1.6436Y0.6444
X1.64Y0.6458
X1.6364Y0.6471
X1.6327Y0.6484
X1.629Y0.6497
X1.6252Y0.6509
X1.6213Y0.652
X1.6174Y0.6531
X1.6135Y0.6541
X1.6095Y0.655
X1.6055Y0.6559
X1.6014Y0.6568
X1.5972Y0.6576
X1.593Y0.6583
X1.5888Y0.659
X1.5845Y0.6596
X1.5801Y0.6601
X1.5757Y0.6606
X1.5712Y0.661
X1.5667Y0.6613
X1.5621Y0.6616
X1.5575Y0.6619
X1.5528Y0.662
X1.548Y0.6621
X1.5433Y0.6622
X1.5383Y0.6621
X1.5334Y0.662
X1.5285Y0.6618
X1.5237Y0.6616
X1.5189Y0.6612
X1.5141Y0.6608
X1.5094Y0.6604
X1.5048Y0.6598
X1.5001Y0.6592
X1.4956Y0.6586
X1.491Y0.6578
X1.4865Y0.657
X1.4821Y0.6562
X1.4777Y0.6552
X1.4733Y0.6542
X1.469Y0.6532
X1.4648Y0.652
X1.4605Y0.6509
X1.4563Y0.6496
X1.4522Y0.6483
X1.4481Y0.6469
X1.444Y0.6455
X1.44Y0.644
X1.4361Y0.6424
X1.4321Y0.6408
X1.4283Y0.6391
X1.4244Y0.6374
X1.4206Y0.6356
X1.4169Y0.6338
X1.4132Y0.6318
X1.4095Y0.6299
X1.4059Y0.6279
X1.4023Y0.6258
X1.3988Y0.6236
X1.3953Y0.6215
X1.3918Y0.6192
X1.3884Y0.6169
X1.385Y0.6145
X1.3817Y0.6121
X1.3784Y0.6096
X1.3752Y0.6071
X1.372Y0.6045
X1.3689Y0.6019
X1.3658Y0.5992
X1.3627Y0.5965
X1.3597Y0.5937
X1.3567Y0.5908
X1.3538Y0.5879
X1.3509Y0.5849
X1.348Y0.5819
X1.3452Y0.5788
X1.3425Y0.5757
X1.3398Y0.5725
X1.3371Y0.5693
X1.3345Y0.566
X1.3319Y0.5626
X1.3294Y0.5592
X1.3269Y0.5557
X1.3245Y0.5522
X1.3221Y0.5487
X1.3198Y0.545
X1.3175Y0.5414
X1.3152Y0.5376
X1.313Y0.5338
X1.3109Y0.53
X1.3088Y0.5261
X1.3068Y0.5221
X1.3048Y0.5181
X1.3028Y0.5141
X1.3009Y0.51
X1.2991Y0.5058
X1.2973Y0.5016
X1.2956Y0.4973
X1.2939Y0.493
X1.2923Y0.4886
X1.2908Y0.4842
X1.2893Y0.4797
X1.2878Y0.4751
X1.2864Y0.4705
X1.2851Y0.4659
X1.2838Y0.4612
X1.2826Y0.4564
X1.2814Y0.4516
X1.2803Y0.4468
X1.2793Y0.4418
X1.2783Y0.4369
X1.2774Y0.4319
X1.2766Y0.4268
X1.2758Y0.4217
X1.2751Y0.4165
X1.2744Y0.4113
X1.2738Y0.406
X1.2733Y0.4007
X1.2729Y0.3954
X1.2725Y0.39
X1.2722Y0.3845
X1.2719Y0.379
X1.2717Y0.3734
X1.2716Y0.3678
Y0.3622
Y0.357
X1.2717Y0.3519
X1.2719Y0.3469
X1.2721Y0.3418
X1.2724Y0.3367
X1.2728Y0.3317
X1.2732Y0.3266
X1.2736Y0.3216
X1.2742Y0.3166
X1.2748Y0.3116
X1.2755Y0.3067
X1.2762Y0.3017
X1.277Y0.2968
X1.2778Y0.2919
X1.2787Y0.287
X1.2797Y0.2822
X1.2807Y0.2774
X1.2818Y0.2726
X1.283Y0.2678
X1.2842Y0.2631
X1.2855Y0.2583
X1.2868Y0.2537
X1.2882Y0.249
X1.2896Y0.2444
X1.2912Y0.2398
X1.2927Y0.2353
X1.2943Y0.2307
X1.296Y0.2263
X1.2978Y0.2218
X1.2996Y0.2174
X1.3014Y0.2131
X1.3033Y0.2087
X1.3053Y0.2044
X1.3073Y0.2002
X1.3094Y0.196
X1.3115Y0.1919
X1.3137Y0.1877
X1.3159Y0.1837
X1.3182Y0.1796
X1.3206Y0.1757
X1.3229Y0.1717
X1.3254Y0.1679
X1.3279Y0.164
X1.3304Y0.1602
X1.3331Y0.1565
X1.3357Y0.1528
X1.3384Y0.1492
X1.3412Y0.1456
X1.344Y0.1421
X1.3468Y0.1386
X1.3497Y0.1352
X1.3527Y0.1318
X1.3557Y0.1285
X1.3588Y0.1253
X1.3619Y0.1221
X1.365Y0.1189
X1.3682Y0.1158
X1.3715Y0.1128
X1.3748Y0.1098
X1.3781Y0.1069
X1.3815Y0.1041
X1.385Y0.1013
X1.3885Y0.0985
X1.392Y0.0959
X1.3956Y0.0933
X1.3993Y0.0907
X1.403Y0.0882
X1.4067Y0.0858
X1.4105Y0.0834
X1.4144Y0.0811
X1.4183Y0.0789
X1.4222Y0.0767
X1.4262Y0.0746
X1.4303Y0.0725
X1.4344Y0.0706
X1.4385Y0.0686
X1.4427Y0.0668
X1.447Y0.065
X1.4513Y0.0633
X1.4557Y0.0617
X1.4602Y0.0601
X1.4646Y0.0586
X1.4692Y0.0572
X1.4738Y0.0558
X1.4785Y0.0545
X1.4832Y0.0533
X1.488Y0.0522
X1.4928Y0.0511
X1.4977Y0.0501
X1.5027Y0.0492
X1.5077Y0.0484
X1.5128Y0.0477
X1.518Y0.047
X1.5232Y0.0465
X1.5285Y0.046
X1.5338Y0.0456
X1.5392Y0.0452
X1.5447Y0.045
X1.5502Y0.0449
X1.556Y0.0448
X1.5624Y0.0449
X1.5689Y0.045
X1.5753Y0.0451
X1.5815Y0.0453
X1.5877Y0.0456
X1.5907Y0.0457
X1.5937Y0.0459
X1.5967Y0.0461
X1.5997Y0.0463
X1.6026Y0.0465
X1.6055Y0.0467
X1.6084Y0.047
X1.6112Y0.0472
X1.6141Y0.0475
X1.6169Y0.0478
X1.6197Y0.0481
X1.6224Y0.0484
X1.6252Y0.0487
X1.6279Y0.049
X1.6306Y0.0494
X1.6333Y0.0497
X1.6359Y0.0501
X1.6386Y0.0505
X1.6412Y0.0509
X1.6438Y0.0514
X1.6464Y0.0518
X1.6489Y0.0522
X1.6515Y0.0527
X1.654Y0.0532
X1.6565Y0.0537
X1.659Y0.0542
X1.6615Y0.0547
X1.664Y0.0552
X1.6664Y0.0558
X1.6688Y0.0563
X1.6713Y0.0569
X1.6737Y0.0575
X1.6761Y0.0581
X1.6784Y0.0587
X1.6808Y0.0593
X1.6832Y0.06
X1.6855Y0.0606
X1.6878Y0.0613
X1.6902Y0.062
X1.6925Y0.0627
X1.6948Y0.0634
X1.6971Y0.0641
X1.6993Y0.0649
X1.7016Y0.0657
X1.7039Y0.0664
X1.7061Y0.0672
X1.7084Y0.068
X1.7106Y0.0688
X1.7129Y0.0697
X1.7151Y0.0705
X1.7174Y0.0714
X1.7196Y0.0723
X1.7218Y0.0732
X1.7262Y0.075
X1.7307Y0.0769
X1.7351Y0.0789
X1.7395Y0.0809
X1.7439Y0.083
X1.7483Y0.0852
X1.7528Y0.0874
X1.7572Y0.0897
X1.7617Y0.0921
X1.7661Y0.0945
X1.7706Y0.097
X1.7751Y0.0996
X1.7787Y0.1018
Y0.1042
X1.7736Y0.1019
X1.7681Y0.0995
X1.7626Y0.0971
X1.7571Y0.0949
X1.7516Y0.0926
X1.7461Y0.0905
X1.7405Y0.0884
X1.735Y0.0864
X1.7322Y0.0854
X1.7294Y0.0844
X1.7266Y0.0835
X1.7238Y0.0826
X1.721Y0.0817
X1.7182Y0.0808
X1.7153Y0.0799
X1.7125Y0.079
X1.7097Y0.0782
X1.7069Y0.0774
X1.704Y0.0766
X1.7012Y0.0758
X1.6984Y0.075
X1.6955Y0.0742
X1.6927Y0.0735
X1.6898Y0.0728
X1.687Y0.0721
X1.6841Y0.0714
X1.6812Y0.0708
X1.6783Y0.0701
X1.6755Y0.0695
X1.6726Y0.0689
X1.6697Y0.0684
X1.6668Y0.0678
X1.6639Y0.0673
X1.661Y0.0667
X1.6581Y0.0663
X1.6552Y0.0658
X1.6523Y0.0653
X1.6494Y0.0649
X1.6465Y0.0645
X1.6436Y0.0641
X1.6406Y0.0637
X1.6377Y0.0633
X1.6348Y0.063
X1.6318Y0.0627
X1.6289Y0.0624
X1.6259Y0.0621
X1.623Y0.0619
X1.62Y0.0617
X1.6171Y0.0615
X1.6141Y0.0613
X1.6112Y0.0611
X1.6082Y0.061
X1.6052Y0.0608
X1.6022
X1.5993Y0.0607
X1.5963Y0.0606
X1.5933
X1.5902
X1.5855
X1.5809Y0.0607
X1.5762Y0.0608
X1.5716Y0.061
X1.567Y0.0612
X1.5625Y0.0615
X1.5579Y0.0619
X1.5534Y0.0622
X1.5489Y0.0627
X1.5444Y0.0632
X1.54Y0.0637
X1.5355Y0.0643
X1.5311Y0.065
X1.5267Y0.0657
X1.5224Y0.0665
X1.5181Y0.0673
X1.5138Y0.0682
X1.5095Y0.0691
X1.5052Y0.0701
X1.501Y0.0711
X1.4968Y0.0722
X1.4926Y0.0734
X1.4885Y0.0746
X1.4844Y0.0759
X1.4803Y0.0772
X1.4762Y0.0786
X1.4722Y0.0801
X1.4682Y0.0816
X1.4642Y0.0832
X1.4603Y0.0848
X1.4564Y0.0865
X1.4525Y0.0882
X1.4487Y0.09
X1.4449Y0.0919
X1.4411Y0.0938
X1.4374Y0.0958
X1.4337Y0.0979
X1.43Y0.1
X1.4264Y0.1021
X1.4228Y0.1044
X1.4193Y0.1066
X1.4158Y0.109
X1.4123Y0.1114
X1.4089Y0.1138
X1.4056Y0.1163
X1.4022Y0.1189
X1.3989Y0.1215
X1.3957Y0.1242
X1.3925Y0.1269
X1.3894Y0.1297
X1.3863Y0.1325
X1.3832Y0.1354
X1.3802Y0.1383
X1.3773Y0.1413
X1.3744Y0.1444
X1.3715Y0.1474
X1.3687Y0.1506
X1.3659Y0.1538
X1.3632Y0.157
X1.3606Y0.1603
X1.358Y0.1636
X1.3554Y0.167
X1.3529Y0.1704
X1.3504Y0.1738
X1.348Y0.1773
X1.3457Y0.1809
X1.3434Y0.1845
X1.3411Y0.1881
X1.3389Y0.1918
X1.3368Y0.1955
X1.3347Y0.1992
X1.3326Y0.203
X1.3306Y0.2068
X1.3287Y0.2107
X1.3268Y0.2146
X1.3249Y0.2185
X1.3231Y0.2225
X1.3213Y0.2265
X1.3196Y0.2306
X1.318Y0.2346
X1.3164Y0.2387
X1.3148Y0.2429
X1.3133Y0.2471
X1.3118Y0.2513
X1.3104Y0.2555
X1.309Y0.2598
X1.3077Y0.2642
X1.3064Y0.2685
X1.3051Y0.2729
X1.3039Y0.2773
X1.3028Y0.2818
X1.3017Y0.2862
X1.3006Y0.2908
X1.2996Y0.2953
X1.2986Y0.2999
X1.2977Y0.3045
X1.2968Y0.3092
X1.2959Y0.3138
X1.2951Y0.3185
X1.2943Y0.3232
X1.2938Y0.3284
X1.2937Y0.3341
X1.2941Y0.3398
X1.2951Y0.3454
X1.2966Y0.3508
X1.2987Y0.3561
X1.3012Y0.3612
X1.3042Y0.366
X1.3077Y0.3705
X1.3116Y0.3747
X1.3159Y0.3784
X1.3179Y0.3799
X1.3145Y0.3829
X1.3106Y0.3871
X1.3072Y0.3917
X1.3042Y0.3965
X1.3016Y0.4017
G0Z0.3937
X2.0637Y0.059
G1Z-0.1469F19.68
X2.0858F39.37
Y1.0149
X2.0637
Y0.059
G0Z0.3937
X2.4086
G1Z-0.1469F19.68
X2.4307F39.37
Y1.0149
X2.4086
Y0.059
G0Z0.3937
X2.7392Y0.2142
G1Z-0.1469F19.68
X2.7413Y0.2099F39.37
X2.7435Y0.2056
X2.7457Y0.2013
X2.748Y0.1971
X2.7503Y0.1929
X2.7527Y0.1888
X2.7552Y0.1848
X2.7577Y0.1808
X2.7603Y0.1768
X2.763Y0.1729
X2.7657Y0.169
X2.7684Y0.1652
X2.7712Y0.1615
X2.7741Y0.1578
X2.777Y0.1541
X2.78Y0.1505
X2.7831Y0.147
X2.7862Y0.1435
X2.7893Y0.14
X2.7925Y0.1367
X2.7958Y0.1333
X2.7991Y0.13
X2.8025Y0.1268
X2.8059Y0.1236
X2.8093Y0.1205
X2.8129Y0.1175
X2.8164Y0.1145
X2.8201Y0.1115
X2.8238Y0.1086
X2.8275Y0.1058
X2.8313Y0.103
X2.8351Y0.1003
X2.839Y0.0976
X2.8429Y0.095
X2.8469Y0.0925
X2.851Y0.09
X2.855Y0.0876
X2.8592Y0.0852
X2.8634Y0.0829
X2.8676Y0.0807
X2.8719Y0.0785
X2.8762Y0.0764
X2.8806Y0.0743
X2.885Y0.0724
X2.8895Y0.0704
X2.894Y0.0686
X2.8986Y0.0668
X2.9032Y0.065
X2.9079Y0.0634
X2.9126Y0.0618
X2.9174Y0.0603
X2.9222Y0.0588
X2.927Y0.0574
X2.9319Y0.0561
X2.9369Y0.0548
X2.9418Y0.0536
X2.9469Y0.0525
X2.952Y0.0515
X2.9571Y0.0505
X2.9623Y0.0496
X2.9675Y0.0488
X2.9727Y0.0481
X2.978Y0.0474
X2.9834Y0.0468
X2.9888Y0.0463
X2.9942Y0.0458
X2.9997Y0.0455
X3.0052Y0.0452
X3.0108Y0.045
X3.0164Y0.0449
X3.022Y0.0448
X3.028Y0.0449
X3.0339Y0.045
X3.0398Y0.0452
X3.0457Y0.0455
X3.0515Y0.0458
X3.0572Y0.0463
X3.0629Y0.0468
X3.0685Y0.0473
X3.0741Y0.048
X3.0797Y0.0487
X3.0852Y0.0495
X3.0906Y0.0504
X3.096Y0.0514
X3.1013Y0.0524
X3.1066Y0.0535
X3.1118Y0.0546
X3.117Y0.0559
X3.1221Y0.0572
X3.1272Y0.0585
X3.1322Y0.0599
X3.1372Y0.0614
X3.1421Y0.063
X3.1469Y0.0646
X3.1517Y0.0663
X3.1565Y0.0681
X3.1612Y0.0699
X3.1658Y0.0718
X3.1704Y0.0738
X3.1749Y0.0758
X3.1794Y0.0778
X3.1838Y0.08
X3.1882Y0.0822
X3.1925Y0.0844
X3.1967Y0.0867
X3.2009Y0.0891
X3.205Y0.0915
X3.2091Y0.094
X3.2132Y0.0966
X3.2171Y0.0992
X3.221Y0.1019
X3.2249Y0.1046
X3.2287Y0.1074
X3.2325Y0.1102
X3.2361Y0.1131
X3.2398Y0.116
X3.2434Y0.119
X3.2469Y0.1221
X3.2504Y0.1252
X3.2538Y0.1284
X3.2571Y0.1316
X3.2604Y0.1348
X3.2636Y0.1382
X3.2668Y0.1416
X3.27Y0.145
X3.273Y0.1485
X3.276Y0.152
X3.279Y0.1556
X3.2819Y0.1593
X3.2847Y0.163
X3.2875Y0.1667
X3.2902Y0.1706
X3.2929Y0.1744
X3.2955Y0.1783
X3.298Y0.1823
X3.3005Y0.1863
X3.3029Y0.1904
X3.3053Y0.1945
X3.3076Y0.1987
X3.3098Y0.203
X3.312Y0.2073
X3.3141Y0.2116
X3.3161Y0.216
X3.3181Y0.2205
X3.32Y0.225
X3.3219Y0.2295
X3.3237Y0.2341
X3.3254Y0.2388
X3.3271Y0.2435
X3.3287Y0.2483
X3.3302Y0.2531
X3.3317Y0.258
X3.3331Y0.2629
X3.3344Y0.2679
X3.3356Y0.2729
X3.3368Y0.278
X3.3379Y0.2832
X3.339Y0.2884
X3.3399Y0.2936
X3.3408Y0.2989
X3.3416Y0.3043
X3.3424Y0.3097
X3.3431Y0.3151
X3.3437Y0.3206
X3.3442Y0.3262
X3.3446Y0.3318
X3.345Y0.3374
X3.3453Y0.3431
X3.3455Y0.3489
X3.3456Y0.3547
Y0.3606
Y0.3659
X3.3455Y0.3713
X3.3453Y0.3765
X3.345Y0.3818
X3.3446Y0.387
X3.3442Y0.3921
X3.3436Y0.3972
X3.343Y0.4023
X3.3424Y0.4074
X3.3416Y0.4123
X3.3408Y0.4173
X3.3399Y0.4222
X3.3389Y0.4271
X3.3379Y0.4319
X3.3368Y0.4367
X3.3356Y0.4414
X3.3343Y0.4461
X3.333Y0.4508
X3.3316Y0.4554
X3.3301Y0.46
X3.3286Y0.4645
X3.327Y0.469
X3.3253Y0.4734
X3.3236Y0.4778
X3.3217Y0.4822
X3.3199Y0.4865
X3.3179Y0.4908
X3.3159Y0.495
X3.3139Y0.4992
X3.3117Y0.5033
X3.3095Y0.5074
X3.3073Y0.5115
X3.3049Y0.5155
X3.3026Y0.5194
X3.3001Y0.5234
X3.2976Y0.5272
X3.295Y0.531
X3.2924Y0.5348
X3.2897Y0.5386
X3.2869Y0.5422
X3.2841Y0.5459
X3.2812Y0.5495
X3.2783Y0.553
X3.2753Y0.5565
X3.2723Y0.5599
X3.2691Y0.5633
X3.266Y0.5667
X3.2627Y0.57
X3.2595Y0.5732
X3.2561Y0.5765
X3.2527Y0.5796
X3.2492Y0.5827
X3.2457Y0.5858
X3.2422Y0.5888
X3.2385Y0.5917
X3.2349Y0.5946
X3.2311Y0.5974
X3.2273Y0.6002
X3.2235Y0.603
X3.2196Y0.6057
X3.2156Y0.6083
X3.2116Y0.6109
X3.2075Y0.6134
X3.2034Y0.6158
X3.1992Y0.6182
X3.195Y0.6206
X3.1907Y0.6229
X3.1864Y0.6251
X3.182Y0.6273
X3.1776Y0.6294
X3.1731Y0.6314
X3.1686Y0.6334
X3.164Y0.6354
X3.1593Y0.6372
X3.1546Y0.6391
X3.1499Y0.6408
X3.1451Y0.6425
X3.1403Y0.6441
X3.1354Y0.6457
X3.1304Y0.6471
X3.1255Y0.6486
X3.1204Y0.6499
X3.1153Y0.6512
X3.1102Y0.6524
X3.105Y0.6536
X3.0998Y0.6547
X3.0945Y0.6557
X3.0892Y0.6566
X3.0839Y0.6575
X3.0785Y0.6583
X3.073Y0.659
X3.0675Y0.6597
X3.062Y0.6602
X3.0564Y0.6607
X3.0508Y0.6612
X3.0451Y0.6615
X3.0394Y0.6618
X3.0336Y0.662
X3.0278Y0.6621
X3.022Y0.6622
X3.0166Y0.6621
X3.0112Y0.662
X3.0058Y0.6618
X3.0005Y0.6615
X2.9951Y0.6612
X2.9899Y0.6607
X2.9846Y0.6602
X2.9794Y0.6596
X2.9743Y0.6589
X2.9691Y0.6582
X2.964Y0.6574
X2.959Y0.6565
X2.9539Y0.6555
X2.9489Y0.6545
X2.944Y0.6534
X2.9391Y0.6522
X2.9342Y0.651
X2.9294Y0.6497
X2.9246Y0.6483
X2.9198Y0.6468
X2.9151Y0.6453
X2.9104Y0.6437
X2.9057Y0.6421
X2.9011Y0.6404
X2.8966Y0.6386
X2.8921Y0.6367
X2.8876Y0.6348
X2.8831Y0.6329
X2.8787Y0.6308
X2.8744Y0.6287
X2.8701Y0.6266
X2.8658Y0.6243
X2.8616Y0.6221
X2.8574Y0.6197
X2.8533Y0.6173
X2.8492Y0.6149
X2.8452Y0.6123
X2.8412Y0.6098
X2.8373Y0.6071
X2.8334Y0.6045
X2.8296Y0.6017
X2.8258Y0.5989
X2.822Y0.5961
X2.8184Y0.5932
X2.8147Y0.5902
X2.8111Y0.5872
X2.8076Y0.5841
X2.8041Y0.581
X2.8007Y0.5779
X2.7973Y0.5746
X2.794Y0.5714
X2.7907Y0.5681
X2.7875Y0.5647
X2.7844Y0.5613
X2.7813Y0.5578
X2.7782Y0.5543
X2.7752Y0.5508
X2.7723Y0.5472
X2.7694Y0.5435
X2.7666Y0.5398
X2.7638Y0.5361
X2.7612Y0.5323
X2.7585Y0.5285
X2.7559Y0.5246
X2.7534Y0.5207
X2.751Y0.5168
X2.7486Y0.5128
X2.7462Y0.5088
X2.744Y0.5047
X2.7418Y0.5006
X2.7396Y0.4964
X2.7376Y0.4922
X2.7355Y0.488
X2.7336Y0.4837
X2.7317Y0.4794
X2.7299Y0.4751
X2.7282Y0.4707
X2.7265Y0.4663
X2.7249Y0.4619
X2.7233Y0.4574
X2.7219Y0.4528
X2.7205Y0.4483
X2.7191Y0.4437
X2.7179Y0.4391
X2.7167Y0.4344
X2.7156Y0.4297
X2.7145Y0.425
X2.7135Y0.4202
X2.7126Y0.4154
X2.7118Y0.4106
X2.7111Y0.4057
X2.7104Y0.4008
X2.7098Y0.3959
X2.7093Y0.391
X2.7088Y0.386
X2.7085Y0.3809
X2.7082Y0.3759
X2.708Y0.3708
X2.7079Y0.3657
X2.7078Y0.3606
X2.7079Y0.3549
X2.708Y0.3493
X2.7082Y0.3437
X2.7085Y0.3382
X2.7088Y0.3327
X2.7093Y0.3273
X2.7098Y0.3219
X2.7104Y0.3165
X2.711Y0.3112
X2.7118Y0.3059
X2.7126Y0.3007
X2.7135Y0.2955
X2.7144Y0.2904
X2.7155Y0.2853
X2.7166Y0.2802
X2.7177Y0.2752
X2.719Y0.2702
X2.7203Y0.2653
X2.7217Y0.2604
X2.7231Y0.2556
X2.7247Y0.2508
X2.7263Y0.2461
X2.7279Y0.2414
X2.7296Y0.2367
X2.7314Y0.2321
X2.7333Y0.2276
X2.7352Y0.2231
X2.7371Y0.2186
X2.7392Y0.2142
X2.7598Y0.2215
X2.758Y0.2258
X2.7563Y0.2302
X2.7546Y0.2346
X2.753Y0.2391
X2.7514Y0.2436
X2.7499Y0.2481
X2.7485Y0.2527
X2.7471Y0.2573
X2.7458Y0.2619
X2.7446Y0.2666
X2.7434Y0.2713
X2.7423Y0.276
X2.7412Y0.2808
X2.7402Y0.2856
X2.7393Y0.2904
X2.7384Y0.2952
X2.7376Y0.3001
X2.7369Y0.305
X2.7362Y0.31
X2.7356Y0.3149
X2.7351Y0.3199
X2.7346Y0.325
X2.7342Y0.33
X2.7338Y0.3351
X2.7335Y0.3402
X2.7333Y0.3453
X2.7331Y0.3505
Y0.3557
X2.733Y0.3609
X2.7331Y0.3658
X2.7332Y0.3707
X2.7333Y0.3756
X2.7336Y0.3804
X2.7339Y0.3852
X2.7343Y0.39
X2.7348Y0.3948
X2.7353Y0.3995
X2.7359Y0.4042
X2.7365Y0.4089
X2.7372Y0.4136
X2.738Y0.4183
X2.7389Y0.4229
X2.7398Y0.4275
X2.7408Y0.4321
X2.7419Y0.4366
X2.743Y0.4412
X2.7442Y0.4456
X2.7454Y0.4501
X2.7467Y0.4545
X2.7481Y0.4589
X2.7496Y0.4633
X2.7511Y0.4676
X2.7526Y0.472
X2.7543Y0.4762
X2.756Y0.4805
X2.7577Y0.4847
X2.7596Y0.4888
X2.7615Y0.493
X2.7634Y0.4971
X2.7654Y0.5011
X2.7675Y0.5051
X2.7696Y0.5091
X2.7718Y0.513
X2.774Y0.5169
X2.7764Y0.5208
X2.7787Y0.5246
X2.7811Y0.5284
X2.7836Y0.5321
X2.7862Y0.5358
X2.7888Y0.5394
X2.7914Y0.543
X2.7941Y0.5466
X2.7969Y0.5501
X2.7997Y0.5536
X2.8026Y0.557
X2.8055Y0.5603
X2.8085Y0.5637
X2.8115Y0.5669
X2.8146Y0.5701
X2.8177Y0.5733
X2.8209Y0.5764
X2.8241Y0.5795
X2.8274Y0.5825
X2.8307Y0.5854
X2.8341Y0.5883
X2.8375Y0.5912
X2.841Y0.594
X2.8446Y0.5967
X2.8481Y0.5994
X2.8517Y0.602
X2.8554Y0.6045
X2.8591Y0.607
X2.8628Y0.6095
X2.8666Y0.6119
X2.8705Y0.6142
X2.8743Y0.6165
X2.8783Y0.6187
X2.8822Y0.6208
X2.8862Y0.6229
X2.8902Y0.6249
X2.8943Y0.6269
X2.8984Y0.6287
X2.9026Y0.6306
X2.9067Y0.6323
X2.911Y0.634
X2.9152Y0.6357
X2.9195Y0.6372
X2.9238Y0.6387
X2.9282Y0.6402
X2.9325Y0.6415
X2.9369Y0.6428
X2.9414Y0.644
X2.9459Y0.6452
X2.9504Y0.6463
X2.9549Y0.6473
X2.9594Y0.6483
X2.964Y0.6492
X2.9686Y0.65
X2.9733Y0.6507
X2.9779Y0.6514
X2.9826Y0.652
X2.9873Y0.6525
X2.992Y0.653
X2.9968Y0.6534
X3.0015Y0.6537
X3.0063Y0.654
X3.0111Y0.6541
X3.0159Y0.6542
X3.0208Y0.6543
X3.0258Y0.6542
X3.0308Y0.6541
X3.0358Y0.6539
X3.0408Y0.6537
X3.0457Y0.6534
X3.0507Y0.653
X3.0556Y0.6525
X3.0604Y0.652
X3.0653Y0.6514
X3.0701Y0.6507
X3.0749Y0.6499
X3.0797Y0.6491
X3.0845Y0.6483
X3.0892Y0.6473
X3.0939Y0.6463
X3.0985Y0.6452
X3.1032Y0.644
X3.1078Y0.6428
X3.1124Y0.6415
X3.1169Y0.6402
X3.1214Y0.6388
X3.1259Y0.6373
X3.1303Y0.6357
X3.1348Y0.6341
X3.1391Y0.6324
X3.1435Y0.6307
X3.1478Y0.6289
X3.152Y0.627
X3.1563Y0.625
X3.1605Y0.623
X3.1646Y0.621
X3.1687Y0.6188
X3.1728Y0.6166
X3.1768Y0.6144
X3.1808Y0.6121
X3.1848Y0.6097
X3.1887Y0.6073
X3.1925Y0.6048
X3.1963Y0.6022
X3.2001Y0.5996
X3.2038Y0.5969
X3.2075Y0.5942
X3.2111Y0.5914
X3.2147Y0.5886
X3.2182Y0.5857
X3.2217Y0.5827
X3.2251Y0.5797
X3.2285Y0.5766
X3.2318Y0.5735
X3.2351Y0.5704
X3.2383Y0.5671
X3.2415Y0.5639
X3.2446Y0.5605
X3.2477Y0.5572
X3.2507Y0.5537
X3.2536Y0.5502
X3.2565Y0.5467
X3.2594Y0.5431
X3.2621Y0.5395
X3.2648Y0.5358
X3.2675Y0.5321
X3.2701Y0.5284
X3.2726Y0.5246
X3.2751Y0.5207
X3.2775Y0.5168
X3.2799Y0.5129
X3.2822Y0.5089
X3.2844Y0.5049
X3.2866Y0.5008
X3.2887Y0.4967
X3.2907Y0.4926
X3.2927Y0.4884
X3.2946Y0.4842
X3.2965Y0.4799
X3.2983Y0.4756
X3.3Y0.4713
X3.3016Y0.4669
X3.3032Y0.4625
X3.3047Y0.4581
X3.3062Y0.4537
X3.3076Y0.4492
X3.3089Y0.4446
X3.3101Y0.4401
X3.3113Y0.4355
X3.3124Y0.4309
X3.3134Y0.4262
X3.3144Y0.4216
X3.3153Y0.4169
X3.3161Y0.4121
X3.3168Y0.4074
X3.3175Y0.4026
X3.3181Y0.3978
X3.3187Y0.393
X3.3191Y0.3882
X3.3195Y0.3833
X3.3199Y0.3784
X3.3201Y0.3735
X3.3203Y0.3686
X3.3204Y0.3636
Y0.3587
Y0.3534
X3.3203Y0.3482
X3.3201Y0.3429
X3.3199Y0.3377
X3.3196Y0.3325
X3.3192Y0.3274
X3.3188Y0.3222
X3.3183Y0.3172
X3.3178Y0.3121
X3.3171Y0.3071
X3.3165Y0.3021
X3.3157Y0.2971
X3.3149Y0.2921
X3.314Y0.2872
X3.3131Y0.2823
X3.312Y0.2775
X3.311Y0.2727
X3.3098Y0.2679
X3.3086Y0.2631
X3.3073Y0.2584
X3.306Y0.2538
X3.3046Y0.2491
X3.3031Y0.2445
X3.3015Y0.2399
X3.2999Y0.2354
X3.2982Y0.2309
X3.2965Y0.2264
X3.2947Y0.222
X3.2928Y0.2177
X3.2908Y0.2133
X3.2888Y0.209
X3.2868Y0.2048
X3.2846Y0.2006
X3.2824Y0.1964
X3.2801Y0.1923
X3.2778Y0.1882
X3.2754Y0.1842
X3.2729Y0.1802
X3.2704Y0.1763
X3.2678Y0.1724
X3.2651Y0.1686
X3.2624Y0.1648
X3.2596Y0.1611
X3.2567Y0.1574
X3.2538Y0.1538
X3.2508Y0.1502
X3.2478Y0.1467
X3.2447Y0.1433
X3.2416Y0.1399
X3.2383Y0.1365
X3.2351Y0.1332
X3.2317Y0.13
X3.2284Y0.1269
X3.2249Y0.1238
X3.2214Y0.1207
X3.2179Y0.1177
X3.2142Y0.1148
X3.2106Y0.112
X3.2069Y0.1092
X3.2031Y0.1065
X3.1993Y0.1038
X3.1954Y0.1012
X3.1915Y0.0987
X3.1876Y0.0962
X3.1836Y0.0938
X3.1795Y0.0915
X3.1754Y0.0892
X3.1713Y0.087
X3.1671Y0.0849
X3.1629Y0.0829
X3.1586Y0.0809
X3.1543Y0.0789
X3.15Y0.0771
X3.1456Y0.0753
X3.1412Y0.0736
X3.1367Y0.0719
X3.1322Y0.0704
X3.1277Y0.0688
X3.1231Y0.0674
X3.1185Y0.066
X3.1139Y0.0647
X3.1092Y0.0635
X3.1045Y0.0623
X3.0998Y0.0612
X3.095Y0.0602
X3.0902Y0.0592
X3.0854Y0.0583
X3.0805Y0.0575
X3.0756Y0.0567
X3.0707Y0.056
X3.0658Y0.0554
X3.0608Y0.0548
X3.0558Y0.0543
X3.0508Y0.0539
X3.0458Y0.0535
X3.0407Y0.0532
X3.0356Y0.053
X3.0304Y0.0528
X3.0253Y0.0527
X3.0201
X3.0151
X3.0102Y0.0529
X3.0054Y0.053
X3.0005Y0.0533
X2.9957Y0.0536
X2.9908Y0.054
X2.986Y0.0545
X2.9813Y0.0551
X2.9765Y0.0557
X2.9718Y0.0564
X2.9671Y0.0571
X2.9624Y0.058
X2.9578Y0.0589
X2.9532Y0.0599
X2.9486Y0.0609
X2.944Y0.062
X2.9395Y0.0632
X2.935Y0.0645
X2.9305Y0.0658
X2.9261Y0.0672
X2.9217Y0.0687
X2.9173Y0.0702
X2.913Y0.0719
X2.9087Y0.0735
X2.9044Y0.0753
X2.9002Y0.0771
X2.896Y0.079
X2.8918Y0.081
X2.8877Y0.083
X2.8836Y0.0851
X2.8796Y0.0873
X2.8756Y0.0895
X2.8717Y0.0918
X2.8677Y0.0941
X2.8639Y0.0966
X2.8601Y0.0991
X2.8563Y0.1016
X2.8526Y0.1042
X2.8489Y0.1069
X2.8453Y0.1097
X2.8417Y0.1125
X2.8382Y0.1153
X2.8347Y0.1182
X2.8313Y0.1212
X2.8279Y0.1243
X2.8246Y0.1274
X2.8213Y0.1305
X2.8181Y0.1337
X2.8149Y0.137
X2.8118Y0.1403
X2.8087Y0.1437
X2.8057Y0.1471
X2.8028Y0.1506
X2.7999Y0.1542
X2.7971Y0.1577
X2.7943Y0.1614
X2.7916Y0.1651
X2.7889Y0.1688
X2.7863Y0.1726
X2.7838Y0.1764
X2.7813Y0.1803
X2.7789Y0.1842
X2.7765Y0.1882
X2.7742Y0.1922
X2.772Y0.1963
X2.7698Y0.2004
X2.7677Y0.2045
X2.7656Y0.2087
X2.7636Y0.2129
X2.7617Y0.2172
X2.7598Y0.2215
G0Z0.3937
 
