(Created with grbl post processor 2025/12/09 12:33)
G21
(G-code Generated with Fabex and NC library)
G17G90
S12000M03
G00 Z10.0

G0X0Y0Z10
X4.499Y1.5
G1Z0F500
X5.419F1000
Y13.38
X23.699
Y1.5
X24.62
Y25.78
X23.699
Y13.9
X5.419
Y25.78
X4.499
Y1.5
G0Z10
X32.505Y7.168
G1Z0F500
X32.532Y7.046F1000
X32.559Y6.924
X32.589Y6.803
X32.619Y6.682
X32.652Y6.563
X32.686Y6.444
X32.721Y6.326
X32.758Y6.208
X32.796Y6.092
X32.836Y5.976
X32.877Y5.862
X32.92Y5.748
X32.964Y5.635
X33.01Y5.523
X33.057Y5.412
X33.105Y5.303
X33.155Y5.194
X33.206Y5.086
X33.259Y4.979
X33.313Y4.874
X33.368Y4.769
X33.425Y4.666
X33.483Y4.564
X33.543Y4.463
X33.604Y4.363
X33.666Y4.264
X33.729Y4.167
X33.794Y4.071
X33.86Y3.976
X33.928Y3.883
X33.996Y3.79
X34.066Y3.7
X34.138Y3.61
X34.21Y3.522
X34.284Y3.435
X34.359Y3.349
X34.436Y3.265
X34.513Y3.183
X34.592Y3.101
X34.672Y3.021
X34.754Y2.943
X34.836Y2.866
X34.92Y2.791
X35.005Y2.717
X35.092Y2.644
X35.179Y2.573
X35.268Y2.504
X35.358Y2.436
X35.449Y2.369
X35.542Y2.305
X35.636Y2.241
X35.731Y2.18
X35.828Y2.119
X35.925Y2.061
X36.024Y2.004
X36.125Y1.949
X36.226Y1.895
X36.329Y1.843
X36.434Y1.793
X36.539Y1.744
X36.646Y1.697
X36.755Y1.652
X36.865Y1.609
X36.976Y1.567
X37.089Y1.527
X37.203Y1.489
X37.318Y1.453
X37.435Y1.418
X37.554Y1.386
X37.674Y1.355
X37.795Y1.326
X37.918Y1.299
X38.043Y1.274
X38.169Y1.252
X38.297Y1.231
X38.426Y1.212
X38.557Y1.195
X38.69Y1.181
X38.824Y1.168
X38.96Y1.158
X39.097Y1.15
X39.236Y1.144
X39.377Y1.141
X39.524Y1.14
X39.687
X39.852Y1.143
X40.013Y1.146
X40.172Y1.152
X40.328Y1.158
X40.405Y1.162
X40.482Y1.166
X40.557Y1.171
X40.632Y1.176
X40.707Y1.181
X40.781Y1.187
X40.854Y1.193
X40.926Y1.2
X40.998Y1.207
X41.07Y1.214
X41.141Y1.221
X41.211Y1.229
X41.28Y1.237
X41.35Y1.246
X41.418Y1.255
X41.486Y1.264
X41.554Y1.274
X41.621Y1.284
X41.687Y1.294
X41.753Y1.305
X41.819Y1.316
X41.884Y1.328
X41.949Y1.339
X42.013Y1.352
X42.077Y1.364
X42.14Y1.377
X42.203Y1.39
X42.265Y1.404
X42.328Y1.417
X42.389Y1.432
X42.451Y1.446
X42.512Y1.461
X42.573Y1.476
X42.633Y1.492
X42.693Y1.508
X42.753Y1.524
X42.812Y1.541
X42.872Y1.558
X42.931Y1.576
X42.989Y1.593
X43.048Y1.612
X43.106Y1.63
X43.164Y1.649
X43.222Y1.668
X43.279Y1.688
X43.337Y1.708
X43.394Y1.728
X43.451Y1.749
X43.508Y1.77
X43.565Y1.792
X43.622Y1.814
X43.678Y1.836
X43.735Y1.859
X43.791Y1.882
X43.904Y1.929
X44.016Y1.979
X44.128Y2.029
X44.24Y2.082
X44.353Y2.136
X44.465Y2.192
X44.577Y2.249
X44.69Y2.309
X44.803Y2.37
X44.917Y2.433
X45.031Y2.498
X45.145Y2.565
X45.18Y2.586
Y2.647
X45.053Y2.59
X44.984Y2.559
X44.914Y2.529
X44.845Y2.499
X44.775Y2.469
X44.705Y2.44
X44.635Y2.411
X44.565Y2.383
X44.495Y2.355
X44.425Y2.328
X44.355Y2.3
X44.284Y2.274
X44.214Y2.247
X44.143Y2.222
X44.072Y2.196
X44.001Y2.171
X43.931Y2.147
X43.859Y2.123
X43.788Y2.099
X43.717Y2.076
X43.646Y2.053
X43.574Y2.031
X43.503Y2.009
X43.431Y1.988
X43.359Y1.967
X43.287Y1.946
X43.215Y1.926
X43.143Y1.907
X43.071Y1.888
X42.998Y1.869
X42.926Y1.851
X42.853Y1.833
X42.781Y1.816
X42.708Y1.8
X42.635Y1.783
X42.562Y1.768
X42.489Y1.753
X42.416Y1.738
X42.342Y1.724
X42.269Y1.71
X42.195Y1.697
X42.122Y1.684
X42.048Y1.672
X41.974Y1.661
X41.9Y1.649
X41.826Y1.639
X41.752Y1.629
X41.677Y1.619
X41.603Y1.61
X41.528Y1.602
X41.454Y1.594
X41.379Y1.586
X41.304Y1.579
X41.229Y1.573
X41.154Y1.567
X41.079Y1.562
X41.004Y1.557
X40.929Y1.553
X40.853Y1.55
X40.778Y1.546
X40.702Y1.544
X40.627Y1.542
X40.551Y1.541
X40.475Y1.54
X40.398Y1.539
X40.281Y1.54
X40.162Y1.542
X40.044Y1.545
X39.927Y1.55
X39.811Y1.556
X39.695Y1.563
X39.579Y1.571
X39.464Y1.581
X39.35Y1.592
X39.237Y1.605
X39.124Y1.618
X39.011Y1.634
X38.899Y1.65
X38.788Y1.668
X38.678Y1.688
X38.568Y1.708
X38.458Y1.73
X38.35Y1.754
X38.242Y1.779
X38.135Y1.806
X38.028Y1.833
X37.922Y1.863
X37.817Y1.894
X37.712Y1.926
X37.608Y1.96
X37.505Y1.995
X37.403Y2.032
X37.302Y2.07
X37.201Y2.11
X37.101Y2.151
X37.002Y2.194
X36.903Y2.238
X36.806Y2.284
X36.709Y2.331
X36.614Y2.38
X36.519Y2.43
X36.425Y2.482
X36.332Y2.535
X36.24Y2.589
X36.149Y2.646
X36.059Y2.703
X35.97Y2.763
X35.883Y2.823
X35.796Y2.885
X35.71Y2.949
X35.626Y3.014
X35.542Y3.08
X35.46Y3.148
X35.378Y3.217
X35.298Y3.287
X35.22Y3.359
X35.142Y3.432
X35.066Y3.507
X34.99Y3.583
X34.916Y3.66
X34.844Y3.738
X34.772Y3.818
X34.702Y3.899
X34.633Y3.981
X34.565Y4.064
X34.499Y4.148
X34.434Y4.234
X34.37Y4.321
X34.307Y4.408
X34.246Y4.497
X34.186Y4.587
X34.127Y4.678
X34.07Y4.771
X34.014Y4.864
X33.959Y4.958
X33.906Y5.053
X33.853Y5.149
X33.802Y5.246
X33.752Y5.345
X33.704Y5.444
X33.657Y5.544
X33.611Y5.645
X33.566Y5.747
X33.522Y5.849
X33.48Y5.953
X33.439Y6.057
X33.399Y6.163
X33.36Y6.269
X33.323Y6.376
X33.286Y6.484
X33.251Y6.593
X33.217Y6.703
X33.184Y6.814
X33.153Y6.925
X33.122Y7.038
X33.093Y7.151
X33.065Y7.265
X33.037Y7.38
X33.011Y7.495
X32.986Y7.612
X32.962Y7.729
X32.94Y7.847
X32.918Y7.966
X32.897Y8.086
X32.7Y9.3
X32.656
X32.679Y9.43
X32.596Y9.94
X32.767
X32.978Y11.148
X32.996Y11.247
X33.015Y11.344
X33.034Y11.441
X33.055Y11.538
X33.077Y11.634
X33.099Y11.729
X33.122Y11.824
X33.147Y11.918
X33.172Y12.011
X33.198Y12.104
X33.225Y12.197
X33.253Y12.289
X33.282Y12.38
X33.312Y12.47
X33.342Y12.56
X33.374Y12.649
X33.407Y12.738
X33.441Y12.826
X33.475Y12.914
X33.511Y13
X33.548Y13.086
X33.585Y13.172
X33.624Y13.257
X33.664Y13.341
X33.704Y13.424
X33.746Y13.507
X33.789Y13.589
X33.833Y13.67
X33.877Y13.75
X33.923Y13.83
X33.97Y13.909
X34.018Y13.987
X34.067Y14.064
X34.117Y14.141
X34.169Y14.217
X34.221Y14.292
X34.274Y14.366
X34.329Y14.439
X34.384Y14.511
X34.441Y14.583
X34.498Y14.653
X34.557Y14.723
X34.616Y14.791
X34.677Y14.859
X34.739Y14.926
X34.802Y14.991
X34.866Y15.056
X34.931Y15.119
X34.997Y15.182
X35.064Y15.243
X35.132Y15.304
X35.201Y15.363
X35.271Y15.421
X35.341Y15.478
X35.413Y15.533
X35.486Y15.588
X35.56Y15.641
X35.634Y15.694
X35.71Y15.745
X35.786Y15.794
X35.864Y15.843
X35.942Y15.89
X36.021Y15.936
X36.1Y15.981
X36.181Y16.024
X36.262Y16.067
X36.344Y16.108
X36.427Y16.147
X36.511Y16.186
X36.595Y16.223
X36.68Y16.258
X36.765Y16.293
X36.851Y16.326
X36.938Y16.358
X37.026Y16.388
X37.114Y16.417
X37.203Y16.445
X37.292Y16.472
X37.382Y16.497
X37.472Y16.521
X37.563Y16.544
X37.654Y16.565
X37.746Y16.586
X37.839Y16.604
X37.932Y16.622
X38.025Y16.638
X38.119Y16.654
X38.213Y16.667
X38.308Y16.68
X38.403Y16.691
X38.499Y16.702
X38.595Y16.711
X38.691Y16.718
X38.788Y16.725
X38.886Y16.73
X38.984Y16.734
X39.082Y16.737
X39.181Y16.739
X39.28Y16.74
X39.375Y16.739
X39.471Y16.737
X39.566Y16.734
X39.661Y16.729
X39.755Y16.723
X39.849Y16.716
X39.943Y16.707
X40.036Y16.697
X40.129Y16.686
X40.221Y16.673
X40.313Y16.659
X40.405Y16.644
X40.496Y16.627
X40.586Y16.609
X40.676Y16.589
X40.766Y16.568
X40.855Y16.546
X40.943Y16.522
X41.031Y16.497
X41.118Y16.471
X41.205Y16.443
X41.291Y16.414
X41.377Y16.384
X41.462Y16.352
X41.546Y16.318
X41.629Y16.284
X41.712Y16.248
X41.794Y16.21
X41.875Y16.172
X41.956Y16.131
X42.035Y16.09
X42.114Y16.047
X42.192Y16.003
X42.27Y15.958
X42.346Y15.911
X42.421Y15.863
X42.496Y15.814
X42.57Y15.763
X42.642Y15.712
X42.714Y15.659
X42.785Y15.604
X42.855Y15.549
X42.923Y15.492
X42.991Y15.434
X43.058Y15.375
X43.123Y15.315
X43.188Y15.254
X43.251Y15.192
X43.314Y15.128
X43.375Y15.064
X43.435Y14.999
X43.494Y14.932
X43.552Y14.865
X43.609Y14.796
X43.665Y14.727
X43.719Y14.656
X43.773Y14.585
X43.825Y14.513
X43.876Y14.44
X43.926Y14.366
X43.974Y14.291
X44.022Y14.215
X44.068Y14.139
X44.113Y14.062
X44.157Y13.984
X44.2Y13.905
X44.242Y13.825
X44.282Y13.745
X44.321Y13.664
X44.36Y13.582
X44.397Y13.5
X44.432Y13.417
X44.467Y13.333
X44.5Y13.249
X44.533Y13.164
X44.564Y13.079
X44.594Y12.993
X44.623Y12.906
X44.651Y12.819
X44.677Y12.731
X44.703Y12.642
X44.727Y12.553
X44.75Y12.464
X44.772Y12.374
X44.793Y12.283
X44.813Y12.192
X44.832Y12.1
X44.85Y12.008
X44.866Y11.916
X44.882Y11.822
X44.896Y11.729
X44.91Y11.635
X44.922Y11.54
X44.933Y11.445
X44.943Y11.35
X44.952Y11.254
X44.96Y11.157
X44.967Y11.061
X44.973Y10.963
X45.024Y9.94
X45.439
X45.432Y10.017
X45.417Y10.181
X45.4Y10.342
X45.381Y10.502
X45.361Y10.659
X45.34Y10.814
X45.317Y10.966
X45.292Y11.116
X45.266Y11.264
X45.239Y11.41
X45.21Y11.553
X45.18Y11.694
X45.149Y11.833
X45.116Y11.97
X45.082Y12.104
X45.046Y12.236
X45.01Y12.366
X44.972Y12.494
X44.932Y12.619
X44.892Y12.742
X44.85Y12.863
X44.807Y12.982
X44.763Y13.098
X44.718Y13.213
X44.672Y13.325
X44.624Y13.435
X44.576Y13.543
X44.526Y13.648
X44.476Y13.752
X44.424Y13.853
X44.371Y13.953
X44.318Y14.05
X44.263Y14.145
X44.207Y14.238
X44.151Y14.33
X44.093Y14.419
X44.035Y14.506
X43.975Y14.592
X43.915Y14.675
X43.853Y14.757
X43.791Y14.836
X43.728Y14.914
X43.664Y14.99
X43.599Y15.064
X43.533Y15.137
X43.467Y15.208
X43.399Y15.277
X43.33Y15.344
X43.261Y15.41
X43.19Y15.474
X43.119Y15.536
X43.047Y15.597
X42.974Y15.656
X42.899Y15.714
X42.824Y15.77
X42.748Y15.825
X42.67Y15.878
X42.592Y15.93
X42.513Y15.98
X42.432Y16.029
X42.351Y16.076
X42.268Y16.122
X42.184Y16.166
X42.099Y16.209
X42.013Y16.251
X41.926Y16.291
X41.837Y16.33
X41.748Y16.367
X41.657Y16.403
X41.564Y16.438
X41.471Y16.471
X41.376Y16.502
X41.28Y16.533
X41.183Y16.561
X41.084Y16.589
X40.984Y16.615
X40.883Y16.639
X40.78Y16.662
X40.676Y16.683
X40.57Y16.703
X40.464Y16.721
X40.356Y16.738
X40.246Y16.753
X40.135Y16.767
X40.023Y16.779
X39.909Y16.79
X39.795Y16.799
X39.678Y16.806
X39.561Y16.812
X39.442Y16.816
X39.321Y16.819
X39.2
X39.074
X38.949Y16.816
X38.825Y16.811
X38.702Y16.805
X38.58Y16.796
X38.46Y16.786
X38.34Y16.774
X38.222Y16.761
X38.104Y16.746
X37.988Y16.729
X37.873Y16.71
X37.759Y16.689
X37.646Y16.667
X37.534Y16.644
X37.424Y16.618
X37.314Y16.591
X37.206Y16.563
X37.098Y16.532
X36.992Y16.501
X36.887Y16.467
X36.783Y16.432
X36.68Y16.396
X36.578Y16.358
X36.477Y16.318
X36.377Y16.277
X36.279Y16.235
X36.181Y16.191
X36.085Y16.145
X35.989Y16.098
X35.895Y16.05
X35.802Y16
X35.71Y15.948
X35.619Y15.896
X35.529Y15.841
X35.441Y15.786
X35.353Y15.729
X35.266Y15.67
X35.181Y15.61
X35.096Y15.549
X35.013Y15.486
X34.931Y15.422
X34.85Y15.356
X34.77Y15.289
X34.691Y15.221
X34.613Y15.151
X34.536Y15.08
X34.461Y15.007
X34.386Y14.933
X34.313Y14.858
X34.241Y14.781
X34.17Y14.703
X34.1Y14.623
X34.031Y14.542
X33.963Y14.46
X33.897Y14.376
X33.831Y14.291
X33.767Y14.205
X33.704Y14.117
X33.642Y14.027
X33.582Y13.937
X33.523Y13.845
X33.464Y13.751
X33.408Y13.656
X33.352Y13.56
X33.297Y13.463
X33.244Y13.364
X33.193Y13.263
X33.142Y13.162
X33.093Y13.058
X33.045Y12.954
X32.998Y12.848
X32.953Y12.741
X32.909Y12.632
X32.867Y12.522
X32.826Y12.411
X32.786Y12.298
X32.748Y12.184
X32.711Y12.069
X32.676Y11.952
X32.642Y11.834
X32.61Y11.715
X32.579Y11.594
X32.549Y11.472
X32.522Y11.348
X32.495Y11.224
X32.471Y11.098
X32.448Y10.97
X32.426Y10.842
X32.406Y10.712
X32.388Y10.581
X32.371Y10.448
X32.356Y10.314
X32.343Y10.179
X32.332Y10.043
X32.322Y9.905
X32.314Y9.767
X32.308Y9.627
X32.303Y9.486
X32.3Y9.343
Y9.199
Y9.07
X32.303Y8.94
X32.307Y8.811
X32.313Y8.682
X32.32Y8.553
X32.329Y8.425
X32.339Y8.297
X32.351Y8.17
X32.365Y8.043
X32.38Y7.916
X32.397Y7.79
X32.416Y7.665
X32.436Y7.54
X32.457Y7.415
X32.481Y7.291
X32.505Y7.168
G0Z10
X52.42Y1.5
G1Z0F500
X52.98F1000
Y25.78
X52.42
Y1.5
G0Z10
X61.18
G1Z0F500
X61.74F1000
Y25.78
X61.18
Y1.5
G0Z10
X69.576Y5.442
G1Z0F500
X69.63Y5.332F1000
X69.685Y5.222
X69.741Y5.114
X69.799Y5.007
X69.859Y4.902
X69.92Y4.797
X69.983Y4.694
X70.047Y4.592
X70.113Y4.492
X70.18Y4.392
X70.248Y4.294
X70.318Y4.198
X70.39Y4.102
X70.463Y4.008
X70.537Y3.915
X70.613Y3.824
X70.69Y3.734
X70.769Y3.645
X70.849Y3.558
X70.931Y3.472
X71.013Y3.387
X71.098Y3.304
X71.183Y3.222
X71.27Y3.141
X71.358Y3.062
X71.448Y2.985
X71.539Y2.908
X71.631Y2.833
X71.724Y2.76
X71.819Y2.688
X71.915Y2.618
X72.013Y2.549
X72.111Y2.481
X72.211Y2.415
X72.313Y2.35
X72.415Y2.287
X72.519Y2.226
X72.624Y2.166
X72.73Y2.107
X72.838Y2.05
X72.947Y1.995
X73.057Y1.941
X73.168Y1.889
X73.28Y1.839
X73.394Y1.79
X73.509Y1.743
X73.625Y1.697
X73.742Y1.653
X73.861Y1.611
X73.981Y1.57
X74.102Y1.531
X74.224Y1.494
X74.347Y1.459
X74.471Y1.425
X74.597Y1.393
X74.724Y1.363
X74.852Y1.335
X74.981Y1.309
X75.111Y1.284
X75.242Y1.261
X75.375Y1.241
X75.508Y1.222
X75.643Y1.205
X75.779Y1.19
X75.915Y1.176
X76.053Y1.165
X76.193Y1.156
X76.333Y1.149
X76.474Y1.144
X76.616Y1.141
X76.76Y1.14
X76.912Y1.141
X77.063Y1.144
X77.212Y1.149
X77.361Y1.156
X77.508Y1.165
X77.654Y1.176
X77.799Y1.188
X77.942Y1.203
X78.084Y1.22
X78.225Y1.238
X78.364Y1.259
X78.502Y1.281
X78.639Y1.305
X78.775Y1.331
X78.909Y1.359
X79.042Y1.388
X79.173Y1.419
X79.303Y1.452
X79.432Y1.487
X79.559Y1.523
X79.685Y1.562
X79.81Y1.601
X79.933Y1.643
X80.055Y1.686
X80.176Y1.731
X80.295Y1.777
X80.412Y1.825
X80.529Y1.874
X80.644Y1.925
X80.757Y1.978
X80.869Y2.032
X80.98Y2.088
X81.089Y2.145
X81.197Y2.204
X81.304Y2.264
X81.409Y2.326
X81.513Y2.389
X81.615Y2.454
X81.716Y2.52
X81.815Y2.588
X81.913Y2.657
X82.01Y2.728
X82.105Y2.8
X82.199Y2.873
X82.291Y2.948
X82.382Y3.024
X82.472Y3.102
X82.56Y3.181
X82.646Y3.261
X82.731Y3.343
X82.815Y3.426
X82.897Y3.51
X82.978Y3.596
X83.058Y3.684
X83.136Y3.772
X83.212Y3.862
X83.287Y3.954
X83.36Y4.046
X83.432Y4.14
X83.503Y4.236
X83.572Y4.333
X83.64Y4.431
X83.706Y4.53
X83.77Y4.631
X83.833Y4.734
X83.895Y4.837
X83.955Y4.942
X84.013Y5.048
X84.07Y5.156
X84.125Y5.265
X84.179Y5.376
X84.231Y5.487
X84.281Y5.6
X84.33Y5.715
X84.377Y5.831
X84.423Y5.948
X84.466Y6.066
X84.509Y6.186
X84.549Y6.307
X84.588Y6.43
X84.625Y6.554
X84.66Y6.679
X84.694Y6.805
X84.726Y6.933
X84.756Y7.063
X84.784Y7.193
X84.81Y7.325
X84.835Y7.458
X84.858Y7.593
X84.878Y7.729
X84.897Y7.866
X84.914Y8.005
X84.93Y8.144
X84.943Y8.286
X84.954Y8.428
X84.963Y8.572
X84.97Y8.717
X84.975Y8.863
X84.978Y9.011
X84.979Y9.159
X84.978Y9.296
X84.975Y9.431
X84.97Y9.565
X84.963Y9.698
X84.954Y9.83
X84.942Y9.961
X84.929Y10.091
X84.914Y10.22
X84.897Y10.348
X84.878Y10.474
X84.857Y10.6
X84.834Y10.725
X84.81Y10.849
X84.783Y10.971
X84.755Y11.093
X84.724Y11.213
X84.692Y11.333
X84.659Y11.451
X84.623Y11.568
X84.586Y11.684
X84.547Y11.799
X84.506Y11.913
X84.463Y12.026
X84.419Y12.138
X84.373Y12.249
X84.326Y12.358
X84.276Y12.467
X84.225Y12.574
X84.173Y12.68
X84.119Y12.785
X84.063Y12.889
X84.005Y12.992
X83.946Y13.094
X83.886Y13.195
X83.823Y13.294
X83.76Y13.392
X83.694Y13.489
X83.627Y13.585
X83.559Y13.68
X83.489Y13.774
X83.417Y13.866
X83.344Y13.957
X83.27Y14.047
X83.194Y14.136
X83.116Y14.223
X83.037Y14.31
X82.956Y14.395
X82.874Y14.479
X82.791Y14.561
X82.706Y14.643
X82.62Y14.723
X82.532Y14.801
X82.442Y14.879
X82.352Y14.955
X82.26Y15.03
X82.166Y15.104
X82.071Y15.176
X81.975Y15.247
X81.877Y15.316
X81.778Y15.384
X81.677Y15.451
X81.575Y15.516
X81.472Y15.58
X81.367Y15.643
X81.261Y15.704
X81.154Y15.764
X81.045Y15.822
X80.935Y15.878
X80.824Y15.934
X80.711Y15.987
X80.597Y16.04
X80.482Y16.09
X80.366Y16.139
X80.248Y16.187
X80.129Y16.233
X80.008Y16.277
X79.886Y16.32
X79.764Y16.361
X79.639Y16.4
X79.514Y16.438
X79.387Y16.474
X79.259Y16.509
X79.13Y16.541
X79Y16.572
X78.869Y16.602
X78.736Y16.629
X78.602Y16.655
X78.467Y16.679
X78.331Y16.701
X78.194Y16.721
X78.055Y16.74
X77.916Y16.756
X77.775Y16.771
X77.633Y16.784
X77.49Y16.795
X77.346Y16.803
X77.201Y16.81
X77.055Y16.815
X76.908Y16.818
X76.76Y16.819
X76.621Y16.818
X76.484Y16.815
X76.348Y16.81
X76.212Y16.803
X76.078Y16.794
X75.944Y16.783
X75.811Y16.77
X75.678Y16.755
X75.547Y16.738
X75.417Y16.719
X75.287Y16.699
X75.159Y16.676
X75.031Y16.652
X74.904Y16.625
X74.778Y16.597
X74.653Y16.568
X74.529Y16.536
X74.406Y16.503
X74.284Y16.468
X74.163Y16.431
X74.043Y16.392
X73.924Y16.352
X73.806Y16.31
X73.69Y16.266
X73.574Y16.221
X73.459Y16.174
X73.345Y16.126
X73.232Y16.075
X73.121Y16.024
X73.01Y15.97
X72.901Y15.915
X72.793Y15.859
X72.686Y15.801
X72.58Y15.742
X72.475Y15.681
X72.372Y15.618
X72.269Y15.554
X72.168Y15.489
X72.068Y15.422
X71.969Y15.354
X71.872Y15.284
X71.776Y15.213
X71.681Y15.141
X71.587Y15.067
X71.495Y14.992
X71.404Y14.915
X71.314Y14.838
X71.225Y14.759
X71.138Y14.678
X71.053Y14.597
X70.968Y14.514
X70.885Y14.429
X70.804Y14.344
X70.723Y14.257
X70.645Y14.169
X70.567Y14.08
X70.491Y13.99
X70.417Y13.899
X70.344Y13.806
X70.273Y13.713
X70.202Y13.618
X70.134Y13.522
X70.067Y13.425
X70.002Y13.327
X69.938Y13.227
X69.875Y13.127
X69.815Y13.026
X69.755Y12.923
X69.698Y12.82
X69.642Y12.716
X69.587Y12.61
X69.535Y12.504
X69.484Y12.396
X69.434Y12.288
X69.387Y12.179
X69.34Y12.068
X69.296Y11.957
X69.253Y11.845
X69.213Y11.732
X69.173Y11.618
X69.136Y11.503
X69.1Y11.387
X69.067Y11.27
X69.034Y11.153
X69.004Y11.034
X68.976Y10.915
X68.949Y10.795
X68.925Y10.674
X68.902Y10.552
X68.881Y10.43
X68.862Y10.306
X68.845Y10.182
X68.83Y10.057
X68.816Y9.931
X68.805Y9.804
X68.796Y9.677
X68.789Y9.549
X68.784Y9.42
X68.781Y9.29
X68.78Y9.159
X68.781Y9.016
X68.784Y8.873
X68.789Y8.732
X68.796Y8.591
X68.805Y8.452
X68.816Y8.314
X68.829Y8.176
X68.844Y8.04
X68.861Y7.905
X68.88Y7.771
X68.9Y7.638
X68.923Y7.506
X68.947Y7.376
X68.974Y7.246
X69.002Y7.118
X69.032Y6.99
X69.063Y6.864
X69.097Y6.739
X69.132Y6.615
X69.169Y6.493
X69.207Y6.371
X69.248Y6.251
X69.29Y6.132
X69.333Y6.014
X69.378Y5.897
X69.425Y5.782
X69.474Y5.667
X69.524Y5.554
X69.576Y5.442
X70.104Y5.618
X70.058Y5.728
X70.014Y5.839
X69.971Y5.952
X69.929Y6.065
X69.889Y6.179
X69.851Y6.294
X69.815Y6.41
X69.78Y6.527
X69.746Y6.644
X69.715Y6.763
X69.684Y6.882
X69.656Y7.002
X69.629Y7.123
X69.604Y7.245
X69.58Y7.368
X69.558Y7.491
X69.538Y7.615
X69.519Y7.74
X69.502Y7.866
X69.486Y7.992
X69.472Y8.119
X69.46Y8.247
X69.449Y8.375
X69.44Y8.504
X69.433Y8.634
X69.427Y8.764
X69.423Y8.895
X69.42Y9.027
X69.419Y9.16
X69.42Y9.284
X69.423Y9.407
X69.427Y9.531
X69.434Y9.654
X69.441Y9.776
X69.451Y9.898
X69.462Y10.019
X69.476Y10.139
X69.49Y10.259
X69.507Y10.379
X69.525Y10.498
X69.545Y10.616
X69.567Y10.734
X69.59Y10.85
X69.615Y10.967
X69.642Y11.082
X69.67Y11.197
X69.7Y11.311
X69.732Y11.424
X69.765Y11.537
X69.8Y11.649
X69.837Y11.76
X69.875Y11.87
X69.915Y11.979
X69.956Y12.088
X69.999Y12.195
X70.044Y12.302
X70.09Y12.408
X70.138Y12.513
X70.187Y12.617
X70.238Y12.72
X70.29Y12.822
X70.344Y12.923
X70.4Y13.023
X70.456Y13.123
X70.515Y13.221
X70.575Y13.318
X70.636Y13.414
X70.699Y13.508
X70.763Y13.602
X70.829Y13.695
X70.896Y13.786
X70.965Y13.876
X71.035Y13.966
X71.106Y14.054
X71.179Y14.14
X71.253Y14.226
X71.329Y14.31
X71.406Y14.393
X71.484Y14.475
X71.563Y14.555
X71.644Y14.634
X71.726Y14.712
X71.809Y14.789
X71.894Y14.864
X71.98Y14.938
X72.067Y15.01
X72.155Y15.081
X72.244Y15.15
X72.335Y15.219
X72.426Y15.285
X72.519Y15.35
X72.613Y15.414
X72.708Y15.476
X72.805Y15.537
X72.902Y15.596
X73Y15.654
X73.099Y15.71
X73.2Y15.764
X73.301Y15.817
X73.404Y15.869
X73.507Y15.919
X73.611Y15.967
X73.716Y16.013
X73.823Y16.058
X73.93Y16.101
X74.037Y16.143
X74.146Y16.183
X74.256Y16.221
X74.366Y16.258
X74.477Y16.293
X74.589Y16.326
X74.702Y16.357
X74.816Y16.387
X74.93Y16.415
X75.045Y16.441
X75.161Y16.465
X75.277Y16.488
X75.394Y16.509
X75.512Y16.528
X75.63Y16.545
X75.749Y16.561
X75.868Y16.575
X75.988Y16.586
X76.109Y16.597
X76.23Y16.605
X76.352Y16.611
X76.474Y16.616
X76.596Y16.619
X76.719Y16.62
X76.847Y16.619
X76.975Y16.616
X77.101Y16.611
X77.228Y16.605
X77.353Y16.597
X77.478Y16.587
X77.603Y16.575
X77.727Y16.562
X77.85Y16.547
X77.973Y16.53
X78.095Y16.511
X78.216Y16.491
X78.337Y16.468
X78.457Y16.444
X78.576Y16.419
X78.695Y16.391
X78.812Y16.362
X78.929Y16.331
X79.046Y16.299
X79.161Y16.264
X79.276Y16.228
X79.389Y16.191
X79.502Y16.151
X79.614Y16.11
X79.726Y16.068
X79.836Y16.023
X79.945Y15.978
X80.054Y15.93
X80.161Y15.881
X80.268Y15.83
X80.373Y15.778
X80.478Y15.724
X80.581Y15.668
X80.683Y15.611
X80.785Y15.553
X80.885Y15.492
X80.984Y15.431
X81.082Y15.367
X81.179Y15.303
X81.275Y15.237
X81.369Y15.169
X81.463Y15.1
X81.555Y15.029
X81.646Y14.957
X81.736Y14.883
X81.824Y14.809
X81.911Y14.732
X81.997Y14.655
X82.082Y14.575
X82.165Y14.495
X82.247Y14.413
X82.328Y14.33
X82.407Y14.246
X82.485Y14.16
X82.561Y14.073
X82.636Y13.985
X82.71Y13.895
X82.782Y13.805
X82.853Y13.713
X82.922Y13.62
X82.99Y13.525
X83.056Y13.43
X83.12Y13.333
X83.184Y13.235
X83.245Y13.137
X83.305Y13.037
X83.364Y12.936
X83.421Y12.834
X83.476Y12.73
X83.529Y12.626
X83.581Y12.521
X83.632Y12.415
X83.681Y12.308
X83.728Y12.2
X83.773Y12.091
X83.817Y11.981
X83.859Y11.871
X83.899Y11.759
X83.938Y11.646
X83.975Y11.533
X84.01Y11.419
X84.043Y11.304
X84.075Y11.188
X84.105Y11.072
X84.133Y10.955
X84.16Y10.837
X84.184Y10.718
X84.207Y10.599
X84.228Y10.479
X84.247Y10.358
X84.265Y10.237
X84.28Y10.115
X84.294Y9.992
X84.306Y9.869
X84.316Y9.746
X84.325Y9.621
X84.331Y9.497
X84.336Y9.371
X84.339Y9.246
X84.34Y9.12
X84.339Y8.985
X84.336Y8.852
X84.332Y8.719
X84.326Y8.586
X84.319Y8.455
X84.31Y8.324
X84.299Y8.194
X84.287Y8.065
X84.273Y7.936
X84.257Y7.808
X84.24Y7.681
X84.221Y7.555
X84.2Y7.43
X84.178Y7.305
X84.154Y7.181
X84.128Y7.058
X84.101Y6.936
X84.072Y6.814
X84.041Y6.694
X84.009Y6.574
X83.975Y6.455
X83.939Y6.337
X83.902Y6.22
X83.863Y6.104
X83.822Y5.989
X83.779Y5.875
X83.735Y5.762
X83.689Y5.65
X83.642Y5.539
X83.593Y5.428
X83.542Y5.319
X83.489Y5.211
X83.435Y5.105
X83.379Y4.999
X83.321Y4.894
X83.262Y4.791
X83.201Y4.688
X83.138Y4.587
X83.074Y4.487
X83.008Y4.389
X82.941Y4.292
X82.872Y4.196
X82.801Y4.101
X82.729Y4.007
X82.655Y3.915
X82.579Y3.825
X82.503Y3.735
X82.424Y3.648
X82.344Y3.561
X82.263Y3.476
X82.18Y3.393
X82.095Y3.311
X82.009Y3.23
X81.922Y3.151
X81.833Y3.074
X81.743Y2.998
X81.651Y2.924
X81.559Y2.852
X81.464Y2.781
X81.369Y2.711
X81.272Y2.644
X81.174Y2.577
X81.075Y2.513
X80.974Y2.45
X80.873Y2.389
X80.77Y2.33
X80.666Y2.272
X80.561Y2.216
X80.455Y2.162
X80.348Y2.11
X80.239Y2.059
X80.13Y2.01
X80.02Y1.963
X79.908Y1.917
X79.796Y1.873
X79.683Y1.831
X79.568Y1.791
X79.453Y1.752
X79.337Y1.715
X79.22Y1.68
X79.103Y1.647
X78.984Y1.615
X78.864Y1.585
X78.744Y1.557
X78.623Y1.531
X78.501Y1.506
X78.379Y1.483
X78.255Y1.462
X78.131Y1.442
X78.006Y1.424
X77.881Y1.408
X77.754Y1.394
X77.627Y1.381
X77.5Y1.37
X77.371Y1.361
X77.242Y1.353
X77.113Y1.347
X76.982Y1.343
X76.851Y1.34
X76.719Y1.339
X76.595Y1.34
X76.47Y1.343
X76.346Y1.348
X76.223Y1.354
X76.1Y1.362
X75.978Y1.372
X75.856Y1.384
X75.735Y1.398
X75.614Y1.414
X75.494Y1.431
X75.375Y1.45
X75.256Y1.471
X75.138Y1.494
X75.021Y1.519
X74.904Y1.545
X74.789Y1.574
X74.673Y1.604
X74.559Y1.636
X74.446Y1.67
X74.333Y1.705
X74.221Y1.742
X74.11Y1.781
X74Y1.822
X73.89Y1.865
X73.782Y1.909
X73.674Y1.955
X73.568Y2.003
X73.462Y2.053
X73.358Y2.104
X73.254Y2.157
X73.152Y2.212
X73.05Y2.268
X72.95Y2.327
X72.851Y2.386
X72.753Y2.448
X72.656Y2.511
X72.56Y2.576
X72.465Y2.642
X72.372Y2.71
X72.279Y2.779
X72.188Y2.85
X72.098Y2.923
X72.01Y2.997
X71.923Y3.073
X71.837Y3.15
X71.752Y3.228
X71.669Y3.308
X71.587Y3.39
X71.506Y3.473
X71.427Y3.557
X71.349Y3.643
X71.273Y3.73
X71.198Y3.818
X71.125Y3.908
X71.053Y3.999
X70.982Y4.091
X70.913Y4.185
X70.845Y4.28
X70.779Y4.376
X70.714Y4.473
X70.651Y4.572
X70.59Y4.671
X70.529Y4.772
X70.471Y4.874
X70.414Y4.977
X70.358Y5.081
X70.304Y5.186
X70.252Y5.293
X70.201Y5.4
X70.152Y5.508
X70.104Y5.618
G0Z10
 
