(Created with grbl post processor 2025/12/06 10:13)
G20
(G-code Generated with Fabex and NC library)
G17G90
S12000M03
G00 Z0.39

G0X0Y0Z0.3937
X0.1771Y0.059
G1Z0F19.68
X0.2133F39.37
Y0.5267
X0.933
Y0.059
X0.9692
Y1.0149
X0.933
Y0.5472
X0.2133
Y1.0149
X0.1771
Y0.059
G0Z0.3937
X1.2797Y0.2822
G1Z0F19.68
X1.2807Y0.2774F39.37
X1.2818Y0.2726
X1.283Y0.2678
X1.2842Y0.2631
X1.2855Y0.2583
X1.2868Y0.2537
X1.2882Y0.249
X1.2896Y0.2444
X1.2912Y0.2398
X1.2927Y0.2353
X1.2943Y0.2307
X1.296Y0.2263
X1.2978Y0.2218
X1.2996Y0.2174
X1.3014Y0.2131
X1.3033Y0.2087
X1.3053Y0.2044
X1.3073Y0.2002
X1.3094Y0.196
X1.3115Y0.1919
X1.3137Y0.1877
X1.3159Y0.1837
X1.3182Y0.1796
X1.3206Y0.1757
X1.3229Y0.1717
X1.3254Y0.1679
X1.3279Y0.164
X1.3304Y0.1602
X1.3331Y0.1565
X1.3357Y0.1528
X1.3384Y0.1492
X1.3412Y0.1456
X1.344Y0.1421
X1.3468Y0.1386
X1.3497Y0.1352
X1.3527Y0.1318
X1.3557Y0.1285
X1.3588Y0.1253
X1.3619Y0.1221
X1.365Y0.1189
X1.3682Y0.1158
X1.3715Y0.1128
X1.3748Y0.1098
X1.3781Y0.1069
X1.3815Y0.1041
X1.385Y0.1013
X1.3885Y0.0985
X1.392Y0.0959
X1.3956Y0.0933
X1.3993Y0.0907
X1.403Y0.0882
X1.4067Y0.0858
X1.4105Y0.0834
X1.4144Y0.0811
X1.4183Y0.0789
X1.4222Y0.0767
X1.4262Y0.0746
X1.4303Y0.0725
X1.4344Y0.0706
X1.4385Y0.0686
X1.4427Y0.0668
X1.447Y0.065
X1.4513Y0.0633
X1.4557Y0.0617
X1.4602Y0.0601
X1.4646Y0.0586
X1.4692Y0.0572
X1.4738Y0.0558
X1.4785Y0.0545
X1.4832Y0.0533
X1.488Y0.0522
X1.4928Y0.0511
X1.4977Y0.0501
X1.5027Y0.0492
X1.5077Y0.0484
X1.5128Y0.0477
X1.518Y0.047
X1.5232Y0.0465
X1.5285Y0.046
X1.5338Y0.0456
X1.5392Y0.0452
X1.5447Y0.045
X1.5502Y0.0449
X1.556Y0.0448
X1.5624Y0.0449
X1.5689Y0.045
X1.5753Y0.0451
X1.5815Y0.0453
X1.5877Y0.0456
X1.5907Y0.0457
X1.5937Y0.0459
X1.5967Y0.0461
X1.5997Y0.0463
X1.6026Y0.0465
X1.6055Y0.0467
X1.6084Y0.047
X1.6112Y0.0472
X1.6141Y0.0475
X1.6169Y0.0478
X1.6197Y0.0481
X1.6224Y0.0484
X1.6252Y0.0487
X1.6279Y0.049
X1.6306Y0.0494
X1.6333Y0.0497
X1.6359Y0.0501
X1.6386Y0.0505
X1.6412Y0.0509
X1.6438Y0.0514
X1.6464Y0.0518
X1.6489Y0.0522
X1.6515Y0.0527
X1.654Y0.0532
X1.6565Y0.0537
X1.659Y0.0542
X1.6615Y0.0547
X1.664Y0.0552
X1.6664Y0.0558
X1.6688Y0.0563
X1.6713Y0.0569
X1.6737Y0.0575
X1.6761Y0.0581
X1.6784Y0.0587
X1.6808Y0.0593
X1.6832Y0.06
X1.6855Y0.0606
X1.6878Y0.0613
X1.6901Y0.062
X1.6925Y0.0627
X1.6948Y0.0634
X1.6971Y0.0641
X1.6993Y0.0649
X1.7016Y0.0657
X1.7039Y0.0664
X1.7061Y0.0672
X1.7084Y0.068
X1.7106Y0.0688
X1.7129Y0.0697
X1.7151Y0.0705
X1.7174Y0.0714
X1.7196Y0.0723
X1.7218Y0.0732
X1.724Y0.0741
X1.7285Y0.0759
X1.7329Y0.0779
X1.7373Y0.0799
X1.7417Y0.0819
X1.7461Y0.0841
X1.7506Y0.0863
X1.755Y0.0885
X1.7594Y0.0909
X1.7639Y0.0933
X1.7683Y0.0958
X1.7728Y0.0983
X1.7773Y0.101
X1.7787Y0.1018
Y0.1042
X1.7737Y0.1019
X1.771Y0.1007
X1.7682Y0.0995
X1.7655Y0.0984
X1.7628Y0.0972
X1.76Y0.096
X1.7573Y0.0949
X1.7545Y0.0938
X1.7517Y0.0927
X1.749Y0.0916
X1.7462Y0.0905
X1.7434Y0.0895
X1.7407Y0.0885
X1.7379Y0.0874
X1.7351Y0.0864
X1.7323Y0.0855
X1.7295Y0.0845
X1.7267Y0.0835
X1.7239Y0.0826
X1.7211Y0.0817
X1.7183Y0.0808
X1.7155Y0.0799
X1.7127Y0.0791
X1.7099Y0.0782
X1.707Y0.0774
X1.7042Y0.0766
X1.7014Y0.0758
X1.6985Y0.075
X1.6957Y0.0743
X1.6928Y0.0736
X1.69Y0.0728
X1.6871Y0.0722
X1.6842Y0.0715
X1.6814Y0.0708
X1.6785Y0.0702
X1.6756Y0.0696
X1.6728Y0.069
X1.6699Y0.0684
X1.667Y0.0678
X1.6641Y0.0673
X1.6612Y0.0668
X1.6583Y0.0663
X1.6554Y0.0658
X1.6525Y0.0653
X1.6496Y0.0649
X1.6467Y0.0645
X1.6437Y0.0641
X1.6408Y0.0637
X1.6379Y0.0634
X1.6349Y0.063
X1.632Y0.0627
X1.6291Y0.0624
X1.6261Y0.0622
X1.6232Y0.0619
X1.6202Y0.0617
X1.6173Y0.0615
X1.6143Y0.0613
X1.6113Y0.0611
X1.6084Y0.061
X1.6054Y0.0609
X1.6024Y0.0608
X1.5995Y0.0607
X1.5965Y0.0606
X1.5935
X1.5905
X1.5858
X1.5812Y0.0607
X1.5765Y0.0608
X1.5719Y0.061
X1.5673Y0.0612
X1.5627Y0.0615
X1.5582Y0.0618
X1.5537Y0.0622
X1.5492Y0.0627
X1.5447Y0.0631
X1.5403Y0.0637
X1.5358Y0.0643
X1.5314Y0.0649
X1.5271Y0.0656
X1.5227Y0.0664
X1.5184Y0.0672
X1.5141Y0.0681
X1.5098Y0.069
X1.5056Y0.07
X1.5013Y0.0711
X1.4971Y0.0722
X1.493Y0.0733
X1.4888Y0.0745
X1.4847Y0.0758
X1.4806Y0.0771
X1.4766Y0.0785
X1.4725Y0.08
X1.4685Y0.0815
X1.4646Y0.083
X1.4606Y0.0846
X1.4567Y0.0863
X1.4529Y0.0881
X1.449Y0.0899
X1.4452Y0.0917
X1.4415Y0.0937
X1.4377Y0.0956
X1.434Y0.0977
X1.4304Y0.0998
X1.4268Y0.1019
X1.4232Y0.1041
X1.4196Y0.1064
X1.4161Y0.1087
X1.4127Y0.1111
X1.4093Y0.1136
X1.4059Y0.1161
X1.4025Y0.1186
X1.3993Y0.1212
X1.396Y0.1239
X1.3928Y0.1266
X1.3897Y0.1294
X1.3866Y0.1322
X1.3835Y0.1351
X1.3805Y0.138
X1.3775Y0.141
X1.3746Y0.1441
X1.3718Y0.1471
X1.369Y0.1503
X1.3662Y0.1535
X1.3635Y0.1567
X1.3608Y0.16
X1.3582Y0.1633
X1.3556Y0.1667
X1.3531Y0.1701
X1.3507Y0.1735
X1.3482Y0.177
X1.3459Y0.1806
X1.3436Y0.1842
X1.3413Y0.1878
X1.3391Y0.1915
X1.3369Y0.1952
X1.3348Y0.1989
X1.3328Y0.2027
X1.3308Y0.2065
X1.3288Y0.2104
X1.3269Y0.2143
X1.325Y0.2182
X1.3232Y0.2222
X1.3215Y0.2262
X1.3197Y0.2303
X1.3181Y0.2343
X1.3165Y0.2385
X1.3149Y0.2426
X1.3134Y0.2468
X1.3119Y0.251
X1.3105Y0.2553
X1.3091Y0.2596
X1.3077Y0.2639
X1.3064Y0.2682
X1.3052Y0.2726
X1.304Y0.277
X1.3028Y0.2815
X1.3017Y0.286
X1.3007Y0.2905
X1.2996Y0.2951
X1.2986Y0.2996
X1.2977Y0.3043
X1.2968Y0.3089
X1.296Y0.3136
X1.2951Y0.3183
X1.2874Y0.3661
X1.2856
X1.2865Y0.3712
X1.2833Y0.3913
X1.29
X1.2983Y0.4389
X1.299Y0.4427
X1.2998Y0.4466
X1.3005Y0.4504
X1.3013Y0.4542
X1.3022Y0.458
X1.3031Y0.4617
X1.304Y0.4655
X1.305Y0.4692
X1.3059Y0.4729
X1.307Y0.4765
X1.308Y0.4802
X1.3091Y0.4838
X1.3103Y0.4874
X1.3114Y0.4909
X1.3127Y0.4945
X1.3139Y0.498
X1.3152Y0.5015
X1.3165Y0.5049
X1.3179Y0.5084
X1.3193Y0.5118
X1.3207Y0.5152
X1.3222Y0.5185
X1.3237Y0.5219
X1.3253Y0.5252
X1.3269Y0.5285
X1.3286Y0.5317
X1.3302Y0.535
X1.332Y0.5382
X1.3337Y0.5413
X1.3355Y0.5445
X1.3374Y0.5476
X1.3393Y0.5506
X1.3412Y0.5537
X1.3432Y0.5567
X1.3452Y0.5597
X1.3472Y0.5626
X1.3493Y0.5656
X1.3515Y0.5684
X1.3537Y0.5713
X1.3559Y0.5741
X1.3582Y0.5769
X1.3605Y0.5796
X1.3628Y0.5823
X1.3652Y0.585
X1.3677Y0.5876
X1.3701Y0.5902
X1.3726Y0.5927
X1.3752Y0.5952
X1.3778Y0.5977
X1.3804Y0.6001
X1.3831Y0.6025
X1.3858Y0.6048
X1.3886Y0.6071
X1.3914Y0.6093
X1.3942Y0.6115
X1.3971Y0.6137
X1.4Y0.6158
X1.4029Y0.6178
X1.4059Y0.6198
X1.4089Y0.6218
X1.4119Y0.6237
X1.415Y0.6256
X1.4181Y0.6274
X1.4212Y0.6291
X1.4244Y0.6309
X1.4276Y0.6325
X1.4308Y0.6341
X1.4341Y0.6357
X1.4374Y0.6372
X1.4407Y0.6387
X1.4441Y0.6401
X1.4474Y0.6414
X1.4508Y0.6427
X1.4542Y0.644
X1.4577Y0.6452
X1.4611Y0.6463
X1.4646Y0.6474
X1.4682Y0.6485
X1.4717Y0.6495
X1.4752Y0.6504
X1.4788Y0.6513
X1.4824Y0.6522
X1.486Y0.6529
X1.4897Y0.6537
X1.4933Y0.6544
X1.497Y0.655
X1.5007Y0.6556
X1.5044Y0.6562
X1.5082Y0.6567
X1.5119Y0.6571
X1.5157Y0.6575
X1.5195Y0.6579
X1.5233Y0.6582
X1.5271Y0.6584
X1.5309Y0.6586
X1.5348Y0.6588
X1.5386Y0.6589
X1.5425Y0.659
X1.5464
X1.5502
X1.5539Y0.6589
X1.5577Y0.6588
X1.5614Y0.6586
X1.5651Y0.6584
X1.5688Y0.6581
X1.5725Y0.6577
X1.5762Y0.6573
X1.5799Y0.6569
X1.5835Y0.6564
X1.5871Y0.6558
X1.5907Y0.6552
X1.5943Y0.6546
X1.5979Y0.6539
X1.6014Y0.6531
X1.6049Y0.6523
X1.6084Y0.6514
X1.6119Y0.6505
X1.6154Y0.6495
X1.6188Y0.6484
X1.6222Y0.6473
X1.6256Y0.6462
X1.629Y0.645
X1.6323Y0.6437
X1.6356Y0.6424
X1.6389Y0.6411
X1.6422Y0.6396
X1.6454Y0.6382
X1.6486Y0.6366
X1.6518Y0.6351
X1.6549Y0.6334
X1.658Y0.6318
X1.6611Y0.63
X1.6641Y0.6282
X1.6671Y0.6264
X1.6701Y0.6245
X1.673Y0.6226
X1.6759Y0.6206
X1.6788Y0.6185
X1.6816Y0.6164
X1.6844Y0.6143
X1.6872Y0.6121
X1.6899Y0.6099
X1.6925Y0.6076
X1.6952Y0.6053
X1.6977Y0.6029
X1.7003Y0.6005
X1.7028Y0.5981
X1.7052Y0.5956
X1.7077Y0.593
X1.71Y0.5905
X1.7123Y0.5878
X1.7146Y0.5852
X1.7169Y0.5825
X1.7191Y0.5798
X1.7212Y0.577
X1.7233Y0.5742
X1.7254Y0.5713
X1.7274Y0.5685
X1.7293Y0.5655
X1.7312Y0.5626
X1.7331Y0.5596
X1.7349Y0.5566
X1.7367Y0.5536
X1.7384Y0.5505
X1.7401Y0.5474
X1.7418Y0.5443
X1.7434Y0.5411
X1.7449Y0.5379
X1.7464Y0.5347
X1.7479Y0.5315
X1.7493Y0.5282
X1.7506Y0.5249
X1.752Y0.5216
X1.7532Y0.5182
X1.7545Y0.5149
X1.7556Y0.5115
X1.7568Y0.5081
X1.7579Y0.5046
X1.7589Y0.5012
X1.7599Y0.4977
X1.7609Y0.4942
X1.7618Y0.4907
X1.7627Y0.4871
X1.7635Y0.4836
X1.7643Y0.48
X1.765Y0.4764
X1.7657Y0.4727
X1.7664Y0.4691
X1.767Y0.4654
X1.7675Y0.4617
X1.7681Y0.458
X1.7686Y0.4543
X1.769Y0.4506
X1.7694Y0.4468
X1.7697Y0.443
X1.7701Y0.4392
X1.7703Y0.4354
X1.7706Y0.4316
X1.7726Y0.3913
X1.7889
X1.7887Y0.3943
X1.788Y0.4008
X1.7874Y0.4071
X1.7866Y0.4134
X1.7859Y0.4196
X1.785Y0.4257
X1.7841Y0.4317
X1.7831Y0.4376
X1.7821Y0.4434
X1.781Y0.4492
X1.7799Y0.4548
X1.7787Y0.4604
X1.7775Y0.4658
X1.7762Y0.4712
X1.7748Y0.4765
X1.7734Y0.4817
X1.772Y0.4868
X1.7705Y0.4918
X1.769Y0.4968
X1.7674Y0.5016
X1.7657Y0.5064
X1.764Y0.5111
X1.7623Y0.5157
X1.7605Y0.5202
X1.7587Y0.5246
X1.7568Y0.5289
X1.7549Y0.5331
X1.753Y0.5373
X1.751Y0.5414
X1.7489Y0.5454
X1.7469Y0.5493
X1.7448Y0.5531
X1.7426Y0.5569
X1.7404Y0.5605
X1.7382Y0.5641
X1.7359Y0.5676
X1.7336Y0.5711
X1.7313Y0.5744
X1.7289Y0.5777
X1.7265Y0.5809
X1.724Y0.5841
X1.7215Y0.5871
X1.719Y0.5901
X1.7165Y0.5931
X1.7139Y0.5959
X1.7113Y0.5987
X1.7086Y0.6014
X1.7059Y0.6041
X1.7032Y0.6066
X1.7004Y0.6092
X1.6976Y0.6116
X1.6947Y0.614
X1.6918Y0.6164
X1.6889Y0.6186
X1.686Y0.6208
X1.683Y0.623
X1.6799Y0.6251
X1.6768Y0.6271
X1.6737Y0.6291
X1.6705Y0.631
X1.6673Y0.6329
X1.6641Y0.6347
X1.6608Y0.6364
X1.6574Y0.6381
X1.654Y0.6398
X1.6506Y0.6414
X1.6471Y0.6429
X1.6436Y0.6444
X1.64Y0.6458
X1.6364Y0.6471
X1.6327Y0.6484
X1.629Y0.6497
X1.6252Y0.6509
X1.6213Y0.652
X1.6174Y0.6531
X1.6135Y0.6541
X1.6095Y0.655
X1.6055Y0.6559
X1.6014Y0.6568
X1.5972Y0.6576
X1.593Y0.6583
X1.5888Y0.659
X1.5845Y0.6596
X1.5801Y0.6601
X1.5757Y0.6606
X1.5712Y0.661
X1.5667Y0.6613
X1.5621Y0.6616
X1.5575Y0.6619
X1.5528Y0.662
X1.548Y0.6621
X1.5433Y0.6622
X1.5383Y0.6621
X1.5334Y0.662
X1.5285Y0.6618
X1.5237Y0.6616
X1.5189Y0.6612
X1.5141Y0.6608
X1.5094Y0.6604
X1.5048Y0.6598
X1.5001Y0.6592
X1.4956Y0.6586
X1.491Y0.6578
X1.4865Y0.657
X1.4821Y0.6562
X1.4777Y0.6552
X1.4733Y0.6542
X1.469Y0.6532
X1.4648Y0.652
X1.4605Y0.6509
X1.4563Y0.6496
X1.4522Y0.6483
X1.4481Y0.6469
X1.444Y0.6455
X1.44Y0.644
X1.4361Y0.6424
X1.4321Y0.6408
X1.4283Y0.6391
X1.4244Y0.6374
X1.4206Y0.6356
X1.4169Y0.6338
X1.4132Y0.6318
X1.4095Y0.6299
X1.4059Y0.6279
X1.4023Y0.6258
X1.3988Y0.6236
X1.3953Y0.6215
X1.3918Y0.6192
X1.3884Y0.6169
X1.385Y0.6145
X1.3817Y0.6121
X1.3784Y0.6096
X1.3752Y0.6071
X1.372Y0.6045
X1.3689Y0.6019
X1.3658Y0.5992
X1.3627Y0.5965
X1.3597Y0.5937
X1.3567Y0.5908
X1.3538Y0.5879
X1.3509Y0.5849
X1.348Y0.5819
X1.3452Y0.5788
X1.3425Y0.5757
X1.3398Y0.5725
X1.3371Y0.5693
X1.3345Y0.566
X1.3319Y0.5626
X1.3294Y0.5592
X1.3269Y0.5557
X1.3245Y0.5522
X1.3221Y0.5487
X1.3198Y0.545
X1.3175Y0.5414
X1.3152Y0.5376
X1.313Y0.5338
X1.3109Y0.53
X1.3088Y0.5261
X1.3068Y0.5221
X1.3048Y0.5181
X1.3028Y0.5141
X1.3009Y0.51
X1.2991Y0.5058
X1.2973Y0.5016
X1.2956Y0.4973
X1.2939Y0.493
X1.2923Y0.4886
X1.2908Y0.4842
X1.2893Y0.4797
X1.2878Y0.4751
X1.2864Y0.4705
X1.2851Y0.4659
X1.2838Y0.4612
X1.2826Y0.4564
X1.2814Y0.4516
X1.2803Y0.4468
X1.2793Y0.4418
X1.2783Y0.4369
X1.2774Y0.4319
X1.2766Y0.4268
X1.2758Y0.4217
X1.2751Y0.4165
X1.2744Y0.4113
X1.2738Y0.406
X1.2733Y0.4007
X1.2729Y0.3954
X1.2725Y0.39
X1.2722Y0.3845
X1.2719Y0.379
X1.2717Y0.3734
X1.2716Y0.3678
Y0.3622
Y0.357
X1.2717Y0.3519
X1.2719Y0.3469
X1.2721Y0.3418
X1.2724Y0.3367
X1.2728Y0.3317
X1.2732Y0.3266
X1.2736Y0.3216
X1.2742Y0.3166
X1.2748Y0.3116
X1.2755Y0.3067
X1.2762Y0.3017
X1.277Y0.2968
X1.2778Y0.2919
X1.2787Y0.287
X1.2797Y0.2822
G0Z0.3937
X2.0637Y0.059
G1Z0F19.68
X2.0858F39.37
Y1.0149
X2.0637
Y0.059
G0Z0.3937
X2.4086
G1Z0F19.68
X2.4307F39.37
Y1.0149
X2.4086
Y0.059
G0Z0.3937
X2.7392Y0.2142
G1Z0F19.68
X2.7413Y0.2099F39.37
X2.7435Y0.2056
X2.7457Y0.2013
X2.748Y0.1971
X2.7503Y0.1929
X2.7527Y0.1888
X2.7552Y0.1848
X2.7577Y0.1808
X2.7603Y0.1768
X2.763Y0.1729
X2.7657Y0.169
X2.7684Y0.1652
X2.7712Y0.1615
X2.7741Y0.1578
X2.777Y0.1541
X2.78Y0.1505
X2.7831Y0.147
X2.7862Y0.1435
X2.7893Y0.14
X2.7925Y0.1367
X2.7958Y0.1333
X2.7991Y0.13
X2.8025Y0.1268
X2.8059Y0.1236
X2.8093Y0.1205
X2.8129Y0.1175
X2.8164Y0.1145
X2.8201Y0.1115
X2.8238Y0.1086
X2.8275Y0.1058
X2.8313Y0.103
X2.8351Y0.1003
X2.839Y0.0976
X2.8429Y0.095
X2.8469Y0.0925
X2.851Y0.09
X2.855Y0.0876
X2.8592Y0.0852
X2.8634Y0.0829
X2.8676Y0.0807
X2.8719Y0.0785
X2.8762Y0.0764
X2.8806Y0.0743
X2.885Y0.0724
X2.8895Y0.0704
X2.894Y0.0686
X2.8986Y0.0668
X2.9032Y0.065
X2.9079Y0.0634
X2.9126Y0.0618
X2.9174Y0.0603
X2.9222Y0.0588
X2.927Y0.0574
X2.9319Y0.0561
X2.9369Y0.0548
X2.9418Y0.0536
X2.9469Y0.0525
X2.952Y0.0515
X2.9571Y0.0505
X2.9623Y0.0496
X2.9675Y0.0488
X2.9727Y0.0481
X2.978Y0.0474
X2.9834Y0.0468
X2.9888Y0.0463
X2.9942Y0.0458
X2.9997Y0.0455
X3.0052Y0.0452
X3.0108Y0.045
X3.0164Y0.0449
X3.022Y0.0448
X3.028Y0.0449
X3.0339Y0.045
X3.0398Y0.0452
X3.0457Y0.0455
X3.0515Y0.0458
X3.0572Y0.0463
X3.0629Y0.0468
X3.0685Y0.0473
X3.0741Y0.048
X3.0797Y0.0487
X3.0852Y0.0495
X3.0906Y0.0504
X3.096Y0.0514
X3.1013Y0.0524
X3.1066Y0.0535
X3.1118Y0.0546
X3.117Y0.0559
X3.1221Y0.0572
X3.1272Y0.0585
X3.1322Y0.0599
X3.1372Y0.0614
X3.1421Y0.063
X3.1469Y0.0646
X3.1517Y0.0663
X3.1565Y0.0681
X3.1612Y0.0699
X3.1658Y0.0718
X3.1704Y0.0738
X3.1749Y0.0758
X3.1794Y0.0778
X3.1838Y0.08
X3.1882Y0.0822
X3.1925Y0.0844
X3.1967Y0.0867
X3.2009Y0.0891
X3.205Y0.0915
X3.2091Y0.094
X3.2132Y0.0966
X3.2171Y0.0992
X3.221Y0.1019
X3.2249Y0.1046
X3.2287Y0.1074
X3.2325Y0.1102
X3.2361Y0.1131
X3.2398Y0.116
X3.2434Y0.119
X3.2469Y0.1221
X3.2504Y0.1252
X3.2538Y0.1284
X3.2571Y0.1316
X3.2604Y0.1348
X3.2636Y0.1382
X3.2668Y0.1416
X3.27Y0.145
X3.273Y0.1485
X3.276Y0.152
X3.279Y0.1556
X3.2819Y0.1593
X3.2847Y0.163
X3.2875Y0.1667
X3.2902Y0.1706
X3.2929Y0.1744
X3.2955Y0.1783
X3.298Y0.1823
X3.3005Y0.1863
X3.3029Y0.1904
X3.3053Y0.1945
X3.3076Y0.1987
X3.3098Y0.203
X3.312Y0.2073
X3.3141Y0.2116
X3.3161Y0.216
X3.3181Y0.2205
X3.32Y0.225
X3.3219Y0.2295
X3.3237Y0.2341
X3.3254Y0.2388
X3.3271Y0.2435
X3.3287Y0.2483
X3.3302Y0.2531
X3.3317Y0.258
X3.3331Y0.2629
X3.3344Y0.2679
X3.3356Y0.2729
X3.3368Y0.278
X3.3379Y0.2832
X3.339Y0.2884
X3.3399Y0.2936
X3.3408Y0.2989
X3.3416Y0.3043
X3.3424Y0.3097
X3.3431Y0.3151
X3.3437Y0.3206
X3.3442Y0.3262
X3.3446Y0.3318
X3.345Y0.3374
X3.3453Y0.3431
X3.3455Y0.3489
X3.3456Y0.3547
Y0.3606
Y0.3659
X3.3455Y0.3713
X3.3453Y0.3765
X3.345Y0.3818
X3.3446Y0.387
X3.3442Y0.3921
X3.3436Y0.3972
X3.343Y0.4023
X3.3424Y0.4074
X3.3416Y0.4123
X3.3408Y0.4173
X3.3399Y0.4222
X3.3389Y0.4271
X3.3379Y0.4319
X3.3368Y0.4367
X3.3356Y0.4414
X3.3343Y0.4461
X3.333Y0.4508
X3.3316Y0.4554
X3.3301Y0.46
X3.3286Y0.4645
X3.327Y0.469
X3.3253Y0.4734
X3.3236Y0.4778
X3.3217Y0.4822
X3.3199Y0.4865
X3.3179Y0.4908
X3.3159Y0.495
X3.3139Y0.4992
X3.3117Y0.5033
X3.3095Y0.5074
X3.3073Y0.5115
X3.3049Y0.5155
X3.3026Y0.5194
X3.3001Y0.5234
X3.2976Y0.5272
X3.295Y0.531
X3.2924Y0.5348
X3.2897Y0.5386
X3.2869Y0.5422
X3.2841Y0.5459
X3.2812Y0.5495
X3.2783Y0.553
X3.2753Y0.5565
X3.2723Y0.5599
X3.2691Y0.5633
X3.266Y0.5667
X3.2627Y0.57
X3.2595Y0.5732
X3.2561Y0.5765
X3.2527Y0.5796
X3.2492Y0.5827
X3.2457Y0.5858
X3.2422Y0.5888
X3.2385Y0.5917
X3.2349Y0.5946
X3.2311Y0.5974
X3.2273Y0.6002
X3.2235Y0.603
X3.2196Y0.6057
X3.2156Y0.6083
X3.2116Y0.6109
X3.2075Y0.6134
X3.2034Y0.6158
X3.1992Y0.6182
X3.195Y0.6206
X3.1907Y0.6229
X3.1864Y0.6251
X3.182Y0.6273
X3.1776Y0.6294
X3.1731Y0.6314
X3.1686Y0.6334
X3.164Y0.6354
X3.1593Y0.6372
X3.1546Y0.6391
X3.1499Y0.6408
X3.1451Y0.6425
X3.1403Y0.6441
X3.1354Y0.6457
X3.1304Y0.6471
X3.1255Y0.6486
X3.1204Y0.6499
X3.1153Y0.6512
X3.1102Y0.6524
X3.105Y0.6536
X3.0998Y0.6547
X3.0945Y0.6557
X3.0892Y0.6566
X3.0839Y0.6575
X3.0785Y0.6583
X3.073Y0.659
X3.0675Y0.6597
X3.062Y0.6602
X3.0564Y0.6607
X3.0508Y0.6612
X3.0451Y0.6615
X3.0394Y0.6618
X3.0336Y0.662
X3.0278Y0.6621
X3.022Y0.6622
X3.0166Y0.6621
X3.0112Y0.662
X3.0058Y0.6618
X3.0005Y0.6615
X2.9951Y0.6612
X2.9899Y0.6607
X2.9846Y0.6602
X2.9794Y0.6596
X2.9743Y0.6589
X2.9691Y0.6582
X2.964Y0.6574
X2.959Y0.6565
X2.9539Y0.6555
X2.9489Y0.6545
X2.944Y0.6534
X2.9391Y0.6522
X2.9342Y0.651
X2.9294Y0.6497
X2.9246Y0.6483
X2.9198Y0.6468
X2.9151Y0.6453
X2.9104Y0.6437
X2.9057Y0.6421
X2.9011Y0.6404
X2.8966Y0.6386
X2.8921Y0.6367
X2.8876Y0.6348
X2.8831Y0.6329
X2.8787Y0.6308
X2.8744Y0.6287
X2.8701Y0.6266
X2.8658Y0.6243
X2.8616Y0.6221
X2.8574Y0.6197
X2.8533Y0.6173
X2.8492Y0.6149
X2.8452Y0.6123
X2.8412Y0.6098
X2.8373Y0.6071
X2.8334Y0.6045
X2.8296Y0.6017
X2.8258Y0.5989
X2.822Y0.5961
X2.8184Y0.5932
X2.8147Y0.5902
X2.8111Y0.5872
X2.8076Y0.5841
X2.8041Y0.581
X2.8007Y0.5779
X2.7973Y0.5746
X2.794Y0.5714
X2.7907Y0.5681
X2.7875Y0.5647
X2.7844Y0.5613
X2.7813Y0.5578
X2.7782Y0.5543
X2.7752Y0.5508
X2.7723Y0.5472
X2.7694Y0.5435
X2.7666Y0.5398
X2.7638Y0.5361
X2.7612Y0.5323
X2.7585Y0.5285
X2.7559Y0.5246
X2.7534Y0.5207
X2.751Y0.5168
X2.7486Y0.5128
X2.7462Y0.5088
X2.744Y0.5047
X2.7418Y0.5006
X2.7396Y0.4964
X2.7376Y0.4922
X2.7355Y0.488
X2.7336Y0.4837
X2.7317Y0.4794
X2.7299Y0.4751
X2.7282Y0.4707
X2.7265Y0.4663
X2.7249Y0.4619
X2.7233Y0.4574
X2.7219Y0.4528
X2.7205Y0.4483
X2.7191Y0.4437
X2.7179Y0.4391
X2.7167Y0.4344
X2.7156Y0.4297
X2.7145Y0.425
X2.7135Y0.4202
X2.7126Y0.4154
X2.7118Y0.4106
X2.7111Y0.4057
X2.7104Y0.4008
X2.7098Y0.3959
X2.7093Y0.391
X2.7088Y0.386
X2.7085Y0.381
X2.7082Y0.3759
X2.708Y0.3708
X2.7079Y0.3657
X2.7078Y0.3606
X2.7079Y0.3549
X2.708Y0.3493
X2.7082Y0.3437
X2.7085Y0.3382
X2.7088Y0.3327
X2.7093Y0.3273
X2.7098Y0.3219
X2.7104Y0.3165
X2.711Y0.3112
X2.7118Y0.3059
X2.7126Y0.3007
X2.7135Y0.2955
X2.7144Y0.2904
X2.7155Y0.2853
X2.7166Y0.2802
X2.7177Y0.2752
X2.719Y0.2702
X2.7203Y0.2653
X2.7217Y0.2604
X2.7231Y0.2556
X2.7247Y0.2508
X2.7263Y0.2461
X2.7279Y0.2414
X2.7296Y0.2367
X2.7314Y0.2321
X2.7333Y0.2276
X2.7352Y0.2231
X2.7371Y0.2186
X2.7392Y0.2142
X2.76Y0.2211
X2.7582Y0.2255
X2.7564Y0.2299
X2.7547Y0.2343
X2.7531Y0.2387
X2.7515Y0.2432
X2.75Y0.2478
X2.7486Y0.2523
X2.7472Y0.2569
X2.7459Y0.2616
X2.7446Y0.2662
X2.7435Y0.2709
X2.7423Y0.2757
X2.7413Y0.2804
X2.7403Y0.2852
X2.7393Y0.29
X2.7385Y0.2949
X2.7377Y0.2998
X2.7369Y0.3047
X2.7363Y0.3096
X2.7356Y0.3146
X2.7351Y0.3196
X2.7346Y0.3246
X2.7342Y0.3297
X2.7338Y0.3348
X2.7335Y0.3399
X2.7333Y0.345
X2.7331Y0.3502
Y0.3554
X2.733Y0.3606
X2.7331Y0.3655
X2.7332Y0.3703
X2.7333Y0.3752
X2.7336Y0.38
X2.7339Y0.3848
X2.7343Y0.3896
X2.7347Y0.3944
X2.7352Y0.3992
X2.7358Y0.4039
X2.7365Y0.4086
X2.7372Y0.4133
X2.738Y0.4179
X2.7388Y0.4225
X2.7397Y0.4271
X2.7407Y0.4317
X2.7418Y0.4363
X2.7429Y0.4408
X2.7441Y0.4453
X2.7453Y0.4497
X2.7466Y0.4542
X2.748Y0.4586
X2.7494Y0.463
X2.7509Y0.4673
X2.7525Y0.4716
X2.7541Y0.4759
X2.7558Y0.4801
X2.7576Y0.4843
X2.7594Y0.4885
X2.7613Y0.4926
X2.7632Y0.4967
X2.7652Y0.5008
X2.7673Y0.5048
X2.7694Y0.5088
X2.7716Y0.5127
X2.7738Y0.5166
X2.7761Y0.5205
X2.7785Y0.5243
X2.7809Y0.5281
X2.7834Y0.5318
X2.7859Y0.5355
X2.7885Y0.5391
X2.7912Y0.5427
X2.7939Y0.5463
X2.7966Y0.5498
X2.7994Y0.5533
X2.8023Y0.5567
X2.8052Y0.56
X2.8082Y0.5634
X2.8112Y0.5666
X2.8143Y0.5698
X2.8174Y0.573
X2.8206Y0.5761
X2.8238Y0.5792
X2.8271Y0.5822
X2.8304Y0.5852
X2.8338Y0.5881
X2.8372Y0.5909
X2.8407Y0.5937
X2.8442Y0.5964
X2.8478Y0.5991
X2.8514Y0.6017
X2.8551Y0.6043
X2.8588Y0.6068
X2.8625Y0.6093
X2.8663Y0.6117
X2.8701Y0.614
X2.874Y0.6163
X2.8779Y0.6185
X2.8819Y0.6206
X2.8858Y0.6227
X2.8899Y0.6247
X2.8939Y0.6267
X2.898Y0.6286
X2.9022Y0.6304
X2.9064Y0.6322
X2.9106Y0.6339
X2.9148Y0.6355
X2.9191Y0.6371
X2.9234Y0.6386
X2.9278Y0.64
X2.9322Y0.6414
X2.9366Y0.6427
X2.941Y0.644
X2.9455Y0.6451
X2.95Y0.6462
X2.9545Y0.6472
X2.9591Y0.6482
X2.9636Y0.6491
X2.9682Y0.6499
X2.9729Y0.6507
X2.9775Y0.6514
X2.9822Y0.652
X2.9869Y0.6525
X2.9916Y0.653
X2.9964Y0.6534
X3.0012Y0.6537
X3.0059Y0.654
X3.0108Y0.6541
X3.0156Y0.6542
X3.0204Y0.6543
X3.0255Y0.6542
X3.0305Y0.6541
X3.0355Y0.654
X3.0404Y0.6537
X3.0454Y0.6534
X3.0503Y0.653
X3.0552Y0.6525
X3.0601Y0.652
X3.0649Y0.6514
X3.0698Y0.6507
X3.0746Y0.65
X3.0793Y0.6492
X3.0841Y0.6483
X3.0888Y0.6474
X3.0935Y0.6464
X3.0982Y0.6453
X3.1028Y0.6441
X3.1074Y0.6429
X3.112Y0.6416
X3.1165Y0.6403
X3.1211Y0.6389
X3.1255Y0.6374
X3.13Y0.6359
X3.1344Y0.6342
X3.1388Y0.6326
X3.1431Y0.6308
X3.1474Y0.629
X3.1517Y0.6271
X3.1559Y0.6252
X3.1601Y0.6232
X3.1643Y0.6211
X3.1684Y0.619
X3.1724Y0.6168
X3.1765Y0.6146
X3.1805Y0.6123
X3.1844Y0.6099
X3.1883Y0.6075
X3.1922Y0.605
X3.196Y0.6024
X3.1998Y0.5998
X3.2035Y0.5972
X3.2072Y0.5944
X3.2108Y0.5917
X3.2144Y0.5888
X3.2179Y0.5859
X3.2214Y0.583
X3.2248Y0.58
X3.2282Y0.5769
X3.2315Y0.5738
X3.2348Y0.5706
X3.2381Y0.5674
X3.2412Y0.5641
X3.2443Y0.5608
X3.2474Y0.5575
X3.2504Y0.554
X3.2534Y0.5506
X3.2563Y0.547
X3.2591Y0.5435
X3.2619Y0.5398
X3.2646Y0.5362
X3.2673Y0.5325
X3.2699Y0.5287
X3.2724Y0.5249
X3.2749Y0.5211
X3.2773Y0.5172
X3.2797Y0.5132
X3.282Y0.5092
X3.2842Y0.5052
X3.2864Y0.5012
X3.2885Y0.4971
X3.2906Y0.4929
X3.2926Y0.4888
X3.2945Y0.4845
X3.2963Y0.4803
X3.2981Y0.476
X3.2998Y0.4717
X3.3015Y0.4673
X3.3031Y0.4629
X3.3046Y0.4585
X3.3061Y0.454
X3.3074Y0.4495
X3.3088Y0.445
X3.31Y0.4405
X3.3112Y0.4359
X3.3123Y0.4313
X3.3133Y0.4266
X3.3143Y0.4219
X3.3152Y0.4172
X3.316Y0.4125
X3.3168Y0.4078
X3.3175Y0.403
X3.3181Y0.3982
X3.3186Y0.3934
X3.3191Y0.3885
X3.3195Y0.3837
X3.3198Y0.3788
X3.3201Y0.3739
X3.3203Y0.3689
X3.3204Y0.364
Y0.359
Y0.3537
X3.3203Y0.3485
X3.3201Y0.3432
X3.3199Y0.338
X3.3196Y0.3328
X3.3193Y0.3277
X3.3188Y0.3226
X3.3184Y0.3175
X3.3178Y0.3124
X3.3172Y0.3074
X3.3165Y0.3024
X3.3158Y0.2974
X3.3149Y0.2925
X3.3141Y0.2876
X3.3131Y0.2827
X3.3121Y0.2778
X3.311Y0.273
X3.3099Y0.2682
X3.3087Y0.2635
X3.3074Y0.2588
X3.3061Y0.2541
X3.3047Y0.2495
X3.3032Y0.2449
X3.3016Y0.2403
X3.3Y0.2358
X3.2984Y0.2313
X3.2966Y0.2268
X3.2948Y0.2224
X3.293Y0.218
X3.291Y0.2137
X3.289Y0.2094
X3.2869Y0.2051
X3.2848Y0.2009
X3.2826Y0.1968
X3.2803Y0.1927
X3.278Y0.1886
X3.2756Y0.1846
X3.2731Y0.1806
X3.2706Y0.1766
X3.268Y0.1728
X3.2654Y0.1689
X3.2626Y0.1651
X3.2599Y0.1614
X3.257Y0.1577
X3.2541Y0.1541
X3.2511Y0.1505
X3.2481Y0.147
X3.245Y0.1436
X3.2419Y0.1402
X3.2387Y0.1368
X3.2354Y0.1335
X3.2321Y0.1303
X3.2287Y0.1272
X3.2252Y0.124
X3.2217Y0.121
X3.2182Y0.118
X3.2146Y0.1151
X3.2109Y0.1122
X3.2072Y0.1094
X3.2035Y0.1067
X3.1997Y0.104
X3.1958Y0.1014
X3.1919Y0.0989
X3.1879Y0.0964
X3.1839Y0.094
X3.1799Y0.0917
X3.1758Y0.0894
X3.1717Y0.0872
X3.1675Y0.0851
X3.1633Y0.083
X3.159Y0.081
X3.1547Y0.0791
X3.1503Y0.0772
X3.146Y0.0754
X3.1415Y0.0737
X3.1371Y0.0721
X3.1326Y0.0705
X3.1281Y0.069
X3.1235Y0.0675
X3.1189Y0.0661
X3.1142Y0.0648
X3.1096Y0.0636
X3.1049Y0.0624
X3.1001Y0.0613
X3.0954Y0.0602
X3.0906Y0.0593
X3.0857Y0.0584
X3.0809Y0.0575
X3.076Y0.0567
X3.0711Y0.056
X3.0661Y0.0554
X3.0612Y0.0548
X3.0562Y0.0543
X3.0511Y0.0539
X3.0461Y0.0535
X3.041Y0.0532
X3.0359Y0.053
X3.0308Y0.0528
X3.0256Y0.0527
X3.0204
X3.0155
X3.0106Y0.0528
X3.0057Y0.053
X3.0009Y0.0533
X2.996Y0.0536
X2.9912Y0.054
X2.9864Y0.0545
X2.9816Y0.055
X2.9769Y0.0556
X2.9722Y0.0563
X2.9675Y0.0571
X2.9628Y0.0579
X2.9582Y0.0588
X2.9536Y0.0598
X2.949Y0.0608
X2.9444Y0.0619
X2.9399Y0.0631
X2.9354Y0.0644
X2.9309Y0.0657
X2.9265Y0.0671
X2.9221Y0.0686
X2.9177Y0.0701
X2.9133Y0.0717
X2.909Y0.0734
X2.9048Y0.0751
X2.9005Y0.077
X2.8963Y0.0788
X2.8922Y0.0808
X2.8881Y0.0828
X2.884Y0.0849
X2.88Y0.0871
X2.876Y0.0893
X2.872Y0.0916
X2.8681Y0.0939
X2.8642Y0.0963
X2.8604Y0.0988
X2.8567Y0.1014
X2.8529Y0.104
X2.8492Y0.1067
X2.8456Y0.1094
X2.842Y0.1122
X2.8385Y0.115
X2.835Y0.118
X2.8316Y0.1209
X2.8282Y0.124
X2.8249Y0.1271
X2.8216Y0.1302
X2.8184Y0.1334
X2.8152Y0.1367
X2.8121Y0.14
X2.809Y0.1434
X2.806Y0.1468
X2.803Y0.1503
X2.8002Y0.1538
X2.7973Y0.1574
X2.7945Y0.161
X2.7918Y0.1647
X2.7892Y0.1685
X2.7865Y0.1722
X2.784Y0.1761
X2.7815Y0.18
X2.7791Y0.1839
X2.7767Y0.1878
X2.7744Y0.1919
X2.7722Y0.1959
X2.77Y0.2
X2.7679Y0.2042
X2.7658Y0.2083
X2.7638Y0.2126
X2.7619Y0.2168
X2.76Y0.2211
G0Z0.3937
 
