(Created with grbl post processor 2024/12/13 12:46)
G21
(G-code Generated with Fabex and NC library)
G17G90
S12000M03
G00 Z10.0

G0X0Y0Z10
X9.167Y20.523
G1Z-2.099F500
X9.317Y20.498F1000
X9.607Y20.581
X9.719Y20.671
X9.842Y21.039
X9.824Y21.129
X9.493Y21.735
X9.19Y21.826
X8.85Y21.712
X8.723Y21.29
X8.92Y20.699
X9.167Y20.523
G0Z10
X8.059Y27.523
G1Z-2.099F500
X8.399Y27.637F1000
X8.545Y28.123
X8.536Y28.168
X8.36Y28.415
X7.99Y28.526
X7.65Y28.412
X7.504Y27.926
X7.513Y27.881
X7.689Y27.634
X8.059Y27.523
G0Z10
X9.168Y34.216
G1Z-2.099F500
X9.516Y34.321F1000
X9.775Y34.751
Y35.282
X9.755Y35.331
X9.482Y35.526
X9.355Y35.547
X8.999Y35.429
X8.799Y35.148
X8.711Y34.799
X8.843Y34.361
X8.942Y34.281
X9.168Y34.216
G0Z10
X20.616Y46.382
G1Z-2.099F500
X20.851Y46.226F1000
X21.034Y46.195
X21.448Y46.299
X21.775Y46.532
Y47.082
X21.755Y47.131
X21.482Y47.326
X21.315Y47.354
X20.824Y47.231
X20.744Y47.191
X20.575Y46.954
Y46.451
X20.616Y46.382
G0Z10
X27.574Y47.751
G1Z-2.099F500
X27.616Y47.682F1000
X27.777Y47.574
X28.317
X28.475Y47.795
Y48.188
X28.317Y48.44
X27.994Y48.547
X27.851Y48.523
X27.616Y48.367
X27.574Y48.298
Y47.751
G0Z10
X34.216Y46.768
G1Z-2.099F500
X34.281Y46.542F1000
X34.363Y46.44
X35.062Y46.225
X35.409Y46.34
X35.542Y46.739
X35.53Y46.799
X35.324Y47.128
X34.664Y47.331
X34.442Y47.268
X34.343Y47.188
X34.216Y46.768
G0Z10
X46.35Y35.412
G1Z-2.099F500
X46.223Y34.99F1000
X46.42Y34.399
X46.667Y34.223
X46.794Y34.202
X47.209Y34.34
X47.342Y34.739
X47.324Y34.829
X46.993Y35.435
X46.69Y35.526
X46.35Y35.412
G0Z10
X47.787Y28.513
G1Z-2.099F500
X47.744Y28.491F1000
X47.574Y28.254
Y27.777
X47.682Y27.616
X47.751Y27.574
X48.298
X48.367Y27.616
X48.475Y27.777
Y28.188
X48.317Y28.44
X47.994Y28.547
X47.787Y28.513
G0Z10
X46.855Y21.847
G1Z-2.099F500
X46.499Y21.729F1000
X46.299Y21.448
X46.211Y21.099
X46.334Y20.689
X46.581Y20.513
X46.626Y20.504
X47.016Y20.621
X47.274Y21.051
Y21.582
X47.255Y21.631
X46.982Y21.826
X46.855Y21.847
G0Z10
X35.455Y9.631
G1Z-2.099F500
X35.182Y9.826F1000
X35.015Y9.854
X34.585Y9.746
X34.316Y9.567
X34.274Y9.498
Y8.951
X34.316Y8.882
X34.551Y8.726
X34.734Y8.695
X35.188Y8.809
X35.367Y8.916
X35.475Y9.077
Y9.582
X35.455Y9.631
G0Z10
X28.475Y8.282
G1Z-2.099F500
X28.455Y8.331F1000
X28.254Y8.474
X27.751
X27.682Y8.433
X27.574Y8.272
Y7.777
X27.682Y7.616
X27.751Y7.575
X28.254
X28.475Y7.732
Y8.282
G0Z10
X21.775Y8.932
G1Z-2.099F500
Y9.482F1000
X21.755Y9.531
X21.448Y9.75
X21.034Y9.854
X20.826Y9.819
X20.682Y9.733
X20.575Y9.572
Y9.095
X20.744Y8.858
X20.824Y8.818
X21.315Y8.695
X21.482Y8.723
X21.775Y8.932
G0Z10
X13.491Y13.763
G1Z-2.1F500
X13.533Y13.738F1000
X13.595Y13.699
X13.657Y13.658
X13.717Y13.617
X13.776Y13.573
X13.834Y13.528
X13.891Y13.482
X13.947Y13.435
X14.002Y13.386
X14.038Y13.352
X15.752Y11.729
X16.305Y11.359
X16.472Y11.249Z-2.102
X16.805Y11.027
X16.826Y11.077
X16.856Y11.144
X16.888Y11.21
X16.922Y11.276
X16.957Y11.34
X16.994Y11.404
X17.032Y11.467
X17.078Y11.539
X17.153Y11.65
X16.876Y11.835
X16.71Y11.946Z-2.1
X16.19Y12.292
X16.129Y12.334
X16.07Y12.378
X16.011Y12.424
X15.954Y12.47
X15.897Y12.518
X15.842Y12.568
X15.788Y12.619
X15.754Y12.653
X14.995Y13.41
X14.924Y13.449
X14.859Y13.486
X14.795Y13.524
X14.732Y13.564
X14.67Y13.606
X14.61Y13.649
X14.55Y13.693
X14.491Y13.739
X14.434Y13.787
X14.378Y13.836
X14.323Y13.886
X14.269Y13.937
X14.217Y13.99
X14.166Y14.045
X14.127Y14.088
X12.517Y15.899
X12.472Y15.951
X12.428Y16.005
X12.386Y16.06
X12.344Y16.116
X12.304Y16.172
X12.278Y16.21
X11.998Y16.632
X11.887Y16.798Z-2.102
X11.665Y17.131
X11.624Y17.105
X11.559Y17.068
X11.494Y17.032
X11.428Y16.997
X11.362Y16.965
X11.294Y16.934
X11.226Y16.904
X11.157Y16.877
X11.087Y16.851
X11.013Y16.825
X11.2Y16.545
X11.311Y16.378Z-2.101
X11.422Y16.212Z-2.1
X11.755Y15.713
X13.491Y13.763
X12.989Y12.898Z-2.103
X13.031Y12.873Z-2.102
X13.072Y12.846Z-2.101
X13.093Y12.833Z-2.1
X13.133Y12.805
X13.172Y12.776
X13.211Y12.746
X13.249Y12.716
X13.287Y12.684
X13.323Y12.651
X13.35Y12.626
X14.836Y11.219
X14.981Y11.081Z-2.101
X15.126Y10.944Z-2.103
X15.438Y10.736Z-2.102
X17.268Y9.516
X17.574Y9.368
X17.575Y9.887
Y9.936
X17.578Y9.985
X17.581Y10.034
X17.585Y10.082
X17.591Y10.131
X17.598Y10.18
X17.606Y10.228
X17.615Y10.276
X17.626Y10.324
X17.637Y10.371
X17.65Y10.419
X17.664Y10.466
X17.679Y10.512
X17.695Y10.559
X17.713Y10.604
X17.731Y10.65
X17.751Y10.695
X17.771Y10.739
X17.793Y10.783
X17.816Y10.827
X17.84Y10.869
X17.864Y10.912
X17.89Y10.953
X17.91Y10.984
X18.317Y11.594
X18.345Y11.634
X18.374Y11.674
X18.404Y11.713
X18.435Y11.751
X18.467Y11.789
X18.5Y11.825
X18.533Y11.861
X18.575Y11.904
X16.932Y12.999
X16.765Y13.11
X16.735Y13.131Z-2.101
X16.694Y13.16Z-2.1
X16.655Y13.189
X16.616Y13.22
X16.578Y13.252
X16.541Y13.284
X16.505Y13.317
X16.461Y13.36
X16.006Y13.815
X15.864Y13.956Z-2.101
X15.723Y14.097Z-2.1
X15.581Y14.239
X15.544Y14.255
X15.499Y14.276
X15.455Y14.299
X15.411Y14.322
X15.368Y14.346
X15.325Y14.372
X15.283Y14.399
X15.242Y14.426
X15.201Y14.455
X15.161Y14.484
X15.122Y14.515
X15.084Y14.547
X15.046Y14.579
X15.01Y14.613
X14.974Y14.647
X14.939Y14.682
X14.922Y14.7
X14.874Y14.752Z-2.101
X14.741Y14.901
X14.608Y15.051Z-2.1
X13.272Y16.554
X13.242Y16.59
X13.213Y16.625
X13.184Y16.662
X13.157Y16.699
X13.13Y16.736Z-2.101
X13.11Y16.765Z-2.102
X13.02Y16.901
X11.902Y18.578
X11.872Y18.553
X11.824Y18.513
X11.314Y18.105
X11.275Y18.075
X11.235Y18.046
X11.194Y18.017
X11.153Y17.99
X11.111Y17.964
X11.068Y17.939
X11.025Y17.915
X10.981Y17.892
X10.936Y17.87
X10.891Y17.849
X10.846Y17.829
X10.8Y17.811
X10.754Y17.793
X10.707Y17.777
X10.66Y17.762
X10.624Y17.751
X9.912Y17.548
X9.864Y17.535
X9.817Y17.524
X9.768Y17.514
X9.72Y17.505
X9.671Y17.497
X9.623Y17.49
X9.574Y17.484
X9.524Y17.48
X9.475Y17.477
X9.416Y17.475
X9.515Y17.269
X10.74Y15.432
X10.961Y15.1Z-2.103
X10.996Y15.061
X11.129Y14.911Z-2.1
X12.591Y13.268
X12.857Y12.969Z-2.103
X12.904Y12.946
X12.947Y12.922
X12.989Y12.898
X12.487Y12.033Z-2.309
X12.508Y12.02Z-2.307
X12.528Y12.007Z-2.306
X12.549Y11.993Z-2.305
X12.569Y11.979
X12.588Y11.964Z-2.304
X12.607Y11.949
X12.626Y11.933
X12.644Y11.917
X12.662Y11.9Z-2.305
X12.903Y11.672Z-2.307
X13.048Y11.535Z-2.31
X13.194Y11.397Z-2.312
X13.339Y11.26Z-2.314
X13.484Y11.122Z-2.316
X13.774Y10.847Z-2.32
X13.919Y10.709Z-2.322
X14.065Y10.572Z-2.325
X14.21Y10.434Z-2.326
X14.355Y10.297Z-2.329
X14.5Y10.159Z-2.335
X14.775Y9.976
X14.941Y9.865
X15.607Y9.422
X15.773Y9.311Z-2.334
X15.94Y9.2Z-2.335
X16.106Y9.089Z-2.334
X16.272Y8.978Z-2.335
X16.605Y8.756
X16.772Y8.645Z-2.339
X17.344Y8.368Z-2.337
X17.524Y8.282
X17.704Y8.195Z-2.336
X17.885Y8.108
X18.605Y7.76Z-2.333
X18.785Y7.673
X19.325Y7.412Z-2.332
X19.305Y7.435Z-2.329
X19.29Y7.454Z-2.326
X19.275Y7.474Z-2.323
X19.261Y7.493Z-2.32
X19.11Y7.705Z-2.287
X18.993Y7.868Z-2.261
X18.761Y8.193Z-2.211
X18.747Y8.214Z-2.208
X18.733Y8.234Z-2.204
X18.72Y8.255Z-2.2
X18.707Y8.277Z-2.197
X18.695Y8.298Z-2.193
X18.684Y8.32Z-2.189
X18.673Y8.343Z-2.185
X18.662Y8.365Z-2.181
X18.652Y8.388Z-2.177
X18.643Y8.411Z-2.173
X18.634Y8.434Z-2.168
X18.626Y8.458Z-2.163
X18.618Y8.481Z-2.159
X18.612Y8.505Z-2.154
X18.605Y8.529Z-2.149
X18.599Y8.553Z-2.143
X18.594Y8.577Z-2.138
X18.59Y8.602Z-2.133
X18.586Y8.626Z-2.128
X18.582Y8.651Z-2.122
X18.579Y8.675Z-2.117
X18.577Y8.7Z-2.111
X18.576Y8.725Z-2.109
X18.575Y8.75Z-2.107
Y8.775Z-2.104
Y8.874Z-2.102
Y9.875Z-2.101
Y9.899
X18.576Y9.923
X18.577Y9.948
X18.579Y9.972
X18.582Y9.997
X18.585Y10.021
X18.589Y10.045
X18.594Y10.069
X18.599Y10.093
X18.604Y10.117
X18.611Y10.141
X18.617Y10.164
X18.625Y10.188
X18.633Y10.211
X18.641Y10.234
X18.65Y10.257
X18.66Y10.279
X18.67Y10.301
X18.681Y10.323
X18.692Y10.345
X18.704Y10.367
X18.716Y10.388
X18.729Y10.409
X18.742Y10.429
X19.142Y11.029
X19.156Y11.049
X19.171Y11.069
X19.186Y11.089
X19.201Y11.108
X19.217Y11.127Z-2.102
X19.233Y11.145
X19.25Y11.163
X19.267Y11.181
X19.284Y11.198Z-2.101
X19.302Y11.215
X19.321Y11.231Z-2.102
X19.34Y11.247
X19.359Y11.262
X19.378Y11.277
X19.398Y11.292
X19.418Y11.306
X19.439Y11.319
X19.46Y11.332
X19.617Y11.426
X19.789Y11.529Z-2.12
X19.96Y11.632Z-2.165
X19.982Y11.645Z-2.171
X20.004Y11.657Z-2.176
X20.026Y11.668Z-2.182
X20.048Y11.679Z-2.187
X20.071Y11.689Z-2.192
X20.094Y11.699Z-2.197
X20.117Y11.709Z-2.202
X20.141Y11.717Z-2.207
X20.164Y11.725Z-2.212
X20.188Y11.733Z-2.216
X20.212Y11.74Z-2.221
X20.237Y11.746Z-2.225
X20.261Y11.751Z-2.23
X20.285Y11.756Z-2.234
X20.318Y11.762Z-2.239
X20.91Y11.861Z-2.333
X20.933Y11.864Z-2.337
X20.867Y11.896
X20.506Y12.068Z-2.335
X19.784Y12.413Z-2.332
X19.423Y12.586Z-2.331
X19.243Y12.672Z-2.328
X19.222Y12.683Z-2.327
X19.201Y12.694Z-2.326
X19.18Y12.705
X19.16Y12.717Z-2.325
X19.14Y12.73
X19.12Y12.742
X18.152Y13.388
X17.985Y13.499
X17.653Y13.721Z-2.324
X17.486Y13.832Z-2.325
X17.32Y13.942Z-2.324
X17.299Y13.956
X17.279Y13.971Z-2.325
X17.26Y13.986
X17.241Y14.001
X17.222Y14.017
X17.203Y14.033Z-2.326
X17.185Y14.05
X17.167Y14.067
X17.12Y14.115Z-2.327
X16.978Y14.256Z-2.331
X16.837Y14.398Z-2.334
X16.696Y14.539Z-2.338
X16.554Y14.681Z-2.341
X16.413Y14.822Z-2.345
X16.13Y15.105Z-2.352
X16.105Y15.112Z-2.349
X16.081Y15.119Z-2.346
X16.057Y15.126Z-2.343
X16.034Y15.134Z-2.341
X16.011Y15.143Z-2.338
X15.988Y15.152Z-2.336
X15.965Y15.162Z-2.334
X15.942Y15.173Z-2.332
X15.92Y15.184Z-2.331
X15.898Y15.195Z-2.329
X15.876Y15.207Z-2.328
X15.855Y15.22Z-2.327
X15.834Y15.233Z-2.326
X15.813Y15.247Z-2.325
X15.793Y15.261Z-2.324
X15.773Y15.276Z-2.323
X15.753Y15.291
X15.734Y15.307Z-2.322
X15.715Y15.323
X15.697Y15.339
X15.679Y15.356Z-2.323
X15.661Y15.374
X15.644Y15.392Z-2.324
X15.622Y15.416Z-2.325
X15.489Y15.566Z-2.33
X15.356Y15.715Z-2.329
X15.223Y15.865
X15.09Y16.014Z-2.328
X14.957Y16.164
X14.691Y16.463Z-2.327
X14.293Y16.911Z-2.326
X14.027Y17.21
X14.012Y17.228Z-2.325
X13.997Y17.245
X13.983Y17.263
X13.969Y17.282
X13.955Y17.301Z-2.324
X13.942Y17.32
X13.852Y17.456
X13.741Y17.622
X13.519Y17.955Z-2.325
X13.408Y18.121
X13.297Y18.288
X12.742Y19.12
X12.729Y19.141
X12.716Y19.162
X12.703Y19.183Z-2.326
X12.691Y19.205
X12.672Y19.243Z-2.328
X12.583Y19.422Z-2.33
X12.135Y20.317Z-2.329
X12.046Y20.495Z-2.328
X11.867Y20.853
X11.863Y20.826Z-2.324
X11.86Y20.802Z-2.32
X11.855Y20.778Z-2.316
X11.85Y20.753Z-2.312
X11.844Y20.729Z-2.308
X11.838Y20.706Z-2.303
X11.831Y20.682Z-2.299
X11.823Y20.658Z-2.294
X11.713Y20.327Z-2.228
X11.65Y20.138Z-2.19
X11.586Y19.948Z-2.153
X11.523Y19.758Z-2.115
X11.515Y19.735Z-2.11
X11.506Y19.711Z-2.105
X11.497Y19.688Z-2.102
X11.487Y19.665
X11.476Y19.643
X11.465Y19.62
X11.454Y19.598
X11.442Y19.576
X11.429Y19.555
X11.416Y19.534
X11.402Y19.513
X11.388Y19.492
X11.373Y19.472
X11.357Y19.452
X11.342Y19.433
X11.325Y19.414
X11.309Y19.396
X11.292Y19.377
X11.274Y19.36
X11.256Y19.343
X11.237Y19.326
X11.218Y19.309
X11.199Y19.294Z-2.101
X10.699Y18.894
X10.68Y18.878
X10.66Y18.864
X10.639Y18.849
X10.619Y18.836
X10.598Y18.822
X10.577Y18.81
X10.555Y18.798
X10.533Y18.786
X10.511Y18.775
X10.489Y18.764
X10.466Y18.754
X10.443Y18.745
X10.42Y18.736
X10.397Y18.728
X10.373Y18.72
X10.349Y18.713
X9.649Y18.513
X9.625Y18.507
X9.602Y18.501
X9.577Y18.495
X9.553Y18.491
X9.529Y18.487
X9.505Y18.483
X9.48Y18.48
X9.456Y18.478
X9.431Y18.476
X9.406Y18.475
X9.382
X9.357
X9.333
X9.308Y18.477
X9.283Y18.479
X9.259Y18.481
X9.234Y18.484
X9.202Y18.489
X8.807Y18.555Z-2.102
X8.61Y18.588Z-2.131
X8.587Y18.592Z-2.136
X8.563Y18.597Z-2.141
X8.54Y18.602Z-2.146
X8.516Y18.608Z-2.151
X8.493Y18.615Z-2.156
X8.471Y18.622Z-2.161
X8.448Y18.629Z-2.165
X8.425Y18.637Z-2.17
X8.403Y18.646Z-2.174
X8.381Y18.655Z-2.178
X8.359Y18.665Z-2.182
X8.337Y18.675Z-2.186
X8.316Y18.686Z-2.19
X8.295Y18.697Z-2.193
X8.274Y18.709Z-2.197
X8.253Y18.721Z-2.201
X8.233Y18.734Z-2.204
X8.213Y18.747Z-2.208
X8.193Y18.761Z-2.211
X7.656Y19.145Z-2.295
X7.493Y19.261Z-2.32
X7.474Y19.275Z-2.323
X7.455Y19.29Z-2.326
X7.436Y19.305Z-2.329
X7.412Y19.325Z-2.332
X7.428Y19.293
X7.515Y19.113Z-2.333
X7.602Y18.933
X7.689Y18.753Z-2.334
X7.775Y18.573Z-2.333
X8.123Y17.852Z-2.336
X8.21Y17.672
X8.297Y17.492Z-2.337
X8.384Y17.312
X8.645Y16.772Z-2.339
X8.726Y16.65Z-2.335
X8.837Y16.484Z-2.334
X9.059Y16.151Z-2.335
X9.281Y15.818Z-2.334
X9.502Y15.485Z-2.335
X9.613Y15.319
X9.724Y15.153
X10.057Y14.653
X10.168Y14.487
X10.268Y14.375Z-2.331
X10.401Y14.225Z-2.33
X10.533Y14.076
X10.666Y13.926Z-2.329
X10.799Y13.777Z-2.33
X10.932Y13.627Z-2.329
X11.198Y13.328Z-2.328
X11.331Y13.179
X11.464Y13.029Z-2.327
X11.596Y12.88
X11.729Y12.731
X11.862Y12.581
X11.995Y12.432Z-2.326
X12.128Y12.282Z-2.328
X12.261Y12.133Z-2.331
X12.287Y12.124Z-2.328
X12.31Y12.116Z-2.325
X12.333Y12.108Z-2.322
X12.356Y12.099Z-2.319
X12.378Y12.089Z-2.316
X12.401Y12.079Z-2.314
X12.423Y12.068Z-2.313
X12.444Y12.057Z-2.311
X12.466Y12.045Z-2.31
X12.487Y12.033Z-2.309
G0Z10
X24.775Y9.638
G1Z-2.101F500
Y9.446F1000
X24.793Y9.483
X24.816Y9.527
X24.84Y9.569
X24.867Y9.616
X24.835Y9.623
X24.775Y9.638
X24.574Y7.803
X24.358Y7.369
X24.335Y7.326
X24.312Y7.283
X24.287Y7.242
X24.261Y7.2
X24.235Y7.159
X24.207Y7.119
X24.178Y7.08
X24.148Y7.039
X24.647Y6.94
X24.637Y6.978
X24.626Y7.025
X24.615Y7.073
X24.606Y7.121
X24.598Y7.169
X24.591Y7.218
X24.585Y7.267
X24.581Y7.315
X24.578Y7.364
X24.575Y7.413
X24.574Y7.475
Y7.803
X23.68Y8.249
X23.648Y8.185
X23.469Y7.827
X23.458Y7.806
X23.446Y7.784
X23.434Y7.763
X23.421Y7.742
X23.408Y7.722
X23.394Y7.702
X23.38Y7.682
X23.365Y7.663
X23.35Y7.644
X23.335Y7.625
X23.319Y7.607
X23.302Y7.589
X23.285Y7.571
X23.268Y7.554
X23.25Y7.537
X23.232Y7.521
X23.214Y7.505
X23.195Y7.49
X23.175Y7.475
X23.156Y7.461
X22.944Y7.31
X22.781Y7.193Z-2.103
X22.618Y7.077Z-2.137
X22.456Y6.961Z-2.177
X22.436Y6.947Z-2.181
X22.416Y6.934Z-2.186
X22.396Y6.921Z-2.19
X22.375Y6.909Z-2.194
X22.354Y6.897Z-2.198
X22.333Y6.886Z-2.202
X22.312Y6.875Z-2.206
X22.29Y6.865Z-2.21
X22.268Y6.855Z-2.214
X22.246Y6.846Z-2.218
X22.224Y6.837Z-2.221
X22.201Y6.829Z-2.225
X22.178Y6.822Z-2.229
X22.156Y6.815Z-2.232
X22.133Y6.808Z-2.236
X22.109Y6.802Z-2.24
X22.086Y6.797Z-2.243
X22.062Y6.792Z-2.246
X22.031Y6.787Z-2.25
X21.636Y6.721Z-2.301
X21.439Y6.688Z-2.327
X21.415Y6.684Z-2.33
X21.391Y6.681Z-2.333
X21.355Y6.678Z-2.336
X22.037Y6.442Z-2.338
X22.151Y6.419Z-2.335
X24.7Y5.909Z-2.336
X24.896Y5.87
X25.059Y5.862Z-2.329
X25.259Y5.853Z-2.322
X25.459Y5.844Z-2.32
X26.857Y5.779Z-2.312
X26.46Y6.017Z-2.255
X26.439Y6.03Z-2.252
X26.418Y6.043Z-2.249
X26.398Y6.057Z-2.246
X26.378Y6.072Z-2.242
X26.359Y6.087Z-2.239
X26.34Y6.102Z-2.235
X26.321Y6.118Z-2.231
X26.302Y6.134Z-2.227
X26.284Y6.151Z-2.223
X26.267Y6.168Z-2.218
X26.25Y6.186Z-2.214
X26.233Y6.204Z-2.209
X26.217Y6.222Z-2.205
X26.201Y6.241Z-2.2
X26.186Y6.26Z-2.195
X26.171Y6.28Z-2.19
X26.156Y6.3Z-2.185
X26.142Y6.32Z-2.18
X25.964Y6.587Z-2.111
X25.853Y6.753Z-2.101
X25.742Y6.92Z-2.1
X25.729Y6.94
X25.716Y6.961
X25.704Y6.982
X25.692Y7.004
X25.681Y7.026
X25.67Y7.048
X25.66Y7.07
X25.65Y7.092
X25.641Y7.115
X25.633Y7.138
X25.625Y7.161
X25.617Y7.185
X25.611Y7.208
X25.604Y7.232
X25.599Y7.256
X25.594Y7.28
X25.589Y7.304
X25.585Y7.328
X25.582Y7.352
X25.579Y7.377
X25.577Y7.401
X25.576Y7.426
X25.575Y7.45
X25.574Y7.475
Y8.575
X25.575Y8.599
X25.576Y8.623
X25.577Y8.648
X25.579Y8.672
X25.582Y8.697
X25.585Y8.721
X25.589Y8.745
X25.594Y8.769
X25.599Y8.793
X25.604Y8.817
X25.611Y8.841
X25.617Y8.864
X25.625Y8.888
X25.633Y8.911
X25.641Y8.934
X25.65Y8.957
X25.66Y8.979
X25.67Y9.001
X25.681Y9.023
X25.692Y9.045
X25.704Y9.067
X25.716Y9.088
X25.729Y9.109
X25.742Y9.129
X25.921Y9.396
X26.032Y9.563Z-2.104
X26.142Y9.729Z-2.129
X26.156Y9.749Z-2.134
X26.171Y9.769Z-2.14
X26.186Y9.789Z-2.145
X26.201Y9.808Z-2.151
X26.217Y9.827Z-2.156
X26.233Y9.845Z-2.161
X26.25Y9.863Z-2.167
X26.267Y9.881Z-2.172
X26.284Y9.898Z-2.176
X26.302Y9.915Z-2.181
X26.321Y9.931Z-2.186
X26.34Y9.947Z-2.19
X26.359Y9.962Z-2.195
X26.378Y9.977Z-2.199
X26.398Y9.992Z-2.203
X26.418Y10.006Z-2.207
X26.439Y10.019Z-2.211
X26.46Y10.032Z-2.215
X26.96Y10.332Z-2.304
X26.981Y10.344Z-2.308
X27.003Y10.356Z-2.311
X27.025Y10.368Z-2.315
X27.047Y10.378Z-2.318
X27.069Y10.389Z-2.321
X27.092Y10.398Z-2.324
X27.114Y10.407Z-2.327
X27.137Y10.416Z-2.33
X27.161Y10.424Z-2.332
X27.184Y10.431Z-2.335
X27.208Y10.438Z-2.337
X27.231Y10.444Z-2.339
X27.251Y10.449Z-2.341
X26.011Y10.527Z-2.339
X25.811Y10.539Z-2.34
X25.611Y10.551
X25.412Y10.564Z-2.336
X25.212Y10.576Z-2.329
X25.187Y10.578Z-2.328
X25.161Y10.581Z-2.327
X25.136Y10.584
X25.111Y10.588
X25.086Y10.592Z-2.326
X25.061Y10.598Z-2.327
X25.036Y10.603
X24.989Y10.616
X24.217Y10.826Z-2.342
X24.025Y10.879Z-2.346
X23.832Y10.932Z-2.35
X23.639Y10.984Z-2.354
X23.446Y11.037Z-2.353
X23.253Y11.089Z-2.349
X23.06Y11.142Z-2.346
X22.867Y11.195Z-2.343
X22.993Y11.104Z-2.331
X23.156Y10.988Z-2.315
X23.176Y10.974Z-2.313
X23.195Y10.958Z-2.311
X23.215Y10.943Z-2.309
X23.233Y10.927Z-2.307
X23.252Y10.91Z-2.304
X23.27Y10.893Z-2.302
X23.287Y10.876Z-2.299
X23.305Y10.858Z-2.296
X23.321Y10.839Z-2.292
X23.338Y10.821Z-2.289
X23.353Y10.802Z-2.285
X23.369Y10.782Z-2.281
X23.383Y10.762Z-2.277
X23.398Y10.742Z-2.273
X23.412Y10.722Z-2.269
X23.425Y10.701Z-2.265
X23.438Y10.679Z-2.261
X23.45Y10.658Z-2.256
X23.462Y10.636Z-2.252
X23.473Y10.614Z-2.247
X23.483Y10.591Z-2.242
X23.493Y10.569Z-2.236
X23.503Y10.546Z-2.231
X23.629Y10.232Z-2.155
X23.703Y10.046Z-2.112
X23.712Y10.024Z-2.107
X23.72Y10.001Z-2.102
X23.727Y9.979
X23.734Y9.956
X23.74Y9.933Z-2.101
X23.746Y9.91
X23.752Y9.887
X23.756Y9.864
X23.761Y9.84
X23.764Y9.817
X23.767Y9.793
X23.77Y9.769
X23.772Y9.746
X23.773Y9.722
X23.774Y9.698
X23.775Y9.675
Y8.675
X23.774Y8.65
X23.773Y8.626
X23.772Y8.601
X23.77Y8.577
X23.767Y8.553
X23.764Y8.529
X23.76Y8.505
X23.756Y8.481
X23.75Y8.457
X23.745Y8.433
X23.739Y8.409
X23.732Y8.386
X23.725Y8.363
X23.717Y8.339
X23.708Y8.317
X23.699Y8.294
X23.69Y8.271
X23.68Y8.249
G0Z10
X31.135Y9.707
G1Z-2.102F500
X31.275Y9.36Z-2.101F1000
Y9.726
X31.135Y9.707Z-2.102
X31.475Y7.803Z-2.101
X31.474Y7.462
Y7.414
X31.471Y7.365
X31.468Y7.316
X31.464Y7.267
X31.458Y7.219
X31.451Y7.171
X31.443Y7.123
X31.434Y7.075
X31.424Y7.027
X31.412Y6.979
X31.402Y6.94
X31.925Y7.044
X31.905Y7.073
X31.879Y7.114
X31.86Y7.146
X31.553Y7.656
X31.529Y7.699
X31.505Y7.742
X31.483Y7.786
X31.475Y7.803
X32.371Y8.247
X32.36Y8.269
X32.351Y8.292
X32.342Y8.314
X32.333Y8.337
X32.325Y8.361
X32.318Y8.384
X32.311Y8.408
X32.305Y8.431
X32.299Y8.455
X32.294Y8.479
X32.289Y8.503
X32.285Y8.528
X32.282Y8.552
X32.279Y8.576
X32.277Y8.601
X32.276Y8.625
X32.275Y8.65
Y8.675
Y9.775
Y9.799
X32.276Y9.824
X32.277Y9.848
X32.279Y9.873
X32.282Y9.897
X32.285Y9.921
X32.289Y9.946
X32.294Y9.97
X32.299Y9.994
X32.305Y10.018Z-2.105
X32.311Y10.041Z-2.11
X32.318Y10.065Z-2.115
X32.325Y10.088Z-2.12
X32.333Y10.112Z-2.125
X32.342Y10.135Z-2.131
X32.351Y10.157Z-2.136
X32.36Y10.18Z-2.142
X32.371Y10.202Z-2.147
X32.381Y10.224Z-2.152
X32.393Y10.246Z-2.157
X32.405Y10.268Z-2.162
X32.417Y10.289Z-2.167
X32.511Y10.446Z-2.204
X32.614Y10.617Z-2.241
X32.717Y10.789Z-2.276
X32.73Y10.81Z-2.28
X32.743Y10.831Z-2.284
X32.757Y10.851Z-2.288
X32.772Y10.871Z-2.292
X32.787Y10.89Z-2.296
X32.802Y10.909Z-2.299
X32.818Y10.928Z-2.302
X32.834Y10.947Z-2.306
X32.851Y10.965Z-2.309
X32.868Y10.982Z-2.311
X32.886Y10.999Z-2.314
X32.904Y11.016Z-2.317
X32.922Y11.032Z-2.32
X32.94Y11.047Z-2.322
X32.603Y10.93Z-2.321
X32.579Y10.922
X32.554Y10.914Z-2.322
X32.53Y10.908
X32.505Y10.901Z-2.323
X32.48Y10.896
X32.455Y10.891Z-2.324
X32.43Y10.887
X32.405Y10.883
X31.672Y10.787Z-2.338
X31.474Y10.761Z-2.341
X31.276Y10.734Z-2.345
X31.077Y10.708Z-2.348
X30.879Y10.682Z-2.352
X30.681Y10.656Z-2.355
X30.482Y10.63Z-2.358
X30.284Y10.604Z-2.356
X30.086Y10.578Z-2.351
X28.896Y10.421Z-2.33
X28.915Y10.415Z-2.328
X28.938Y10.406Z-2.326
X28.961Y10.397Z-2.323
X28.984Y10.387Z-2.32
X29.006Y10.376Z-2.317
X29.029Y10.365Z-2.313
X29.051Y10.354Z-2.31
X29.072Y10.342Z-2.306
X29.094Y10.329Z-2.302
X29.115Y10.316Z-2.299
X29.135Y10.302Z-2.294
X29.156Y10.288Z-2.29
X29.53Y10.021Z-2.212
X29.693Y9.904Z-2.179
X29.856Y9.788Z-2.144
X29.876Y9.774Z-2.14
X29.895Y9.758Z-2.136
X29.915Y9.743Z-2.131
X29.933Y9.727Z-2.127
X29.952Y9.71Z-2.122
X29.97Y9.693Z-2.118
X29.987Y9.676Z-2.116
X30.005Y9.658Z-2.114
X30.021Y9.639Z-2.111
X30.038Y9.621Z-2.109
X30.053Y9.602Z-2.108
X30.069Y9.582Z-2.106
X30.083Y9.562Z-2.105
X30.098Y9.542Z-2.103
X30.112Y9.522Z-2.102
X30.125Y9.501Z-2.101
X30.138Y9.479
X30.15Y9.458
X30.162Y9.436
X30.173Y9.414Z-2.1
X30.183Y9.391
X30.193Y9.369
X30.203Y9.346
X30.403Y8.846
X30.412Y8.824
X30.42Y8.801
X30.427Y8.779
X30.434Y8.756
X30.44Y8.733
X30.446Y8.71
X30.452Y8.687
X30.456Y8.664
X30.461Y8.64
X30.464Y8.617
X30.467Y8.593
X30.47Y8.569
X30.472Y8.546
X30.473Y8.522
X30.474Y8.498
X30.475Y8.475
Y7.475
X30.474Y7.45
X30.473Y7.426
X30.472Y7.401
X30.47Y7.377
X30.467Y7.353
X30.464Y7.329
X30.46Y7.305
X30.456Y7.281
X30.45Y7.257
X30.445Y7.233
X30.439Y7.209
X30.432Y7.186
X30.425Y7.163
X30.417Y7.139
X30.408Y7.117
X30.399Y7.094
X30.39Y7.071
X30.38Y7.049
X30.348Y6.985
X30.258Y6.806
X30.169Y6.627Z-2.108
X30.158Y6.606Z-2.11
X30.146Y6.584Z-2.114
X30.134Y6.563Z-2.119
X30.121Y6.542Z-2.125
X30.108Y6.522Z-2.13
X30.094Y6.502Z-2.135
X30.08Y6.482Z-2.14
X30.065Y6.463Z-2.145
X30.05Y6.444Z-2.15
X30.035Y6.425Z-2.155
X30.019Y6.407Z-2.159
X30.002Y6.389Z-2.164
X29.985Y6.371Z-2.168
X29.968Y6.354Z-2.173
X29.95Y6.337Z-2.177
X29.932Y6.321Z-2.181
X29.914Y6.305Z-2.185
X29.895Y6.29Z-2.188
X29.875Y6.275Z-2.192
X29.856Y6.261Z-2.196
X29.156Y5.761Z-2.317
X29.135Y5.747Z-2.321
X29.115Y5.733Z-2.324
X29.094Y5.72Z-2.327
X29.072Y5.707Z-2.33
X29.051Y5.695Z-2.333
X29.029Y5.684Z-2.336
X29.018Y5.678Z-2.337
X29.052Y5.677Z-2.338
X30.533Y5.811Z-2.328
X30.732Y5.829
X30.932Y5.847Z-2.333
X31.131Y5.866Z-2.338
X33.816Y6.403
X34.012Y6.442Z-2.342
X34.694Y6.678Z-2.34
X34.658Y6.681Z-2.336
X34.634Y6.684Z-2.334
X34.602Y6.689Z-2.33
X34.207Y6.755Z-2.279
X34.01Y6.788Z-2.253
X33.986Y6.793Z-2.25
X33.961Y6.798Z-2.247
X33.937Y6.803Z-2.243
X33.913Y6.809Z-2.24
X33.889Y6.816Z-2.236
X33.865Y6.824Z-2.232
X33.842Y6.832Z-2.228
X33.818Y6.84Z-2.224
X33.795Y6.849Z-2.219
X33.772Y6.859Z-2.215
X33.75Y6.869Z-2.211
X33.727Y6.88Z-2.207
X33.705Y6.891Z-2.203
X33.683Y6.903Z-2.199
X33.662Y6.916Z-2.194
X33.641Y6.929Z-2.19
X33.62Y6.942Z-2.185
X33.519Y7.01Z-2.163
X33.353Y7.121Z-2.124
X33.186Y7.232Z-2.101
X33.02Y7.342
X33Y7.356
X32.98Y7.371
X32.96Y7.386
X32.941Y7.401
X32.922Y7.417
X32.904Y7.433
X32.886Y7.45
X32.868Y7.467
X32.851Y7.484
X32.834Y7.502
X32.818Y7.521
X32.802Y7.54
X32.787Y7.559
X32.772Y7.578
X32.757Y7.598
X32.743Y7.618
X32.73Y7.639
X32.717Y7.66
X32.417Y8.16
X32.405Y8.181
X32.393Y8.203
X32.381Y8.225
X32.371Y8.247
G0Z10
X39.213Y11.006
G1Z-2.102F500
X39.504Y11.2F1000
X39.671Y11.311Z-2.101
X39.837Y11.422Z-2.1
X40.336Y11.755
X42.286Y13.491
X42.331Y13.564
X42.37Y13.626
X42.411Y13.687
X42.454Y13.747
X42.498Y13.805
X42.544Y13.863
X42.59Y13.919
X42.639Y13.975
X42.697Y14.038
X44.32Y15.752
X44.69Y16.305
X44.8Y16.472Z-2.102
X45.022Y16.805
X44.959Y16.832
X44.891Y16.863
X44.824Y16.896
X44.758Y16.93
X44.693Y16.966
X44.628Y17.004
X44.565Y17.043
X44.502Y17.084
X44.431Y17.133
X44.4Y17.155
X44.214Y16.876
X44.103Y16.71Z-2.1
X43.757Y16.19
X43.715Y16.129
X43.671Y16.07
X43.625Y16.011
X43.579Y15.954
X43.531Y15.897
X43.481Y15.842
X43.43Y15.788
X43.396Y15.754
X42.639Y14.995
X42.6Y14.924
X42.563Y14.859
X42.525Y14.795
X42.485Y14.732
X42.443Y14.67
X42.4Y14.61
X42.356Y14.55
X42.31Y14.491
X42.262Y14.434
X42.213Y14.378
X42.163Y14.323
X42.112Y14.269
X42.059Y14.217
X42.004Y14.166
X41.961Y14.127
X40.15Y12.517
X40.098Y12.472
X40.044Y12.428
X39.989Y12.386
X39.933Y12.344
X39.877Y12.304
X39.839Y12.278
X39.428Y12.005
X39.262Y11.894Z-2.101
X39.095Y11.783Z-2.102
X38.929Y11.672
X38.964Y11.604
X38.996Y11.537
X39.027Y11.469
X39.065Y11.377
X39.213Y11.006
X39.784Y10.185
X40.617Y10.74
X40.949Y10.961Z-2.103
X40.988Y10.996
X41.138Y11.129Z-2.101
X41.287Y11.262Z-2.1
X42.781Y12.591
X42.931Y12.724Z-2.103
X43.08Y12.857Z-2.104
X43.103Y12.904
X43.127Y12.947Z-2.103
X43.151Y12.989
X43.164Y13.01
X43.189Y13.052Z-2.102
X43.216Y13.093Z-2.101
X43.244Y13.133
X43.273Y13.172
X43.303Y13.211Z-2.1
X43.333Y13.249
X43.365Y13.287
X43.398Y13.323
X43.423Y13.35
X44.692Y14.69
X44.83Y14.836Z-2.101
X45.105Y15.126Z-2.103
X45.202Y15.272
X45.313Y15.438Z-2.102
X46.423Y17.102
X46.534Y17.269
X46.546Y17.295
X46.633Y17.475Z-2.103
X46.61Y17.476Z-2.102
X46.561Y17.478
X46.512Y17.481
X46.463Y17.486
X46.415Y17.491
X46.366Y17.498
X46.318Y17.507
X46.282Y17.513
X45.77Y17.616
X45.722Y17.627
X45.673Y17.638
X45.625Y17.651
X45.578Y17.666
X45.53Y17.681
X45.483Y17.698
X45.437Y17.716
X45.391Y17.734
X45.345Y17.755
X45.3Y17.776
X45.256Y17.798
X45.212Y17.821
X45.169Y17.846
X45.126Y17.871
X45.084Y17.898
X45.043Y17.926
X45.012Y17.947
X44.302Y18.454
X44.263Y18.483
X44.224Y18.513
X44.187Y18.544
X44.147Y18.578
X43.05Y16.932
X42.932Y16.755Z-2.101
X42.904Y16.714
X42.889Y16.694Z-2.1
X42.86Y16.655
X42.829Y16.616
X42.797Y16.578
X42.765Y16.541
X42.732Y16.505
X42.689Y16.461
X41.81Y15.581
X41.794Y15.544
X41.773Y15.499
X41.75Y15.455
X41.727Y15.411
X41.703Y15.368
X41.677Y15.325
X41.65Y15.283
X41.623Y15.242
X41.594Y15.201
X41.565Y15.161
X41.534Y15.122
X41.502Y15.084
X41.47Y15.046
X41.436Y15.01
X41.402Y14.974
X41.367Y14.939
X41.331Y14.905
X41.297Y14.874
X41.148Y14.741Z-2.101
X40.998Y14.608Z-2.1
X39.495Y13.272
X39.459Y13.242
X39.424Y13.213
X39.387Y13.184
X39.35Y13.157
X39.313Y13.13
X39.284Y13.11Z-2.101
X39.148Y13.02
X38.982Y12.909Z-2.102
X37.474Y11.904
X37.453Y11.89
X37.487Y11.865
X37.526Y11.835
X37.564Y11.803
X37.602Y11.771
X37.638Y11.737
X37.674Y11.703
X37.709Y11.668
X37.743Y11.632
X37.776Y11.595
X37.809Y11.558
X37.84Y11.519
X37.87Y11.48
X37.9Y11.44
X37.928Y11.399
X37.955Y11.358
X37.982Y11.316
X38.007Y11.273
X38.031Y11.23
X38.054Y11.186
X38.077Y11.142
X38.097Y11.097
X38.117Y11.052
X38.131Y11.017
X38.336Y10.506
X38.353Y10.462
X38.368Y10.417
X38.383Y10.372
X38.397Y10.326
X38.409Y10.28
X38.421Y10.234
X38.431Y10.188
X38.441Y10.141
X38.449Y10.094
X38.456Y10.047
X38.462Y10
X38.467Y9.953
X38.47Y9.905
X38.473Y9.858
X38.474Y9.81
Y9.768
Y9.568
Y9.368
X38.6Y9.428
X38.78Y9.515
X39.784Y10.185
X40.397Y9.391Z-2.342
X40.564Y9.502Z-2.343
X41.229Y9.946Z-2.342
X41.562Y10.168Z-2.343
X41.674Y10.268Z-2.34
X41.824Y10.401Z-2.339
X41.973Y10.533
X42.123Y10.666Z-2.338
X42.272Y10.799Z-2.339
X42.422Y10.932Z-2.337
X42.721Y11.198
X42.87Y11.331
X43.02Y11.464Z-2.336
X43.169Y11.596
X43.318Y11.729
X43.468Y11.862Z-2.335
X43.617Y11.995
X43.767Y12.128Z-2.338
X43.916Y12.261Z-2.341
X43.925Y12.287Z-2.338
X43.933Y12.31Z-2.335
X43.941Y12.333Z-2.332
X43.95Y12.356Z-2.329
X43.96Y12.378Z-2.327
X43.97Y12.401Z-2.324
X43.981Y12.423Z-2.323
X43.992Y12.444Z-2.321
X44.004Y12.466Z-2.32
X44.016Y12.487Z-2.319
X44.029Y12.508Z-2.318
X44.042Y12.528Z-2.317
X44.056Y12.549Z-2.316
X44.07Y12.569Z-2.315
X44.085Y12.588
X44.1Y12.607
X44.116Y12.626
X44.132Y12.644
X44.149Y12.662
X44.514Y13.048Z-2.32
X44.652Y13.194Z-2.322
X44.927Y13.484Z-2.326
X45.065Y13.629Z-2.328
X45.202Y13.774Z-2.331
X45.34Y13.919Z-2.332
X45.477Y14.065Z-2.334
X45.615Y14.21Z-2.336
X45.752Y14.355Z-2.339
X45.89Y14.5Z-2.347
X46.184Y14.941Z-2.346
X46.295Y15.107
X46.406Y15.274
X46.517Y15.44
X46.738Y15.773
X47.293Y16.605
X47.404Y16.772Z-2.351
X47.444Y16.855
X47.792Y17.576Z-2.348
X47.879Y17.756
X48.14Y18.296Z-2.346
X48.314Y18.656
X48.401Y18.836Z-2.345
X48.575Y19.197
X48.662Y19.377Z-2.344
X48.749Y19.557Z-2.346
X48.801Y19.709Z-2.347
X48.738Y19.603Z-2.339
X48.635Y19.432Z-2.331
X48.532Y19.26Z-2.326
X48.519Y19.239
X48.506Y19.218Z-2.325
X48.492Y19.198Z-2.324
X48.477Y19.178Z-2.323
X48.462Y19.159Z-2.322
X48.447Y19.139Z-2.32
X48.431Y19.121Z-2.319
X48.415Y19.102Z-2.317
X48.398Y19.084Z-2.315
X48.381Y19.066Z-2.313
X48.363Y19.049Z-2.311
X48.345Y19.033Z-2.309
X48.326Y19.016Z-2.306
X48.308Y19Z-2.303
X48.288Y18.985Z-2.301
X48.269Y18.97Z-2.298
X48.249Y18.956Z-2.294
X48.228Y18.942Z-2.291
X48.208Y18.929Z-2.288
X48.187Y18.916Z-2.285
X48.165Y18.903Z-2.281
X48.144Y18.891Z-2.277
X48.122Y18.88Z-2.273
X48.1Y18.869Z-2.269
X48.077Y18.859Z-2.264
X48.055Y18.85Z-2.26
X48.032Y18.841Z-2.256
X48.009Y18.832Z-2.251
X47.985Y18.824Z-2.247
X47.92Y18.804Z-2.233
X47.728Y18.747Z-2.194
X47.537Y18.689Z-2.155
X47.345Y18.632Z-2.116
X47.153Y18.574Z-2.102
X46.962Y18.517
X46.938Y18.51
X46.915Y18.504Z-2.101
X46.891Y18.498
X46.867Y18.493
X46.843Y18.489
X46.819Y18.485
X46.795Y18.482
X46.77Y18.479
X46.746Y18.477
X46.722Y18.476
X46.697Y18.475
X46.673
X46.648
X46.624Y18.476
X46.599Y18.477
X46.575Y18.479
X46.551Y18.482
X46.527Y18.486
X46.502Y18.489
X46.478Y18.494
X45.978Y18.594
X45.954Y18.599
X45.93Y18.605
X45.906Y18.611
X45.882Y18.618
X45.858Y18.626
X45.835Y18.634
X45.811Y18.643
X45.788Y18.652
X45.766Y18.662
X45.743Y18.672
X45.721Y18.683
X45.699Y18.695
X45.677Y18.707
X45.656Y18.72
X45.634Y18.733
X45.614Y18.747
X45.593Y18.761
X44.893Y19.261
X44.874Y19.275
X44.854Y19.29
X44.835Y19.305
X44.817Y19.321
X44.799Y19.338
X44.781Y19.354Z-2.102
X44.763Y19.371
X44.746Y19.389
X44.73Y19.407
X44.714Y19.425
X44.698Y19.444
X44.683Y19.463
X44.668Y19.483
X44.654Y19.503
X44.64Y19.523
X44.627Y19.543
X44.615Y19.564
X44.602Y19.585
X44.591Y19.607
X44.579Y19.628
X44.569Y19.65
X44.559Y19.673
X44.549Y19.695
X44.54Y19.718Z-2.103
X44.532Y19.741Z-2.105
X44.524Y19.764Z-2.108
X44.517Y19.787Z-2.111
X44.504Y19.829Z-2.117
X44.447Y20.021Z-2.153
X44.389Y20.212Z-2.19
X44.217Y20.787Z-2.3
X44.21Y20.811Z-2.304
X44.204Y20.834Z-2.308
X44.198Y20.858Z-2.312
X44.193Y20.882Z-2.316
X44.189Y20.906Z-2.32
X44.185Y20.933Z-2.324
X44.067Y20.686
X43.981Y20.506Z-2.323
X43.894Y20.326
X43.549Y19.604Z-2.319
X43.463Y19.423
X43.377Y19.243Z-2.317
X43.366Y19.222Z-2.316
X43.355Y19.201Z-2.315
X43.344Y19.18
X43.332Y19.16Z-2.314
X43.319Y19.14
X43.307Y19.12
X43.105Y18.817
X42.994Y18.651Z-2.313
X42.883Y18.485Z-2.314
X42.772Y18.318Z-2.313
X42.661Y18.152Z-2.314
X42.439Y17.819Z-2.313
X42.328Y17.653
X42.217Y17.486
X42.107Y17.32
X42.093Y17.299
X42.078Y17.279
X42.063Y17.26Z-2.314
X42.048Y17.241
X42.032Y17.222Z-2.315
X42.016Y17.203
X41.999Y17.185Z-2.316
X41.982Y17.167
X41.934Y17.12Z-2.317
X41.793Y16.978Z-2.321
X41.651Y16.837Z-2.324
X41.51Y16.696Z-2.328
X41.368Y16.554Z-2.331
X41.227Y16.413Z-2.335
X41.086Y16.271Z-2.338
X40.944Y16.13Z-2.342
X40.937Y16.105Z-2.339
X40.93Y16.081Z-2.336
X40.923Y16.057Z-2.333
X40.915Y16.034Z-2.33
X40.906Y16.011Z-2.328
X40.897Y15.988Z-2.326
X40.887Y15.965Z-2.324
X40.876Y15.942Z-2.322
X40.865Y15.92Z-2.32
X40.854Y15.898Z-2.319
X40.842Y15.876Z-2.318
X40.829Y15.855Z-2.316
X40.816Y15.834
X40.802Y15.813Z-2.315
X40.788Y15.793Z-2.314
X40.773Y15.773Z-2.313
X40.758Y15.753
X40.742Y15.734
X40.726Y15.715Z-2.312
X40.71Y15.697
X40.693Y15.679
X40.675Y15.661Z-2.313
X40.657Y15.644
X40.633Y15.622Z-2.314
X40.483Y15.489Z-2.321
X40.334Y15.356Z-2.32
X40.184Y15.223
X40.035Y15.09Z-2.319
X39.885Y14.957
X39.586Y14.691Z-2.318
X38.839Y14.027Z-2.317
X38.821Y14.012
X38.804Y13.997
X38.785Y13.983
X38.767Y13.969
X38.748Y13.955
X38.729Y13.942
X38.26Y13.63
X38.094Y13.519Z-2.318
X37.928Y13.408Z-2.317
X37.761Y13.297Z-2.318
X37.595Y13.186Z-2.317
X37.262Y12.964
X37.096Y12.853Z-2.318
X36.929Y12.742Z-2.317
X36.908Y12.729Z-2.318
X36.887Y12.716
X36.866Y12.703
X36.844Y12.691Z-2.319
X36.822Y12.68Z-2.32
X36.782Y12.66Z-2.321
X36.603Y12.571Z-2.324
X36.424Y12.481
X35.709Y12.124Z-2.323
X35.53Y12.034Z-2.322
X35.172Y11.855
X35.739Y11.761Z-2.232
X35.762Y11.757Z-2.228
X35.786Y11.752Z-2.224
X35.809Y11.747Z-2.22
X35.833Y11.741Z-2.216
X35.856Y11.734Z-2.211
X35.878Y11.727Z-2.207
X35.901Y11.72Z-2.203
X35.924Y11.712Z-2.198
X35.946Y11.703Z-2.193
X35.968Y11.694Z-2.188
X35.99Y11.684Z-2.183
X36.012Y11.674Z-2.178
X36.033Y11.663Z-2.173
X36.054Y11.652Z-2.168
X36.075Y11.64Z-2.163
X36.096Y11.628Z-2.157
X36.116Y11.615Z-2.152
X36.136Y11.602Z-2.146
X36.156Y11.588Z-2.141
X36.205Y11.553Z-2.126
X36.367Y11.437Z-2.102
X36.53Y11.321
X36.693Y11.204Z-2.101
X36.856Y11.088
X36.876Y11.074
X36.895Y11.058
X36.915Y11.043
X36.933Y11.027
X36.952Y11.01
X36.97Y10.993
X36.987Y10.976
X37.005Y10.958
X37.021Y10.939
X37.038Y10.921
X37.053Y10.902
X37.069Y10.882
X37.083Y10.862
X37.098Y10.842
X37.112Y10.822
X37.125Y10.801
X37.138Y10.779
X37.15Y10.758
X37.162Y10.736
X37.173Y10.714
X37.183Y10.691
X37.193Y10.669
X37.203Y10.646
X37.403Y10.146
X37.412Y10.124
X37.42Y10.101
X37.427Y10.079
X37.434Y10.056
X37.44Y10.033
X37.446Y10.01
X37.452Y9.987
X37.456Y9.964
X37.461Y9.94
X37.464Y9.917
X37.467Y9.893
X37.47Y9.869
X37.472Y9.846
X37.473Y9.822
X37.474Y9.798
Y9.775
Y9.175
Y8.974Z-2.102
Y8.775Z-2.106
Y8.75Z-2.109
X37.473Y8.726Z-2.113
X37.472Y8.701Z-2.117
X37.47Y8.677Z-2.122
X37.467Y8.652Z-2.128
X37.464Y8.628Z-2.133
X37.46Y8.604Z-2.139
X37.455Y8.58Z-2.144
X37.45Y8.556Z-2.149
X37.445Y8.532Z-2.154
X37.438Y8.508Z-2.159
X37.432Y8.485Z-2.164
X37.424Y8.461Z-2.168
X37.416Y8.438Z-2.173
X37.408Y8.415Z-2.178
X37.399Y8.392Z-2.182
X37.389Y8.37Z-2.186
X37.379Y8.348Z-2.19
X37.368Y8.326Z-2.194
X37.357Y8.304Z-2.198
X37.345Y8.282Z-2.202
X37.333Y8.261Z-2.205
X37.32Y8.24Z-2.209
X37.307Y8.22Z-2.212
X37.239Y8.119Z-2.229
X36.907Y7.62Z-2.31
X36.893Y7.6Z-2.313
X36.878Y7.58Z-2.316
X36.863Y7.56Z-2.319
X36.848Y7.541Z-2.322
X36.832Y7.522Z-2.324
X36.816Y7.504Z-2.327
X36.799Y7.486Z-2.329
X36.782Y7.468Z-2.331
X36.765Y7.451Z-2.333
X36.747Y7.434Z-2.335
X36.728Y7.418Z-2.337
X36.719Y7.41Z-2.338
X36.756Y7.428
X36.936Y7.515
X37.116Y7.602Z-2.339
X37.296Y7.689Z-2.34
X37.476Y7.775Z-2.339
X38.017Y8.036Z-2.341
X38.197Y8.123Z-2.342
X38.377Y8.21
X39.277Y8.645Z-2.345
X39.399Y8.726Z-2.342
X39.898Y9.059
X40.064Y9.17
X40.231Y9.281
X40.397Y9.391
G0Z10
X46.428Y24.844
G1Z-2.101F500
X46.462Y24.85F1000
X46.433Y24.867
X46.428Y24.844
X48.246Y24.574
X48.281Y24.557
X48.324Y24.535
X48.366Y24.512
X48.407Y24.487
X48.448Y24.462
X48.488Y24.436
X48.537Y24.402
X48.995Y24.075
X49.109Y24.647Z-2.102
X49.073Y24.638Z-2.101
X49.025Y24.626
X48.977Y24.615
X48.929Y24.606
X48.88Y24.598
X48.832Y24.591
X48.783Y24.585
X48.734Y24.581
X48.685Y24.578
X48.636Y24.575
X48.574Y24.574
X48.246
X47.812Y23.674
X47.833Y23.663
X47.854Y23.652
X47.875Y23.64
X47.896Y23.628
X47.916Y23.615
X47.936Y23.602
X47.956Y23.588
X48.656Y23.088
X48.676Y23.074
X48.695Y23.058
X48.715Y23.043
X48.733Y23.027
X48.752Y23.01
X48.77Y22.993
X48.787Y22.976
X48.805Y22.958Z-2.102
X48.821Y22.939Z-2.104
X48.838Y22.921Z-2.107
X48.853Y22.902Z-2.109
X48.869Y22.882Z-2.112
X48.883Y22.862Z-2.116
X48.898Y22.842Z-2.119
X48.912Y22.822Z-2.124
X48.925Y22.801Z-2.128
X48.938Y22.779Z-2.133
X48.95Y22.758Z-2.137
X48.962Y22.736Z-2.142
X48.973Y22.714Z-2.146
X48.983Y22.691Z-2.15
X48.993Y22.669Z-2.154
X49.003Y22.646Z-2.158
X49.054Y22.517Z-2.178
X49.129Y22.332Z-2.207
X49.203Y22.146Z-2.238
X49.212Y22.124Z-2.242
X49.22Y22.101Z-2.246
X49.227Y22.079Z-2.25
X49.234Y22.056Z-2.254
X49.24Y22.033Z-2.257
X49.246Y22.01Z-2.261
X49.252Y21.987Z-2.264
X49.256Y21.964Z-2.267
X49.261Y21.94Z-2.27
X49.264Y21.917Z-2.273
X49.267Y21.893Z-2.276
X49.27Y21.869Z-2.279
X49.272Y21.846Z-2.281
X49.273Y21.822Z-2.284
X49.274Y21.798Z-2.286
Y21.775Z-2.288
Y21.676Z-2.296
Y21.476Z-2.314
Y21.276Z-2.331
Y21.076Z-2.348
X49.346Y21.281Z-2.349
X49.411Y21.47
X49.476Y21.659Z-2.35
X49.542Y21.848
X49.607Y22.037Z-2.351
X49.63Y22.151Z-2.349
X49.708Y22.543
X49.748Y22.739Z-2.348
X49.787Y22.935Z-2.349
X50.179Y24.896
X50.187Y25.068Z-2.342
X50.196Y25.268Z-2.335
X50.206Y25.468Z-2.333
X50.271Y26.866Z-2.326
X49.907Y26.32Z-2.238
X49.893Y26.3Z-2.234
X49.878Y26.28Z-2.231
X49.863Y26.26Z-2.227
X49.848Y26.241Z-2.223
X49.832Y26.222Z-2.219
X49.816Y26.204Z-2.215
X49.799Y26.186Z-2.211
X49.782Y26.168Z-2.207
X49.765Y26.151Z-2.203
X49.747Y26.134Z-2.198
X49.728Y26.118Z-2.193
X49.709Y26.102Z-2.189
X49.69Y26.087Z-2.184
X49.671Y26.072Z-2.179
X49.651Y26.057Z-2.174
X49.631Y26.043Z-2.169
X49.61Y26.03Z-2.163
X49.589Y26.017Z-2.158
X49.432Y25.923Z-2.117
X49.26Y25.82Z-2.101
X49.089Y25.717Z-2.1
X49.068Y25.705
X49.046Y25.693
X49.024Y25.681
X49.002Y25.671
X48.98Y25.66
X48.957Y25.651
X48.935Y25.642
X48.912Y25.633
X48.888Y25.625
X48.865Y25.618
X48.841Y25.611
X48.818Y25.605
X48.794Y25.599
X48.77Y25.594
X48.746Y25.589
X48.721Y25.585
X48.697Y25.582
X48.673Y25.579
X48.648Y25.577
X48.624Y25.576
X48.599Y25.575
X48.574Y25.574
X47.474
X47.45Y25.575
X47.425Y25.576
X47.401Y25.577
X47.376Y25.579
X47.352Y25.582
X47.328Y25.585
X47.303Y25.589
X47.279Y25.594
X47.255Y25.599
X47.231Y25.605
X47.208Y25.611
X47.184Y25.618
X47.161Y25.625
X47.137Y25.633
X47.114Y25.642
X47.092Y25.651
X47.069Y25.66
X47.047Y25.671
X47.025Y25.681
X47.003Y25.693
X46.981Y25.705
X46.96Y25.717
X46.631Y25.914
X46.46Y26.017Z-2.103
X46.439Y26.03Z-2.104
X46.418Y26.043Z-2.105
X46.398Y26.057Z-2.106
X46.378Y26.072Z-2.109
X46.359Y26.087Z-2.111
X46.34Y26.102Z-2.114
X46.321Y26.118Z-2.117
X46.302Y26.134Z-2.12
X46.284Y26.151Z-2.125
X46.267Y26.168Z-2.13
X46.25Y26.186Z-2.135
X46.233Y26.204Z-2.14
X46.217Y26.222Z-2.144
X46.201Y26.241Z-2.149
X46.186Y26.26Z-2.153
X46.171Y26.28Z-2.158
X46.156Y26.3Z-2.162
X46.142Y26.32Z-2.166
X46.075Y26.421Z-2.185
X45.742Y26.92Z-2.283
X45.729Y26.94Z-2.287
X45.716Y26.961Z-2.291
X45.704Y26.982Z-2.294
X45.692Y27.004Z-2.298
X45.681Y27.026Z-2.301
X45.67Y27.048Z-2.305
X45.66Y27.07Z-2.308
X45.65Y27.092Z-2.311
X45.641Y27.115Z-2.314
X45.633Y27.138Z-2.316
X45.625Y27.161Z-2.319
X45.617Y27.185Z-2.321
X45.611Y27.208Z-2.324
X45.603Y27.237Z-2.326
X45.524Y26.008Z-2.325
X45.511Y25.809Z-2.326
X45.498Y25.609
X45.485Y25.41Z-2.323
X45.472Y25.21Z-2.315
X45.47Y25.185
X45.468Y25.16Z-2.314
X45.465Y25.135Z-2.313
X45.461Y25.11
X45.456Y25.085
X45.451Y25.06
X45.446Y25.036
X45.433Y24.989Z-2.314
X45.065Y23.639Z-2.34
X45.012Y23.446
X44.96Y23.253Z-2.337
X44.854Y22.867Z-2.33
X45.061Y23.156Z-2.303
X45.075Y23.175Z-2.301
X45.09Y23.194Z-2.299
X45.105Y23.213Z-2.297
X45.121Y23.232Z-2.294
X45.137Y23.25Z-2.292
X45.153Y23.267Z-2.289
X45.17Y23.285Z-2.286
X45.188Y23.301Z-2.283
X45.205Y23.318Z-2.28
X45.224Y23.334Z-2.277
X45.242Y23.349Z-2.273
X45.261Y23.364Z-2.27
X45.28Y23.379Z-2.266
X45.3Y23.393Z-2.262
X45.32Y23.407Z-2.258
X45.34Y23.42Z-2.254
X45.361Y23.433Z-2.25
X45.382Y23.445Z-2.246
X45.403Y23.456Z-2.241
X45.424Y23.467Z-2.236
X45.446Y23.478Z-2.231
X45.468Y23.488Z-2.226
X45.49Y23.498Z-2.221
X45.513Y23.507Z-2.215
X45.535Y23.515Z-2.21
X45.558Y23.523Z-2.204
X45.889Y23.633Z-2.123
X46.079Y23.697Z-2.101
X46.458Y23.823
X46.481Y23.831
X46.505Y23.837
X46.528Y23.844
X46.552Y23.849
X46.576Y23.855
X46.6Y23.859
X46.624Y23.863
X46.648Y23.866
X46.672Y23.869
X46.696Y23.871
X46.721Y23.873
X46.745Y23.874
X46.769
X46.794
X46.818
X46.842Y23.872
X46.866Y23.87
X46.891Y23.868
X46.915Y23.865
X46.947Y23.86
X47.539Y23.761
X47.562Y23.757
X47.586Y23.752
X47.609Y23.747
X47.633Y23.741
X47.656Y23.734
X47.678Y23.727
X47.701Y23.72
X47.724Y23.712
X47.746Y23.703
X47.768Y23.694
X47.79Y23.684
X47.812Y23.674
G0Z10
X46.336Y31.141
G1Z-2.101F500
X46.479Y31.213F1000
X46.324Y31.239
X46.336Y31.141
X48.344Y31.556
X48.388Y31.55
X48.436Y31.542
X48.484Y31.532
X48.531Y31.522
X48.579Y31.51
X48.626Y31.497
X48.672Y31.483
X48.744Y31.46
X49.123Y31.333Z-2.102
X49.088Y31.509Z-2.101
X49.049Y31.705
X49.01Y31.901Z-2.102
X48.996Y31.891Z-2.101
X48.957Y31.862
X48.918Y31.833
X48.877Y31.806
X48.836Y31.78
X48.795Y31.754
X48.752Y31.73
X48.709Y31.707
X48.666Y31.684
X48.622Y31.663
X48.578Y31.643
X48.533Y31.624
X48.487Y31.606
X48.442Y31.589
X48.407Y31.577
X48.344Y31.556
X48.201Y30.566Z-2.1
X48.225Y30.563
X48.249Y30.559
X48.273Y30.555
X48.297Y30.549
X48.321Y30.544
X48.344Y30.537
X48.368Y30.531
X48.391Y30.523
X49.101Y30.286
X49.291Y30.223Z-2.102
X49.314Y30.215Z-2.104
X49.337Y30.206Z-2.105
X49.36Y30.197Z-2.107
X49.383Y30.187Z-2.109
X49.405Y30.177Z-2.112
X49.427Y30.166Z-2.118
X49.449Y30.155Z-2.123
X49.471Y30.143Z-2.129
X49.492Y30.13Z-2.134
X49.513Y30.117Z-2.14
X49.533Y30.104Z-2.145
X49.554Y30.09Z-2.15
X49.574Y30.075Z-2.155
X49.593Y30.06Z-2.16
X49.612Y30.045Z-2.165
X49.631Y30.029Z-2.17
X49.649Y30.012Z-2.175
X49.667Y29.995Z-2.179
X49.685Y29.978Z-2.184
X49.702Y29.96Z-2.188
X49.719Y29.942Z-2.192
X49.735Y29.924Z-2.196
X49.751Y29.905Z-2.2
X49.766Y29.885Z-2.204
X49.781Y29.866Z-2.207
X49.795Y29.846Z-2.211
X49.809Y29.825Z-2.214
X49.822Y29.804Z-2.217
X50.322Y29.004Z-2.337
X50.335Y28.984Z-2.34
X50.347Y28.963Z-2.343
X50.359Y28.941Z-2.346
X50.367Y28.926Z-2.348
X50.372Y29.052Z-2.351
X50.238Y30.533Z-2.342
X50.22Y30.732Z-2.341
X50.202Y30.932Z-2.346
X50.183Y31.131Z-2.352
X49.686Y33.619Z-2.351
X49.646Y33.816
X49.607Y34.012Z-2.355
X49.571Y34.117Z-2.354
X49.505Y34.306
X49.44Y34.495Z-2.353
X49.374Y34.684
Y34.649Z-2.35
X49.373Y34.625Z-2.348
X49.372Y34.6Z-2.345
X49.37Y34.575Z-2.343
X49.367Y34.551Z-2.34
X49.363Y34.526Z-2.337
X49.36Y34.502Z-2.334
X49.355Y34.478Z-2.33
X49.35Y34.453Z-2.327
X49.344Y34.429Z-2.323
X49.338Y34.406Z-2.32
X49.331Y34.382Z-2.316
X49.323Y34.358Z-2.312
X49.15Y33.838Z-2.223
X49.086Y33.648Z-2.194
X49.023Y33.458Z-2.169
X49.015Y33.435Z-2.165
X49.007Y33.412Z-2.162
X48.998Y33.39Z-2.158
X48.988Y33.367Z-2.154
X48.978Y33.345Z-2.15
X48.967Y33.323Z-2.146
X48.956Y33.302Z-2.142
X48.944Y33.28Z-2.138
X48.932Y33.259Z-2.133
X48.919Y33.238Z-2.129
X48.905Y33.218Z-2.124
X48.892Y33.198Z-2.12
X48.877Y33.178Z-2.116
X48.862Y33.159Z-2.113
X48.847Y33.14Z-2.11
X48.831Y33.121Z-2.107
X48.815Y33.103Z-2.104
X48.799Y33.085Z-2.101
X48.764Y33.05
X48.482Y32.767
X48.464Y32.75
X48.446Y32.734
X48.428Y32.718
X48.409Y32.702
X48.39Y32.687
X48.371Y32.672
X48.351Y32.657
X48.331Y32.644
X48.311Y32.63
X48.29Y32.617
X48.269Y32.605
X48.247Y32.593
X48.226Y32.582
X48.204Y32.571
X48.182Y32.561
X48.159Y32.551
X48.137Y32.542
X48.114Y32.534
X48.091Y32.526
X47.191Y32.226
X47.168Y32.218
X47.144Y32.212
X47.121Y32.205
X47.097Y32.2
X47.073Y32.194
X47.049Y32.19
X47.025Y32.186
X47.001Y32.183
X46.977Y32.18
X46.953Y32.178
X46.928Y32.176
X46.904Y32.175
X46.88
X46.855
X46.831
X46.807Y32.177
X46.783Y32.179
X46.758Y32.181
X46.734Y32.184
X46.702Y32.189
X46.11Y32.288
X46.087Y32.292
X46.063Y32.297
X46.04Y32.302
X46.016Y32.308
X45.993Y32.315Z-2.103
X45.971Y32.322Z-2.107
X45.948Y32.329Z-2.112
X45.925Y32.337Z-2.116
X45.903Y32.346Z-2.12
X45.881Y32.355Z-2.125
X45.859Y32.365Z-2.131
X45.837Y32.375Z-2.136
X45.816Y32.386Z-2.141
X45.795Y32.397Z-2.146
X45.774Y32.409Z-2.151
X45.753Y32.421Z-2.156
X45.733Y32.434Z-2.16
X45.713Y32.447Z-2.165
X45.693Y32.461Z-2.17
X45.646Y32.495Z-2.18
X45.483Y32.611Z-2.215
X45.32Y32.727Z-2.246
X44.995Y32.96Z-2.309
X45.053Y32.792
X45.119Y32.603Z-2.308
X45.127Y32.578
X45.135Y32.554Z-2.309
X45.142Y32.529
X45.148Y32.504Z-2.31
X45.154Y32.478
X45.158Y32.453
X45.163Y32.427Z-2.311
X45.166Y32.402
X45.314Y31.25Z-2.333
X45.339Y31.052Z-2.336
X45.365Y30.854Z-2.341
X45.39Y30.655Z-2.344
X45.416Y30.457Z-2.346
X45.441Y30.259Z-2.344
X45.467Y30.06Z-2.34
X45.619Y28.87Z-2.32
X45.626Y28.891Z-2.318
X45.634Y28.915Z-2.315
X45.643Y28.938Z-2.312
X45.652Y28.961Z-2.309
X45.662Y28.984Z-2.306
X45.673Y29.006Z-2.303
X45.684Y29.029Z-2.3
X45.695Y29.051Z-2.296
X45.707Y29.072Z-2.293
X45.72Y29.094Z-2.289
X45.733Y29.115Z-2.285
X45.747Y29.135Z-2.281
X45.761Y29.156Z-2.277
X45.796Y29.205Z-2.267
X46.028Y29.53Z-2.198
X46.145Y29.693Z-2.165
X46.261Y29.856Z-2.131
X46.275Y29.875Z-2.127
X46.29Y29.895Z-2.123
X46.305Y29.914Z-2.119
X46.321Y29.932Z-2.116
X46.337Y29.95Z-2.114
X46.354Y29.968Z-2.112
X46.371Y29.985Z-2.11
X46.389Y30.002Z-2.109
X46.407Y30.019Z-2.107
X46.425Y30.035Z-2.106
X46.444Y30.05Z-2.104
X46.463Y30.065Z-2.103
X46.482Y30.08Z-2.101
X46.502Y30.094Z-2.1
X46.522Y30.108
X46.542Y30.121
X46.563Y30.134
X46.584Y30.146
X46.606Y30.158
X46.67Y30.19
X47.027Y30.369
X47.05Y30.38
X47.072Y30.39
X47.095Y30.4
X47.118Y30.409
X47.142Y30.417
X47.165Y30.425
X47.189Y30.433
X47.213Y30.44
X47.237Y30.446
X47.261Y30.451
X47.286Y30.456
X47.318Y30.462
X47.91Y30.561
X47.934Y30.565
X47.958Y30.568
X47.983Y30.57
X48.007Y30.572
X48.031Y30.574
X48.055
X48.08
X48.104
X48.128Y30.573
X48.153Y30.571
X48.177Y30.569
X48.201Y30.566
G0Z10
X45.054Y39.197
G1Z-2.102F500
X44.849Y39.504F1000
X44.627Y39.837Z-2.1
X44.294Y40.336
X42.558Y42.286
X42.485Y42.331
X42.423Y42.37
X42.362Y42.411
X42.302Y42.454
X42.244Y42.498
X42.186Y42.544
X42.13Y42.59
X42.074Y42.639
X42.011Y42.697
X40.297Y44.32
X39.862Y44.61
X39.696Y44.721Z-2.101
X39.529Y44.832Z-2.102
X39.197Y45.054
X39.113Y44.803
X39.088Y44.734
X39.062Y44.665
X39.034Y44.598
X39.004Y44.531
X38.973Y44.464
X38.941Y44.399
X38.929Y44.377
X39.173Y44.214
X39.339Y44.103Z-2.1
X39.859Y43.757
X39.92Y43.715
X39.979Y43.671
X40.038Y43.625
X40.095Y43.579
X40.152Y43.531
X40.207Y43.481
X40.261Y43.43
X40.295Y43.396
X41.054Y42.639
X41.125Y42.6
X41.19Y42.563
X41.254Y42.525
X41.317Y42.485
X41.379Y42.443
X41.439Y42.4
X41.499Y42.356
X41.558Y42.31
X41.615Y42.262
X41.671Y42.213
X41.726Y42.163
X41.78Y42.112
X41.832Y42.059
X41.883Y42.004
X41.922Y41.961
X43.532Y40.15
X43.577Y40.098
X43.621Y40.044
X43.663Y39.989
X43.705Y39.933
X43.745Y39.877
X43.771Y39.839
X44.044Y39.428
X44.155Y39.262Z-2.101
X44.266Y39.095Z-2.102
X44.377Y38.929
X44.443Y38.963
X44.509Y38.994
X44.575Y39.024
X44.643Y39.053
X44.711Y39.08
X44.78Y39.105
X44.826Y39.121
X45.054Y39.197
X45.864Y39.784
X45.753Y39.951
X45.642Y40.117Z-2.103
X45.531Y40.284Z-2.102
X45.42Y40.45Z-2.103
X45.309Y40.617Z-2.102
X45.088Y40.949Z-2.103
X44.92Y41.138Z-2.102
X44.787Y41.287Z-2.1
X44.255Y41.885
X44.122Y42.034Z-2.101
X43.989Y42.184Z-2.1
X43.59Y42.632
X43.458Y42.781Z-2.101
X43.325Y42.931Z-2.103
X43.192Y43.08Z-2.104
X43.145Y43.103
X43.102Y43.127
X43.06Y43.151
X43.018Y43.176
X42.997Y43.189
X42.956Y43.216Z-2.102
X42.916Y43.244
X42.877Y43.273
X42.838Y43.303Z-2.101
X42.8Y43.333Z-2.1
X42.762Y43.365
X42.726Y43.398
X42.699Y43.423
X42.085Y44.005
X41.939Y44.142Z-2.101
X41.794Y44.28Z-2.1
X41.359Y44.692
X40.923Y45.105Z-2.103
X40.611Y45.313Z-2.102
X40.444Y45.424Z-2.103
X40.278Y45.535Z-2.102
X40.112Y45.646
X39.945Y45.757
X39.113Y46.312
X38.78Y46.534Z-2.103
X38.574Y46.633
X38.573Y46.612Z-2.102
Y46.587
X38.57Y46.538
X38.566Y46.489
X38.561Y46.439
X38.554Y46.39
X38.547Y46.342
X38.538Y46.293
X38.528Y46.245
X38.516Y46.196
X38.504Y46.149
X38.49Y46.101
X38.472Y46.042
X38.168Y45.13
X38.152Y45.084
X38.134Y45.039
X38.116Y44.994
X38.096Y44.949
X38.075Y44.905
X38.054Y44.861
X38.031Y44.818
X38.007Y44.775
X37.982Y44.733
X37.956Y44.692
X37.929Y44.651
X37.901Y44.611
X37.873Y44.572
X37.843Y44.533
X37.812Y44.495
X37.78Y44.458
X37.748Y44.422
X37.714Y44.386
X37.689Y44.36
X37.474Y44.145
X38.951Y43.16
X39.117Y43.05
X39.294Y42.932Z-2.1
X39.335Y42.904
X39.375Y42.874
X39.414Y42.844
X39.452Y42.813
X39.49Y42.781
X39.526Y42.748
X39.562Y42.715
X39.619Y42.659
X40.468Y41.81
X40.505Y41.794
X40.55Y41.773
X40.594Y41.75
X40.638Y41.727
X40.681Y41.703
X40.724Y41.677
X40.766Y41.65
X40.807Y41.623
X40.848Y41.594
X40.888Y41.565
X40.927Y41.534
X40.965Y41.502
X41.003Y41.47
X41.039Y41.436
X41.075Y41.402
X41.11Y41.367
X41.144Y41.331
X41.175Y41.297
X42.777Y39.495
X42.807Y39.459
X42.836Y39.424
X42.865Y39.387
X42.892Y39.35
X42.919Y39.313
X42.939Y39.284
X43.14Y38.982Z-2.102
X44.145Y37.474
X44.369Y37.697
X44.404Y37.731
X44.44Y37.764
X44.477Y37.796
X44.514Y37.827
X44.553Y37.858
X44.592Y37.887
X44.631Y37.916
X44.672Y37.943
X44.713Y37.969
X44.754Y37.995
X44.797Y38.019
X44.84Y38.042
X44.883Y38.065
X44.927Y38.086
X44.971Y38.106
X45.016Y38.125
X45.062Y38.143
X45.107Y38.16
X45.142Y38.172
X46.054Y38.476
X46.101Y38.49
X46.148Y38.504
X46.195Y38.516
X46.243Y38.527
X46.291Y38.537
X46.339Y38.546
X46.388Y38.554
X46.436Y38.56
X46.485Y38.565
X46.534Y38.57
X46.583Y38.572
X46.607Y38.573
X46.633Y38.574Z-2.103
X46.621Y38.6
X46.534Y38.78
X46.197Y39.285Z-2.102
X45.864Y39.784
X46.658Y40.397Z-2.353
X45.881Y41.562Z-2.354
X45.781Y41.674Z-2.35
X44.984Y42.571Z-2.348
X44.851Y42.721Z-2.347
X44.718Y42.87
X44.585Y43.02Z-2.346
X44.453Y43.169
X44.054Y43.617Z-2.345
X43.921Y43.767Z-2.347
X43.788Y43.916Z-2.35
X43.762Y43.925Z-2.347
X43.739Y43.933Z-2.344
X43.716Y43.941Z-2.341
X43.693Y43.95Z-2.339
X43.67Y43.96Z-2.336
X43.648Y43.97Z-2.334
X43.626Y43.981Z-2.332
X43.605Y43.992Z-2.33
X43.583Y44.004Z-2.329
X43.562Y44.016Z-2.327
X43.541Y44.029Z-2.326
X43.521Y44.042
X43.5Y44.056Z-2.325
X43.48Y44.07Z-2.324
X43.461Y44.085
X43.442Y44.1
X43.423Y44.116Z-2.323
X43.405Y44.132
X43.387Y44.149Z-2.324
X43.001Y44.514Z-2.329
X42.855Y44.652Z-2.331
X42.565Y44.927Z-2.335
X42.275Y45.202Z-2.339
X42.13Y45.34Z-2.341
X41.984Y45.477Z-2.343
X41.839Y45.615Z-2.345
X41.694Y45.752Z-2.347
X41.549Y45.89Z-2.354
X40.442Y46.627
X40.276Y46.738Z-2.353
X40.109Y46.849
X39.444Y47.293
X39.277Y47.404Z-2.357
X38.705Y47.681Z-2.355
X38.525Y47.767
X38.345Y47.854Z-2.354
X38.164Y47.941
X37.804Y48.115Z-2.353
X36.904Y48.55Z-2.35
X36.724Y48.637
X36.735Y48.623Z-2.348
X36.751Y48.605Z-2.346
X36.766Y48.585Z-2.343
X36.781Y48.566Z-2.34
X36.795Y48.546Z-2.337
X36.809Y48.525Z-2.333
X36.822Y48.504Z-2.33
X37.322Y47.704Z-2.197
X37.335Y47.684Z-2.193
X37.347Y47.663Z-2.189
X37.359Y47.642Z-2.186
X37.37Y47.62Z-2.182
X37.38Y47.599Z-2.178
X37.39Y47.577Z-2.174
X37.399Y47.555Z-2.17
X37.408Y47.532Z-2.165
X37.417Y47.51Z-2.161
X37.424Y47.487Z-2.156
X37.432Y47.464Z-2.152
X37.438Y47.441Z-2.147
X37.445Y47.418Z-2.142
X37.45Y47.394Z-2.137
X37.455Y47.371Z-2.132
X37.477Y47.263Z-2.112
X37.516Y47.067Z-2.102
X37.555Y46.871
X37.56Y46.846
X37.564Y46.822
X37.567Y46.797
X37.57Y46.773
X37.572Y46.748
X37.573Y46.724
X37.574Y46.699Z-2.101
Y46.674
Y46.649
X37.573Y46.625
X37.572Y46.6
X37.57Y46.575
X37.567Y46.551
X37.563Y46.526
X37.56Y46.502
X37.555Y46.478
X37.55Y46.453
X37.544Y46.429
X37.538Y46.406
X37.531Y46.382
X37.523Y46.358
X37.223Y45.458
X37.215Y45.435
X37.207Y45.412
X37.198Y45.39
X37.188Y45.367
X37.178Y45.345
X37.167Y45.323
X37.156Y45.302
X37.144Y45.28
X37.132Y45.259
X37.119Y45.238
X37.105Y45.218
X37.092Y45.198
X37.077Y45.178
X37.062Y45.159
X37.047Y45.14
X37.031Y45.121
X37.015Y45.103
X36.999Y45.085
X36.964Y45.05
X36.682Y44.767Z-2.102
X36.664Y44.75
X36.646Y44.734
X36.628Y44.718
X36.609Y44.702
X36.59Y44.687
X36.571Y44.672
X36.551Y44.657
X36.531Y44.644
X36.511Y44.63
X36.49Y44.617
X36.469Y44.605
X36.447Y44.593
X36.426Y44.582
X36.404Y44.571
X36.382Y44.561
X36.359Y44.551
X36.337Y44.542
X36.314Y44.534
X36.291Y44.526Z-2.103
X36.15Y44.479Z-2.125
X35.58Y44.289Z-2.238
X35.391Y44.226Z-2.276
X35.367Y44.218Z-2.28
X35.343Y44.211Z-2.285
X35.319Y44.205Z-2.29
X35.295Y44.199Z-2.294
X35.271Y44.194Z-2.298
X35.247Y44.189Z-2.302
X35.222Y44.185Z-2.306
X35.197Y44.182Z-2.31
X35.173Y44.179Z-2.313
X35.148Y44.177Z-2.316
X35.134Y44.176Z-2.318
X35.363Y44.067
X35.543Y43.981Z-2.317
X35.723Y43.894
X36.626Y43.463Z-2.313
X36.806Y43.377Z-2.309
X36.827Y43.366Z-2.308
X36.848Y43.355
X36.869Y43.344Z-2.307
X36.889Y43.332
X36.909Y43.319Z-2.306
X36.929Y43.307
X37.065Y43.216Z-2.307
X37.398Y42.994Z-2.306
X37.564Y42.883
X38.064Y42.55
X38.396Y42.328Z-2.305
X38.563Y42.217Z-2.306
X38.729Y42.107Z-2.305
X38.75Y42.093Z-2.306
X38.77Y42.078
X38.789Y42.063
X38.808Y42.048
X38.827Y42.032Z-2.307
X38.846Y42.016
X38.864Y41.999
X38.882Y41.982
X38.929Y41.934Z-2.308
X39.071Y41.793Z-2.312
X39.212Y41.651Z-2.315
X39.353Y41.51Z-2.319
X39.495Y41.368Z-2.322
X39.778Y41.086Z-2.33
X39.919Y40.944Z-2.333
X39.944Y40.937Z-2.33
X39.968Y40.93Z-2.327
X39.992Y40.923Z-2.324
X40.015Y40.915Z-2.322
X40.038Y40.906Z-2.319
X40.061Y40.897Z-2.317
X40.084Y40.887Z-2.315
X40.107Y40.876Z-2.313
X40.129Y40.865Z-2.311
X40.151Y40.854Z-2.31
X40.173Y40.842Z-2.309
X40.194Y40.829Z-2.307
X40.215Y40.816Z-2.306
X40.236Y40.802
X40.256Y40.788Z-2.305
X40.276Y40.773Z-2.304
X40.296Y40.758
X40.315Y40.742
X40.334Y40.726Z-2.303
X40.352Y40.71
X40.37Y40.693
X40.388Y40.675Z-2.304
X40.405Y40.657
X40.427Y40.633Z-2.305
X40.56Y40.483Z-2.31
X40.959Y40.035Z-2.309
X41.092Y39.885
X41.358Y39.586Z-2.308
X41.49Y39.437
X41.623Y39.287Z-2.307
X41.756Y39.138Z-2.308
X41.889Y38.988Z-2.306
X42.022Y38.839Z-2.307
X42.037Y38.821Z-2.306
X42.052Y38.804
X42.066Y38.785
X42.08Y38.767
X42.094Y38.748
X42.107Y38.729Z-2.305
X42.419Y38.26Z-2.306
X42.53Y38.094
X42.641Y37.928
X43.085Y37.262
X43.196Y37.096Z-2.307
X43.307Y36.929Z-2.306
X43.32Y36.908
X43.333Y36.887Z-2.307
X43.346Y36.866
X43.358Y36.844Z-2.308
X43.389Y36.781Z-2.31
X43.479Y36.602Z-2.312
X43.568Y36.424Z-2.311
X43.926Y35.708
X44.015Y35.529Z-2.31
X44.105Y35.35
X44.194Y35.171
X44.198Y35.191Z-2.307
X44.204Y35.215Z-2.302
X44.21Y35.238Z-2.298
X44.229Y35.304Z-2.286
X44.287Y35.496Z-2.249
X44.344Y35.687Z-2.213
X44.402Y35.879Z-2.176
X44.459Y36.07Z-2.139
X44.517Y36.262Z-2.106
X44.524Y36.285Z-2.103
X44.532Y36.309Z-2.102
X44.541Y36.332
X44.55Y36.355
X44.559Y36.378
X44.57Y36.4
X44.58Y36.422
X44.592Y36.444
X44.604Y36.466
X44.616Y36.487
X44.629Y36.508
X44.642Y36.529
X44.656Y36.549
X44.671Y36.569
X44.686Y36.589
X44.701Y36.608
X44.717Y36.627
X44.733Y36.646
X44.75Y36.664
X44.785Y36.699Z-2.101
X45.067Y36.982
X45.085Y36.999
X45.103Y37.015
X45.121Y37.031
X45.14Y37.047
X45.159Y37.062
X45.178Y37.077
X45.198Y37.092
X45.218Y37.105
X45.238Y37.119
X45.259Y37.132
X45.28Y37.144
X45.302Y37.156
X45.323Y37.167
X45.345Y37.178
X45.367Y37.188
X45.39Y37.198
X45.412Y37.207
X45.435Y37.215
X45.458Y37.223
X46.358Y37.523
X46.382Y37.531
X46.405Y37.538
X46.429Y37.544
X46.453Y37.55
X46.477Y37.555
X46.501Y37.559
X46.525Y37.563
X46.549Y37.567
X46.574Y37.569
X46.598Y37.572
X46.623Y37.573
X46.647Y37.574
X46.672
X46.696
X46.721Y37.573
X46.745Y37.572Z-2.102
X46.77Y37.57
X46.794Y37.567
X46.818Y37.564
X46.843Y37.56
X46.867Y37.556
X46.891Y37.551
X46.915Y37.545
X46.938Y37.539
X47.004Y37.52
X47.196Y37.462
X47.387Y37.405Z-2.13
X47.962Y37.232Z-2.248
X47.985Y37.225Z-2.252
X48.008Y37.217Z-2.257
X48.031Y37.209Z-2.262
X48.054Y37.2Z-2.266
X48.076Y37.19Z-2.27
X48.098Y37.18Z-2.275
X48.12Y37.17Z-2.279
X48.142Y37.158Z-2.283
X48.163Y37.147Z-2.286
X48.185Y37.135Z-2.29
X48.205Y37.122Z-2.294
X48.226Y37.109Z-2.297
X48.246Y37.095Z-2.3
X48.266Y37.081Z-2.303
X48.285Y37.066Z-2.306
X48.304Y37.051Z-2.309
X48.323Y37.036Z-2.311
X48.342Y37.02Z-2.314
X48.359Y37.003Z-2.316
X48.377Y36.986Z-2.319
X48.394Y36.969Z-2.321
X48.411Y36.951Z-2.322
X48.427Y36.933Z-2.324
X48.443Y36.914Z-2.326
X48.458Y36.895Z-2.327
X48.473Y36.876Z-2.329
X48.488Y36.857Z-2.33
X48.502Y36.837Z-2.331
X48.515Y36.816
X48.528Y36.796Z-2.332
X48.54Y36.775Z-2.333
X48.555Y36.749
X48.65Y36.574Z-2.336
X48.746Y36.398Z-2.341
X48.842Y36.222Z-2.351
X48.814Y36.303
X48.749Y36.492Z-2.35
X48.708Y36.576
X48.621Y36.756
X48.447Y37.116Z-2.351
X48.274Y37.476Z-2.352
X48.187Y37.656
X48.1Y37.837Z-2.353
X48.013Y38.017
X47.926Y38.197Z-2.354
X47.839Y38.377
X47.752Y38.557Z-2.355
X47.665Y38.737
X47.404Y39.277Z-2.357
X47.323Y39.399Z-2.353
X47.212Y39.565Z-2.354
X47.101Y39.732Z-2.353
X46.99Y39.898Z-2.354
X46.768Y40.231Z-2.353
X46.658Y40.397
G0Z10
X31.205Y46.428
G1Z-2.101F500
X31.199Y46.462F1000
X31.182Y46.433
X31.205Y46.428
X31.475Y48.068
X31.562Y48.361
X31.577Y48.407
X31.593Y48.453
X31.61Y48.498
X31.628Y48.543
X31.647Y48.587
X31.667Y48.631
X31.688Y48.675
X31.711Y48.717
X31.734Y48.76
X31.758Y48.802
X31.784Y48.843
X31.81Y48.883
X31.837Y48.923
X31.866Y48.963
X31.895Y49.001
X31.901Y49.01Z-2.102
X31.761Y49.038Z-2.101
X31.565Y49.077
X31.369Y49.116Z-2.102
X31.379Y49.084Z-2.101
X31.394Y49.038
X31.407Y48.991
X31.419Y48.944
X31.429Y48.896
X31.439Y48.849
X31.448Y48.801
X31.455Y48.753
X31.461Y48.705
X31.466Y48.656
X31.47Y48.608
X31.473Y48.559
X31.474Y48.511
X31.475Y48.468
Y48.068
X30.475Y48.074Z-2.1
Y47.474
X30.474Y47.45
X30.473Y47.425
X30.472Y47.4
X30.47Y47.375
X30.467Y47.351
X30.463Y47.326
X30.459Y47.302
X30.455Y47.277
X30.45Y47.253
X30.444Y47.229
X30.437Y47.205
X30.431Y47.181
X30.423Y47.158
X30.415Y47.134
X30.406Y47.111
X30.397Y47.088
X30.387Y47.065
X30.376Y47.043
X30.365Y47.02
X30.354Y46.998
X30.342Y46.977
X30.329Y46.955
X30.316Y46.934
X30.302Y46.914
X30.288Y46.893
X30.021Y46.519
X29.904Y46.356Z-2.112
X29.788Y46.193Z-2.15
X29.774Y46.174Z-2.156
X29.759Y46.154Z-2.161
X29.744Y46.135Z-2.167
X29.728Y46.117Z-2.172
X29.712Y46.099Z-2.177
X29.695Y46.081Z-2.182
X29.678Y46.064Z-2.187
X29.66Y46.047Z-2.191
X29.642Y46.03Z-2.196
X29.624Y46.014Z-2.201
X29.605Y45.999Z-2.205
X29.586Y45.984Z-2.209
X29.567Y45.969Z-2.214
X29.547Y45.955Z-2.218
X29.527Y45.941Z-2.222
X29.507Y45.928Z-2.226
X29.486Y45.915Z-2.23
X29.465Y45.903Z-2.233
X29.443Y45.891Z-2.237
X29.379Y45.859Z-2.246
X29.022Y45.68Z-2.301
X29Y45.669Z-2.304
X28.978Y45.659Z-2.307
X28.955Y45.65Z-2.31
X28.932Y45.641Z-2.313
X28.91Y45.632Z-2.316
X28.886Y45.624Z-2.318
X28.863Y45.617Z-2.321
X28.84Y45.61Z-2.323
X28.816Y45.604Z-2.325
X28.798Y45.6Z-2.327
X30.038Y45.522Z-2.325
X30.238Y45.51Z-2.326
X30.438Y45.498Z-2.325
X30.637Y45.485Z-2.32
X30.837Y45.473Z-2.313
X30.862Y45.471Z-2.312
X30.888Y45.468Z-2.311
X30.913Y45.465
X30.938Y45.461
X30.963Y45.457Z-2.31
X30.988Y45.451
X31.013Y45.446Z-2.311
X31.038Y45.439
X32.272Y45.103Z-2.335
X32.465Y45.05Z-2.338
X32.658Y44.997Z-2.335
X32.85Y44.945Z-2.331
X33.043Y44.892Z-2.328
X33.026Y44.912Z-2.325
X33.009Y44.931Z-2.322
X32.994Y44.95Z-2.318
X32.719Y45.294Z-2.254
X32.594Y45.45Z-2.225
X32.578Y45.469Z-2.221
X32.564Y45.489Z-2.217
X32.549Y45.51Z-2.213
X32.536Y45.53Z-2.208
X32.522Y45.551Z-2.203
X32.51Y45.572Z-2.199
X32.498Y45.594Z-2.194
X32.486Y45.616Z-2.189
X32.475Y45.638Z-2.183
X32.464Y45.66Z-2.178
X32.454Y45.683Z-2.173
X32.445Y45.706Z-2.167
X32.436Y45.729Z-2.161
X32.428Y45.752Z-2.156
X32.42Y45.776Z-2.15
X32.413Y45.8Z-2.144
X32.378Y45.923Z-2.115
X32.323Y46.115Z-2.101
X32.213Y46.5
X32.206Y46.524
X32.201Y46.548
X32.195Y46.572
X32.191Y46.596
X32.186Y46.621
X32.183Y46.645
X32.18Y46.67
X32.178Y46.694
X32.176Y46.719
X32.175Y46.744
Y46.769
Y46.793
Y46.818
X32.177Y46.843
X32.179Y46.868
X32.181Y46.892
X32.185Y46.917
X32.189Y46.941
X32.193Y46.966
X32.198Y46.99
X32.204Y47.014
X32.21Y47.038
X32.229Y47.104
X32.517Y48.062
X32.524Y48.085
X32.532Y48.108
X32.54Y48.131
X32.549Y48.153
X32.558Y48.175
X32.568Y48.197
X32.579Y48.219
X32.59Y48.241
X32.601Y48.262
X32.613Y48.283
X32.626Y48.304
X32.639Y48.324
X32.652Y48.344
X32.666Y48.364
X32.681Y48.383
X32.696Y48.402
X32.711Y48.421
X32.727Y48.439
X32.743Y48.457
X32.76Y48.474
X32.777Y48.491
X32.795Y48.508
X32.813Y48.524
X32.831Y48.54
X32.881Y48.581
X33.037Y48.705
X33.194Y48.83Z-2.108
X33.35Y48.955Z-2.145
X33.369Y48.971Z-2.15
X33.389Y48.985Z-2.155
X33.41Y49Z-2.16
X33.43Y49.013Z-2.164
X33.451Y49.027Z-2.169
X33.472Y49.039Z-2.173
X33.494Y49.051Z-2.178
X33.516Y49.063Z-2.182
X33.538Y49.074Z-2.186
X33.56Y49.085Z-2.19
X33.583Y49.095Z-2.194
X33.606Y49.104Z-2.197
X33.629Y49.113Z-2.201
X33.652Y49.121Z-2.204
X33.676Y49.129Z-2.207
X33.7Y49.136Z-2.21
X33.823Y49.171Z-2.227
X34.4Y49.336Z-2.319
X34.423Y49.342Z-2.322
X34.446Y49.348Z-2.326
X34.47Y49.353Z-2.329
X34.493Y49.358Z-2.332
X34.517Y49.362Z-2.336
X34.541Y49.366Z-2.339
X34.565Y49.368Z-2.341
X34.589Y49.371Z-2.344
X34.613Y49.373Z-2.347
X34.637Y49.374Z-2.349
X34.661Z-2.351
X34.684Z-2.353
X34.39Y49.476
X34.012Y49.607Z-2.355
X33.898Y49.63Z-2.351
X33.506Y49.708
X33.31Y49.748
X33.114Y49.787
X31.153Y50.179Z-2.352
X30.941Y50.189Z-2.343
X30.741Y50.198Z-2.336
X30.541Y50.208Z-2.334
X29.143Y50.273Z-2.326
X29.291Y50.223Z-2.316
X29.314Y50.215Z-2.314
X29.337Y50.206Z-2.312
X29.36Y50.197Z-2.31
X29.383Y50.187Z-2.308
X29.405Y50.177Z-2.305
X29.427Y50.166Z-2.303
X29.449Y50.155Z-2.3
X29.471Y50.143Z-2.297
X29.492Y50.13Z-2.294
X29.513Y50.117Z-2.291
X29.533Y50.104Z-2.288
X29.554Y50.09Z-2.285
X29.574Y50.075Z-2.281
X29.593Y50.06Z-2.277
X29.612Y50.045Z-2.273
X29.631Y50.029Z-2.27
X29.649Y50.012Z-2.265
X29.667Y49.995Z-2.261
X29.685Y49.978Z-2.257
X29.702Y49.96Z-2.252
X29.719Y49.942Z-2.248
X29.735Y49.924Z-2.243
X29.751Y49.905Z-2.238
X29.766Y49.885Z-2.234
X29.781Y49.866Z-2.229
X29.795Y49.846Z-2.223
X29.809Y49.825Z-2.218
X29.822Y49.804Z-2.213
X30.005Y49.513Z-2.138
X30.111Y49.344Z-2.104
X30.216Y49.174Z-2.1
X30.322Y49.004
X30.335Y48.984
X30.347Y48.963
X30.359Y48.941
X30.37Y48.92
X30.38Y48.898
X30.39Y48.876
X30.4Y48.853
X30.409Y48.831
X30.417Y48.808
X30.425Y48.785
X30.432Y48.762
X30.439Y48.738
X30.445Y48.715
X30.451Y48.691
X30.456Y48.668
X30.46Y48.644
X30.464Y48.62
X30.467Y48.596
X30.47Y48.571
X30.472Y48.547
X30.473Y48.523
X30.474Y48.499
X30.475Y48.474
Y48.074
G0Z10
X24.921Y46.343
G1Z-2.101F500
X24.853Y46.456F1000
X24.829Y46.499
X24.805Y46.542
X24.783Y46.586
X24.775Y46.603
Y46.323
X24.921Y46.343
X24.574Y48.16
X24.575Y48.587
Y48.636
X24.578Y48.685
X24.581Y48.734
X24.585Y48.783
X24.591Y48.832
X24.598Y48.88
X24.606Y48.929
X24.615Y48.977
X24.626Y49.025
X24.638Y49.073
X24.647Y49.109Z-2.102
X24.344Y49.049Z-2.101
X24.148Y49.01Z-2.102
X24.17Y48.98Z-2.101
X24.2Y48.94
X24.228Y48.899
X24.255Y48.858
X24.282Y48.816
X24.307Y48.773
X24.331Y48.73
X24.354Y48.686
X24.377Y48.642
X24.397Y48.597
X24.417Y48.552
X24.431Y48.517
X24.574Y48.16
X25.574Y48.175Z-2.1
Y48.574
X25.575Y48.599
X25.576Y48.624
X25.577Y48.648
X25.579Y48.673
X25.582Y48.697
X25.585Y48.721
X25.589Y48.746
X25.594Y48.77
X25.599Y48.794
X25.605Y48.818
X25.611Y48.841
X25.618Y48.865
X25.625Y48.888
X25.633Y48.912
X25.642Y48.935
X25.651Y48.957
X25.66Y48.98
X25.671Y49.002
X25.681Y49.024
X25.693Y49.046
X25.705Y49.068
X25.717Y49.089
X25.811Y49.246Z-2.101
X25.914Y49.417Z-2.114
X26.017Y49.589Z-2.158
X26.03Y49.61Z-2.163
X26.043Y49.631Z-2.169
X26.057Y49.651Z-2.174
X26.072Y49.671Z-2.179
X26.087Y49.69Z-2.184
X26.102Y49.709Z-2.189
X26.118Y49.728Z-2.193
X26.134Y49.747Z-2.198
X26.151Y49.765Z-2.203
X26.168Y49.782Z-2.207
X26.186Y49.799Z-2.211
X26.204Y49.816Z-2.215
X26.222Y49.832Z-2.219
X26.241Y49.848Z-2.223
X26.26Y49.863Z-2.227
X26.28Y49.878Z-2.231
X26.3Y49.893Z-2.234
X26.32Y49.907Z-2.238
X26.92Y50.307Z-2.334
X26.941Y50.32Z-2.337
X26.962Y50.333Z-2.341
X26.983Y50.346Z-2.344
X27.005Y50.358Z-2.346
X27.031Y50.371Z-2.349
X26.997Y50.372Z-2.35
X25.317Y50.22Z-2.34
X25.117Y50.202Z-2.343
X24.918Y50.183Z-2.349
X22.626Y49.725
X22.43Y49.686
X22.233Y49.646Z-2.348
X22.037Y49.607Z-2.351
X21.922Y49.567Z-2.35
X21.733Y49.502
X21.544Y49.437Z-2.349
X21.355Y49.371
X21.391Y49.368Z-2.345
X21.415Y49.365Z-2.342
X21.447Y49.36Z-2.338
X21.644Y49.327Z-2.312
X22.039Y49.261Z-2.262
X22.062Y49.257Z-2.259
X22.086Y49.252Z-2.256
X22.109Y49.247Z-2.252
X22.133Y49.241Z-2.249
X22.156Y49.234Z-2.245
X22.178Y49.227Z-2.242
X22.201Y49.22Z-2.238
X22.224Y49.212Z-2.234
X22.246Y49.203Z-2.231
X22.268Y49.194Z-2.227
X22.29Y49.184Z-2.224
X22.312Y49.174Z-2.22
X22.333Y49.163Z-2.216
X22.354Y49.152Z-2.212
X22.375Y49.14Z-2.207
X22.396Y49.128Z-2.203
X22.416Y49.115Z-2.199
X22.436Y49.102Z-2.194
X22.456Y49.088Z-2.19
X22.505Y49.053Z-2.178
X22.667Y48.937Z-2.139
X22.83Y48.821Z-2.105
X22.993Y48.704Z-2.101
X23.156Y48.588
X23.176Y48.574
X23.195Y48.558
X23.215Y48.543
X23.233Y48.527
X23.252Y48.51
X23.27Y48.493
X23.287Y48.476
X23.305Y48.458
X23.321Y48.439
X23.338Y48.421
X23.353Y48.402
X23.369Y48.382
X23.383Y48.362
X23.398Y48.342
X23.412Y48.322
X23.425Y48.301
X23.438Y48.279
X23.45Y48.258
X23.462Y48.236
X23.473Y48.214
X23.483Y48.191
X23.493Y48.169
X23.503Y48.146
X23.703Y47.646
X23.712Y47.624
X23.72Y47.601
X23.727Y47.579
X23.734Y47.556
X23.74Y47.533
X23.746Y47.51
X23.752Y47.487
X23.756Y47.464
X23.761Y47.44
X23.764Y47.417
X23.767Y47.393
X23.77Y47.369
X23.772Y47.346
X23.773Y47.322
X23.774Y47.298
X23.775Y47.274
Y46.274
X23.774Y46.25
X23.773Y46.226
X23.772Y46.201
X23.77Y46.177
X23.767Y46.153
X23.764Y46.129
X23.76Y46.105
X23.756Y46.081
X23.75Y46.057Z-2.102
X23.745Y46.033
X23.739Y46.009
X23.732Y45.986Z-2.105
X23.725Y45.963Z-2.11
X23.717Y45.939Z-2.115
X23.708Y45.917Z-2.12
X23.699Y45.894Z-2.125
X23.69Y45.871Z-2.13
X23.68Y45.849Z-2.136
X23.669Y45.827Z-2.141
X23.558Y45.606Z-2.194
X23.469Y45.427Z-2.236
X23.458Y45.406Z-2.24
X23.446Y45.384Z-2.245
X23.434Y45.363Z-2.25
X23.421Y45.342Z-2.254
X23.408Y45.322Z-2.258
X23.394Y45.302Z-2.262
X23.38Y45.282Z-2.266
X23.365Y45.263Z-2.269
X23.35Y45.244Z-2.273
X23.335Y45.225Z-2.276
X23.319Y45.207Z-2.28
X23.302Y45.189Z-2.283
X23.285Y45.171Z-2.286
X23.268Y45.154Z-2.289
X23.25Y45.137Z-2.292
X23.232Y45.121Z-2.294
X23.214Y45.105Z-2.297
X23.195Y45.09Z-2.299
X23.175Y45.075Z-2.301
X23.156Y45.061Z-2.303
X23.039Y44.977Z-2.314
X23.068Y44.988
X23.257Y45.053
X23.446Y45.119Z-2.313
X23.47Y45.127
X23.495Y45.135
X23.519Y45.141
X23.544Y45.148
X23.569Y45.153
X23.594Y45.158
X23.619Y45.162
X23.644Y45.166Z-2.314
X24.774Y45.315Z-2.334
X24.972Y45.341Z-2.337
X25.17Y45.367Z-2.341
X25.368Y45.393Z-2.344
X25.567Y45.419Z-2.346
X25.765Y45.445Z-2.343
X25.963Y45.471Z-2.339
X27.153Y45.628Z-2.318
X27.138Y45.633Z-2.316
X27.115Y45.641Z-2.314
X27.092Y45.65Z-2.311
X27.07Y45.66Z-2.308
X27.048Y45.67Z-2.305
X27.026Y45.681Z-2.301
X27.004Y45.692Z-2.298
X26.982Y45.704Z-2.294
X26.961Y45.716Z-2.291
X26.94Y45.729Z-2.287
X26.92Y45.742Z-2.283
X26.486Y46.032Z-2.198
X26.32Y46.142Z-2.166
X26.3Y46.156Z-2.162
X26.28Y46.171Z-2.158
X26.26Y46.186Z-2.153
X26.241Y46.201Z-2.149
X26.222Y46.217Z-2.144
X26.204Y46.233Z-2.14
X26.186Y46.25Z-2.135
X26.168Y46.267Z-2.13
X26.151Y46.284Z-2.125
X26.134Y46.302Z-2.12
X26.118Y46.321Z-2.117
X26.102Y46.34Z-2.114
X26.087Y46.359Z-2.111
X26.072Y46.378Z-2.109
X26.057Y46.398Z-2.106
X26.043Y46.418Z-2.105
X26.03Y46.439Z-2.104
X26.017Y46.46Z-2.103
X25.923Y46.617Z-2.1
X25.717Y46.96
X25.705Y46.981
X25.693Y47.003
X25.681Y47.025
X25.671Y47.047
X25.66Y47.069
X25.651Y47.092
X25.642Y47.114
X25.633Y47.137
X25.625Y47.161
X25.618Y47.184
X25.611Y47.208
X25.605Y47.231
X25.599Y47.255
X25.594Y47.279
X25.589Y47.303
X25.585Y47.328
X25.582Y47.352
X25.579Y47.376
X25.577Y47.401
X25.576Y47.425
X25.575Y47.45
X25.574Y47.474
Y48.175
G0Z10
X17.145Y44.393
G1Z-2.102F500
X16.99Y44.652F1000
X16.953Y44.716
X16.918Y44.781
X16.884Y44.847
X16.853Y44.913
X16.822Y44.98
X16.805Y45.022
X16.378Y44.738
X16.212Y44.627Z-2.1
X15.713Y44.294
X13.763Y42.558
X13.718Y42.485
X13.679Y42.423
X13.638Y42.362
X13.595Y42.302
X13.551Y42.244
X13.505Y42.186
X13.459Y42.13
X13.41Y42.074
X13.352Y42.011
X11.729Y40.297
X11.359Y39.744
X11.249Y39.577Z-2.102
X11.027Y39.244
X11.078Y39.223
X11.143Y39.193
X11.208Y39.162
X11.272Y39.129
X11.335Y39.095
X11.397Y39.059
X11.459Y39.022
X11.519Y38.983
X11.579Y38.943
X11.649Y38.894
X11.835Y39.173
X11.946Y39.339Z-2.1
X12.292Y39.859
X12.334Y39.92
X12.378Y39.979
X12.424Y40.038
X12.47Y40.095
X12.518Y40.152
X12.568Y40.207
X12.619Y40.261
X12.653Y40.295
X13.41Y41.054
X13.449Y41.125
X13.486Y41.19
X13.524Y41.254
X13.564Y41.317
X13.606Y41.379
X13.649Y41.439
X13.693Y41.499
X13.739Y41.558
X13.787Y41.615
X13.836Y41.671
X13.886Y41.726
X13.937Y41.78
X13.99Y41.832
X14.045Y41.883
X14.088Y41.922
X15.899Y43.532
X15.951Y43.577
X16.005Y43.621
X16.06Y43.663
X16.116Y43.705
X16.172Y43.745
X16.21Y43.771
X16.645Y44.061
X16.812Y44.172Z-2.102
X17.145Y44.393
X17.733Y43.584
X18.581Y44.149
X18.542Y44.183
X18.506Y44.216
X18.47Y44.251
X18.436Y44.285
X18.402Y44.321
X18.369Y44.358
X18.337Y44.395
X18.306Y44.433
X18.276Y44.472
X18.247Y44.512
X18.219Y44.552
X18.192Y44.593
X18.16Y44.646
X17.853Y45.156
X17.829Y45.199
X17.805Y45.242
X17.783Y45.286
X17.762Y45.33
X17.741Y45.375
X17.722Y45.42
X17.704Y45.466
X17.688Y45.512
X17.672Y45.558
X17.657Y45.605
X17.644Y45.652
X17.632Y45.7
X17.621Y45.748
X17.611Y45.796
X17.602Y45.844
X17.594Y45.893
X17.588Y45.942
X17.583Y45.991
X17.579Y46.039
X17.576Y46.089
X17.575Y46.138
X17.574Y46.174
Y46.481
Y46.681Z-2.103
X17.269Y46.534Z-2.102
X15.432Y45.309
X15.266Y45.199Z-2.103
X15.1Y45.088
X15.061Y45.053
X14.911Y44.92Z-2.101
X14.762Y44.787Z-2.1
X14.164Y44.255
X14.015Y44.122Z-2.101
X13.865Y43.989Z-2.1
X13.417Y43.59
X13.268Y43.458Z-2.101
X13.118Y43.325Z-2.102
X12.969Y43.192Z-2.104
X12.946Y43.145Z-2.103
X12.922Y43.102Z-2.104
X12.898Y43.06Z-2.103
X12.873Y43.018
X12.86Y42.997
X12.833Y42.956Z-2.102
X12.805Y42.916Z-2.101
X12.791Y42.896Z-2.1
X12.761Y42.857Z-2.101
X12.731Y42.819
X12.716Y42.8Z-2.1
X12.684Y42.762
X12.651Y42.726
X12.626Y42.699
X11.219Y41.213
X11.081Y41.068Z-2.101
X10.944Y40.923Z-2.103
X9.515Y38.78Z-2.102
X9.414Y38.57
X9.446Y38.567
X9.495Y38.562
X9.543Y38.556
X9.611Y38.546
X10.215Y38.445
X10.262Y38.437
X10.309Y38.427
X10.356Y38.416
X10.402Y38.404
X10.448Y38.39
X10.494Y38.376
X10.539Y38.361
X10.584Y38.344
X10.629Y38.327
X10.673Y38.308
X10.717Y38.289
X10.76Y38.268
X10.803Y38.246
X10.845Y38.223
X10.886Y38.2
X10.927Y38.175
X10.968Y38.149
X11.008Y38.123
X11.037Y38.102
X11.747Y37.595
X11.787Y37.565
X11.826Y37.535
X11.864Y37.503
X11.902Y37.471
X12.889Y38.951
X12.999Y39.117
X13.117Y39.294Z-2.1
X13.145Y39.335
X13.175Y39.375
X13.205Y39.414
X13.236Y39.452
X13.268Y39.49
X13.301Y39.526
X13.334Y39.562
X13.39Y39.619
X14.239Y40.468
X14.255Y40.505
X14.276Y40.55
X14.299Y40.594
X14.322Y40.638
X14.346Y40.681
X14.372Y40.724
X14.399Y40.766
X14.426Y40.807
X14.455Y40.848
X14.484Y40.888
X14.515Y40.927
X14.547Y40.965
X14.579Y41.003
X14.613Y41.039
X14.647Y41.075
X14.682Y41.11
X14.7Y41.127
X14.752Y41.175Z-2.101
X14.901Y41.308Z-2.1
X16.554Y42.777
X16.59Y42.807
X16.625Y42.836
X16.662Y42.865
X16.699Y42.892
X16.736Y42.919Z-2.101
X16.765Y42.939
X16.901Y43.029Z-2.102
X17.733Y43.584
X18.288Y42.752Z-2.313
X18.454Y42.863Z-2.314
X18.621Y42.974Z-2.313
X18.953Y43.196Z-2.314
X19.12Y43.307
X19.141Y43.32
X19.162Y43.333
X19.183Y43.346Z-2.315
X19.205Y43.358
X19.227Y43.369Z-2.316
X19.267Y43.389Z-2.318
X19.446Y43.478
X19.625Y43.568Z-2.317
X20.34Y43.925
X20.519Y44.015Z-2.316
X20.698Y44.104
X20.877Y44.194Z-2.315
X20.705Y44.222Z-2.288
X20.507Y44.255Z-2.257
X20.31Y44.288Z-2.226
X20.286Y44.293Z-2.222
X20.261Y44.298Z-2.217
X20.237Y44.303Z-2.213
X20.213Y44.309Z-2.209
X20.189Y44.316Z-2.204
X20.165Y44.324Z-2.2
X20.142Y44.332Z-2.195
X20.118Y44.34Z-2.19
X20.095Y44.349Z-2.185
X20.072Y44.359Z-2.18
X20.05Y44.369Z-2.175
X20.027Y44.38Z-2.17
X20.005Y44.391Z-2.165
X19.983Y44.403Z-2.159
X19.962Y44.416Z-2.154
X19.941Y44.429Z-2.148
X19.92Y44.442Z-2.142
X19.819Y44.51Z-2.115
X19.653Y44.621Z-2.102
X19.32Y44.842Z-2.101
X19.3Y44.856
X19.28Y44.871
X19.26Y44.886
X19.241Y44.901
X19.222Y44.917
X19.204Y44.933
X19.186Y44.95
X19.168Y44.967
X19.151Y44.984
X19.134Y45.002
X19.118Y45.021
X19.102Y45.04
X19.087Y45.059
X19.072Y45.078
X19.057Y45.098
X19.043Y45.118
X19.03Y45.139
X19.017Y45.16
X18.717Y45.66
X18.705Y45.681
X18.693Y45.703
X18.681Y45.725
X18.671Y45.747
X18.66Y45.769
X18.651Y45.792
X18.642Y45.814
X18.633Y45.837
X18.625Y45.861
X18.618Y45.884
X18.611Y45.908
X18.605Y45.931
X18.599Y45.955
X18.594Y45.979
X18.589Y46.003
X18.585Y46.028
X18.582Y46.052
X18.579Y46.076
X18.577Y46.101
X18.576Y46.125
X18.575Y46.15
Y46.174
Y47.075Z-2.102
Y47.274Z-2.109
Y47.299Z-2.111
X18.576Y47.324Z-2.117
X18.577Y47.349Z-2.123
X18.579Y47.374Z-2.129
X18.582Y47.398Z-2.134
X18.586Y47.423Z-2.14
X18.59Y47.447Z-2.145
X18.594Y47.472Z-2.15
X18.599Y47.496Z-2.155
X18.605Y47.52Z-2.161
X18.612Y47.544Z-2.166
X18.618Y47.568Z-2.171
X18.626Y47.591Z-2.175
X18.634Y47.615Z-2.18
X18.643Y47.638Z-2.184
X18.652Y47.661Z-2.189
X18.662Y47.684Z-2.193
X18.673Y47.706Z-2.197
X18.684Y47.729Z-2.201
X18.695Y47.751Z-2.205
X18.707Y47.772Z-2.209
X18.72Y47.794Z-2.213
X18.733Y47.815Z-2.216
X18.747Y47.835Z-2.22
X18.761Y47.856Z-2.223
X18.912Y48.067Z-2.256
X19.145Y48.393Z-2.307
X19.261Y48.556Z-2.332
X19.275Y48.575Z-2.335
X19.29Y48.595Z-2.338
X19.305Y48.614Z-2.341
X19.325Y48.637Z-2.344
X18.573Y48.274Z-2.346
X18.212Y48.1Z-2.347
X18.032Y48.013
X17.852Y47.926Z-2.348
X17.672Y47.839
X17.492Y47.752Z-2.349
X17.312Y47.665
X16.772Y47.404Z-2.351
X16.65Y47.323Z-2.347
X16.317Y47.101Z-2.346
X16.151Y46.99
X15.652Y46.658
X15.485Y46.547
X15.319Y46.436
X15.153Y46.325
X14.986Y46.214
X14.487Y45.881
X14.375Y45.781Z-2.342
X14.225Y45.648Z-2.34
X13.777Y45.25Z-2.339
X13.627Y45.117
X13.478Y44.984
X13.328Y44.851Z-2.338
X13.179Y44.718
X13.029Y44.585Z-2.337
X12.88Y44.453
X12.731Y44.32
X12.581Y44.187
X12.432Y44.054Z-2.336
X12.282Y43.921Z-2.338
X12.133Y43.788Z-2.341
X12.124Y43.762Z-2.337
X12.116Y43.739Z-2.335
X12.108Y43.716Z-2.332
X12.099Y43.693Z-2.33
X12.089Y43.67Z-2.327
X12.079Y43.648Z-2.324
X12.068Y43.626Z-2.322
X12.057Y43.605Z-2.32
X12.045Y43.583Z-2.318
X12.033Y43.562Z-2.317
X12.02Y43.541Z-2.316
X12.007Y43.521Z-2.315
X11.993Y43.5Z-2.314
X11.979Y43.48
X11.964Y43.461Z-2.313
X11.949Y43.442
X11.933Y43.423
X11.917Y43.405
X11.9Y43.387
X11.672Y43.146Z-2.316
X11.535Y43.001Z-2.319
X11.397Y42.855Z-2.321
X11.26Y42.71Z-2.323
X11.122Y42.565Z-2.324
X10.847Y42.275Z-2.329
X10.709Y42.13Z-2.331
X10.572Y41.984Z-2.333
X10.434Y41.839Z-2.335
X10.297Y41.694Z-2.338
X10.159Y41.549Z-2.343
X9.865Y41.108
X9.754Y40.942Z-2.342
X9.422Y40.442
X9.311Y40.276
X9.2Y40.109
X9.089Y39.943
X8.978Y39.777
X8.867Y39.61
X8.756Y39.444
X8.645Y39.277Z-2.345
X8.344Y38.654Z-2.343
X8.257Y38.473Z-2.342
X8.17Y38.293
X8.083Y38.113
X7.735Y37.393Z-2.339
X7.387Y36.672Z-2.338
X7.3Y36.492Z-2.337
Y36.49
X7.561Y36.856Z-2.318
X7.575Y36.875Z-2.317
X7.59Y36.894Z-2.315
X7.605Y36.913Z-2.314
X7.621Y36.932Z-2.312
X7.637Y36.95Z-2.311
X7.653Y36.967Z-2.309
X7.67Y36.985Z-2.307
X7.688Y37.001Z-2.305
X7.705Y37.018Z-2.302
X7.724Y37.034Z-2.3
X7.742Y37.049Z-2.297
X7.761Y37.064Z-2.294
X7.78Y37.079Z-2.292
X7.8Y37.093Z-2.289
X7.82Y37.107Z-2.285
X7.84Y37.12Z-2.282
X7.861Y37.133Z-2.278
X7.882Y37.145Z-2.275
X7.903Y37.156Z-2.271
X7.924Y37.167Z-2.267
X7.946Y37.178Z-2.263
X7.968Y37.188Z-2.259
X7.99Y37.198Z-2.255
X8.013Y37.207Z-2.25
X8.035Y37.215Z-2.246
X8.058Y37.223Z-2.242
X8.389Y37.333Z-2.175
X8.579Y37.397Z-2.137
X8.769Y37.46Z-2.106
X8.958Y37.523Z-2.102
X8.981Y37.531
X9.005Y37.537
X9.028Y37.544
X9.052Y37.549
X9.076Y37.555
X9.1Y37.559
X9.124Y37.563
X9.148Y37.566
X9.172Y37.569
X9.196Y37.571
X9.221Y37.573
X9.245Y37.574
X9.269
X9.294Z-2.101
X9.318
X9.342Y37.572
X9.366Y37.57
X9.391Y37.568
X9.415Y37.565
X9.447Y37.56
X10.039Y37.461
X10.062Y37.457
X10.086Y37.452
X10.109Y37.447
X10.133Y37.441
X10.156Y37.434
X10.178Y37.427
X10.201Y37.42
X10.224Y37.412
X10.246Y37.403
X10.268Y37.394
X10.29Y37.384
X10.312Y37.374
X10.333Y37.363
X10.354Y37.352
X10.375Y37.34
X10.396Y37.328
X10.416Y37.315
X10.436Y37.302
X10.456Y37.288
X10.993Y36.904
X11.156Y36.788Z-2.102
X11.176Y36.774
X11.195Y36.758
X11.215Y36.743
X11.233Y36.727
X11.252Y36.71
X11.27Y36.693
X11.287Y36.676
X11.305Y36.658
X11.321Y36.639
X11.338Y36.621
X11.353Y36.602
X11.369Y36.582
X11.383Y36.562
X11.398Y36.542
X11.412Y36.522
X11.425Y36.501
X11.438Y36.479
X11.45Y36.458
X11.462Y36.436
X11.473Y36.414
X11.483Y36.391
X11.493Y36.369
X11.503Y36.346Z-2.103
X11.554Y36.217Z-2.125
X11.629Y36.032Z-2.165
X11.703Y35.846Z-2.205
X11.712Y35.824Z-2.21
X11.72Y35.801Z-2.214
X11.727Y35.779Z-2.219
X11.734Y35.756Z-2.223
X11.74Y35.733Z-2.228
X11.746Y35.71Z-2.232
X11.752Y35.687Z-2.236
X11.756Y35.664Z-2.24
X11.761Y35.64Z-2.243
X11.764Y35.617Z-2.247
X11.767Y35.593Z-2.251
X11.77Y35.569Z-2.254
X11.772Y35.546Z-2.257
X11.773Y35.522Z-2.26
X11.774Y35.498Z-2.263
X11.775Y35.475Z-2.266
Y35.129Z-2.307
Y34.929Z-2.331
X12.413Y36.265Z-2.326
X12.5Y36.445
X12.586Y36.626Z-2.325
X12.672Y36.806Z-2.32
X12.683Y36.827Z-2.319
X12.694Y36.848
X12.705Y36.869Z-2.318
X12.717Y36.889
X12.73Y36.909
X12.742Y36.929Z-2.317
X12.833Y37.065Z-2.318
X13.055Y37.398Z-2.317
X13.388Y37.897
X13.499Y38.064Z-2.318
X13.721Y38.396Z-2.317
X13.832Y38.563
X13.942Y38.729
X13.956Y38.75
X13.971Y38.77
X13.986Y38.789
X14.001Y38.808
X14.017Y38.827
X14.033Y38.846
X14.05Y38.864
X14.067Y38.882
X14.115Y38.929Z-2.318
X14.256Y39.071Z-2.322
X14.398Y39.212Z-2.325
X14.539Y39.353Z-2.329
X14.681Y39.495Z-2.332
X14.963Y39.778Z-2.34
X15.105Y39.919Z-2.343
X15.112Y39.944Z-2.34
X15.119Y39.968Z-2.337
X15.126Y39.992Z-2.334
X15.134Y40.015Z-2.332
X15.143Y40.038Z-2.329
X15.152Y40.061Z-2.327
X15.162Y40.084Z-2.325
X15.173Y40.107Z-2.323
X15.184Y40.129Z-2.322
X15.195Y40.151Z-2.321
X15.207Y40.173Z-2.319
X15.22Y40.194Z-2.318
X15.233Y40.215Z-2.317
X15.247Y40.236Z-2.316
X15.261Y40.256Z-2.315
X15.276Y40.276Z-2.314
X15.291Y40.296
X15.307Y40.315Z-2.313
X15.323Y40.334
X15.339Y40.352
X15.356Y40.37Z-2.314
X15.374Y40.388
X15.392Y40.405Z-2.315
X15.416Y40.427Z-2.316
X15.566Y40.56Z-2.319
X16.014Y40.959Z-2.318
X16.164Y41.092
X16.463Y41.358Z-2.317
X16.612Y41.49
X16.762Y41.623Z-2.316
X16.911Y41.756
X17.061Y41.889Z-2.315
X17.21Y42.022
X17.228Y42.037
X17.245Y42.052Z-2.314
X17.263Y42.066
X17.282Y42.08Z-2.313
X17.301Y42.094
X17.32Y42.107
X17.456Y42.197
X17.622Y42.308
X17.955Y42.53Z-2.314
X18.288Y42.752Z-2.313
G0Z10
X9.626Y31.226
G1Z-2.101F500
X9.593Y31.219F1000
X9.545Y31.209
X9.508Y31.203
X9.584Y31.179
X9.614Y31.169
X9.626Y31.226
X7.657Y31.549
X7.613Y31.57
X7.568Y31.592
X7.524Y31.615
X7.481Y31.639
X7.438Y31.664
X7.396Y31.69
X7.355Y31.717
X7.314Y31.746
X7.274Y31.775
X7.225Y31.813
X7.05Y31.953
X6.926Y31.333
X7.354Y31.476
X7.401Y31.49
X7.448Y31.504
X7.495Y31.516
X7.543Y31.527
X7.591Y31.537
X7.639Y31.546
X7.657Y31.549
X8.06Y32.464
X8.038Y32.475
X8.016Y32.486
X7.994Y32.498
X7.972Y32.51
X7.951Y32.522
X7.93Y32.536
X7.91Y32.549
X7.889Y32.564
X7.869Y32.578
X7.818Y32.619
X7.35Y32.994
X7.331Y33.009
X7.313Y33.025
X7.295Y33.041
X7.277Y33.058
X7.26Y33.075
X7.243Y33.092
X7.227Y33.11
X7.211Y33.128
X7.196Y33.147Z-2.102
X7.181Y33.166Z-2.105
X7.166Y33.185Z-2.108
X7.152Y33.205Z-2.111
X7.139Y33.225Z-2.114
X7.126Y33.245Z-2.118
X7.113Y33.266Z-2.122
X7.101Y33.287Z-2.126
X7.09Y33.308Z-2.13
X7.079Y33.33Z-2.134
X7.068Y33.352Z-2.138
X7.058Y33.374Z-2.142
X7.049Y33.396Z-2.146
X7.04Y33.418Z-2.149
X7.032Y33.441Z-2.153
X7.024Y33.464Z-2.156
X7.017Y33.487Z-2.159
X6.947Y33.721Z-2.189
X6.889Y33.912Z-2.22
X6.832Y34.104Z-2.251
X6.774Y34.296Z-2.281
X6.717Y34.487Z-2.313
X6.71Y34.511Z-2.317
X6.704Y34.534Z-2.32
X6.698Y34.558Z-2.324
X6.693Y34.582Z-2.327
X6.689Y34.606Z-2.33
X6.685Y34.63Z-2.333
X6.682Y34.654Z-2.336
X6.679Y34.678Z-2.339
X6.678Y34.694Z-2.34
X6.638Y34.579Z-2.341
X6.573Y34.39
X6.507Y34.201
X6.442Y34.012Z-2.342
X6.419Y33.898Z-2.338
X5.87Y31.153
X5.859Y30.923Z-2.329
X5.85Y30.723Z-2.322
X5.841Y30.523Z-2.32
X5.776Y29.125Z-2.313
X5.817Y29.262Z-2.304
X5.824Y29.285Z-2.303
X5.832Y29.309Z-2.301
X5.841Y29.332Z-2.299
X5.85Y29.355Z-2.297
X5.859Y29.378Z-2.295
X5.87Y29.4Z-2.292
X5.88Y29.422Z-2.29
X5.892Y29.444Z-2.287
X5.904Y29.466Z-2.284
X5.916Y29.487Z-2.282
X5.929Y29.508Z-2.278
X5.942Y29.529Z-2.275
X5.956Y29.549Z-2.272
X5.971Y29.569Z-2.268
X5.986Y29.589Z-2.265
X6.001Y29.608Z-2.261
X6.017Y29.627Z-2.257
X6.033Y29.646Z-2.253
X6.05Y29.664Z-2.249
X6.085Y29.699Z-2.24
X6.367Y29.982Z-2.169
X6.385Y29.999Z-2.165
X6.403Y30.015Z-2.16
X6.421Y30.031Z-2.156
X6.44Y30.047Z-2.151
X6.459Y30.062Z-2.146
X6.478Y30.077Z-2.141
X6.498Y30.092Z-2.136
X6.518Y30.105Z-2.131
X6.538Y30.119Z-2.126
X6.559Y30.132Z-2.121
X6.58Y30.144Z-2.115
X6.602Y30.156Z-2.11
X6.623Y30.167Z-2.108
X6.645Y30.178Z-2.106
X6.667Y30.188Z-2.105
X6.69Y30.198Z-2.103
X6.712Y30.207Z-2.102
X6.735Y30.215
X6.758Y30.223Z-2.101
X6.899Y30.27Z-2.1
X7.658Y30.523
X7.682Y30.531
X7.705Y30.538
X7.729Y30.544
X7.753Y30.55
X7.777Y30.555
X7.801Y30.559
X7.825Y30.563
X7.849Y30.567
X7.874Y30.569
X7.898Y30.572
X7.923Y30.573
X7.947Y30.574
X7.972
X7.996
X8.021Y30.573
X8.045Y30.572
X8.07Y30.57
X8.094Y30.567
X8.118Y30.564
X8.143Y30.56
X8.167Y30.556
X8.191Y30.551
X8.215Y30.545
X8.238Y30.539
X8.304Y30.52
X9.262Y30.232
X9.285Y30.225
X9.308Y30.217
X9.331Y30.209
X9.354Y30.2
X9.376Y30.19
X9.399Y30.18
X9.421Y30.17
X9.442Y30.158Z-2.101
X9.464Y30.147
X9.485Y30.134
X9.506Y30.122
X9.526Y30.109Z-2.102
X9.546Y30.095Z-2.104
X9.566Y30.081Z-2.105
X9.586Y30.066Z-2.106
X9.605Y30.051Z-2.108
X9.624Y30.035Z-2.11
X9.642Y30.019Z-2.112
X9.66Y30.003Z-2.114
X9.678Y29.986Z-2.116
X9.695Y29.968Z-2.118
X9.711Y29.95Z-2.122
X9.728Y29.932Z-2.127
X9.744Y29.914Z-2.131
X9.759Y29.895Z-2.136
X9.774Y29.875Z-2.14
X9.788Y29.856Z-2.144
X9.939Y29.644Z-2.189
X10.056Y29.481Z-2.222
X10.288Y29.156Z-2.29
X10.302Y29.135Z-2.294
X10.316Y29.115Z-2.299
X10.329Y29.093Z-2.302
X10.342Y29.072Z-2.306
X10.354Y29.05Z-2.31
X10.366Y29.028Z-2.313
X10.377Y29.006Z-2.317
X10.387Y28.983Z-2.32
X10.397Y28.961Z-2.323
X10.406Y28.938Z-2.326
X10.415Y28.914Z-2.328
X10.423Y28.891Z-2.331
X10.431Y28.867Z-2.334
X10.438Y28.843Z-2.336
X10.444Y28.819Z-2.338
X10.449Y28.799Z-2.34
X10.527Y30.038Z-2.338
X10.539Y30.238Z-2.339
X10.551Y30.438
X10.564Y30.637Z-2.333
X10.576Y30.837Z-2.326
X10.578Y30.862Z-2.325
X10.581Y30.888
X10.584Y30.913Z-2.324
X10.588Y30.938
X10.592Y30.963
X10.598Y30.988
X10.603Y31.013
X10.61Y31.038
X10.693Y31.342Z-2.33
X10.745Y31.535Z-2.334
X10.798Y31.728Z-2.338
X10.851Y31.921Z-2.341
X10.956Y32.307Z-2.349
X11.009Y32.5Z-2.35
X11.114Y32.886Z-2.344
X11.219Y33.272Z-2.337
X11.032Y32.96Z-2.317
X11.019Y32.939Z-2.315
X11.006Y32.918Z-2.313
X10.992Y32.898Z-2.311
X10.977Y32.878Z-2.309
X10.962Y32.859Z-2.307
X10.947Y32.839Z-2.305
X10.931Y32.821Z-2.303
X10.915Y32.802Z-2.3
X10.898Y32.784Z-2.298
X10.881Y32.766Z-2.295
X10.863Y32.749Z-2.292
X10.845Y32.733Z-2.289
X10.826Y32.716Z-2.286
X10.808Y32.7Z-2.282
X10.788Y32.685Z-2.278
X10.769Y32.67Z-2.275
X10.749Y32.656Z-2.271
X10.728Y32.642Z-2.267
X10.708Y32.629Z-2.262
X10.687Y32.616Z-2.258
X10.665Y32.603Z-2.254
X10.644Y32.591Z-2.25
X10.622Y32.58Z-2.245
X10.6Y32.569Z-2.24
X10.577Y32.559Z-2.235
X10.555Y32.55Z-2.23
X10.532Y32.541Z-2.224
X10.509Y32.532Z-2.219
X10.485Y32.524Z-2.213
X10.462Y32.517Z-2.207
X10.228Y32.447Z-2.15
X10.037Y32.389Z-2.108
X9.845Y32.332Z-2.101
X9.462Y32.217
X9.438Y32.21
X9.414Y32.204
X9.39Y32.198
X9.366Y32.193
X9.341Y32.189
X9.317Y32.185
X9.292Y32.181
X9.268Y32.179
X9.243Y32.177
X9.218Y32.175
X9.193
X9.169
X9.144
X9.119Y32.176
X9.094Y32.178
X9.07Y32.18
X9.045Y32.183
X9.021Y32.186
X8.996Y32.191
X8.972Y32.195
X8.948Y32.201
X8.924Y32.206
X8.9Y32.213
X8.2Y32.413
X8.176Y32.42
X8.152Y32.428
X8.129Y32.436
X8.106Y32.445
X8.083Y32.454
X8.06Y32.464
G0Z10
X9.707Y24.914
G1Z-2.102F500
X9.687Y24.906Z-2.101F1000
X9.642Y24.889
X9.607Y24.877
X9.513Y24.846
X9.547Y24.84
X9.595Y24.83
X9.643Y24.819
X9.69Y24.807
X9.723Y24.798Z-2.102
X9.707Y24.914
X7.736Y24.503Z-2.101
X7.702Y24.509
X7.654Y24.519
X7.606Y24.53
X7.559Y24.542
X7.497Y24.56
X6.923Y24.732
X7.039Y24.148
X7.072Y24.173
X7.111Y24.201
X7.151Y24.229
X7.192Y24.256
X7.233Y24.282
X7.275Y24.307
X7.318Y24.331
X7.361Y24.354
X7.405Y24.375
X7.449Y24.396
X7.494Y24.416
X7.539Y24.434
X7.584Y24.452
X7.642Y24.472
X7.736Y24.503
X7.906Y25.489Z-2.1
X7.882Y25.493
X7.858Y25.498
X7.834Y25.504
X7.811Y25.51
X7.745Y25.529
X6.787Y25.817
X6.764Y25.824Z-2.101
X6.741Y25.832
X6.718Y25.84
X6.695Y25.849
X6.673Y25.859Z-2.103
X6.65Y25.869Z-2.105
X6.628Y25.879Z-2.107
X6.607Y25.891Z-2.109
X6.585Y25.902Z-2.113
X6.564Y25.915Z-2.118
X6.543Y25.927Z-2.124
X6.523Y25.94Z-2.129
X6.503Y25.954Z-2.134
X6.483Y25.968Z-2.139
X6.463Y25.983Z-2.144
X6.444Y25.998Z-2.149
X6.425Y26.014Z-2.154
X6.407Y26.03Z-2.158
X6.389Y26.046Z-2.163
X6.371Y26.063Z-2.167
X6.354Y26.081Z-2.172
X6.338Y26.099Z-2.176
X6.321Y26.117Z-2.18
X6.305Y26.135Z-2.184
X6.29Y26.154Z-2.188
X6.275Y26.174Z-2.191
X6.261Y26.193Z-2.195
X5.761Y26.893Z-2.316
X5.747Y26.914Z-2.32
X5.733Y26.934Z-2.323
X5.72Y26.956Z-2.326
X5.707Y26.977Z-2.329
X5.695Y26.999Z-2.332
X5.683Y27.021Z-2.335
X5.678Y27.031Z-2.336
X5.677Y26.997Z-2.337
X5.829Y25.317Z-2.326
X5.847Y25.117Z-2.33
X5.866Y24.918Z-2.336
X5.893Y24.783Z-2.335
X6.403Y22.233
X6.442Y22.037Z-2.338
X6.482Y21.922Z-2.337
X6.547Y21.733
X6.612Y21.544Z-2.336
X6.678Y21.355
X6.679Y21.37Z-2.335
X6.682Y21.394Z-2.332
X6.685Y21.418Z-2.329
X6.689Y21.443Z-2.326
X6.693Y21.467Z-2.323
X6.698Y21.491Z-2.319
X6.704Y21.515Z-2.316
X6.71Y21.538Z-2.312
X6.729Y21.604Z-2.302
X6.902Y22.179Z-2.208
X6.959Y22.37Z-2.181
X7.017Y22.562Z-2.157
X7.024Y22.585Z-2.153
X7.032Y22.609Z-2.15
X7.041Y22.632Z-2.146
X7.05Y22.655Z-2.143
X7.059Y22.678Z-2.139
X7.07Y22.7Z-2.135
X7.08Y22.722Z-2.131
X7.092Y22.744Z-2.127
X7.104Y22.766Z-2.123
X7.116Y22.787Z-2.119
X7.129Y22.808Z-2.115
X7.142Y22.829Z-2.112
X7.156Y22.849Z-2.109
X7.171Y22.869Z-2.106
X7.186Y22.889Z-2.104
X7.201Y22.908Z-2.101
X7.217Y22.927
X7.233Y22.946
X7.25Y22.964
X7.285Y22.999
X7.567Y23.282
X7.585Y23.299
X7.603Y23.315
X7.621Y23.331
X7.64Y23.347
X7.659Y23.362
X7.678Y23.377
X7.698Y23.392
X7.718Y23.405
X7.738Y23.419
X7.759Y23.432
X7.78Y23.444
X7.802Y23.456
X7.823Y23.467
X7.845Y23.478
X7.867Y23.488
X7.89Y23.498
X7.912Y23.507
X7.935Y23.515
X7.958Y23.523
X8.858Y23.823
X8.882Y23.831
X8.905Y23.838
X8.929Y23.844
X8.953Y23.85
X8.977Y23.855
X9.001Y23.859
X9.025Y23.863
X9.049Y23.867
X9.074Y23.869
X9.098Y23.872
X9.123Y23.873
X9.147Y23.874
X9.172
X9.196
X9.221Y23.873
X9.245Y23.872
X9.27Y23.87
X9.294Y23.867
X9.318Y23.864
X9.343Y23.86
X9.367Y23.856
X9.391Y23.851
X9.415Y23.845
X9.438Y23.839
X9.504Y23.82
X9.887Y23.705
X10.079Y23.647Z-2.117
X10.27Y23.59Z-2.163
X10.462Y23.532Z-2.21
X10.485Y23.525Z-2.216
X10.508Y23.517Z-2.222
X10.531Y23.509Z-2.227
X10.554Y23.5Z-2.233
X10.576Y23.49Z-2.238
X10.598Y23.48Z-2.243
X10.62Y23.47Z-2.248
X10.642Y23.458Z-2.253
X10.663Y23.447Z-2.257
X10.685Y23.435Z-2.262
X10.705Y23.422Z-2.266
X10.726Y23.409Z-2.27
X10.746Y23.395Z-2.274
X10.766Y23.381Z-2.278
X10.785Y23.366Z-2.282
X10.804Y23.351Z-2.285
X10.823Y23.336Z-2.289
X10.842Y23.32Z-2.293
X10.859Y23.303Z-2.296
X10.877Y23.286Z-2.299
X10.894Y23.269Z-2.302
X10.911Y23.251Z-2.304
X10.927Y23.233Z-2.307
X10.943Y23.214Z-2.309
X10.958Y23.195Z-2.311
X10.973Y23.176Z-2.313
X10.988Y23.157Z-2.315
X11.002Y23.137Z-2.317
X11.015Y23.116Z-2.318
X11.028Y23.096Z-2.32
X11.04Y23.075Z-2.322
X11.052Y23.053Z-2.323
X11.092Y22.982Z-2.327
X11.061Y23.068Z-2.326
X10.93Y23.446
X10.922Y23.47
X10.914Y23.495
X10.908Y23.519
X10.901Y23.544
X10.896Y23.569
X10.891Y23.594
X10.887Y23.619Z-2.327
X10.883Y23.644
X10.789Y24.362Z-2.34
X10.762Y24.561Z-2.343
X10.736Y24.759Z-2.347
X10.71Y24.957Z-2.35
X10.684Y25.155Z-2.354
X10.658Y25.354Z-2.357
X10.632Y25.552Z-2.36
X10.606Y25.75Z-2.357
X10.58Y25.949Z-2.352
X10.397Y27.337Z-2.328
X10.232Y26.787Z-2.274
X10.225Y26.764Z-2.272
X10.217Y26.74Z-2.269
X10.208Y26.717Z-2.266
X10.199Y26.694Z-2.263
X10.19Y26.671Z-2.261
X10.179Y26.649Z-2.258
X10.169Y26.627Z-2.254
X10.157Y26.605Z-2.251
X10.145Y26.583Z-2.247
X10.133Y26.562Z-2.244
X10.12Y26.541Z-2.24
X10.107Y26.52Z-2.236
X10.093Y26.5Z-2.232
X10.078Y26.48Z-2.227
X10.063Y26.46Z-2.223
X10.048Y26.441Z-2.219
X10.032Y26.422Z-2.214
X10.016Y26.403Z-2.209
X9.999Y26.385Z-2.205
X9.964Y26.35Z-2.195
X9.823Y26.209Z-2.155
X9.682Y26.067Z-2.117
X9.664Y26.05Z-2.115
X9.646Y26.034Z-2.112
X9.628Y26.018Z-2.11
X9.609Y26.002Z-2.108
X9.59Y25.987Z-2.107
X9.571Y25.972Z-2.105
X9.551Y25.957Z-2.104
X9.531Y25.944Z-2.102
X9.511Y25.93Z-2.101
X9.49Y25.917Z-2.1
X9.469Y25.905
X9.447Y25.893
X9.426Y25.882
X9.404Y25.871
X9.382Y25.861
X9.359Y25.851
X9.337Y25.842
X9.314Y25.834
X9.291Y25.826
X8.391Y25.526
X8.367Y25.518
X8.344Y25.511
X8.32Y25.505
X8.296Y25.499
X8.272Y25.494
X8.248Y25.49
X8.224Y25.486
X8.2Y25.482
X8.175Y25.48
X8.151Y25.477
X8.126Y25.476
X8.102Y25.475
X8.077
X8.053
X8.028Y25.476
X8.004Y25.477
X7.979Y25.479
X7.955Y25.482
X7.931Y25.485
X7.906Y25.489
X8.075Y26.474
X7.075Y26.774
X6.575Y27.474
X6.475Y27.974
X6.775Y28.974
X7.075Y29.275
X7.975Y29.575
X8.975Y29.275
X9.474Y28.574
X9.575Y28.074
X9.275Y27.075
X8.975Y26.774
X8.075Y26.474
G0Z10
X9.175Y22.875
G1Z-2.1F500
X8.274Y22.575F1000
X7.975Y22.274
X7.675Y21.274
X8.075Y20.074
X8.775Y19.575
X9.374Y19.475
X10.075Y19.675
X10.574Y20.074
X10.875Y20.974
X10.775Y21.475
X10.175Y22.575
X9.175Y22.875
G0Z10
Y33.174
G1Z-2.1F500
X10.175Y33.475F1000
X10.775Y34.474
Y35.475
X10.574Y35.974
X9.875Y36.474
X9.275Y36.575
X8.375Y36.274
X7.875Y35.574
X7.675Y34.775
X7.975Y33.774
X8.475Y33.374
X9.175Y33.174
G0Z10
X19.874Y45.674
G1Z-2.1F500
X20.475Y45.274F1000
X21.074Y45.174
X21.875Y45.375
X22.575Y45.874
X22.775Y46.274
Y47.274
X22.575Y47.775
X21.875Y48.274
X21.274Y48.374
X20.475Y48.175
X20.074Y47.975
X19.575Y47.274
Y46.174
X19.874Y45.674
G0Z10
X26.574Y47.474
G1Z-2.1F500
X26.874Y46.974F1000
X27.474Y46.574
X28.574
X28.974Y46.774
X29.475Y47.474
Y48.474
X28.974Y49.275
X28.074Y49.574
X27.474Y49.474
X26.874Y49.075
X26.574Y48.574
Y47.474
G0Z10
X33.174Y46.774
G1Z-2.1F500
X33.374Y46.074F1000
X33.774Y45.575
X35.074Y45.174
X35.974Y45.474
X36.274Y45.775
X36.575Y46.675
X36.474Y47.174
X35.974Y47.975
X34.674Y48.374
X33.974Y48.175
X33.475Y47.775
X33.174Y46.774
G0Z10
X45.474Y35.974
G1Z-2.1F500
X45.174Y34.975F1000
X45.575Y33.774
X46.274Y33.275
X46.875Y33.174
X47.775Y33.475
X48.074Y33.774
X48.374Y34.674
X48.274Y35.174
X47.674Y36.274
X46.675Y36.575
X45.775Y36.274
X45.474Y35.974
G0Z10
X47.474Y29.475
G1Z-2.1F500
X47.075Y29.275F1000
X46.574Y28.574
Y27.474
X46.974Y26.874
X47.474Y26.574
X48.574
X49.075Y26.874
X49.474Y27.474
Y28.475
X48.974Y29.275
X48.074Y29.575
X47.474Y29.475
G0Z10
X46.774Y22.875
G1Z-2.1F500
X45.874Y22.575F1000
X45.375Y21.875
X45.174Y21.074
X45.474Y20.074
X46.174Y19.575
X46.675Y19.475
X47.674Y19.774
X48.274Y20.775
Y21.775
X48.074Y22.274
X47.374Y22.775
X46.774Y22.875
G0Z10
X36.274Y10.275
G1Z-2.1F500
X35.574Y10.775F1000
X34.975Y10.875
X34.174Y10.675
X33.574Y10.275
X33.275Y9.775
Y8.675
X33.574Y8.175
X34.174Y7.775
X34.775Y7.675
X35.574Y7.875
X36.075Y8.175
X36.474Y8.775
Y9.775
X36.274Y10.275
G0Z10
X29.475Y8.475
G1Z-2.1F500
X29.275Y8.975F1000
X28.574Y9.474
X27.474
X26.974Y9.175
X26.574Y8.575
Y7.475
X26.974Y6.875
X27.474Y6.575
X28.574
X29.275Y7.075
X29.475Y7.475
Y8.475
G0Z10
X22.775Y8.675
G1Z-2.1F500
Y9.675F1000
X22.575Y10.175
X21.875Y10.675
X21.074Y10.875
X20.475Y10.775
X19.974Y10.474
X19.575Y9.875
Y8.775
X20.074Y8.075
X20.475Y7.875
X21.274Y7.675
X21.875Y7.775
X22.575Y8.274
X22.775Y8.675
G0Z10
X11.775Y11.175
G1Z-2.6F500
X11.975F1000
X13.874Y9.374
X16.275Y7.775
X19.174Y6.375
X21.775Y5.475
X24.774Y4.875
X29.074Y4.675
X31.275Y4.875
X34.274Y5.475
X36.874Y6.375
X39.774Y7.775
X42.174Y9.374
X44.875Y11.775
Y11.975
X46.675Y13.874
X48.274Y16.275
X49.674Y19.174
X50.574Y21.775
X51.174Y24.774
X51.374Y29.074
X51.174Y31.275
X50.574Y34.274
X49.674Y36.874
X48.274Y39.774
X46.675Y42.174
X44.275Y44.875
X44.074
X42.174Y46.675
X39.774Y48.274
X36.874Y49.674
X34.274Y50.574
X31.275Y51.174
X26.974Y51.374
X24.774Y51.174
X21.775Y50.574
X19.174Y49.674
X16.275Y48.274
X13.874Y46.675
X11.175Y44.275
Y44.074
X9.374Y42.174
X7.775Y39.774
X6.375Y36.874
X5.475Y34.274
X4.875Y31.275
X4.675Y26.974
X4.875Y24.774
X5.475Y21.775
X6.375Y19.174
X7.775Y16.275
X9.374Y13.874
X11.775Y11.175
G0Z10
X16.375Y16.075
G1Z-2.6F500
X14.775Y17.874F1000
X13.575Y19.675
X12.674Y21.475
X11.875Y23.775
X11.375Y27.574
X11.574Y30.774
X12.475Y34.074
X13.575Y36.374
X14.775Y38.174
X16.075Y39.474
Y39.674
X17.874Y41.274
X19.675Y42.475
X21.475Y43.375
X23.775Y44.174
X27.574Y44.675
X30.774Y44.475
X34.074Y43.575
X36.374Y42.475
X38.174Y41.274
X39.474Y39.974
X39.674
X41.274Y38.174
X42.475Y36.374
X43.375Y34.575
X44.174Y32.274
X44.675Y28.375
X44.475Y25.274
X43.575Y21.974
X42.475Y19.675
X41.274Y17.874
X39.974Y16.574
Y16.375
X38.174Y14.775
X36.374Y13.575
X34.575Y12.674
X32.274Y11.875
X28.475Y11.375
X25.274Y11.574
X21.974Y12.475
X19.675Y13.575
X17.874Y14.775
X16.574Y16.075
X16.375
G0Z10
X1.5Y1.501
G1Z-3.1F500
X4.871Y1.503F1000
X4.729Y1.609
X4.535Y1.76
X4.345Y1.915
X4.159Y2.075
X3.977Y2.24
X3.799Y2.409
X3.625Y2.582
X3.456Y2.76
X3.365Y2.859
X1.5Y4.917
Y1.501
X0.5Y0.5
X7.65Y0.504
X7.243Y0.781
X7.07Y0.904
X6.899Y1.032
X6.732Y1.163
X6.568Y1.299
X6.407Y1.438
X6.249Y1.581
X6.095Y1.728
X6.044Y1.778
X5.576Y2.228
X5.423Y2.339
X5.247Y2.472
X5.074Y2.61
X4.905Y2.752
X4.739Y2.898
X4.577Y3.048
X4.419Y3.202
X4.264Y3.36
X4.106Y3.531
X1.14Y6.804
X0.994Y6.973
X0.853Y7.144
X0.716Y7.32
X0.583Y7.498
X0.5Y7.616
Y0.5
X-0.499Y-0.499
X10.92
X10.782Y-0.41
X10.682Y-0.344
X7.814Y1.602
X7.66Y1.711
X7.509Y1.825
X7.36Y1.941
X7.214Y2.062
X7.071Y2.185
X6.931Y2.313
X6.793Y2.443
X6.742Y2.494
X6.221Y2.997
X6.098Y3.084
X5.94Y3.201
X5.785Y3.321
X5.633Y3.446
X5.484Y3.574
X5.338Y3.705
X5.196Y3.84
X5.057Y3.979
X4.921Y4.121
X4.847Y4.202
X1.889Y7.467
X1.76Y7.616
X1.634Y7.769
X1.512Y7.925
X1.394Y8.083
X1.28Y8.245
X1.218Y8.337
X-0.429Y10.81
X-0.499Y10.92
Y-0.499
X-1.499Y-1.499
X15.072
X11.973Y0.05
X11.809Y0.137
X11.648Y0.228
X11.489Y0.324
X11.332Y0.423
X11.244Y0.482
X8.386Y2.422
X8.251Y2.518
X8.118Y2.617
X7.988Y2.72
X7.86Y2.825
X7.735Y2.933
X7.612Y3.044
X7.492Y3.158
X6.882Y3.757
X6.754Y3.845
X6.614Y3.945
X6.477Y4.049
X6.343Y4.156
X6.211Y4.266
X6.082Y4.38
X5.956Y4.497
X5.833Y4.616
X5.713Y4.739
X5.588Y4.874
X2.638Y8.129
X2.525Y8.26
X2.415Y8.393
X2.308Y8.53
X2.205Y8.668
X2.106Y8.81
X2.05Y8.892
X0.409Y11.354
X0.316Y11.501
X0.226Y11.65
X0.141Y11.802
X0.059Y11.955
X0.014Y12.044
X-1.499Y15.072
Y-1.499
X-2.499Y-2.499
X21.555
X20.032Y-2.194
X19.874Y-2.159
X19.718Y-2.119
X19.562Y-2.075
X19.408Y-2.027
X19.319Y-1.997
X16.356Y-0.975
X16.209Y-0.92
X16.062Y-0.861
X15.917Y-0.798
X15.774Y-0.732
X15.691Y-0.691
X12.432Y0.938
X12.292Y1.013
X12.153Y1.091
X12.017Y1.173
X11.883Y1.258
X11.805Y1.31
X8.957Y3.243
X8.841Y3.325
X8.727Y3.41
X8.616Y3.498
X8.506Y3.588
X8.399Y3.681
X8.294Y3.776
X8.191Y3.874
X8.143Y3.921
X7.528Y4.529
X7.39Y4.62
X7.27Y4.705
X7.151Y4.792
X7.035Y4.883
X6.921Y4.976
X6.809Y5.072
X6.7Y5.17
X6.593Y5.272
X6.489Y5.376
X6.387Y5.482
X6.329Y5.545
X3.387Y8.791
X3.29Y8.903
X3.196Y9.018
X3.105Y9.135
X3.016Y9.254
X2.931Y9.375
X2.882Y9.446
X1.248Y11.898
X1.168Y12.024
X1.091Y12.152
X1.018Y12.282
X0.947Y12.414
X0.908Y12.491
X-0.72Y15.75
X-0.787Y15.893
X-0.851Y16.038
X-0.91Y16.184
X-0.966Y16.332
X-0.997Y16.419
X-2.018Y19.382
X-2.067Y19.536
X-2.112Y19.692
X-2.152Y19.848
X-2.189Y20.006
X-2.208Y20.098
X-2.499Y21.555
Y-2.499
G0Z10
X27.66Y27.388
G1Z-3.1F500
X27.863Y27.308F1000
X28.192Y27.318
X28.366Y27.365
X28.661Y27.66
X28.732Y27.841
X28.742Y28.159
X28.643Y28.407
X28.389Y28.661
X28.186Y28.741
X27.857Y28.731
X27.683Y28.684
X27.388Y28.389
X27.308Y28.186
X27.318Y27.857
X27.365Y27.683
X27.66Y27.388
X27.1Y26.534
X27.653Y26.316
X27.736Y26.304
X28.341Y26.322
X28.886Y26.471
X29.515Y27.1
X29.726Y27.636
X29.746Y28.253
X29.726Y28.393
X29.495Y28.969
X28.949Y29.515
X28.396Y29.733
X28.313Y29.745
X27.708Y29.727
X27.163Y29.578
X26.534Y28.949
X26.316Y28.396
X26.304Y28.313
X26.322Y27.708
X26.471Y27.163
X27.1Y26.534
X26.54Y25.68
X27.393Y25.343
X27.678Y25.301
X28.489Y25.326
X29.385Y25.57
X29.429Y25.6
X30.369Y26.54
X30.72Y27.431
X30.748Y28.308
X30.699Y28.653
X30.348Y29.531
X29.509Y30.369
X28.656Y30.706
X28.371Y30.748
X27.56Y30.723
X26.664Y30.479
X26.62Y30.449
X25.68Y29.509
X25.343Y28.656
X25.301Y28.371
X25.326Y27.56
X25.57Y26.664
X25.6Y26.62
X26.54Y25.68
X26.039Y24.802
X27.133Y24.371
X27.619Y24.299
X28.638Y24.33
X29.757Y24.635
X29.852Y24.68
X30.067Y24.823
X31.18Y25.937
X31.247Y26.039
X31.714Y27.226
X31.75Y28.364
X31.672Y28.914
X31.2Y30.093
X30.112Y31.18
X30.01Y31.247
X28.916Y31.678
X28.43Y31.75
X27.411Y31.719
X26.292Y31.414
X26.197Y31.369
X25.982Y31.226
X24.869Y30.112
X24.802Y30.01
X24.371Y28.916
X24.299Y28.43
X24.33Y27.411
X24.635Y26.292
X24.68Y26.197
X24.823Y25.982
X25.937Y24.869
X26.039Y24.802
X25.578Y23.909
X26.874Y23.399
X27.56Y23.297
X28.787Y23.334
X30.104Y23.693
X30.345Y23.807
X30.704Y24.046
X31.962Y25.304
X32.14Y25.578
X32.709Y27.021
X32.752Y28.419
X32.645Y29.174
X32.076Y30.594
X32.003Y30.704
X30.745Y31.962
X30.471Y32.14
X29.175Y32.65
X28.489Y32.752
X27.262Y32.715
X25.945Y32.356
X25.704Y32.242
X25.345Y32.003
X24.087Y30.745
X23.909Y30.471
X23.399Y29.175
X23.297Y28.489
X23.334Y27.262
X23.693Y25.945
X23.807Y25.704
X24.046Y25.345
X25.304Y24.087
X25.578Y23.909
X25.118Y23.015
X26.614Y22.426
X27.502Y22.295
X28.936Y22.338
X30.451Y22.751
X30.838Y22.933
X31.341Y23.269
X32.743Y24.671
X33.034Y25.118
X33.703Y26.816
X33.754Y28.475
X33.618Y29.434
X32.966Y31.062
X32.78Y31.341
X31.378Y32.743
X30.931Y33.034
X29.435Y33.623
X28.547Y33.754
X27.113Y33.711
X25.598Y33.298
X25.211Y33.116
X24.708Y32.78
X23.306Y31.378
X23.015Y30.931
X22.426Y29.435
X22.295Y28.547
X22.338Y27.113
X22.751Y25.598
X22.933Y25.211
X23.269Y24.708
X24.671Y23.306
X25.118Y23.015
X24.658Y22.122
X26.354Y21.454
X27.443Y21.292
X29.084Y21.342
X30.798Y21.809
X31.331Y22.06
X31.978Y22.491
X33.524Y24.038
X33.927Y24.658
X34.67Y26.543
X34.699Y26.69
X34.757Y28.53
X34.591Y29.694
X33.856Y31.53
X33.558Y31.978
X32.011Y33.524
X31.391Y33.927
X29.695Y34.595
X28.606Y34.757
X26.965Y34.707
X25.251Y34.24
X24.718Y33.989
X24.071Y33.558
X22.525Y32.011
X22.122Y31.391
X21.454Y29.695
X21.292Y28.606
X21.342Y26.965
X21.809Y25.251
X22.06Y24.718
X22.491Y24.071
X24.038Y22.525
X24.658Y22.122
X24.197Y21.229
X26.094Y20.481
X27.385Y20.29
X29.233Y20.346
X31.145Y20.868
X31.824Y21.187
X32.615Y21.714
X34.306Y23.405
X34.82Y24.197
X35.633Y26.259
X35.696Y26.576
X35.759Y28.586
X35.564Y29.954
X34.746Y31.998
X34.335Y32.615
X32.644Y34.306
X31.852Y34.82
X29.955Y35.568
X28.664Y35.759
X26.816Y35.703
X24.904Y35.181
X24.225Y34.862
X23.434Y34.335
X21.743Y32.644
X21.229Y31.852
X20.481Y29.955
X20.29Y28.664
X20.346Y26.816
X20.868Y24.904
X21.187Y24.225
X21.714Y23.434
X23.405Y21.743
X24.197Y21.229
X23.737Y20.335
X25.834Y19.509
X27.326Y19.288
X29.382Y19.35
X31.492Y19.926
X32.317Y20.314
X33.252Y20.937
X35.087Y22.772
X35.714Y23.737
X36.596Y25.976
X36.693Y26.461
X36.761Y28.641
X36.537Y30.214
X35.636Y32.466
X35.112Y33.252
X33.277Y35.087
X32.312Y35.714
X30.215Y36.54
X28.723Y36.761
X26.667Y36.699
X24.557Y36.123
X23.732Y35.735
X22.797Y35.112
X20.962Y33.277
X20.335Y32.312
X19.509Y30.215
X19.288Y28.723
X19.35Y26.667
X19.926Y24.557
X20.314Y23.732
X20.937Y22.797
X22.772Y20.962
X23.737Y20.335
G0Z10
X51.132Y1.5
G1Z-3.1F500
X54.497F1000
X54.49Y4.795
X54.365Y4.632
X54.212Y4.44
X54.054Y4.252
X53.892Y4.068
X53.725Y3.888
X53.554Y3.712
X53.378Y3.54
X53.19Y3.365
X51.132Y1.5
X49.316Y1.204
X49.161Y1.066
X48.991Y0.923
X48.817Y0.784
X48.64Y0.649
X48.46Y0.519
X48.433Y0.5
X55.499
X55.494Y7.538
X55.356Y7.35
X55.223Y7.178
X55.086Y7.01
X54.945Y6.845
X54.8Y6.683
X54.739Y6.618
X53.945Y5.756
X53.84Y5.602
X53.71Y5.423
X53.577Y5.247
X53.439Y5.074
X53.297Y4.905
X53.151Y4.739
X53.001Y4.577
X52.847Y4.419
X52.689Y4.264
X52.518Y4.106
X49.316Y1.204
X48.645Y1.945
X48.508Y1.824
X48.357Y1.696
X48.203Y1.573
X48.045Y1.453
X47.885Y1.337
X47.712Y1.218
X45.239Y-0.429
X45.129Y-0.499
X56.499
Y10.842
X56.431Y10.737
X54.784Y8.267
X54.673Y8.109
X54.559Y7.953
X54.44Y7.801
X54.319Y7.651
X54.193Y7.505
X54.065Y7.361
X54.007Y7.298
X53.161Y6.382
X53.078Y6.259
X52.965Y6.098
X52.848Y5.94
X52.728Y5.785
X52.603Y5.633
X52.475Y5.484
X52.344Y5.338
X52.209Y5.196
X52.07Y5.057
X51.928Y4.921
X51.847Y4.847
X48.645Y1.945
X47.974Y2.686
X47.855Y2.581
X47.723Y2.47
X47.588Y2.361
X47.45Y2.256
X47.31Y2.155
X47.157Y2.05
X44.695Y0.409
X44.548Y0.316
X44.399Y0.226
X44.247Y0.141
X44.094Y0.059
X44.005Y0.014
X40.977Y-1.499
X57.499
Y14.972
X56.002Y11.977
X55.92Y11.824
X55.835Y11.672
X55.746Y11.522
X55.653Y11.375
X55.599Y11.292
X53.958Y8.832
X53.862Y8.693
X53.762Y8.557
X53.658Y8.424
X53.552Y8.293
X53.442Y8.164
X53.329Y8.039
X52.386Y7.026
X52.301Y6.896
X52.204Y6.754
X52.104Y6.614
X52Y6.477
X51.893Y6.343
X51.783Y6.211
X51.669Y6.082
X51.552Y5.956
X51.433Y5.833
X51.31Y5.713
X51.175Y5.588
X47.974Y2.686
X47.303Y3.428
X47.202Y3.339
X47.089Y3.243
X46.973Y3.15
X46.855Y3.06
X46.735Y2.973
X46.603Y2.882
X44.151Y1.248
X44.025Y1.168
X43.897Y1.091
X43.767Y1.018
X43.635Y0.947
X43.558Y0.908
X40.299Y-0.72
X40.156Y-0.787
X40.011Y-0.851
X39.865Y-0.91
X39.717Y-0.966
X39.63Y-0.997
X36.667Y-2.018
X36.513Y-2.067
X36.357Y-2.112
X36.201Y-2.152
X36.043Y-2.189
X35.951Y-2.208
X34.494Y-2.499
X58.499
Y21.305
X58.244Y20.032
X58.209Y19.874
X58.169Y19.718
X58.125Y19.562
X58.077Y19.408
X58.047Y19.319
X57.025Y16.356
X56.97Y16.209
X56.911Y16.062
X56.848Y15.917
X56.782Y15.774
X56.741Y15.691
X55.113Y12.436
X55.043Y12.304
X54.97Y12.174
X54.894Y12.045
X54.815Y11.919
X54.767Y11.846
X53.133Y9.396
X53.05Y9.278
X52.964Y9.161
X52.876Y9.047
X52.785Y8.934
X52.691Y8.824
X52.594Y8.717
X52.544Y8.663
X51.6Y7.655
X51.51Y7.513
X51.429Y7.39
X51.344Y7.27
X51.257Y7.151
X51.166Y7.035
X51.073Y6.921
X50.977Y6.809
X50.879Y6.7
X50.777Y6.593
X50.673Y6.489
X50.567Y6.387
X50.504Y6.329
X47.303Y3.428
G0Z10
X54.499Y51.187
G1Z-3.1F500
Y54.499F1000
X51.241
X51.417Y54.365
X51.609Y54.212
X51.797Y54.054
X51.981Y53.892
X52.161Y53.725
X52.337Y53.554
X52.509Y53.378
X52.684Y53.19
X54.499Y51.187
X54.845Y49.316
X54.983Y49.161
X55.126Y48.991
X55.265Y48.817
X55.4Y48.64
X55.5Y48.504
Y55.5
X48.504
X48.699Y55.356
X48.871Y55.223
X49.039Y55.086
X49.204Y54.945
X49.366Y54.8
X49.431Y54.739
X50.293Y53.945
X50.447Y53.84
X50.626Y53.71
X50.802Y53.577
X50.975Y53.439
X51.144Y53.297
X51.31Y53.151
X51.472Y53.001
X51.63Y52.847
X51.785Y52.689
X51.943Y52.518
X54.845Y49.316
X54.104Y48.645
X54.225Y48.508
X54.353Y48.357
X54.476Y48.203
X54.596Y48.045
X54.712Y47.885
X54.831Y47.712
X56.479Y45.239
X56.499Y45.207
Y56.499
X45.207
X45.312Y56.431
X47.782Y54.784
X47.94Y54.673
X48.096Y54.559
X48.248Y54.44
X48.398Y54.319
X48.544Y54.193
X48.688Y54.065
X48.751Y54.007
X49.667Y53.161
X49.79Y53.078
X49.951Y52.965
X50.109Y52.848
X50.264Y52.728
X50.416Y52.603
X50.565Y52.475
X50.711Y52.344
X50.853Y52.209
X50.992Y52.07
X51.128Y51.928
X51.202Y51.847
X54.104Y48.645
X53.363Y47.974
X53.468Y47.855
X53.579Y47.723
X53.688Y47.588
X53.793Y47.45
X53.894Y47.31
X53.999Y47.157
X55.64Y44.695
X55.733Y44.548
X55.823Y44.399
X55.908Y44.247
X55.99Y44.094
X56.035Y44.005
X57.499Y41.077
Y57.499
X41.077
X44.072Y56.002
X44.225Y55.92
X44.377Y55.835
X44.527Y55.746
X44.674Y55.653
X44.757Y55.599
X47.217Y53.958
X47.356Y53.862
X47.492Y53.762
X47.625Y53.658
X47.756Y53.552
X47.885Y53.442
X48.01Y53.329
X49.023Y52.386
X49.153Y52.301
X49.295Y52.204
X49.435Y52.104
X49.572Y52
X49.706Y51.893
X49.838Y51.783
X49.967Y51.669
X50.093Y51.552
X50.216Y51.433
X50.336Y51.31
X50.461Y51.175
X53.363Y47.974
X52.621Y47.303
X52.71Y47.202
X52.806Y47.089
X52.899Y46.973
X52.989Y46.855
X53.076Y46.735
X53.167Y46.603
X54.801Y44.151
X54.881Y44.025
X54.958Y43.897
X55.031Y43.767
X55.102Y43.635
X55.141Y43.558
X56.77Y40.299
X56.837Y40.156
X56.901Y40.011
X56.96Y39.865
X57.016Y39.717
X57.047Y39.63
X58.068Y36.667
X58.117Y36.513
X58.162Y36.357
X58.202Y36.201
X58.239Y36.043
X58.258Y35.951
X58.499Y34.744
Y58.499
X34.744
X36.017Y58.244
X36.175Y58.209
X36.331Y58.169
X36.487Y58.125
X36.641Y58.077
X36.73Y58.047
X39.693Y57.025
X39.84Y56.97
X39.987Y56.911
X40.132Y56.848
X40.275Y56.782
X40.358Y56.741
X43.613Y55.113
X43.745Y55.043
X43.875Y54.97
X44.004Y54.894
X44.13Y54.815
X44.203Y54.767
X46.653Y53.133
X46.771Y53.05
X46.888Y52.964
X47.002Y52.876
X47.115Y52.785
X47.225Y52.691
X47.332Y52.594
X47.386Y52.544
X48.394Y51.6
X48.536Y51.51
X48.659Y51.429
X48.779Y51.344
X48.898Y51.257
X49.014Y51.166
X49.128Y51.073
X49.24Y50.977
X49.349Y50.879
X49.456Y50.777
X49.56Y50.673
X49.662Y50.567
X49.72Y50.504
X52.621Y47.303
G0Z10
X4.862Y54.499
G1Z-3.1F500
X1.5F1000
Y51.173
X1.609Y51.32
X1.76Y51.514
X1.915Y51.704
X2.075Y51.89
X2.24Y52.072
X2.409Y52.25
X2.582Y52.424
X2.76Y52.593
X2.859Y52.684
X4.862Y54.499
X6.733Y54.845
X6.888Y54.983
X7.058Y55.126
X7.232Y55.265
X7.409Y55.4
X7.545Y55.5
X0.5
Y48.392
X0.781Y48.806
X0.904Y48.979
X1.032Y49.15
X1.163Y49.317
X1.299Y49.481
X1.438Y49.642
X1.581Y49.8
X1.728Y49.954
X1.778Y50.005
X2.228Y50.473
X2.339Y50.626
X2.472Y50.802
X2.61Y50.975
X2.752Y51.144
X2.898Y51.31
X3.048Y51.472
X3.202Y51.63
X3.36Y51.785
X3.531Y51.943
X6.733Y54.845
X7.404Y54.104
X7.541Y54.225
X7.692Y54.353
X7.846Y54.476
