(Created with grbl post processor 2024/01/28 16:02)
G21
(G-code generated with BlenderCAM and NC library)
G17G90
S12000M03
G00 Z10.0

G0X0Y0Z10
X7.1Y7.182
G1Z-11F500
X7.182Y7.1F1000
X7.2Y7.083
X9.918Y4.7
X10Y4.629
X10.036Y4.6
X10.1Y4.553
X13.172Y2.5
X13.2Y2.482
X13.3Y2.424
X13.348Y2.4
X16.6Y0.796
X16.7Y0.75
X16.8Y0.711
X20.2Y-0.442
X20.3Y-0.475
X20.384Y-0.5
X20.4Y-0.503
X20.5Y-0.524
X24Y-1.221
X24.1Y-1.24
X24.2Y-1.253
X24.3Y-1.26
X27.9Y-1.496
X28Y-1.5
X28.1Y-1.496
X31.7Y-1.26
X31.8Y-1.253
X31.9Y-1.24
X32Y-1.221
X35.5Y-0.524
X35.6Y-0.503
X35.615Y-0.5
X35.7Y-0.475
X39.2Y0.711
X39.3Y0.75
X39.406Y0.8
X42.651Y2.4
X42.7Y2.424
X42.8Y2.482
X42.827Y2.5
X45.82Y4.5
X45.9Y4.553
X45.963Y4.6
X46Y4.629
X46.1Y4.715
X48.8Y7.083
X48.817Y7.1
X48.9Y7.182
X48.916Y7.2
X51.3Y9.918
X51.37Y10
X51.4Y10.036
X51.446Y10.1
X53.5Y13.172
X53.517Y13.2
X53.575Y13.3
X53.6Y13.348
X55.203Y16.6
X55.249Y16.7
X55.288Y16.8
X56.442Y20.2
X56.475Y20.3
X56.5Y20.384
X56.503Y20.4
X56.524Y20.5
X57.221Y24
X57.24Y24.1
X57.253Y24.2
X57.26Y24.3
X57.496Y27.9
X57.5Y28
X57.496Y28.1
X57.26Y31.7
X57.253Y31.8
X57.24Y31.9
X57.221Y32
X56.524Y35.5
X56.503Y35.6
X56.5Y35.615
X56.475Y35.7
X55.288Y39.2
X55.249Y39.3
X55.2Y39.406
X53.6Y42.651
X53.575Y42.7
X53.517Y42.8
X53.5Y42.827
X51.5Y45.82
X51.446Y45.9
X51.4Y45.963
X51.37Y46
X51.284Y46.1
X48.916Y48.8
X48.9Y48.817
X48.817Y48.9
X48.8Y48.916
X46.081Y51.3
X46Y51.37
X45.963Y51.4
X45.9Y51.446
X42.827Y53.5
X42.8Y53.517
X42.7Y53.575
X42.651Y53.6
X39.4Y55.203
X39.3Y55.249
X39.2Y55.288
X35.8Y56.442
X35.7Y56.475
X35.615Y56.5
X35.6Y56.503
X35.5Y56.524
X32Y57.221
X31.9Y57.24
X31.8Y57.253
X31.7Y57.26
X28.1Y57.496
X27.999Y57.5
X27.9Y57.496
X24.3Y57.26
X24.2Y57.253
X24.1Y57.24
X24Y57.221
X20.5Y56.524
X20.4Y56.503
X20.384Y56.5
X20.3Y56.475
X16.8Y55.288
X16.7Y55.249
X16.593Y55.2
X13.348Y53.6
X13.3Y53.575
X13.2Y53.517
X13.172Y53.5
X10.179Y51.5
X10.1Y51.446
X10.036Y51.4
X10Y51.37
X9.9Y51.284
X7.2Y48.916
X7.182Y48.9
X7.1Y48.817
X7.083Y48.8
X4.7Y46.081
X4.629Y46
X4.6Y45.963
X4.553Y45.9
X2.5Y42.827
X2.482Y42.8
X2.424Y42.7
X2.4Y42.651
X0.796Y39.4
X0.75Y39.3
X0.711Y39.2
X-0.442Y35.8
X-0.475Y35.7
X-0.5Y35.615
X-0.503Y35.6
X-0.524Y35.5
X-1.221Y32
X-1.24Y31.9
X-1.253Y31.8
X-1.26Y31.7
X-1.496Y28.1
X-1.5Y27.999
X-1.496Y27.9
X-1.26Y24.3
X-1.253Y24.2
X-1.24Y24.1
X-1.221Y24
X-0.524Y20.5
X-0.503Y20.4
X-0.5Y20.384
X-0.475Y20.3
X0.711Y16.8
X0.75Y16.7
X0.8Y16.593
X2.4Y13.348
X2.424Y13.3
X2.482Y13.2
X2.5Y13.172
X4.5Y10.179
X4.553Y10.1
X4.6Y10.036
X4.629Y10
X4.715Y9.9
X7.083Y7.2
X7.1Y7.182
Z-12F500
X7.182Y7.1F1000
X7.2Y7.083
X9.918Y4.7
X10Y4.629
X10.036Y4.6
X10.1Y4.553
X13.172Y2.5
X13.2Y2.482
X13.3Y2.424
X13.348Y2.4
X16.6Y0.796
X16.7Y0.75
X16.8Y0.711
X20.2Y-0.442
X20.3Y-0.475
X20.384Y-0.5
X20.4Y-0.503
X20.5Y-0.524
X24Y-1.221
X24.1Y-1.24
X24.2Y-1.253
X24.3Y-1.26
X27.9Y-1.496
X28Y-1.5
X28.1Y-1.496
X31.7Y-1.26
X31.8Y-1.253
X31.9Y-1.24
X32Y-1.221
X35.5Y-0.524
X35.6Y-0.503
X35.615Y-0.5
X35.7Y-0.475
X39.2Y0.711
X39.3Y0.75
X39.406Y0.8
X42.651Y2.4
X42.7Y2.424
X42.8Y2.482
X42.827Y2.5
X45.82Y4.5
X45.9Y4.553
X45.963Y4.6
X46Y4.629
X46.1Y4.715
X48.8Y7.083
X48.817Y7.1
X48.9Y7.182
X48.916Y7.2
X51.3Y9.918
X51.37Y10
X51.4Y10.036
X51.446Y10.1
X53.5Y13.172
X53.517Y13.2
X53.575Y13.3
X53.6Y13.348
X55.203Y16.6
X55.249Y16.7
X55.288Y16.8
X56.442Y20.2
X56.475Y20.3
X56.5Y20.384
X56.503Y20.4
X56.524Y20.5
X57.221Y24
X57.24Y24.1
X57.253Y24.2
X57.26Y24.3
X57.496Y27.9
X57.5Y28
X57.496Y28.1
X57.26Y31.7
X57.253Y31.8
X57.24Y31.9
X57.221Y32
X56.524Y35.5
X56.503Y35.6
X56.5Y35.615
X56.475Y35.7
X55.288Y39.2
X55.249Y39.3
X55.2Y39.406
X53.6Y42.651
X53.575Y42.7
X53.517Y42.8
X53.5Y42.827
X51.5Y45.82
X51.446Y45.9
X51.4Y45.963
X51.37Y46
X51.284Y46.1
X48.916Y48.8
X48.9Y48.817
X48.817Y48.9
X48.8Y48.916
X46.081Y51.3
X46Y51.37
X45.963Y51.4
X45.9Y51.446
X42.827Y53.5
X42.8Y53.517
X42.7Y53.575
X42.651Y53.6
X39.4Y55.203
X39.3Y55.249
X39.2Y55.288
X35.8Y56.442
X35.7Y56.475
X35.615Y56.5
X35.6Y56.503
X35.5Y56.524
X32Y57.221
X31.9Y57.24
X31.8Y57.253
X31.7Y57.26
X28.1Y57.496
X27.999Y57.5
X27.9Y57.496
X24.3Y57.26
X24.2Y57.253
X24.1Y57.24
X24Y57.221
X20.5Y56.524
X20.4Y56.503
X20.384Y56.5
X20.3Y56.475
X16.8Y55.288
X16.7Y55.249
X16.593Y55.2
X13.348Y53.6
X13.3Y53.575
X13.2Y53.517
X13.172Y53.5
X10.179Y51.5
X10.1Y51.446
X10.036Y51.4
X10Y51.37
X9.9Y51.284
X7.2Y48.916
X7.182Y48.9
X7.1Y48.817
X7.083Y48.8
X4.7Y46.081
X4.629Y46
X4.6Y45.963
X4.553Y45.9
X2.5Y42.827
X2.482Y42.8
X2.424Y42.7
X2.4Y42.651
X0.796Y39.4
X0.75Y39.3
X0.711Y39.2
X-0.442Y35.8
X-0.475Y35.7
X-0.5Y35.615
X-0.503Y35.6
X-0.524Y35.5
X-1.221Y32
X-1.24Y31.9
X-1.253Y31.8
X-1.26Y31.7
X-1.496Y28.1
X-1.5Y27.999
X-1.496Y27.9
X-1.26Y24.3
X-1.253Y24.2
X-1.24Y24.1
X-1.221Y24
X-0.524Y20.5
X-0.503Y20.4
X-0.5Y20.384
X-0.475Y20.3
X0.711Y16.8
X0.75Y16.7
X0.8Y16.593
X2.4Y13.348
X2.424Y13.3
X2.482Y13.2
X2.5Y13.172
X4.5Y10.179
X4.553Y10.1
X4.6Y10.036
X4.629Y10
X4.715Y9.9
X7.083Y7.2
X7.1Y7.182
Z-13F500
X7.182Y7.1F1000
X7.2Y7.083
X9.918Y4.7
X10Y4.629
X10.036Y4.6
X10.1Y4.553
X13.172Y2.5
X13.2Y2.482
X13.3Y2.424
X13.348Y2.4
X16.6Y0.796
X16.7Y0.75
X16.8Y0.711
X20.2Y-0.442
X20.3Y-0.475
X20.384Y-0.5
X20.4Y-0.503
X20.5Y-0.524
X24Y-1.221
X24.1Y-1.24
X24.2Y-1.253
X24.3Y-1.26
X27.9Y-1.496
X28Y-1.5
X28.1Y-1.496
X31.7Y-1.26
X31.8Y-1.253
X31.9Y-1.24
X32Y-1.221
X35.5Y-0.524
X35.6Y-0.503
X35.615Y-0.5
X35.7Y-0.475
X39.2Y0.711
X39.3Y0.75
X39.406Y0.8
X42.651Y2.4
X42.7Y2.424
X42.8Y2.482
X42.827Y2.5
X45.82Y4.5
X45.9Y4.553
X45.963Y4.6
X46Y4.629
X46.1Y4.715
X48.8Y7.083
X48.817Y7.1
X48.9Y7.182
X48.916Y7.2
X51.3Y9.918
X51.37Y10
X51.4Y10.036
X51.446Y10.1
X53.5Y13.172
X53.517Y13.2
X53.575Y13.3
X53.6Y13.348
X55.203Y16.6
X55.249Y16.7
X55.288Y16.8
X56.442Y20.2
X56.475Y20.3
X56.5Y20.384
X56.503Y20.4
X56.524Y20.5
X57.221Y24
X57.24Y24.1
X57.253Y24.2
X57.26Y24.3
X57.496Y27.9
X57.5Y28
X57.496Y28.1
X57.26Y31.7
X57.253Y31.8
X57.24Y31.9
X57.221Y32
X56.524Y35.5
X56.503Y35.6
X56.5Y35.615
X56.475Y35.7
X55.288Y39.2
X55.249Y39.3
X55.2Y39.406
X53.6Y42.651
X53.575Y42.7
X53.517Y42.8
X53.5Y42.827
X51.5Y45.82
X51.446Y45.9
X51.4Y45.963
X51.37Y46
X51.284Y46.1
X48.916Y48.8
X48.9Y48.817
X48.817Y48.9
X48.8Y48.916
X46.081Y51.3
X46Y51.37
X45.963Y51.4
X45.9Y51.446
X42.827Y53.5
X42.8Y53.517
X42.7Y53.575
X42.651Y53.6
X39.4Y55.203
X39.3Y55.249
X39.2Y55.288
X35.8Y56.442
X35.7Y56.475
X35.615Y56.5
X35.6Y56.503
X35.5Y56.524
X32Y57.221
X31.9Y57.24
X31.8Y57.253
X31.7Y57.26
X28.1Y57.496
X27.999Y57.5
X27.9Y57.496
X24.3Y57.26
X24.2Y57.253
X24.1Y57.24
X24Y57.221
X20.5Y56.524
X20.4Y56.503
X20.384Y56.5
X20.3Y56.475
X16.8Y55.288
X16.7Y55.249
X16.593Y55.2
X13.348Y53.6
X13.3Y53.575
X13.2Y53.517
X13.172Y53.5
X10.179Y51.5
X10.1Y51.446
X10.036Y51.4
X10Y51.37
X9.9Y51.284
X7.2Y48.916
X7.182Y48.9
X7.1Y48.817
X7.083Y48.8
X4.7Y46.081
X4.629Y46
X4.6Y45.963
X4.553Y45.9
X2.5Y42.827
X2.482Y42.8
X2.424Y42.7
X2.4Y42.651
X0.796Y39.4
X0.75Y39.3
X0.711Y39.2
X-0.442Y35.8
X-0.475Y35.7
X-0.5Y35.615
X-0.503Y35.6
X-0.524Y35.5
X-1.221Y32
X-1.24Y31.9
X-1.253Y31.8
X-1.26Y31.7
X-1.496Y28.1
X-1.5Y27.999
X-1.496Y27.9
X-1.26Y24.3
X-1.253Y24.2
X-1.24Y24.1
X-1.221Y24
X-0.524Y20.5
X-0.503Y20.4
X-0.5Y20.384
X-0.475Y20.3
X0.711Y16.8
X0.75Y16.7
X0.8Y16.593
X2.4Y13.348
X2.424Y13.3
X2.482Y13.2
X2.5Y13.172
X4.5Y10.179
X4.553Y10.1
X4.6Y10.036
X4.629Y10
X4.715Y9.9
X7.083Y7.2
X7.1Y7.182
Z-14F500
X7.182Y7.1F1000
X7.2Y7.083
X9.918Y4.7
X10Y4.629
X10.036Y4.6
X10.1Y4.553
X13.172Y2.5
X13.2Y2.482
X13.3Y2.424
X13.348Y2.4
X16.6Y0.796
X16.7Y0.75
X16.8Y0.711
X20.2Y-0.442
X20.3Y-0.475
X20.384Y-0.5
X20.4Y-0.503
X20.5Y-0.524
X24Y-1.221
X24.1Y-1.24
X24.2Y-1.253
X24.3Y-1.26
X27.9Y-1.496
X28Y-1.5
X28.1Y-1.496
X31.7Y-1.26
X31.8Y-1.253
X31.9Y-1.24
X32Y-1.221
X35.5Y-0.524
X35.6Y-0.503
X35.615Y-0.5
X35.7Y-0.475
X39.2Y0.711
X39.3Y0.75
X39.406Y0.8
X42.651Y2.4
X42.7Y2.424
X42.8Y2.482
X42.827Y2.5
X45.82Y4.5
X45.9Y4.553
X45.963Y4.6
X46Y4.629
X46.1Y4.715
X48.8Y7.083
X48.817Y7.1
X48.9Y7.182
X48.916Y7.2
X51.3Y9.918
X51.37Y10
X51.4Y10.036
X51.446Y10.1
X53.5Y13.172
X53.517Y13.2
X53.575Y13.3
X53.6Y13.348
X55.203Y16.6
X55.249Y16.7
X55.288Y16.8
X56.442Y20.2
X56.475Y20.3
X56.5Y20.384
X56.503Y20.4
X56.524Y20.5
X57.221Y24
X57.24Y24.1
X57.253Y24.2
X57.26Y24.3
X57.496Y27.9
X57.5Y28
X57.496Y28.1
X57.26Y31.7
X57.253Y31.8
X57.24Y31.9
X57.221Y32
X56.524Y35.5
X56.503Y35.6
X56.5Y35.615
X56.475Y35.7
X55.288Y39.2
X55.249Y39.3
X55.2Y39.406
X53.6Y42.651
X53.575Y42.7
X53.517Y42.8
X53.5Y42.827
X51.5Y45.82
X51.446Y45.9
X51.4Y45.963
X51.37Y46
X51.284Y46.1
X48.916Y48.8
X48.9Y48.817
X48.817Y48.9
X48.8Y48.916
X46.081Y51.3
X46Y51.37
X45.963Y51.4
X45.9Y51.446
X42.827Y53.5
X42.8Y53.517
X42.7Y53.575
X42.651Y53.6
X39.4Y55.203
X39.3Y55.249
X39.2Y55.288
X35.8Y56.442
X35.7Y56.475
X35.615Y56.5
X35.6Y56.503
X35.5Y56.524
X32Y57.221
X31.9Y57.24
X31.8Y57.253
X31.7Y57.26
X28.1Y57.496
X27.999Y57.5
X27.9Y57.496
X24.3Y57.26
X24.2Y57.253
X24.1Y57.24
X24Y57.221
X20.5Y56.524
X20.4Y56.503
X20.384Y56.5
X20.3Y56.475
X16.8Y55.288
X16.7Y55.249
X16.593Y55.2
X13.348Y53.6
X13.3Y53.575
X13.2Y53.517
X13.172Y53.5
X10.179Y51.5
X10.1Y51.446
X10.036Y51.4
X10Y51.37
X9.9Y51.284
X7.2Y48.916
X7.182Y48.9
X7.1Y48.817
X7.083Y48.8
X4.7Y46.081
X4.629Y46
X4.6Y45.963
X4.553Y45.9
X2.5Y42.827
X2.482Y42.8
X2.424Y42.7
X2.4Y42.651
X0.796Y39.4
X0.75Y39.3
X0.711Y39.2
X-0.442Y35.8
X-0.475Y35.7
X-0.5Y35.615
X-0.503Y35.6
X-0.524Y35.5
X-1.221Y32
X-1.24Y31.9
X-1.253Y31.8
X-1.26Y31.7
X-1.496Y28.1
X-1.5Y27.999
X-1.496Y27.9
X-1.26Y24.3
X-1.253Y24.2
X-1.24Y24.1
X-1.221Y24
X-0.524Y20.5
X-0.503Y20.4
X-0.5Y20.384
X-0.475Y20.3
X0.711Y16.8
X0.75Y16.7
X0.8Y16.593
X2.4Y13.348
X2.424Y13.3
X2.482Y13.2
X2.5Y13.172
X4.5Y10.179
X4.553Y10.1
X4.6Y10.036
X4.629Y10
X4.715Y9.9
X7.083Y7.2
X7.1Y7.182
Z-15F500
X7.182Y7.1F1000
X7.2Y7.083
X9.918Y4.7
X10Y4.629
X10.036Y4.6
X10.1Y4.553
X13.172Y2.5
X13.2Y2.482
X13.3Y2.424
X13.348Y2.4
X16.6Y0.796
X16.7Y0.75
X16.8Y0.711
X20.2Y-0.442
X20.3Y-0.475
X20.384Y-0.5
X20.4Y-0.503
X20.5Y-0.524
X24Y-1.221
X24.1Y-1.24
X24.2Y-1.253
X24.3Y-1.26
X27.9Y-1.496
X28Y-1.5
X28.1Y-1.496
X31.7Y-1.26
X31.8Y-1.253
X31.9Y-1.24
X32Y-1.221
X35.5Y-0.524
X35.6Y-0.503
X35.615Y-0.5
X35.7Y-0.475
X39.2Y0.711
X39.3Y0.75
X39.406Y0.8
X42.651Y2.4
X42.7Y2.424
X42.8Y2.482
X42.827Y2.5
X45.82Y4.5
X45.9Y4.553
X45.963Y4.6
X46Y4.629
X46.1Y4.715
X48.8Y7.083
X48.817Y7.1
X48.9Y7.182
X48.916Y7.2
X51.3Y9.918
X51.37Y10
X51.4Y10.036
X51.446Y10.1
X53.5Y13.172
X53.517Y13.2
X53.575Y13.3
X53.6Y13.348
X55.203Y16.6
X55.249Y16.7
X55.288Y16.8
X56.442Y20.2
X56.475Y20.3
X56.5Y20.384
X56.503Y20.4
X56.524Y20.5
X57.221Y24
X57.24Y24.1
X57.253Y24.2
X57.26Y24.3
X57.496Y27.9
X57.5Y28
X57.496Y28.1
X57.26Y31.7
X57.253Y31.8
X57.24Y31.9
X57.221Y32
X56.524Y35.5
X56.503Y35.6
X56.5Y35.615
X56.475Y35.7
X55.288Y39.2
X55.249Y39.3
X55.2Y39.406
X53.6Y42.651
X53.575Y42.7
X53.517Y42.8
X53.5Y42.827
X51.5Y45.82
X51.446Y45.9
X51.4Y45.963
X51.37Y46
X51.284Y46.1
X48.916Y48.8
X48.9Y48.817
X48.817Y48.9
X48.8Y48.916
X46.081Y51.3
X46Y51.37
X45.963Y51.4
X45.9Y51.446
X42.827Y53.5
X42.8Y53.517
X42.7Y53.575
X42.651Y53.6
X39.4Y55.203
X39.3Y55.249
X39.2Y55.288
X35.8Y56.442
X35.7Y56.475
X35.615Y56.5
X35.6Y56.503
X35.5Y56.524
X32Y57.221
X31.9Y57.24
X31.8Y57.253
X31.7Y57.26
X28.1Y57.496
X27.999Y57.5
X27.9Y57.496
X24.3Y57.26
X24.2Y57.253
X24.1Y57.24
X24Y57.221
X20.5Y56.524
X20.4Y56.503
X20.384Y56.5
X20.3Y56.475
X16.8Y55.288
X16.7Y55.249
X16.593Y55.2
X13.348Y53.6
X13.3Y53.575
X13.2Y53.517
X13.172Y53.5
X10.179Y51.5
X10.1Y51.446
X10.036Y51.4
X10Y51.37
X9.9Y51.284
X7.2Y48.916
X7.182Y48.9
X7.1Y48.817
X7.083Y48.8
X4.7Y46.081
X4.629Y46
X4.6Y45.963
X4.553Y45.9
X2.5Y42.827
X2.482Y42.8
X2.424Y42.7
X2.4Y42.651
X0.796Y39.4
X0.75Y39.3
X0.711Y39.2
X-0.442Y35.8
X-0.475Y35.7
X-0.5Y35.615
X-0.503Y35.6
X-0.524Y35.5
X-1.221Y32
X-1.24Y31.9
X-1.253Y31.8
X-1.26Y31.7
X-1.496Y28.1
X-1.5Y27.999
X-1.496Y27.9
X-1.26Y24.3
X-1.253Y24.2
X-1.24Y24.1
X-1.221Y24
X-0.524Y20.5
X-0.503Y20.4
X-0.5Y20.384
X-0.475Y20.3
X0.711Y16.8
X0.75Y16.7
X0.8Y16.593
X2.4Y13.348
X2.424Y13.3
X2.482Y13.2
X2.5Y13.172
X4.5Y10.179
X4.553Y10.1
X4.6Y10.036
X4.629Y10
X4.715Y9.9
X7.083Y7.2
X7.1Y7.182
Z-16F500
X7.182Y7.1F1000
X7.2Y7.083
X9.918Y4.7
X10Y4.629
X10.036Y4.6
X10.1Y4.553
X13.172Y2.5
X13.2Y2.482
X13.3Y2.424
X13.348Y2.4
X16.6Y0.796
X16.7Y0.75
X16.8Y0.711
X20.2Y-0.442
X20.3Y-0.475
X20.384Y-0.5
X20.4Y-0.503
X20.5Y-0.524
X24Y-1.221
X24.1Y-1.24
X24.2Y-1.253
X24.3Y-1.26
X27.9Y-1.496
X28Y-1.5
X28.1Y-1.496
X31.7Y-1.26
X31.8Y-1.253
X31.9Y-1.24
X32Y-1.221
X35.5Y-0.524
X35.6Y-0.503
X35.615Y-0.5
X35.7Y-0.475
X39.2Y0.711
X39.3Y0.75
X39.406Y0.8
X42.651Y2.4
X42.7Y2.424
X42.8Y2.482
X42.827Y2.5
X45.82Y4.5
X45.9Y4.553
X45.963Y4.6
X46Y4.629
X46.1Y4.715
X48.8Y7.083
X48.817Y7.1
X48.9Y7.182
X48.916Y7.2
X51.3Y9.918
X51.37Y10
X51.4Y10.036
X51.446Y10.1
X53.5Y13.172
X53.517Y13.2
X53.575Y13.3
X53.6Y13.348
X55.203Y16.6
X55.249Y16.7
X55.288Y16.8
X56.442Y20.2
X56.475Y20.3
X56.5Y20.384
X56.503Y20.4
X56.524Y20.5
X57.221Y24
X57.24Y24.1
X57.253Y24.2
X57.26Y24.3
X57.496Y27.9
X57.5Y28
X57.496Y28.1
X57.26Y31.7
X57.253Y31.8
X57.24Y31.9
X57.221Y32
X56.524Y35.5
X56.503Y35.6
X56.5Y35.615
X56.475Y35.7
X55.288Y39.2
X55.249Y39.3
X55.2Y39.406
X53.6Y42.651
X53.575Y42.7
X53.517Y42.8
X53.5Y42.827
X51.5Y45.82
X51.446Y45.9
X51.4Y45.963
X51.37Y46
X51.284Y46.1
X48.916Y48.8
X48.9Y48.817
X48.817Y48.9
X48.8Y48.916
X46.081Y51.3
X46Y51.37
X45.963Y51.4
X45.9Y51.446
X42.827Y53.5
X42.8Y53.517
X42.7Y53.575
X42.651Y53.6
X39.4Y55.203
X39.3Y55.249
X39.2Y55.288
X35.8Y56.442
X35.7Y56.475
X35.615Y56.5
X35.6Y56.503
X35.5Y56.524
X32Y57.221
X31.9Y57.24
X31.8Y57.253
X31.7Y57.26
X28.1Y57.496
X27.999Y57.5
X27.9Y57.496
X24.3Y57.26
X24.2Y57.253
X24.1Y57.24
X24Y57.221
X20.5Y56.524
X20.4Y56.503
X20.384Y56.5
X20.3Y56.475
X16.8Y55.288
X16.7Y55.249
X16.593Y55.2
X13.348Y53.6
X13.3Y53.575
X13.2Y53.517
X13.172Y53.5
X10.179Y51.5
X10.1Y51.446
X10.036Y51.4
X10Y51.37
X9.9Y51.284
X7.2Y48.916
X7.182Y48.9
X7.1Y48.817
X7.083Y48.8
X4.7Y46.081
X4.629Y46
X4.6Y45.963
X4.553Y45.9
X2.5Y42.827
X2.482Y42.8
X2.424Y42.7
X2.4Y42.651
X0.796Y39.4
X0.75Y39.3
X0.711Y39.2
X-0.442Y35.8
X-0.475Y35.7
X-0.5Y35.615
X-0.503Y35.6
X-0.524Y35.5
X-1.221Y32
X-1.24Y31.9
X-1.253Y31.8
X-1.26Y31.7
X-1.496Y28.1
X-1.5Y27.999
X-1.496Y27.9
X-1.26Y24.3
X-1.253Y24.2
X-1.24Y24.1
X-1.221Y24
X-0.524Y20.5
X-0.503Y20.4
X-0.5Y20.384
X-0.475Y20.3
X0.711Y16.8
X0.75Y16.7
X0.8Y16.593
X2.4Y13.348
X2.424Y13.3
X2.482Y13.2
X2.5Y13.172
X4.5Y10.179
X4.553Y10.1
X4.6Y10.036
X4.629Y10
X4.715Y9.9
X7.083Y7.2
X7.1Y7.182
Z-17F500
X7.182Y7.1F1000
X7.2Y7.083
X9.918Y4.7
X10Y4.629
X10.036Y4.6
X10.1Y4.553
X13.172Y2.5
X13.2Y2.482
X13.3Y2.424
X13.348Y2.4
X16.6Y0.796
X16.7Y0.75
X16.8Y0.711
X20.2Y-0.442
X20.3Y-0.475
X20.384Y-0.5
X20.4Y-0.503
X20.5Y-0.524
X24Y-1.221
X24.1Y-1.24
X24.2Y-1.253
X24.3Y-1.26
X27.9Y-1.496
X28Y-1.5
X28.1Y-1.496
X31.7Y-1.26
X31.8Y-1.253
X31.9Y-1.24
X32Y-1.221
X35.5Y-0.524
X35.6Y-0.503
X35.615Y-0.5
X35.7Y-0.475
X39.2Y0.711
X39.3Y0.75
X39.406Y0.8
X42.651Y2.4
X42.7Y2.424
X42.8Y2.482
X42.827Y2.5
X45.82Y4.5
X45.9Y4.553
X45.963Y4.6
X46Y4.629
X46.1Y4.715
X48.8Y7.083
X48.817Y7.1
X48.9Y7.182
X48.916Y7.2
X51.3Y9.918
X51.37Y10
X51.4Y10.036
X51.446Y10.1
X53.5Y13.172
X53.517Y13.2
X53.575Y13.3
X53.6Y13.348
X55.203Y16.6
X55.249Y16.7
X55.288Y16.8
X56.442Y20.2
X56.475Y20.3
X56.5Y20.384
X56.503Y20.4
X56.524Y20.5
X57.221Y24
X57.24Y24.1
X57.253Y24.2
X57.26Y24.3
X57.496Y27.9
X57.5Y28
X57.496Y28.1
X57.26Y31.7
X57.253Y31.8
X57.24Y31.9
X57.221Y32
X56.524Y35.5
X56.503Y35.6
X56.5Y35.615
X56.475Y35.7
X55.288Y39.2
X55.249Y39.3
X55.2Y39.406
X53.6Y42.651
X53.575Y42.7
X53.517Y42.8
X53.5Y42.827
X51.5Y45.82
X51.446Y45.9
X51.4Y45.963
X51.37Y46
X51.284Y46.1
X48.916Y48.8
X48.9Y48.817
X48.817Y48.9
X48.8Y48.916
X46.081Y51.3
X46Y51.37
X45.963Y51.4
X45.9Y51.446
X42.827Y53.5
X42.8Y53.517
X42.7Y53.575
X42.651Y53.6
X39.4Y55.203
X39.3Y55.249
X39.2Y55.288
X35.8Y56.442
X35.7Y56.475
X35.615Y56.5
X35.6Y56.503
X35.5Y56.524
X32Y57.221
X31.9Y57.24
X31.8Y57.253
X31.7Y57.26
X28.1Y57.496
X27.999Y57.5
X27.9Y57.496
X24.3Y57.26
X24.2Y57.253
X24.1Y57.24
X24Y57.221
X20.5Y56.524
X20.4Y56.503
X20.384Y56.5
X20.3Y56.475
X16.8Y55.288
X16.7Y55.249
X16.593Y55.2
X13.348Y53.6
X13.3Y53.575
X13.2Y53.517
X13.172Y53.5
X10.179Y51.5
X10.1Y51.446
X10.036Y51.4
X10Y51.37
X9.9Y51.284
X7.2Y48.916
X7.182Y48.9
X7.1Y48.817
X7.083Y48.8
X4.7Y46.081
X4.629Y46
X4.6Y45.963
X4.553Y45.9
X2.5Y42.827
X2.482Y42.8
X2.424Y42.7
X2.4Y42.651
X0.796Y39.4
X0.75Y39.3
X0.711Y39.2
X-0.442Y35.8
X-0.475Y35.7
X-0.5Y35.615
X-0.503Y35.6
X-0.524Y35.5
X-1.221Y32
X-1.24Y31.9
X-1.253Y31.8
X-1.26Y31.7
X-1.496Y28.1
X-1.5Y27.999
X-1.496Y27.9
X-1.26Y24.3
X-1.253Y24.2
X-1.24Y24.1
X-1.221Y24
X-0.524Y20.5
X-0.503Y20.4
X-0.5Y20.384
X-0.475Y20.3
X0.711Y16.8
X0.75Y16.7
X0.8Y16.593
X2.4Y13.348
X2.424Y13.3
X2.482Y13.2
X2.5Y13.172
X4.5Y10.179
X4.553Y10.1
X4.6Y10.036
X4.629Y10
X4.715Y9.9
X7.083Y7.2
X7.1Y7.182
Z-18F500
X7.182Y7.1F1000
X7.2Y7.083
X9.918Y4.7
X10Y4.629
X10.036Y4.6
X10.1Y4.553
X13.172Y2.5
X13.2Y2.482
X13.3Y2.424
X13.348Y2.4
X16.6Y0.796
X16.7Y0.75
X16.8Y0.711
X20.2Y-0.442
X20.3Y-0.475
X20.384Y-0.5
X20.4Y-0.503
X20.5Y-0.524
X24Y-1.221
X24.1Y-1.24
X24.2Y-1.253
X24.3Y-1.26
X27.9Y-1.496
X28Y-1.5
X28.1Y-1.496
X31.7Y-1.26
X31.8Y-1.253
X31.9Y-1.24
X32Y-1.221
X35.5Y-0.524
X35.6Y-0.503
X35.615Y-0.5
X35.7Y-0.475
X39.2Y0.711
X39.3Y0.75
X39.406Y0.8
X42.651Y2.4
X42.7Y2.424
X42.8Y2.482
X42.827Y2.5
X45.82Y4.5
X45.9Y4.553
X45.963Y4.6
X46Y4.629
X46.1Y4.715
X48.8Y7.083
X48.817Y7.1
X48.9Y7.182
X48.916Y7.2
X51.3Y9.918
X51.37Y10
X51.4Y10.036
X51.446Y10.1
X53.5Y13.172
X53.517Y13.2
X53.575Y13.3
X53.6Y13.348
X55.203Y16.6
X55.249Y16.7
X55.288Y16.8
X56.442Y20.2
X56.475Y20.3
X56.5Y20.384
X56.503Y20.4
X56.524Y20.5
X57.221Y24
X57.24Y24.1
X57.253Y24.2
X57.26Y24.3
X57.496Y27.9
X57.5Y28
X57.496Y28.1
X57.26Y31.7
X57.253Y31.8
X57.24Y31.9
X57.221Y32
X56.524Y35.5
X56.503Y35.6
X56.5Y35.615
X56.475Y35.7
X55.288Y39.2
X55.249Y39.3
X55.2Y39.406
X53.6Y42.651
X53.575Y42.7
X53.517Y42.8
X53.5Y42.827
X51.5Y45.82
X51.446Y45.9
X51.4Y45.963
X51.37Y46
X51.284Y46.1
X48.916Y48.8
X48.9Y48.817
X48.817Y48.9
X48.8Y48.916
X46.081Y51.3
X46Y51.37
X45.963Y51.4
X45.9Y51.446
X42.827Y53.5
X42.8Y53.517
X42.7Y53.575
X42.651Y53.6
X39.4Y55.203
X39.3Y55.249
X39.2Y55.288
X35.8Y56.442
X35.7Y56.475
X35.615Y56.5
X35.6Y56.503
X35.5Y56.524
X32Y57.221
X31.9Y57.24
X31.8Y57.253
X31.7Y57.26
X28.1Y57.496
X27.999Y57.5
X27.9Y57.496
X24.3Y57.26
X24.2Y57.253
X24.1Y57.24
X24Y57.221
X20.5Y56.524
X20.4Y56.503
X20.384Y56.5
X20.3Y56.475
X16.8Y55.288
X16.7Y55.249
X16.593Y55.2
X13.348Y53.6
X13.3Y53.575
X13.2Y53.517
X13.172Y53.5
X10.179Y51.5
X10.1Y51.446
X10.036Y51.4
X10Y51.37
X9.9Y51.284
X7.2Y48.916
X7.182Y48.9
X7.1Y48.817
X7.083Y48.8
X4.7Y46.081
X4.629Y46
X4.6Y45.963
X4.553Y45.9
X2.5Y42.827
X2.482Y42.8
X2.424Y42.7
X2.4Y42.651
X0.796Y39.4
X0.75Y39.3
X0.711Y39.2
X-0.442Y35.8
X-0.475Y35.7
X-0.5Y35.615
X-0.503Y35.6
X-0.524Y35.5
X-1.221Y32
X-1.24Y31.9
X-1.253Y31.8
X-1.26Y31.7
X-1.496Y28.1
X-1.5Y27.999
X-1.496Y27.9
X-1.26Y24.3
X-1.253Y24.2
X-1.24Y24.1
X-1.221Y24
X-0.524Y20.5
X-0.503Y20.4
X-0.5Y20.384
X-0.475Y20.3
X0.711Y16.8
X0.75Y16.7
X0.8Y16.593
X2.4Y13.348
X2.424Y13.3
X2.482Y13.2
X2.5Y13.172
X4.5Y10.179
X4.553Y10.1
X4.6Y10.036
X4.629Y10
X4.715Y9.9
X7.083Y7.2
X7.1Y7.182
Z-10
X7.182Y7.1
X7.2Y7.083
X9.918Y4.7
X10Y4.629
X10.036Y4.6
X10.1Y4.553
X13.172Y2.5
X13.2Y2.482
X13.3Y2.424
X13.348Y2.4
X16.6Y0.796
X16.7Y0.75
X16.8Y0.711
X20.2Y-0.442
X20.3Y-0.475
X20.384Y-0.5
X20.4Y-0.503
X20.5Y-0.524
X24Y-1.221
X24.1Y-1.24
X24.2Y-1.253
X24.3Y-1.26
X27.9Y-1.496
X28Y-1.5
X28.1Y-1.496
X31.7Y-1.26
X31.8Y-1.253
X31.9Y-1.24
X32Y-1.221
X35.5Y-0.524
X35.6Y-0.503
X35.615Y-0.5
X35.7Y-0.475
X39.2Y0.711
X39.3Y0.75
X39.406Y0.8
X42.651Y2.4
X42.7Y2.424
X42.8Y2.482
X42.827Y2.5
X45.82Y4.5
X45.9Y4.553
X45.963Y4.6
X46Y4.629
X46.1Y4.715
X48.8Y7.083
X48.817Y7.1
X48.9Y7.182
X48.916Y7.2
X51.3Y9.918
X51.37Y10
X51.4Y10.036
X51.446Y10.1
X53.5Y13.172
X53.517Y13.2
X53.575Y13.3
X53.6Y13.348
X55.203Y16.6
X55.249Y16.7
X55.288Y16.8
X56.442Y20.2
X56.475Y20.3
X56.5Y20.384
X56.503Y20.4
X56.524Y20.5
X57.221Y24
X57.24Y24.1
X57.253Y24.2
X57.26Y24.3
X57.496Y27.9
X57.5Y28
X57.496Y28.1
X57.26Y31.7
X57.253Y31.8
X57.24Y31.9
X57.221Y32
X56.524Y35.5
X56.503Y35.6
X56.5Y35.615
X56.475Y35.7
X55.288Y39.2
X55.249Y39.3
X55.2Y39.406
X53.6Y42.651
X53.575Y42.7
X53.517Y42.8
X53.5Y42.827
X51.5Y45.82
X51.446Y45.9
X51.4Y45.963
X51.37Y46
X51.284Y46.1
X48.916Y48.8
X48.9Y48.817
X48.817Y48.9
X48.8Y48.916
X46.081Y51.3
X46Y51.37
X45.963Y51.4
X45.9Y51.446
X42.827Y53.5
X42.8Y53.517
X42.7Y53.575
X42.651Y53.6
X39.4Y55.203
X39.3Y55.249
X39.2Y55.288
X35.8Y56.442
X35.7Y56.475
X35.615Y56.5
X35.6Y56.503
X35.5Y56.524
X32Y57.221
X31.9Y57.24
X31.8Y57.253
X31.7Y57.26
X28.1Y57.496
X28Y57.5
X27.9Y57.496
X24.3Y57.26
X24.2Y57.253
X24.1Y57.24
X24Y57.221
X20.5Y56.524
X20.4Y56.503
X20.384Y56.5
X20.3Y56.475
X16.8Y55.288
X16.7Y55.249
X16.593Y55.2
X13.348Y53.6
X13.3Y53.575
X13.2Y53.517
X13.172Y53.5
X10.179Y51.5
X10.1Y51.446
X10.036Y51.4
X10Y51.37
X9.9Y51.284
X7.2Y48.916
X7.182Y48.9
X7.1Y48.817
X7.083Y48.8
X4.7Y46.081
X4.629Y46
X4.6Y45.963
X4.553Y45.9
X2.5Y42.827
X2.482Y42.8
X2.424Y42.7
X2.4Y42.651
X0.796Y39.4
X0.75Y39.3
X0.711Y39.2
X-0.442Y35.8
X-0.475Y35.7
X-0.5Y35.615
X-0.503Y35.6
X-0.524Y35.5
X-1.221Y32
X-1.24Y31.9
X-1.253Y31.8
X-1.26Y31.7
X-1.496Y28.1
X-1.5Y28
X-1.496Y27.9
X-1.26Y24.3
X-1.253Y24.2
X-1.24Y24.1
X-1.221Y24
X-0.524Y20.5
X-0.503Y20.4
X-0.5Y20.384
X-0.475Y20.3
X0.711Y16.8
X0.75Y16.7
X0.8Y16.593
X2.4Y13.348
X2.424Y13.3
X2.482Y13.2
X2.5Y13.172
X4.5Y10.179
X4.553Y10.1
X4.6Y10.036
X4.629Y10
X4.715Y9.9
X7.083Y7.2
X7.1Y7.182
X7.3Y7.36Z-9
X7.36Y7.3
X7.4Y7.264
X10.1Y4.896
X10.2Y4.812
X10.216Y4.8
X10.3Y4.741
X13.3Y2.736
X13.357Y2.7
X13.4Y2.675
X13.5Y2.623
X16.7Y1.045
X16.8Y0.998
X16.9Y0.96
X20.318Y-0.2
X20.4Y-0.226
X20.5Y-0.252
X24.1Y-0.968
X24.2Y-0.983
X24.3Y-0.992
X27.9Y-1.228
X28Y-1.232
X28.1Y-1.228
X31.7Y-0.992
X31.8Y-0.983
X31.9Y-0.968
X35.399Y-0.272
X35.5Y-0.252
X35.6Y-0.226
X35.681Y-0.2
X39.1Y0.96
X39.202Y1
X39.3Y1.045
X42.5Y2.623
X42.6Y2.675
X42.642Y2.7
X42.7Y2.736
X45.7Y4.741
X45.783Y4.8
X45.8Y4.812
X45.904Y4.9
X48.6Y7.263
X48.639Y7.3
X48.7Y7.36
X48.735Y7.4
X51.103Y10.1
X51.187Y10.2
X51.2Y10.216
X51.258Y10.3
X53.263Y13.3
X53.3Y13.357
X53.324Y13.4
X53.376Y13.5
X54.954Y16.7
X55.001Y16.8
X55.039Y16.9
X56.2Y20.318
X56.226Y20.4
X56.252Y20.5
X56.968Y24.1
X56.983Y24.2
X56.992Y24.3
X57.228Y27.9
X57.232Y28
X57.228Y28.1
X56.992Y31.7
X56.983Y31.8
X56.968Y31.9
X56.272Y35.399
X56.252Y35.5
X56.226Y35.6
X56.2Y35.681
X55.039Y39.1
X55Y39.202
X54.954Y39.3
X53.376Y42.5
X53.324Y42.6
X53.3Y42.642
X53.263Y42.7
X51.258Y45.7
X51.2Y45.783
X51.187Y45.8
X51.1Y45.904
X48.735Y48.6
X48.7Y48.639
X48.639Y48.7
X48.6Y48.735
X45.9Y51.103
X45.8Y51.187
X45.783Y51.2
X45.7Y51.258
X42.7Y53.263
X42.642Y53.3
X42.6Y53.324
X42.5Y53.376
X39.3Y54.954
X39.2Y55.001
X39.1Y55.039
X35.681Y56.2
X35.6Y56.226
X35.5Y56.252
X31.9Y56.968
X31.8Y56.983
X31.7Y56.992
X28.1Y57.228
X28Y57.232
X27.9Y57.228
X24.3Y56.992
X24.2Y56.983
X24.1Y56.968
X20.6Y56.272
X20.5Y56.252
X20.4Y56.226
X20.318Y56.2
X16.9Y55.039
X16.797Y55
X16.7Y54.954
X13.5Y53.376
X13.4Y53.324
X13.357Y53.3
X13.3Y53.263
X10.3Y51.258
X10.216Y51.2
X10.2Y51.187
X10.095Y51.1
X7.4Y48.736
X7.36Y48.7
X7.3Y48.639
X7.263Y48.6
X4.896Y45.9
X4.812Y45.8
X4.8Y45.783
X4.741Y45.7
X2.736Y42.7
X2.7Y42.642
X2.675Y42.6
X2.623Y42.5
X1.045Y39.3
X0.998Y39.2
X0.96Y39.1
X-0.2Y35.681
X-0.226Y35.6
X-0.252Y35.5
X-0.968Y31.9
X-0.983Y31.8
X-0.992Y31.7
X-1.228Y28.1
X-1.232Y28
X-1.228Y27.9
X-0.992Y24.3
X-0.983Y24.2
X-0.968Y24.1
X-0.272Y20.6
X-0.252Y20.5
X-0.226Y20.4
X-0.2Y20.318
X0.96Y16.9
X1Y16.797
X1.045Y16.7
X2.623Y13.5
X2.675Y13.4
X2.7Y13.357
X2.736Y13.3
X4.741Y10.3
X4.8Y10.216
X4.812Y10.2
X4.9Y10.095
X7.264Y7.4
X7.3Y7.36
X7.5Y7.538Z-8
X7.538Y7.5
X7.6Y7.444
X10.3Y5.076
X10.4Y4.997
X10.5Y4.929
X13.4Y2.991
X13.5Y2.926
X13.547Y2.9
X13.6Y2.872
X16.8Y1.294
X16.9Y1.247
X17Y1.208
X20.4Y0.054
X20.5Y0.023
X20.601Y0
X24.12Y-0.7
X24.2Y-0.713
X24.3Y-0.724
X27.9Y-0.96
X28Y-0.964
X28.1Y-0.96
X31.7Y-0.724
X31.8Y-0.713
X31.879Y-0.7
X35.399Y0
X35.5Y0.023
X35.6Y0.054
X39Y1.208
X39.1Y1.247
X39.2Y1.294
X42.4Y2.872
X42.452Y2.9
X42.5Y2.926
X42.6Y2.991
X45.5Y4.929
X45.603Y5
X45.7Y5.076
X48.4Y7.444
X48.461Y7.5
X48.5Y7.538
X48.555Y7.6
X50.923Y10.3
X51.002Y10.4
X51.07Y10.5
X53.008Y13.4
X53.073Y13.5
X53.1Y13.547
X53.127Y13.6
X54.705Y16.8
X54.752Y16.9
X54.791Y17
X55.945Y20.4
X55.976Y20.5
X56Y20.601
X56.7Y24.12
X56.713Y24.2
X56.724Y24.3
X56.96Y27.9
X56.964Y28
X56.96Y28.1
X56.724Y31.7
X56.713Y31.8
X56.7Y31.879
X55.999Y35.399
X55.976Y35.5
X55.945Y35.6
X54.791Y39
X54.752Y39.1
X54.705Y39.2
X53.127Y42.4
X53.1Y42.452
X53.073Y42.5
X53.008Y42.6
X51.07Y45.5
X51Y45.603
X50.923Y45.7
X48.555Y48.4
X48.5Y48.461
X48.461Y48.5
X48.4Y48.555
X45.7Y50.923
X45.6Y51.002
X45.5Y51.07
X42.6Y53.008
X42.5Y53.073
X42.452Y53.1
X42.4Y53.127
X39.2Y54.705
X39.1Y54.752
X39Y54.791
X35.6Y55.945
X35.5Y55.976
X35.398Y56
X31.879Y56.7
X31.8Y56.713
X31.7Y56.724
X28.1Y56.96
X28Y56.964
X27.9Y56.96
X24.3Y56.724
X24.2Y56.713
X24.12Y56.7
X20.6Y55.999
X20.5Y55.976
X20.4Y55.945
X17Y54.791
X16.9Y54.752
X16.8Y54.705
X13.6Y53.127
X13.547Y53.1
X13.5Y53.073
X13.4Y53.008
X10.5Y51.07
X10.396Y51
X10.3Y50.923
X7.6Y48.555
X7.538Y48.5
X7.5Y48.461
X7.444Y48.4
X5.076Y45.7
X4.997Y45.6
X4.929Y45.5
X2.991Y42.6
X2.926Y42.5
X2.9Y42.452
X2.872Y42.4
X1.294Y39.2
X1.247Y39.1
X1.208Y39
X0.054Y35.6
X0.023Y35.5
X0Y35.398
X-0.7Y31.879
X-0.713Y31.8
X-0.724Y31.7
X-0.96Y28.1
X-0.964Y28
X-0.96Y27.9
X-0.724Y24.3
X-0.713Y24.2
X-0.7Y24.12
X0Y20.6
X0.023Y20.5
X0.054Y20.4
X1.208Y17
X1.247Y16.9
X1.294Y16.8
X2.872Y13.6
X2.9Y13.547
X2.926Y13.5
X2.991Y13.4
X4.929Y10.5
X5Y10.396
X5.076Y10.3
X7.444Y7.6
X7.5Y7.538
X7.7Y7.717Z-7
X7.717Y7.7
X7.8Y7.624
X10.45Y5.3
X10.5Y5.258
X10.576Y5.2
X10.6Y5.183
X13.568Y3.2
X13.6Y3.179
X13.7Y3.121
X13.742Y3.1
X16.9Y1.543
X16.99Y1.5
X17Y1.496
X17.1Y1.457
X20.509Y0.3
X20.6Y0.274
X20.7Y0.253
X24.1Y-0.423
X24.2Y-0.442
X24.3Y-0.455
X24.4Y-0.463
X27.9Y-0.692
X28Y-0.696
X28.1Y-0.692
X31.6Y-0.463
X31.7Y-0.455
X31.8Y-0.442
X31.9Y-0.423
X35.3Y0.253
X35.399Y0.274
X35.49Y0.3
X38.9Y1.457
X39Y1.496
X39.009Y1.5
X39.1Y1.543
X42.257Y3.1
X42.3Y3.121
X42.4Y3.179
X42.431Y3.2
X45.4Y5.183
X45.423Y5.2
X45.5Y5.258
X45.549Y5.3
X48.2Y7.624
X48.282Y7.7
X48.3Y7.717
X48.375Y7.8
X50.7Y10.45
X50.741Y10.5
X50.8Y10.576
X50.816Y10.6
X52.8Y13.568
X52.82Y13.6
X52.878Y13.7
X52.9Y13.742
X54.456Y16.9
X54.5Y16.99
X54.504Y17
X54.542Y17.1
X55.7Y20.509
X55.725Y20.6
X55.746Y20.7
X56.423Y24.1
X56.442Y24.2
X56.455Y24.3
X56.463Y24.4
X56.692Y27.9
X56.696Y28
X56.692Y28.1
X56.463Y31.6
X56.455Y31.7
X56.442Y31.8
X56.423Y31.9
X55.746Y35.3
X55.725Y35.399
X55.7Y35.49
X54.542Y38.9
X54.504Y39
X54.5Y39.009
X54.456Y39.1
X52.9Y42.257
X52.878Y42.3
X52.82Y42.4
X52.8Y42.431
X50.816Y45.4
X50.8Y45.423
X50.741Y45.5
X50.7Y45.549
X48.375Y48.2
X48.3Y48.282
X48.282Y48.3
X48.2Y48.375
X45.549Y50.7
X45.5Y50.741
X45.423Y50.8
X45.4Y50.816
X42.431Y52.8
X42.4Y52.82
X42.3Y52.878
X42.257Y52.9
X39.1Y54.456
X39.009Y54.5
X39Y54.504
X38.9Y54.542
X35.49Y55.7
X35.399Y55.725
X35.3Y55.746
X31.9Y56.423
X31.8Y56.442
X31.7Y56.455
X31.6Y56.463
X28.1Y56.692
X28Y56.696
X27.9Y56.692
X24.4Y56.463
X24.3Y56.455
X24.2Y56.442
X24.1Y56.423
X20.7Y55.746
X20.6Y55.725
X20.509Y55.7
X17.1Y54.542
X17Y54.504
X16.99Y54.5
X16.9Y54.456
X13.742Y52.9
X13.7Y52.878
X13.6Y52.82
X13.568Y52.8
X10.6Y50.816
X10.576Y50.8
X10.5Y50.741
X10.45Y50.7
X7.8Y48.375
X7.717Y48.3
X7.7Y48.282
X7.624Y48.2
X5.3Y45.549
X5.258Y45.5
X5.2Y45.423
X5.183Y45.4
X3.2Y42.431
X3.179Y42.4
X3.121Y42.3
X3.1Y42.257
X1.543Y39.1
X1.5Y39.009
X1.496Y39
X1.457Y38.9
X0.3Y35.49
X0.274Y35.399
X0.253Y35.3
X-0.423Y31.9
X-0.442Y31.8
X-0.455Y31.7
X-0.463Y31.6
X-0.692Y28.1
X-0.696Y28
X-0.692Y27.9
X-0.463Y24.4
X-0.455Y24.3
X-0.442Y24.2
X-0.423Y24.1
X0.253Y20.7
X0.274Y20.6
X0.3Y20.509
X1.457Y17.1
X1.496Y17
X1.5Y16.99
X1.543Y16.9
X3.1Y13.742
X3.121Y13.7
X3.179Y13.6
X3.2Y13.568
X5.183Y10.6
X5.2Y10.576
X5.258Y10.5
X5.3Y10.45
X7.624Y7.8
X7.7Y7.717
X7.896Y7.9Z-6
X7.9Y7.896
X8.005Y7.8
X10.628Y5.5
X10.7Y5.441
X10.757Y5.4
X13.7Y3.433
X13.753Y3.4
X13.8Y3.372
X13.9Y3.32
X17Y1.791
X17.1Y1.744
X17.2Y1.705
X20.5Y0.585
X20.6Y0.552
X20.7Y0.526
X24.2Y-0.17
X24.3Y-0.186
X24.4Y-0.195
X27.9Y-0.424
X28Y-0.428
X28.1Y-0.424
X31.6Y-0.195
X31.7Y-0.186
X31.8Y-0.17
X35.2Y0.505
X35.3Y0.526
X35.399Y0.552
X35.5Y0.585
X38.8Y1.705
X38.9Y1.744
X39Y1.791
X42.1Y3.32
X42.2Y3.372
X42.246Y3.4
X42.3Y3.433
X45.242Y5.4
X45.3Y5.441
X45.371Y5.5
X48Y7.804
X48.1Y7.896
X48.103Y7.9
X48.2Y8.005
X50.5Y10.628
X50.558Y10.7
X50.6Y10.757
X52.566Y13.7
X52.6Y13.753
X52.627Y13.8
X52.679Y13.9
X54.208Y17
X54.255Y17.1
X54.294Y17.2
X55.414Y20.5
X55.447Y20.6
X55.473Y20.7
X56.17Y24.2
X56.186Y24.3
X56.195Y24.4
X56.424Y27.9
X56.428Y28
X56.424Y28.1
X56.195Y31.6
X56.186Y31.7
X56.17Y31.8
X55.494Y35.2
X55.473Y35.3
X55.447Y35.399
X55.414Y35.5
X54.294Y38.8
X54.255Y38.9
X54.208Y39
X52.679Y42.1
X52.627Y42.2
X52.6Y42.246
X52.566Y42.3
X50.6Y45.242
X50.558Y45.3
X50.5Y45.371
X48.195Y48
X48.103Y48.1
X48.1Y48.103
X47.994Y48.2
X45.371Y50.5
X45.3Y50.558
X45.242Y50.6
X42.3Y52.566
X42.246Y52.6
X42.2Y52.627
X42.1Y52.679
X39Y54.208
X38.9Y54.255
X38.8Y54.294
X35.5Y55.414
X35.399Y55.447
X35.3Y55.473
X31.8Y56.17
X31.7Y56.186
X31.6Y56.195
X28.1Y56.424
X28Y56.428
X27.9Y56.424
X24.4Y56.195
X24.3Y56.186
X24.2Y56.17
X20.8Y55.494
X20.7Y55.473
X20.6Y55.447
X20.5Y55.414
X17.2Y54.294
X17.1Y54.255
X17Y54.208
X13.9Y52.679
X13.8Y52.627
X13.753Y52.6
X13.7Y52.566
X10.757Y50.6
X10.7Y50.558
X10.628Y50.5
X8Y48.195
X7.9Y48.103
X7.896Y48.1
X7.8Y47.994
X5.5Y45.371
X5.441Y45.3
X5.4Y45.242
X3.433Y42.3
X3.4Y42.246
X3.372Y42.2
X3.32Y42.1
X1.791Y39
X1.744Y38.9
X1.705Y38.8
X0.585Y35.5
X0.552Y35.399
X0.526Y35.3
X-0.17Y31.8
X-0.186Y31.7
X-0.195Y31.6
X-0.424Y28.1
X-0.428Y28
X-0.424Y27.9
X-0.195Y24.4
X-0.186Y24.3
X-0.17Y24.2
X0.505Y20.8
X0.526Y20.7
X0.552Y20.6
X0.585Y20.5
X1.705Y17.2
X1.744Y17.1
X1.791Y17
X3.32Y13.9
X3.372Y13.8
X3.4Y13.753
X3.433Y13.7
X5.4Y10.757
X5.441Y10.7
X5.5Y10.628
X7.804Y8
X7.896Y7.9
X8.6Y8.61Z-5
X8.61Y8.6
X8.7Y8.518
X11.229Y6.3
X11.3Y6.241
X11.357Y6.2
X11.4Y6.17
X14.2Y4.3
X14.3Y4.238
X14.372Y4.2
X17.414Y2.7
X17.5Y2.661
X17.6Y2.623
X20.8Y1.537
X20.9Y1.506
X20.925Y1.5
X21Y1.483
X24.3Y0.827
X24.4Y0.809
X24.477Y0.8
X24.5Y0.798
X27.9Y0.575
X28Y0.571
X28.1Y0.575
X31.5Y0.798
X31.522Y0.8
X31.6Y0.809
X31.7Y0.827
X35Y1.483
X35.074Y1.5
X35.1Y1.506
X35.2Y1.537
X38.4Y2.623
X38.5Y2.661
X38.585Y2.7
X41.627Y4.2
X41.7Y4.238
X41.8Y4.3
X44.6Y6.17
X44.642Y6.2
X44.7Y6.241
X44.77Y6.3
X47.3Y8.518
X47.389Y8.6
X47.4Y8.61
X47.481Y8.7
X49.7Y11.229
X49.758Y11.3
X49.8Y11.357
X49.829Y11.4
X51.7Y14.2
X51.761Y14.3
X51.8Y14.372
X53.3Y17.414
X53.338Y17.5
X53.376Y17.6
X54.462Y20.8
X54.493Y20.9
X54.5Y20.925
X54.516Y21
X55.172Y24.3
X55.19Y24.4
X55.2Y24.477
X55.201Y24.5
X55.424Y27.9
X55.428Y28
X55.424Y28.1
X55.201Y31.5
X55.2Y31.522
X55.19Y31.6
X55.172Y31.7
X54.516Y35
X54.5Y35.074
X54.493Y35.1
X54.462Y35.2
X53.376Y38.4
X53.338Y38.5
X53.3Y38.585
X51.8Y41.627
X51.761Y41.7
X51.699Y41.8
X49.829Y44.6
X49.8Y44.642
X49.758Y44.7
X49.7Y44.77
X47.481Y47.3
X47.4Y47.389
X47.389Y47.4
X47.3Y47.481
X44.77Y49.7
X44.7Y49.758
X44.642Y49.8
X44.6Y49.829
X41.799Y51.7
X41.7Y51.761
X41.627Y51.8
X38.585Y53.3
X38.5Y53.338
X38.4Y53.376
X35.2Y54.462
X35.1Y54.493
X35.074Y54.5
X35Y54.516
X31.7Y55.172
X31.6Y55.19
X31.522Y55.2
X31.5Y55.201
X28.1Y55.424
X28Y55.428
X27.9Y55.424
X24.5Y55.201
X24.477Y55.2
X24.4Y55.19
X24.3Y55.172
X21Y54.516
X20.925Y54.5
X20.9Y54.493
X20.8Y54.462
X17.6Y53.376
X17.5Y53.338
X17.414Y53.3
X14.372Y51.8
X14.3Y51.761
X14.2Y51.699
X11.4Y49.829
X11.357Y49.8
X11.3Y49.758
X11.229Y49.7
X8.7Y47.481
X8.61Y47.4
X8.6Y47.389
X8.518Y47.3
X6.3Y44.77
X6.241Y44.7
X6.2Y44.642
X6.17Y44.6
X4.3Y41.799
X4.238Y41.7
X4.2Y41.627
X2.7Y38.585
X2.661Y38.5
X2.623Y38.4
X1.537Y35.2
X1.506Y35.1
X1.5Y35.074
X1.483Y35
X0.827Y31.7
X0.809Y31.6
X0.8Y31.522
X0.798Y31.5
X0.575Y28.1
X0.571Y28
X0.575Y27.9
X0.798Y24.5
X0.8Y24.477
X0.809Y24.4
X0.827Y24.3
X1.483Y21
X1.5Y20.925
X1.506Y20.9
X1.537Y20.8
X2.623Y17.6
X2.661Y17.5
X2.7Y17.414
X4.2Y14.372
X4.238Y14.3
X4.3Y14.2
X6.17Y11.4
X6.2Y11.357
X6.241Y11.3
X6.3Y11.229
X8.518Y8.7
X8.6Y8.61
X9.3Y9.325Z-4
X9.325Y9.3
X9.4Y9.231
X11.83Y7.1
X11.9Y7.042
X11.956Y7
X12Y6.97
X14.7Y5.166
X14.8Y5.104
X14.807Y5.1
X14.9Y5.052
X17.8Y3.622
X17.848Y3.6
X17.9Y3.577
X18Y3.541
X21.068Y2.5
X21.1Y2.489
X21.2Y2.462
X21.3Y2.441
X24.4Y1.824
X24.5Y1.805
X24.535Y1.8
X24.6Y1.792
X24.7Y1.784
X27.9Y1.575
X28Y1.571
X28.1Y1.575
X31.3Y1.784
X31.4Y1.792
X31.464Y1.8
X31.5Y1.805
X31.6Y1.824
X34.7Y2.441
X34.8Y2.462
X34.9Y2.489
X34.931Y2.5
X38Y3.541
X38.1Y3.577
X38.151Y3.6
X38.2Y3.622
X41.1Y5.052
X41.192Y5.1
X41.2Y5.104
X41.3Y5.166
X44Y6.97
X44.043Y7
X44.1Y7.042
X44.169Y7.1
X46.6Y9.231
X46.674Y9.3
X46.7Y9.325
X46.768Y9.4
X48.9Y11.83
X48.957Y11.9
X49Y11.956
X49.029Y12
X50.833Y14.7
X50.895Y14.8
X50.9Y14.807
X50.947Y14.9
X52.377Y17.8
X52.4Y17.848
X52.422Y17.9
X52.458Y18
X53.5Y21.068
X53.51Y21.1
X53.537Y21.2
X53.558Y21.3
X54.175Y24.4
X54.194Y24.5
X54.2Y24.535
X54.207Y24.6
X54.215Y24.7
X54.424Y27.9
X54.428Y28
X54.424Y28.1
X54.215Y31.3
X54.207Y31.4
X54.2Y31.464
X54.194Y31.5
X54.175Y31.6
X53.558Y34.7
X53.537Y34.8
X53.51Y34.9
X53.5Y34.931
X52.458Y38
X52.422Y38.1
X52.4Y38.151
X52.377Y38.2
X50.947Y41.1
X50.9Y41.192
X50.895Y41.2
X50.833Y41.3
X49.029Y44
X49Y44.043
X48.957Y44.1
X48.9Y44.169
X46.768Y46.6
X46.7Y46.674
X46.674Y46.7
X46.6Y46.768
X44.169Y48.9
X44.1Y48.957
X44.043Y49
X44Y49.029
X41.3Y50.833
X41.2Y50.895
X41.192Y50.9
X41.1Y50.947
X38.2Y52.377
X38.151Y52.4
X38.1Y52.422
X38Y52.458
X34.931Y53.5
X34.9Y53.51
X34.8Y53.537
X34.7Y53.558
X31.6Y54.175
X31.5Y54.194
X31.464Y54.2
X31.4Y54.207
X31.3Y54.215
X28.1Y54.424
X28Y54.428
X27.9Y54.424
X24.7Y54.215
X24.6Y54.207
X24.535Y54.2
X24.5Y54.194
X24.4Y54.175
X21.3Y53.558
X21.2Y53.537
X21.1Y53.51
X21.068Y53.5
X18Y52.458
X17.9Y52.422
X17.848Y52.4
X17.8Y52.377
X14.9Y50.947
X14.807Y50.9
X14.8Y50.895
X14.7Y50.833
X12Y49.029
X11.956Y49
X11.9Y48.957
X11.83Y48.9
X9.4Y46.768
X9.325Y46.7
X9.3Y46.674
X9.231Y46.6
X7.1Y44.169
X7.042Y44.1
X7Y44.043
X6.97Y44
X5.166Y41.3
X5.104Y41.2
X5.1Y41.192
X5.052Y41.1
X3.622Y38.2
X3.6Y38.151
X3.577Y38.1
X3.541Y38
X2.5Y34.931
X2.489Y34.9
X2.462Y34.8
X2.441Y34.7
X1.824Y31.6
X1.805Y31.5
X1.8Y31.464
X1.792Y31.4
X1.784Y31.3
X1.575Y28.1
X1.571Y28
X1.575Y27.9
X1.784Y24.7
X1.792Y24.6
X1.8Y24.535
X1.805Y24.5
X1.824Y24.4
X2.441Y21.3
X2.462Y21.2
X2.489Y21.1
X2.5Y21.068
X3.541Y18
X3.577Y17.9
X3.6Y17.848
X3.622Y17.8
X5.052Y14.9
X5.1Y14.807
X5.104Y14.8
X5.166Y14.7
X6.97Y12
X7Y11.956
X7.042Y11.9
X7.1Y11.83
X9.231Y9.4
X9.3Y9.325
X10.118Y10.2Z-3
X10.2Y10.118
X10.219Y10.1
X12.5Y8.1
X12.6Y8.013
X12.616Y8
X12.7Y7.938
X15.3Y6.2
X15.4Y6.139
X15.474Y6.1
X18.2Y4.756
X18.3Y4.707
X18.317Y4.7
X18.4Y4.666
X18.5Y4.632
X21.3Y3.681
X21.4Y3.648
X21.5Y3.619
X21.6Y3.598
X24.608Y3
X24.7Y2.984
X24.8Y2.974
X27.9Y2.771
X28Y2.767
X28.1Y2.771
X31.2Y2.974
X31.3Y2.984
X31.391Y3
X34.407Y3.6
X34.5Y3.619
X34.6Y3.648
X37.5Y4.632
X37.599Y4.666
X37.682Y4.7
X37.7Y4.707
X37.8Y4.756
X40.525Y6.1
X40.6Y6.139
X40.7Y6.2
X43.3Y7.938
X43.383Y8
X43.4Y8.013
X43.5Y8.1
X45.78Y10.1
X45.8Y10.118
X45.881Y10.2
X45.9Y10.219
X47.9Y12.5
X47.986Y12.6
X48Y12.616
X48.061Y12.7
X49.8Y15.3
X49.86Y15.4
X49.9Y15.474
X51.243Y18.2
X51.292Y18.3
X51.3Y18.317
X51.333Y18.4
X51.367Y18.5
X52.318Y21.3
X52.351Y21.4
X52.38Y21.5
X52.401Y21.6
X53Y24.608
X53.015Y24.7
X53.025Y24.8
X53.228Y27.9
X53.232Y28
X53.228Y28.1
X53.025Y31.2
X53.015Y31.3
X53Y31.391
X52.4Y34.407
X52.38Y34.5
X52.351Y34.6
X51.367Y37.5
X51.333Y37.599
X51.3Y37.682
X51.292Y37.7
X51.243Y37.8
X49.9Y40.525
X49.86Y40.6
X49.799Y40.7
X48.061Y43.3
X48Y43.383
X47.986Y43.4
X47.899Y43.5
X45.9Y45.78
X45.881Y45.8
X45.8Y45.881
X45.78Y45.9
X43.499Y47.9
X43.4Y47.986
X43.383Y48
X43.3Y48.061
X40.699Y49.8
X40.6Y49.86
X40.525Y49.9
X37.8Y51.243
X37.7Y51.292
X37.682Y51.3
X37.599Y51.333
X37.5Y51.367
X34.7Y52.318
X34.6Y52.351
X34.5Y52.38
X34.4Y52.401
X31.391Y53
X31.3Y53.015
X31.2Y53.025
X28.1Y53.228
X28Y53.232
X27.9Y53.228
X24.8Y53.025
X24.7Y53.015
X24.608Y53
X21.592Y52.4
X21.5Y52.38
X21.4Y52.351
X18.5Y51.367
X18.4Y51.333
X18.317Y51.3
X18.3Y51.292
X18.2Y51.243
X15.474Y49.9
X15.4Y49.86
X15.3Y49.799
X12.7Y48.061
X12.616Y48
X12.6Y47.986
X12.5Y47.899
X10.219Y45.9
X10.2Y45.881
X10.118Y45.8
X10.1Y45.78
X8.1Y43.499
X8.013Y43.4
X8Y43.383
X7.938Y43.3
X6.2Y40.699
X6.139Y40.6
X6.1Y40.525
X4.756Y37.8
X4.707Y37.7
X4.7Y37.682
X4.666Y37.599
X4.632Y37.5
X3.681Y34.7
X3.648Y34.6
X3.619Y34.5
X3.598Y34.4
X3Y31.391
X2.984Y31.3
X2.974Y31.2
X2.771Y28.1
X2.767Y28
X2.771Y27.9
X2.974Y24.8
X2.984Y24.7
X3Y24.608
X3.6Y21.592
X3.619Y21.5
X3.648Y21.4
X4.632Y18.5
X4.666Y18.4
X4.7Y18.317
X4.707Y18.3
X4.756Y18.2
X6.1Y15.474
X6.139Y15.4
X6.2Y15.3
X7.938Y12.7
X8Y12.616
X8.013Y12.6
X8.1Y12.5
X10.1Y10.219
X10.118Y10.2
G0Z10
X12.794Y12.8
G1Z-2F500
X12.8Y12.794F1000
X12.903Y12.7
X14.841Y11
X14.9Y10.951
X14.97Y10.9
X17.1Y9.476
X17.2Y9.41
X17.217Y9.4
X17.3Y9.352
X17.405Y9.3
X19.7Y8.168
X19.8Y8.125
X19.87Y8.1
X22.3Y7.275
X22.4Y7.242
X22.5Y7.216
X25.1Y6.699
X25.2Y6.683
X25.3Y6.673
X27.9Y6.503
X28Y6.5
X28.1Y6.503
X30.7Y6.673
X30.8Y6.683
X30.903Y6.7
X33.417Y7.2
X33.5Y7.216
X33.6Y7.242
X33.7Y7.275
X36.129Y8.1
X36.2Y8.125
X36.3Y8.168
X38.6Y9.302
X38.699Y9.352
X38.782Y9.4
X38.8Y9.41
X41Y10.879
X41.029Y10.9
X41.1Y10.951
X41.158Y11
X43.1Y12.702
X43.2Y12.794
X43.205Y12.8
X43.3Y12.903
X45Y14.841
X45.048Y14.9
X45.1Y14.97
X46.523Y17.1
X46.589Y17.2
X46.6Y17.217
X46.647Y17.3
X46.7Y17.405
X47.831Y19.7
X47.874Y19.8
X47.9Y19.87
X48.724Y22.3
X48.757Y22.4
X48.783Y22.5
X49.3Y25.1
X49.316Y25.2
X49.326Y25.3
X49.496Y27.9
X49.5Y28.002
X49.496Y28.1
X49.326Y30.7
X49.316Y30.8
X49.3Y30.903
X48.8Y33.417
X48.783Y33.5
X48.757Y33.6
X48.724Y33.7
X47.9Y36.129
X47.874Y36.2
X47.831Y36.3
X46.697Y38.6
X46.647Y38.699
X46.6Y38.782
X46.589Y38.8
X45.12Y41
X45.1Y41.029
X45.048Y41.1
X45Y41.158
X43.297Y43.1
X43.205Y43.2
X43.2Y43.205
X43.096Y43.3
X41.158Y45
X41.1Y45.048
X41.029Y45.1
X38.9Y46.523
X38.8Y46.589
X38.782Y46.6
X38.699Y46.647
X38.594Y46.7
X36.3Y47.831
X36.2Y47.874
X36.129Y47.9
X33.7Y48.724
X33.6Y48.757
X33.5Y48.783
X30.9Y49.3
X30.8Y49.316
X30.7Y49.326
X28.1Y49.496
X27.997Y49.5
X27.9Y49.496
X25.3Y49.326
X25.2Y49.316
X25.096Y49.3
X22.582Y48.8
X22.5Y48.783
X22.4Y48.757
X22.3Y48.724
X19.87Y47.9
X19.8Y47.874
X19.7Y47.831
X17.4Y46.697
X17.3Y46.647
X17.217Y46.6
X17.2Y46.589
X15Y45.12
X14.97Y45.1
X14.9Y45.048
X14.841Y45
X12.9Y43.297
X12.8Y43.205
X12.794Y43.2
X12.7Y43.096
X11Y41.158
X10.951Y41.1
X10.9Y41.029
X9.476Y38.9
X9.41Y38.8
X9.4Y38.782
X9.352Y38.699
X9.3Y38.594
X8.168Y36.3
X8.125Y36.2
X8.1Y36.129
X7.275Y33.7
X7.242Y33.6
X7.216Y33.5
X6.699Y30.9
X6.683Y30.8
X6.673Y30.7
X6.503Y28.1
X6.5Y28
X6.503Y27.9
X6.673Y25.3
X6.683Y25.2
X6.7Y25.096
X7.2Y22.582
X7.216Y22.5
X7.242Y22.4
X7.275Y22.3
X8.1Y19.87
X8.125Y19.8
X8.168Y19.7
X9.302Y17.4
X9.352Y17.3
X9.4Y17.217
X9.41Y17.2
X10.879Y15
X10.9Y14.97
X10.951Y14.9
X11Y14.841
X12.702Y12.9
X12.794Y12.8
G0Z10
X14.9Y14.944
G1Z-2F500
X13.36Y16.7F1000
X13.3Y16.778
X12Y18.723
X11.957Y18.8
X10.921Y20.9
X10.9Y20.954
X10.137Y23.2
X10.116Y23.3
X9.678Y25.5
X9.66Y25.6
X9.503Y28
X9.66Y30.4
X9.678Y30.5
X10.116Y32.7
X10.137Y32.8
X10.9Y35.045
X10.921Y35.1
X11.957Y37.2
X12Y37.276
X13.3Y39.221
X13.36Y39.3
X14.9Y41.055
X14.944Y41.1
X16.7Y42.639
X16.778Y42.7
X18.723Y44
X18.8Y44.042
X20.9Y45.078
X20.954Y45.1
X23.2Y45.862
X23.3Y45.883
X25.5Y46.321
X25.6Y46.339
X28Y46.496
X30.4Y46.339
X30.5Y46.321
X32.7Y45.883
X32.8Y45.862
X35.045Y45.1
X35.1Y45.078
X37.2Y44.042
X37.276Y44
X39.221Y42.7
X39.3Y42.639
X41.055Y41.1
X41.1Y41.055
X42.639Y39.3
X42.7Y39.221
X44Y37.276
X44.042Y37.2
X45.078Y35.1
X45.1Y35.045
X45.862Y32.8
X45.883Y32.7
X46.321Y30.5
X46.339Y30.4
X46.496Y28
X46.339Y25.6
X46.321Y25.5
X45.883Y23.3
X45.862Y23.2
X45.1Y20.954
X45.078Y20.9
X44.042Y18.8
X44Y18.723
X42.7Y16.778
X42.639Y16.7
X41.1Y14.944
X41.055Y14.9
X39.3Y13.36
X39.221Y13.3
X37.276Y12
X37.2Y11.957
X35.1Y10.921
X35.045Y10.9
X32.8Y10.137
X32.7Y10.116
X30.5Y9.678
X30.4Y9.66
X28Y9.503
X25.6Y9.66
X25.5Y9.678
X23.3Y10.116
X23.2Y10.137
X20.954Y10.9
X20.9Y10.921
X18.8Y11.957
X18.723Y12
X16.778Y13.3
X16.7Y13.36
X14.944Y14.9
X14.9Y14.944
G0Z10
X17.524Y17.6
G1Z-3F500
X16.296Y19F1000
X16.227Y19.1
X15.225Y20.6
X15.2Y20.644
X14.383Y22.3
X14.342Y22.4
X13.765Y24.1
X13.734Y24.2
X13.376Y26
X13.359Y26.1
X13.235Y28
X13.359Y29.9
X13.376Y30
X13.734Y31.8
X13.765Y31.9
X14.342Y33.6
X14.383Y33.7
X15.2Y35.355
X15.225Y35.399
X16.227Y36.9
X16.296Y37
X17.524Y38.4
X17.6Y38.475
X19Y39.703
X19.1Y39.772
X20.6Y40.774
X20.644Y40.8
X22.3Y41.616
X22.4Y41.657
X24.1Y42.234
X24.2Y42.265
X26Y42.623
X26.1Y42.64
X28Y42.764
X29.9Y42.64
X30Y42.623
X31.8Y42.265
X31.9Y42.234
X33.6Y41.657
X33.7Y41.616
X35.355Y40.8
X35.399Y40.774
X36.9Y39.772
X37Y39.703
X38.4Y38.475
X38.475Y38.4
X39.703Y37
X39.772Y36.9
X40.774Y35.399
X40.8Y35.355
X41.616Y33.7
X41.657Y33.6
X42.234Y31.9
X42.265Y31.8
X42.623Y30
X42.64Y29.9
X42.764Y28
X42.64Y26.1
X42.623Y26
X42.265Y24.2
X42.234Y24.1
X41.657Y22.4
X41.616Y22.3
X40.8Y20.644
X40.774Y20.6
X39.772Y19.1
X39.703Y19
X38.475Y17.6
X38.4Y17.524
X37Y16.296
X36.9Y16.227
X35.399Y15.225
X35.355Y15.2
X33.7Y14.383
X33.6Y14.342
X31.9Y13.765
X31.8Y13.734
X30Y13.376
X29.9Y13.359
X28Y13.235
X26.1Y13.359
X26Y13.376
X24.2Y13.734
X24.1Y13.765
X22.4Y14.342
X22.3Y14.383
X20.644Y15.2
X20.6Y15.225
X19.1Y16.227
X19Y16.296
X17.6Y17.524
X17.524Y17.6
X18.4Y18.411Z-4F500
X17.27Y19.7F1000
X17.2Y19.792
X16.259Y21.2
X16.207Y21.3
X15.467Y22.8
X15.432Y22.9
X14.9Y24.469
X14.891Y24.5
X14.553Y26.2
X14.542Y26.3
X14.431Y28
X14.542Y29.7
X14.553Y29.8
X14.891Y31.5
X14.9Y31.53
X15.432Y33.1
X15.467Y33.199
X16.207Y34.7
X16.259Y34.8
X17.2Y36.207
X17.27Y36.3
X18.4Y37.588
X18.411Y37.599
X19.7Y38.729
X19.792Y38.8
X21.2Y39.74
X21.3Y39.792
X22.8Y40.532
X22.9Y40.567
X24.469Y41.1
X24.5Y41.108
X26.2Y41.446
X26.3Y41.457
X28Y41.568
X29.7Y41.457
X29.8Y41.446
X31.5Y41.108
X31.53Y41.1
X33.1Y40.567
X33.199Y40.532
X34.7Y39.792
X34.8Y39.74
X36.207Y38.8
X36.3Y38.729
X37.588Y37.599
X37.599Y37.588
X38.729Y36.3
X38.8Y36.207
X39.74Y34.8
X39.792Y34.7
X40.532Y33.199
X40.567Y33.1
X41.1Y31.53
X41.108Y31.5
X41.446Y29.8
X41.457Y29.7
X41.568Y28
X41.457Y26.3
X41.446Y26.2
X41.108Y24.5
X41.1Y24.469
X40.567Y22.9
X40.532Y22.8
X39.792Y21.3
X39.74Y21.2
X38.8Y19.792
X38.729Y19.7
X37.599Y18.411
X37.588Y18.4
X36.3Y17.27
X36.207Y17.2
X34.8Y16.259
X34.7Y16.207
X33.199Y15.467
X33.1Y15.432
X31.53Y14.9
X31.5Y14.891
X29.8Y14.553
X29.7Y14.542
X28Y14.431
X26.3Y14.542
X26.2Y14.553
X24.5Y14.891
X24.469Y14.9
X22.9Y15.432
X22.8Y15.467
X21.3Y16.207
X21.2Y16.259
X19.792Y17.2
X19.7Y17.27
X18.411Y18.4
X18.4Y18.411
X19.1Y19.127Z-5F500
X18.071Y20.3F1000
X18Y20.391
X17.125Y21.7
X17.1Y21.746
X16.4Y23.166
X16.384Y23.2
X15.875Y24.7
X15.849Y24.8
X15.55Y26.3
X15.536Y26.4
X15.431Y28
X15.536Y29.6
X15.55Y29.7
X15.849Y31.2
X15.875Y31.3
X16.384Y32.8
X16.4Y32.833
X17.1Y34.253
X17.125Y34.299
X18Y35.608
X18.071Y35.7
X19.1Y36.872
X19.127Y36.9
X20.3Y37.928
X20.391Y38
X21.7Y38.874
X21.746Y38.9
X23.166Y39.6
X23.2Y39.615
X24.7Y40.124
X24.8Y40.15
X26.3Y40.449
X26.4Y40.463
X28Y40.568
X29.6Y40.463
X29.7Y40.449
X31.2Y40.15
X31.3Y40.124
X32.8Y39.615
X32.833Y39.6
X34.253Y38.9
X34.299Y38.874
X35.608Y38
X35.7Y37.928
X36.872Y36.9
X36.9Y36.872
X37.928Y35.7
X38Y35.608
X38.874Y34.299
X38.9Y34.253
X39.6Y32.833
X39.615Y32.8
X40.124Y31.3
X40.15Y31.2
X40.449Y29.7
X40.463Y29.6
X40.568Y28
X40.463Y26.4
X40.449Y26.3
X40.15Y24.8
X40.124Y24.7
X39.615Y23.2
X39.6Y23.166
X38.9Y21.746
X38.874Y21.7
X38Y20.391
X37.928Y20.3
X36.9Y19.127
X36.872Y19.1
X35.7Y18.071
X35.608Y18
X34.299Y17.125
X34.253Y17.1
X32.833Y16.4
X32.8Y16.384
X31.3Y15.875
X31.2Y15.849
X29.7Y15.55
X29.6Y15.536
X28Y15.431
X26.4Y15.536
X26.3Y15.55
X24.8Y15.849
X24.7Y15.875
X23.2Y16.384
X23.166Y16.4
X21.746Y17.1
X21.7Y17.125
X20.391Y18
X20.3Y18.071
X19.127Y19.1
X19.1Y19.127
X19.8Y19.842Z-6F500
X18.872Y20.9F1000
X18.8Y20.99
X17.991Y22.2
X17.939Y22.3
X17.347Y23.5
X17.302Y23.6
X16.827Y25
X16.806Y25.1
X16.548Y26.4
X16.529Y26.5
X16.431Y28
X16.529Y29.5
X16.548Y29.6
X16.806Y30.9
X16.827Y31
X17.302Y32.4
X17.347Y32.5
X17.939Y33.7
X17.991Y33.8
X18.8Y35.009
X18.872Y35.1
X19.8Y36.157
X19.842Y36.2
X20.9Y37.127
X20.99Y37.2
X22.2Y38.008
X22.3Y38.06
X23.5Y38.652
X23.6Y38.697
X25Y39.172
X25.1Y39.193
X26.4Y39.451
X26.5Y39.47
X28Y39.568
X29.5Y39.47
X29.6Y39.451
X30.9Y39.193
X31Y39.172
X32.4Y38.697
X32.5Y38.652
X33.7Y38.06
X33.8Y38.008
X35.009Y37.2
X35.1Y37.127
X36.157Y36.2
X36.2Y36.157
X37.127Y35.1
X37.2Y35.009
X38.008Y33.8
X38.06Y33.7
X38.652Y32.5
X38.697Y32.4
X39.172Y31
X39.193Y30.9
X39.451Y29.6
X39.47Y29.5
X39.568Y28
X39.47Y26.5
X39.451Y26.4
X39.193Y25.1
X39.172Y25
X38.697Y23.6
X38.652Y23.5
X38.06Y22.3
X38.008Y22.2
X37.2Y20.99
X37.127Y20.9
X36.2Y19.842
X36.157Y19.8
X35.1Y18.872
X35.009Y18.8
X33.8Y17.991
X33.7Y17.939
X32.5Y17.347
X32.4Y17.302
X31Y16.827
X30.9Y16.806
X29.6Y16.548
X29.5Y16.529
X28Y16.431
X26.5Y16.529
X26.4Y16.548
X25.1Y16.806
X25Y16.827
X23.6Y17.302
X23.5Y17.347
X22.3Y17.939
X22.2Y17.991
X20.99Y18.8
X20.9Y18.872
X19.842Y19.8
X19.8Y19.842
X20Y20.019Z-7F500
X19.052Y21.1F1000
X19Y21.172
X18.246Y22.3
X18.2Y22.376
X17.596Y23.6
X17.551Y23.7
X17.1Y25.029
X17.079Y25.1
X16.8Y26.505
X16.791Y26.6
X16.699Y28
X16.791Y29.4
X16.8Y29.494
X17.079Y30.9
X17.1Y30.97
X17.551Y32.299
X17.596Y32.4
X18.2Y33.623
X18.246Y33.7
X19Y34.827
X19.052Y34.9
X20Y35.98
X20.019Y36
X21.1Y36.947
X21.172Y37
X22.3Y37.753
X22.376Y37.8
X23.6Y38.403
X23.7Y38.448
X25.029Y38.9
X25.1Y38.92
X26.505Y39.2
X26.6Y39.208
X28Y39.3
X29.4Y39.208
X29.494Y39.2
X30.9Y38.92
X30.97Y38.9
X32.299Y38.448
X32.4Y38.403
X33.623Y37.8
X33.7Y37.753
X34.827Y37
X34.9Y36.947
X35.98Y36
X36Y35.98
X36.947Y34.9
X37Y34.827
X37.753Y33.7
X37.8Y33.623
X38.403Y32.4
X38.448Y32.299
X38.9Y30.97
X38.92Y30.9
X39.2Y29.494
X39.208Y29.4
X39.3Y28
X39.208Y26.6
X39.2Y26.505
X38.92Y25.1
X38.9Y25.029
X38.448Y23.7
X38.403Y23.6
X37.8Y22.376
X37.753Y22.3
X37Y21.172
X36.947Y21.1
X36Y20.019
X35.98Y20
X34.9Y19.052
X34.827Y19
X33.7Y18.246
X33.623Y18.2
X32.4Y17.596
X32.299Y17.551
X30.97Y17.1
X30.9Y17.079
X29.494Y16.8
X29.4Y16.791
X28Y16.699
X26.6Y16.791
X26.505Y16.8
X25.1Y17.079
X25.029Y17.1
X23.7Y17.551
X23.6Y17.596
X22.376Y18.2
X22.3Y18.246
X21.172Y19
X21.1Y19.052
X20.019Y20
X20Y20.019
X20.197Y20.2Z-8F500
X19.3Y21.223F1000
X19.236Y21.3
X18.5Y22.401
X18.437Y22.5
X17.845Y23.7
X17.799Y23.8
X17.358Y25.1
X17.332Y25.2
X17.073Y26.5
X17.059Y26.6
X16.967Y28
X17.059Y29.4
X17.073Y29.5
X17.332Y30.8
X17.358Y30.9
X17.8Y32.201
X17.845Y32.299
X18.437Y33.5
X18.501Y33.6
X19.236Y34.7
X19.3Y34.776
X20.197Y35.8
X20.2Y35.802
X21.223Y36.7
X21.3Y36.763
X22.401Y37.5
X22.5Y37.562
X23.7Y38.154
X23.8Y38.2
X25.1Y38.641
X25.2Y38.667
X26.5Y38.926
X26.6Y38.94
X28Y39.032
X29.4Y38.94
X29.5Y38.926
X30.8Y38.667
X30.9Y38.641
X32.201Y38.2
X32.299Y38.154
X33.5Y37.562
X33.6Y37.498
X34.7Y36.763
X34.776Y36.7
X35.8Y35.802
X35.802Y35.8
X36.7Y34.776
X36.763Y34.7
X37.5Y33.598
X37.562Y33.5
X38.154Y32.299
X38.2Y32.2
X38.641Y30.9
X38.667Y30.8
X38.926Y29.5
X38.94Y29.4
X39.032Y28
X38.94Y26.6
X38.926Y26.5
X38.667Y25.2
X38.641Y25.1
X38.2Y23.798
X38.154Y23.7
X37.562Y22.5
X37.498Y22.4
X36.763Y21.3
X36.7Y21.223
X35.802Y20.2
X35.8Y20.197
X34.776Y19.3
X34.7Y19.236
X33.598Y18.5
X33.5Y18.437
X32.299Y17.845
X32.2Y17.799
X30.9Y17.358
X30.8Y17.332
X29.5Y17.073
X29.4Y17.059
X28Y16.967
X26.6Y17.059
X26.5Y17.073
X25.2Y17.332
X25.1Y17.358
X23.798Y17.8
X23.7Y17.845
X22.5Y18.437
X22.4Y18.501
X21.3Y19.236
X21.223Y19.3
X20.2Y20.197
X20.197Y20.2
X20.377Y20.4Z-9F500
X19.5Y21.4F1000
X19.424Y21.5
X18.689Y22.6
X18.636Y22.7
X18.094Y23.8
X18.048Y23.9
X17.606Y25.2
X17.6Y25.224
X17.346Y26.5
X17.327Y26.6
X17.235Y28
X17.327Y29.4
X17.346Y29.5
X17.6Y30.775
X17.606Y30.8
X18.048Y32.099
X18.094Y32.2
X18.636Y33.3
X18.689Y33.4
X19.424Y34.5
X19.5Y34.6
X20.377Y35.6
X20.4Y35.622
X21.4Y36.499
X21.5Y36.575
X22.6Y37.31
X22.7Y37.363
X23.8Y37.905
X23.9Y37.951
X25.2Y38.393
X25.224Y38.4
X26.5Y38.653
X26.6Y38.672
X28Y38.764
X29.4Y38.672
X29.5Y38.653
X30.775Y38.4
X30.8Y38.393
X32.099Y37.951
X32.2Y37.905
X33.3Y37.363
X33.4Y37.31
X34.5Y36.575
X34.6Y36.499
X35.6Y35.622
X35.622Y35.6
X36.499Y34.599
X36.575Y34.5
X37.31Y33.4
X37.363Y33.3
X37.905Y32.2
X37.951Y32.099
X38.393Y30.8
X38.4Y30.775
X38.653Y29.5
X38.672Y29.4
X38.764Y28
X38.672Y26.6
X38.653Y26.5
X38.4Y25.224
X38.393Y25.2
X37.951Y23.9
X37.905Y23.8
X37.363Y22.7
X37.31Y22.6
X36.575Y21.5
X36.499Y21.4
X35.622Y20.4
X35.6Y20.377
X34.599Y19.5
X34.5Y19.424
X33.4Y18.689
X33.3Y18.636
X32.2Y18.094
X32.099Y18.048
X30.8Y17.606
X30.775Y17.6
X29.5Y17.346
X29.4Y17.327
X28Y17.235
X26.6Y17.327
X26.5Y17.346
X25.224Y17.6
X25.2Y17.606
X23.9Y18.048
X23.8Y18.094
X22.7Y18.636
X22.6Y18.689
X21.5Y19.424
X21.4Y19.5
X20.4Y20.377
X20.377Y20.4
X20.558Y20.6Z-10F500
X19.681Y21.6F1000
X19.612Y21.7
X18.944Y22.7
X18.9Y22.77
X18.343Y23.9
X18.3Y23.989
X17.889Y25.2
X17.857Y25.3
X17.598Y26.6
X17.588Y26.7
X17.503Y28
X17.588Y29.3
X17.598Y29.4
X17.857Y30.7
X17.889Y30.8
X18.3Y32.01
X18.343Y32.099
X18.9Y33.229
X18.944Y33.3
X19.612Y34.299
X19.681Y34.4
X20.558Y35.399
X20.6Y35.441
X21.6Y36.318
X21.7Y36.387
X22.7Y37.055
X22.77Y37.1
X23.9Y37.656
X23.989Y37.7
X25.2Y38.11
X25.3Y38.142
X26.6Y38.401
X26.7Y38.411
X28Y38.496
X29.3Y38.411
X29.4Y38.401
X30.7Y38.142
X30.8Y38.11
X32.01Y37.7
X32.099Y37.656
X33.229Y37.1
X33.3Y37.055
X34.299Y36.387
X34.4Y36.318
X35.399Y35.441
X35.441Y35.399
X36.318Y34.4
X36.387Y34.299
X37.055Y33.3
X37.1Y33.229
X37.656Y32.099
X37.7Y32.01
X38.11Y30.8
X38.142Y30.7
X38.401Y29.4
X38.411Y29.3
X38.496Y28
X38.411Y26.7
X38.401Y26.6
X38.142Y25.3
X38.11Y25.2
X37.7Y23.989
X37.656Y23.9
X37.1Y22.77
X37.055Y22.7
X36.387Y21.7
X36.318Y21.6
X35.441Y20.6
X35.399Y20.558
X34.4Y19.681
X34.299Y19.612
X33.3Y18.944
X33.229Y18.9
X32.099Y18.343
X32.01Y18.3
X30.8Y17.889
X30.7Y17.857
X29.4Y17.598
X29.3Y17.588
X28Y17.503
X26.7Y17.588
X26.6Y17.598
X25.3Y17.857
X25.2Y17.889
X23.989Y18.3
X23.9Y18.343
X22.77Y18.9
X22.7Y18.944
X21.7Y19.612
X21.6Y19.681
X20.6Y20.558
X20.558Y20.6
Z-11F500
X19.681Y21.6F1000
X19.612Y21.7
X18.944Y22.7
X18.9Y22.77
X18.343Y23.9
X18.3Y23.989
X17.889Y25.2
X17.857Y25.3
X17.598Y26.6
X17.588Y26.7
X17.503Y28
X17.588Y29.3
X17.598Y29.4
X17.857Y30.7
X17.889Y30.8
X18.3Y32.01
X18.343Y32.099
X18.9Y33.229
X18.944Y33.3
X19.612Y34.299
X19.681Y34.4
X20.558Y35.399
X20.6Y35.441
X21.6Y36.318
X21.7Y36.387
X22.7Y37.055
X22.77Y37.1
X23.9Y37.656
X23.989Y37.7
X25.2Y38.11
X25.3Y38.142
X26.6Y38.401
X26.7Y38.411
X28Y38.496
X29.3Y38.411
X29.4Y38.401
X30.7Y38.142
X30.8Y38.11
X32.01Y37.7
X32.099Y37.656
X33.229Y37.1
X33.3Y37.055
X34.299Y36.387
X34.4Y36.318
X35.399Y35.441
X35.441Y35.399
X36.318Y34.4
X36.387Y34.299
X37.055Y33.3
X37.1Y33.229
X37.656Y32.099
X37.7Y32.01
X38.11Y30.8
X38.142Y30.7
X38.401Y29.4
X38.411Y29.3
X38.496Y28
X38.411Y26.7
X38.401Y26.6
X38.142Y25.3
X38.11Y25.2
X37.7Y23.989
X37.656Y23.9
X37.1Y22.77
X37.055Y22.7
X36.387Y21.7
X36.318Y21.6
X35.441Y20.6
X35.399Y20.558
X34.4Y19.681
X34.299Y19.612
X33.3Y18.944
X33.229Y18.9
X32.099Y18.343
X32.01Y18.3
X30.8Y17.889
X30.7Y17.857
X29.4Y17.598
X29.3Y17.588
X28Y17.503
X26.7Y17.588
X26.6Y17.598
X25.3Y17.857
X25.2Y17.889
X23.989Y18.3
X23.9Y18.343
X22.77Y18.9
X22.7Y18.944
X21.7Y19.612
X21.6Y19.681
X20.6Y20.558
X20.558Y20.6
Z-12F500
X19.681Y21.6F1000
X19.612Y21.7
X18.944Y22.7
X18.9Y22.77
X18.343Y23.9
X18.3Y23.989
X17.889Y25.2
X17.857Y25.3
X17.598Y26.6
X17.588Y26.7
X17.503Y28
X17.588Y29.3
X17.598Y29.4
X17.857Y30.7
X17.889Y30.8
X18.3Y32.01
X18.343Y32.099
X18.9Y33.229
X18.944Y33.3
X19.612Y34.299
X19.681Y34.4
X20.558Y35.399
X20.6Y35.441
X21.6Y36.318
X21.7Y36.387
X22.7Y37.055
X22.77Y37.1
X23.9Y37.656
X23.989Y37.7
X25.2Y38.11
X25.3Y38.142
X26.6Y38.401
X26.7Y38.411
X28Y38.496
X29.3Y38.411
X29.4Y38.401
X30.7Y38.142
X30.8Y38.11
X32.01Y37.7
X32.099Y37.656
X33.229Y37.1
X33.3Y37.055
X34.299Y36.387
X34.4Y36.318
X35.399Y35.441
X35.441Y35.399
X36.318Y34.4
X36.387Y34.299
X37.055Y33.3
X37.1Y33.229
X37.656Y32.099
X37.7Y32.01
X38.11Y30.8
X38.142Y30.7
X38.401Y29.4
X38.411Y29.3
X38.496Y28
X38.411Y26.7
X38.401Y26.6
X38.142Y25.3
X38.11Y25.2
X37.7Y23.989
X37.656Y23.9
X37.1Y22.77
X37.055Y22.7
X36.387Y21.7
X36.318Y21.6
X35.441Y20.6
X35.399Y20.558
X34.4Y19.681
X34.299Y19.612
X33.3Y18.944
X33.229Y18.9
X32.099Y18.343
X32.01Y18.3
X30.8Y17.889
X30.7Y17.857
X29.4Y17.598
X29.3Y17.588
X28Y17.503
X26.7Y17.588
X26.6Y17.598
X25.3Y17.857
X25.2Y17.889
X23.989Y18.3
X23.9Y18.343
X22.77Y18.9
X22.7Y18.944
X21.7Y19.612
X21.6Y19.681
X20.6Y20.558
X20.558Y20.6
Z-13F500
X19.681Y21.6F1000
X19.612Y21.7
X18.944Y22.7
X18.9Y22.77
X18.343Y23.9
X18.3Y23.989
X17.889Y25.2
X17.857Y25.3
X17.598Y26.6
X17.588Y26.7
X17.503Y28
X17.588Y29.3
X17.598Y29.4
X17.857Y30.7
X17.889Y30.8
X18.3Y32.01
X18.343Y32.099
X18.9Y33.229
X18.944Y33.3
X19.612Y34.299
X19.681Y34.4
X20.558Y35.399
X20.6Y35.441
X21.6Y36.318
X21.7Y36.387
X22.7Y37.055
X22.77Y37.1
X23.9Y37.656
X23.989Y37.7
X25.2Y38.11
X25.3Y38.142
X26.6Y38.401
X26.7Y38.411
X28Y38.496
X29.3Y38.411
X29.4Y38.401
X30.7Y38.142
X30.8Y38.11
X32.01Y37.7
X32.099Y37.656
X33.229Y37.1
X33.3Y37.055
X34.299Y36.387
X34.4Y36.318
X35.399Y35.441
X35.441Y35.399
X36.318Y34.4
X36.387Y34.299
X37.055Y33.3
X37.1Y33.229
X37.656Y32.099
X37.7Y32.01
X38.11Y30.8
X38.142Y30.7
X38.401Y29.4
X38.411Y29.3
X38.496Y28
X38.411Y26.7
X38.401Y26.6
X38.142Y25.3
X38.11Y25.2
X37.7Y23.989
X37.656Y23.9
X37.1Y22.77
X37.055Y22.7
X36.387Y21.7
X36.318Y21.6
X35.441Y20.6
X35.399Y20.558
X34.4Y19.681
X34.299Y19.612
X33.3Y18.944
X33.229Y18.9
X32.099Y18.343
X32.01Y18.3
X30.8Y17.889
X30.7Y17.857
X29.4Y17.598
X29.3Y17.588
X28Y17.503
X26.7Y17.588
X26.6Y17.598
X25.3Y17.857
X25.2Y17.889
X23.989Y18.3
X23.9Y18.343
X22.77Y18.9
X22.7Y18.944
X21.7Y19.612
X21.6Y19.681
X20.6Y20.558
X20.558Y20.6
Z-14F500
X19.681Y21.6F1000
X19.612Y21.7
X18.944Y22.7
X18.9Y22.77
X18.343Y23.9
X18.3Y23.989
X17.889Y25.2
X17.857Y25.3
X17.598Y26.6
X17.588Y26.7
X17.503Y28
X17.588Y29.3
X17.598Y29.4
X17.857Y30.7
X17.889Y30.8
X18.3Y32.01
X18.343Y32.099
X18.9Y33.229
X18.944Y33.3
X19.612Y34.299
X19.681Y34.4
X20.558Y35.399
X20.6Y35.441
X21.6Y36.318
X21.7Y36.387
X22.7Y37.055
X22.77Y37.1
X23.9Y37.656
X23.989Y37.7
X25.2Y38.11
X25.3Y38.142
X26.6Y38.401
X26.7Y38.411
X28Y38.496
X29.3Y38.411
X29.4Y38.401
X30.7Y38.142
X30.8Y38.11
X32.01Y37.7
X32.099Y37.656
X33.229Y37.1
X33.3Y37.055
X34.299Y36.387
X34.4Y36.318
X35.399Y35.441
X35.441Y35.399
X36.318Y34.4
X36.387Y34.299
X37.055Y33.3
X37.1Y33.229
X37.656Y32.099
X37.7Y32.01
X38.11Y30.8
X38.142Y30.7
X38.401Y29.4
X38.411Y29.3
X38.496Y28
X38.411Y26.7
X38.401Y26.6
X38.142Y25.3
X38.11Y25.2
X37.7Y23.989
X37.656Y23.9
X37.1Y22.77
X37.055Y22.7
X36.387Y21.7
X36.318Y21.6
X35.441Y20.6
X35.399Y20.558
X34.4Y19.681
X34.299Y19.612
X33.3Y18.944
X33.229Y18.9
X32.099Y18.343
X32.01Y18.3
X30.8Y17.889
X30.7Y17.857
X29.4Y17.598
X29.3Y17.588
X28Y17.503
X26.7Y17.588
X26.6Y17.598
X25.3Y17.857
X25.2Y17.889
X23.989Y18.3
X23.9Y18.343
X22.77Y18.9
X22.7Y18.944
X21.7Y19.612
X21.6Y19.681
X20.6Y20.558
X20.558Y20.6
Z-15F500
X19.681Y21.6F1000
X19.612Y21.7
X18.944Y22.7
X18.9Y22.77
X18.343Y23.9
X18.3Y23.989
X17.889Y25.2
X17.857Y25.3
X17.598Y26.6
X17.588Y26.7
X17.503Y28
X17.588Y29.3
X17.598Y29.4
X17.857Y30.7
X17.889Y30.8
X18.3Y32.01
X18.343Y32.099
X18.9Y33.229
X18.944Y33.3
X19.612Y34.299
X19.681Y34.4
X20.558Y35.399
X20.6Y35.441
X21.6Y36.318
X21.7Y36.387
X22.7Y37.055
X22.77Y37.1
X23.9Y37.656
X23.989Y37.7
X25.2Y38.11
X25.3Y38.142
X26.6Y38.401
X26.7Y38.411
X28Y38.496
X29.3Y38.411
X29.4Y38.401
X30.7Y38.142
X30.8Y38.11
X32.01Y37.7
X32.099Y37.656
X33.229Y37.1
X33.3Y37.055
X34.299Y36.387
X34.4Y36.318
X35.399Y35.441
X35.441Y35.399
X36.318Y34.4
X36.387Y34.299
X37.055Y33.3
X37.1Y33.229
X37.656Y32.099
X37.7Y32.01
X38.11Y30.8
X38.142Y30.7
X38.401Y29.4
X38.411Y29.3
X38.496Y28
X38.411Y26.7
X38.401Y26.6
X38.142Y25.3
X38.11Y25.2
X37.7Y23.989
X37.656Y23.9
X37.1Y22.77
X37.055Y22.7
X36.387Y21.7
X36.318Y21.6
X35.441Y20.6
X35.399Y20.558
X34.4Y19.681
X34.299Y19.612
X33.3Y18.944
X33.229Y18.9
X32.099Y18.343
X32.01Y18.3
X30.8Y17.889
X30.7Y17.857
X29.4Y17.598
X29.3Y17.588
X28Y17.503
X26.7Y17.588
X26.6Y17.598
X25.3Y17.857
X25.2Y17.889
X23.989Y18.3
X23.9Y18.343
X22.77Y18.9
X22.7Y18.944
X21.7Y19.612
X21.6Y19.681
X20.6Y20.558
X20.558Y20.6
Z-16F500
X19.681Y21.6F1000
X19.612Y21.7
X18.944Y22.7
X18.9Y22.77
X18.343Y23.9
X18.3Y23.989
X17.889Y25.2
X17.857Y25.3
X17.598Y26.6
X17.588Y26.7
X17.503Y28
X17.588Y29.3
X17.598Y29.4
X17.857Y30.7
X17.889Y30.8
X18.3Y32.01
X18.343Y32.099
X18.9Y33.229
X18.944Y33.3
X19.612Y34.299
X19.681Y34.4
X20.558Y35.399
X20.6Y35.441
X21.6Y36.318
X21.7Y36.387
X22.7Y37.055
X22.77Y37.1
X23.9Y37.656
X23.989Y37.7
X25.2Y38.11
X25.3Y38.142
X26.6Y38.401
X26.7Y38.411
X28Y38.496
X29.3Y38.411
X29.4Y38.401
X30.7Y38.142
X30.8Y38.11
X32.01Y37.7
X32.099Y37.656
X33.229Y37.1
X33.3Y37.055
X34.299Y36.387
X34.4Y36.318
X35.399Y35.441
X35.441Y35.399
X36.318Y34.4
X36.387Y34.299
X37.055Y33.3
X37.1Y33.229
X37.656Y32.099
X37.7Y32.01
X38.11Y30.8
X38.142Y30.7
X38.401Y29.4
X38.411Y29.3
X38.496Y28
X38.411Y26.7
X38.401Y26.6
X38.142Y25.3
X38.11Y25.2
X37.7Y23.989
X37.656Y23.9
X37.1Y22.77
X37.055Y22.7
X36.387Y21.7
X36.318Y21.6
X35.441Y20.6
X35.399Y20.558
X34.4Y19.681
X34.299Y19.612
X33.3Y18.944
X33.229Y18.9
X32.099Y18.343
X32.01Y18.3
X30.8Y17.889
X30.7Y17.857
X29.4Y17.598
X29.3Y17.588
X28Y17.503
X26.7Y17.588
X26.6Y17.598
X25.3Y17.857
X25.2Y17.889
X23.989Y18.3
X23.9Y18.343
X22.77Y18.9
X22.7Y18.944
X21.7Y19.612
X21.6Y19.681
X20.6Y20.558
X20.558Y20.6
Z-17F500
X19.681Y21.6F1000
X19.612Y21.7
X18.944Y22.7
X18.9Y22.77
X18.343Y23.9
X18.3Y23.989
X17.889Y25.2
X17.857Y25.3
X17.598Y26.6
X17.588Y26.7
X17.503Y28
X17.588Y29.3
X17.598Y29.4
X17.857Y30.7
X17.889Y30.8
X18.3Y32.01
X18.343Y32.099
X18.9Y33.229
X18.944Y33.3
X19.612Y34.299
X19.681Y34.4
X20.558Y35.399
X20.6Y35.441
X21.6Y36.318
X21.7Y36.387
X22.7Y37.055
X22.77Y37.1
X23.9Y37.656
X23.989Y37.7
X25.2Y38.11
X25.3Y38.142
X26.6Y38.401
X26.7Y38.411
X28Y38.496
X29.3Y38.411
X29.4Y38.401
X30.7Y38.142
X30.8Y38.11
X32.01Y37.7
X32.099Y37.656
X33.229Y37.1
X33.3Y37.055
X34.299Y36.387
X34.4Y36.318
X35.399Y35.441
X35.441Y35.399
X36.318Y34.4
X36.387Y34.299
X37.055Y33.3
X37.1Y33.229
X37.656Y32.099
X37.7Y32.01
X38.11Y30.8
X38.142Y30.7
X38.401Y29.4
X38.411Y29.3
X38.496Y28
X38.411Y26.7
X38.401Y26.6
X38.142Y25.3
X38.11Y25.2
X37.7Y23.989
X37.656Y23.9
X37.1Y22.77
X37.055Y22.7
X36.387Y21.7
X36.318Y21.6
X35.441Y20.6
X35.399Y20.558
X34.4Y19.681
X34.299Y19.612
X33.3Y18.944
X33.229Y18.9
X32.099Y18.343
X32.01Y18.3
X30.8Y17.889
X30.7Y17.857
X29.4Y17.598
X29.3Y17.588
X28Y17.503
X26.7Y17.588
X26.6Y17.598
X25.3Y17.857
X25.2Y17.889
X23.989Y18.3
X23.9Y18.343
X22.77Y18.9
X22.7Y18.944
X21.7Y19.612
X21.6Y19.681
X20.6Y20.558
X20.558Y20.6
Z-18F500
X19.681Y21.6F1000
X19.612Y21.7
X18.944Y22.7
X18.9Y22.77
X18.343Y23.9
X18.3Y23.989
X17.889Y25.2
X17.857Y25.3
X17.598Y26.6
X17.588Y26.7
X17.503Y28
X17.588Y29.3
X17.598Y29.4
X17.857Y30.7
X17.889Y30.8
X18.3Y32.01
X18.343Y32.099
X18.9Y33.229
X18.944Y33.3
X19.612Y34.299
X19.681Y34.4
X20.558Y35.399
X20.6Y35.441
X21.6Y36.318
X21.7Y36.387
X22.7Y37.055
X22.77Y37.1
X23.9Y37.656
X23.989Y37.7
X25.2Y38.11
X25.3Y38.142
X26.6Y38.401
X26.7Y38.411
X28Y38.496
X29.3Y38.411
X29.4Y38.401
X30.7Y38.142
X30.8Y38.11
X32.01Y37.7
X32.099Y37.656
X33.229Y37.1
X33.3Y37.055
X34.299Y36.387
X34.4Y36.318
X35.399Y35.441
X35.441Y35.399
X36.318Y34.4
X36.387Y34.299
X37.055Y33.3
X37.1Y33.229
X37.656Y32.099
X37.7Y32.01
X38.11Y30.8
X38.142Y30.7
X38.401Y29.4
X38.411Y29.3
X38.496Y28
X38.411Y26.7
X38.401Y26.6
X38.142Y25.3
X38.11Y25.2
X37.7Y23.989
X37.656Y23.9
X37.1Y22.77
X37.055Y22.7
X36.387Y21.7
X36.318Y21.6
X35.441Y20.6
X35.399Y20.558
X34.4Y19.681
X34.299Y19.612
X33.3Y18.944
X33.229Y18.9
X32.099Y18.343
X32.01Y18.3
X30.8Y17.889
X30.7Y17.857
X29.4Y17.598
X29.3Y17.588
X28Y17.503
X26.7Y17.588
X26.6Y17.598
X25.3Y17.857
X25.2Y17.889
X23.989Y18.3
X23.9Y18.343
X22.77Y18.9
X22.7Y18.944
X21.7Y19.612
X21.6Y19.681
X20.6Y20.558
X20.558Y20.6
G0Z10
 
