(Created with grbl post processor 2024/12/21 15:57)
G21
(G-code Generated with Fabex and NC library)
G17G90
S12000M03
G00 Z10.0

G0X0Y0Z10
X10.774Y9.574
G1Z-3.1F500
X10.975F1000
X12.374Y8.175
X15.174Y6.275
X18.375Y4.675
X21.274Y3.674
X24.274Y3.074
X28.974Y2.875
X31.774Y3.074
X34.775Y3.674
X37.674Y4.675
X40.874Y6.275
X43.274Y7.874
X46.474Y10.774
Y10.975
X48.175Y12.774
X49.774Y15.174
X51.374Y18.375
X52.375Y21.274
X52.974Y24.274
X53.174Y28.974
X52.974Y31.774
X52.375Y34.775
X51.374Y37.674
X49.774Y40.874
X48.175Y43.274
X45.274Y46.474
X45.074
X43.274Y48.175
X40.874Y49.774
X37.674Y51.374
X34.775Y52.375
X31.774Y52.974
X27.074Y53.174
X24.274Y52.974
X21.274Y52.375
X18.375Y51.374
X15.174Y49.774
X12.774Y48.175
X9.574Y45.274
X8.874Y44.274
X8.175Y43.674
X6.275Y40.874
X4.675Y37.674
X3.674Y34.775
X3.074Y31.774
X2.875Y27.074
X3.074Y24.274
X3.674Y21.274
X4.675Y18.375
X6.275Y15.174
X7.874Y12.774
X10.774Y9.574
G0Z10
X18.174Y16.974
G1Z-3.1F500
X16.275Y18.974F1000
X14.974Y20.974
X13.675Y24.274
X13.175Y27.474
X13.274Y29.774
X14.274Y33.574
X15.074Y35.274
X16.974Y37.875
X18.974Y39.774
X20.974Y41.074
X24.274Y42.374
X27.474Y42.874
X29.774Y42.774
X33.574Y41.774
X35.274Y40.974
X37.875Y39.074
X39.774Y37.074
X41.074Y35.074
X42.374Y31.774
X42.874Y28.475
X42.774Y26.275
X41.774Y22.474
X40.974Y20.775
X39.074Y18.174
X37.074Y16.275
X35.074Y14.974
X31.774Y13.675
X28.574Y13.175
X26.275Y13.274
X22.474Y14.274
X20.775Y15.074
X18.174Y16.974
G0Z10
X9.875Y8.775
G1Z-4.1F500
X10.074F1000
X11.975Y6.974
X14.674Y5.175
X17.874Y3.575
X21.174Y2.475
X24.174Y1.874
X28.974Y1.674
X31.874Y1.874
X34.874Y2.475
X38.174Y3.575
X41.375Y5.175
X44.074Y6.974
X47.274Y9.875
Y10.074
X49.075Y11.975
X50.874Y14.674
X52.474Y17.874
X53.574Y21.174
X54.174Y24.174
X54.374Y28.974
X54.174Y31.874
X53.574Y34.874
X52.474Y38.174
X50.874Y41.375
X49.075Y44.074
X46.174Y47.274
X45.975
X44.074Y49.075
X41.375Y50.874
X38.174Y52.474
X34.874Y53.574
X31.874Y54.174
X27.074Y54.374
X24.174Y54.174
X21.174Y53.574
X17.874Y52.474
X14.674Y50.874
X11.975Y49.075
X8.775Y46.174
Y45.975
X6.974Y44.074
X5.175Y41.375
X3.575Y38.174
X2.475Y34.874
X1.874Y31.874
X1.674Y27.074
X1.874Y24.174
X2.475Y21.174
X3.575Y17.874
X5.175Y14.674
X6.974Y11.975
X9.875Y8.775
G0Z10
X19.074Y17.774
G1Z-4.1F500
X17.174Y19.774F1000
X15.474Y22.674
X14.775Y24.874
X14.374Y27.474
X14.474Y29.674
X15.474Y33.374
X16.175Y34.775
X17.774Y36.975
X19.774Y38.874
X22.674Y40.574
X24.874Y41.274
X27.474Y41.674
X29.674Y41.575
X33.374Y40.574
X34.775Y39.874
X36.975Y38.275
X38.874Y36.274
X40.574Y33.374
X41.274Y31.174
X41.674Y28.475
X41.575Y26.374
X40.574Y22.674
X39.874Y21.274
X38.275Y19.074
X36.274Y17.174
X33.374Y15.474
X31.174Y14.775
X28.574Y14.374
X26.374Y14.474
X22.674Y15.474
X21.274Y16.175
X19.074Y17.774
G0Z10
X9.275Y7.974
G1Z-5.1F500
X9.474F1000
X11.374Y6.174
X14.074Y4.375
X17.475Y2.674
X20.675Y1.575
X24.075Y0.875
X28.974Y0.674
X31.974Y0.875
X34.975Y1.474
X38.574Y2.674
X41.974Y4.375
X44.675Y6.174
X48.074Y9.275
Y9.474
X49.874Y11.374
X51.674Y14.074
X53.374Y17.475
X54.474Y20.675
X55.174Y24.075
X55.374Y28.974
X55.174Y31.974
X54.575Y34.975
X53.374Y38.574
X51.674Y41.974
X49.874Y44.675
X46.774Y48.074
X46.574
X44.675Y49.874
X41.974Y51.674
X38.574Y53.374
X35.374Y54.474
X31.974Y55.174
X27.074Y55.374
X24.075Y55.174
X21.074Y54.575
X17.475Y53.374
X14.074Y51.674
X11.374Y49.874
X7.974Y46.774
Y46.574
X6.174Y44.675
X4.375Y41.974
X2.674Y38.574
X1.575Y35.374
X0.875Y31.974
X0.674Y27.074
X0.875Y24.075
X1.474Y21.074
X2.674Y17.475
X4.375Y14.074
X6.174Y11.374
X9.275Y7.974
G0Z10
X19.675Y18.575
G1Z-5.1F500
X17.974Y20.374F1000
X16.874Y22.074
X15.774Y24.874
X15.374Y27.375
X15.474Y29.575
X16.074Y32.074
X16.974Y34.174
X18.575Y36.374
X20.374Y38.075
X22.074Y39.175
X24.874Y40.275
X27.474Y40.674
X29.575Y40.574
X32.074Y39.974
X34.174Y39.074
X36.374Y37.474
X38.075Y35.675
X39.175Y33.974
X40.275Y31.174
X40.674Y28.475
X40.574Y26.474
X39.974Y23.975
X39.074Y21.875
X37.474Y19.675
X35.675Y17.974
X33.974Y16.874
X31.174Y15.774
X28.674Y15.374
X26.474Y15.474
X23.975Y16.074
X21.875Y16.974
X19.675Y18.575
G0Z10
X8.675Y7.174
G1Z-6.1F500
X8.874F1000
X10.774Y5.374
X13.774Y3.374
X17.275Y1.674
X20.474Y0.574
X23.474Y-0.025
X28.974Y-0.325
X31.974Y-0.125
X35.574Y0.574
X38.774Y1.674
X41.575Y3.174
X42.274Y3.374
X45.274Y5.374
X48.874Y8.675
Y8.874
X50.674Y10.774
X52.674Y13.774
X52.874Y14.474
X54.374Y17.275
X55.474Y20.474
X56.074Y23.474
X56.374Y28.974
X56.174Y31.974
X55.474Y35.574
X54.374Y38.774
X52.874Y41.575
X52.674Y42.274
X50.674Y45.274
X47.374Y48.874
X47.174
X45.274Y50.674
X42.274Y52.674
X41.575Y52.874
X38.774Y54.374
X35.574Y55.474
X32.575Y56.074
X27.074Y56.374
X24.075Y56.174
X20.474Y55.474
X17.275Y54.374
X14.474Y52.874
X13.774Y52.674
X10.774Y50.674
X7.174Y47.374
Y47.174
X5.374Y45.274
X3.374Y42.274
X3.174Y41.575
X1.674Y38.774
X0.574Y35.574
X-0.025Y32.575
X-0.325Y27.074
X-0.125Y24.075
X0.574Y20.474
X1.674Y17.275
X3.374Y13.774
X5.374Y10.774
X8.675Y7.174
G0Z10
X20.274Y19.374
G1Z-6.1F500
X18.774Y20.974F1000
X17.275Y23.574
X16.674Y25.474
X16.375Y27.474
X16.474Y29.575
X17.275Y32.474
X17.974Y33.875
X19.374Y35.774
X20.974Y37.274
X23.574Y38.774
X25.474Y39.375
X27.474Y39.674
X29.575Y39.574
X32.474Y38.774
X33.875Y38.075
X35.774Y36.674
X37.274Y35.074
X38.774Y32.474
X39.375Y30.574
X39.674Y28.475
X39.574Y26.474
X38.774Y23.574
X38.075Y22.174
X36.674Y20.274
X35.074Y18.774
X32.474Y17.275
X30.574Y16.674
X28.574Y16.375
X26.474Y16.474
X23.574Y17.275
X22.174Y17.974
X20.274Y19.374
G0Z10
X7.174Y8.274
G1Z-7.1F500
X10.574Y5.175F1000
X13.974Y2.974
X14.274
X17.074Y1.474
X20.274Y0.375
X24.574Y-0.425
X31.475
X35.774Y0.375
X38.975Y1.474
X41.774Y2.974
X42.475Y3.174
X45.474Y5.175
X47.574Y7.174
X47.774
X50.874Y10.574
X53.074Y13.974
Y14.274
X54.575Y17.074
X55.675Y20.274
X56.474Y24.574
Y31.475
X55.675Y35.774
X54.575Y38.975
X53.074Y41.774
X52.874Y42.475
X50.874Y45.474
X48.874Y47.574
Y47.774
X45.474Y50.874
X42.074Y53.074
X41.774
X38.975Y54.575
X35.774Y55.675
X31.475Y56.474
X24.574
X20.274Y55.675
X17.074Y54.575
X14.274Y53.074
X13.574Y52.874
X10.574Y50.874
X8.474Y48.874
X8.274
X5.175Y45.474
X2.974Y42.074
Y41.774
X1.474Y38.975
X0.375Y35.774
X-0.425Y31.475
X-0.525Y26.074
X-0.325Y23.674
X0.375Y20.274
X1.474Y17.074
X2.974Y14.274
X3.174Y13.574
X5.175Y10.574
X7.174Y8.474
Y8.274
G0Z10
X19.374Y20.675
G1Z-7.1F500
X18.174Y22.374F1000
X17.074Y24.974
X16.674Y26.974
Y29.074
X17.074Y31.074
X18.174Y33.675
X19.374Y35.374
X20.675Y36.674
X22.374Y37.875
X24.974Y38.975
X26.974Y39.375
X29.074
X31.074Y38.975
X33.675Y37.875
X35.374Y36.674
X36.674Y35.374
X37.875Y33.675
X38.975Y31.074
X39.375Y28.974
Y26.974
X38.975Y24.974
X37.875Y22.374
X36.674Y20.675
X35.374Y19.374
X33.675Y18.174
X31.074Y17.074
X29.074Y16.674
X26.974
X24.974Y17.074
X22.374Y18.174
X20.675Y19.374
X19.374Y20.675
G0Z10
X7.074Y7.974
G1Z-8.1F500
X10.375Y4.974F1000
X13.774Y2.774
X14.074
X17.074Y1.175
X20.374Y0.075
X23.774Y-0.625
X26.574Y-0.825
X32.274Y-0.625
X35.675Y0.075
X38.975Y1.175
X41.974Y2.774
X42.675Y2.974
X45.674Y4.974
X46.274Y5.674
X48.074Y7.074
X51.074Y10.375
X53.274Y13.774
Y14.074
X54.874Y17.074
X55.974Y20.374
X56.674Y23.774
X56.874Y26.574
X56.674Y32.274
X55.974Y35.675
X54.874Y38.975
X53.274Y41.974
X53.074Y42.675
X51.074Y45.674
X48.974Y47.874
Y48.074
X45.674Y51.074
X42.274Y53.274
X41.974
X38.975Y54.874
X35.675Y55.974
X32.274Y56.674
X29.474Y56.874
X23.774Y56.674
X20.374Y55.974
X17.074Y54.874
X14.074Y53.274
X13.374Y53.074
X10.375Y51.074
X8.175Y48.974
X7.974
X4.974Y45.674
X2.774Y42.274
Y41.974
X1.175Y38.975
X0.075Y35.675
X-0.625Y32.274
X-0.825Y26.574
X-0.625Y23.774
X0.075Y20.374
X1.175Y17.074
X2.774Y14.074
X2.974Y13.374
X4.974Y10.375
X6.374Y8.974
X7.074Y7.974
G0Z10
X20.174Y20.174
G1Z-8.1F500
Y20.374F1000
X19.074Y21.474
X17.774Y23.774
X17.275Y25.274
X16.874Y27.974
X17.275Y30.774
X17.774Y32.274
X18.475Y33.675
X20.174Y35.875
X20.374
X21.775Y37.175
X23.774Y38.275
X25.274Y38.774
X27.974Y39.175
X30.774Y38.774
X32.274Y38.275
X33.675Y37.574
X35.875Y35.875
X37.574Y33.675
X38.275Y32.274
X39.074Y29.174
Y26.774
X38.275Y23.774
X37.374Y22.074
X35.875Y20.174
X33.675Y18.475
X32.274Y17.774
X30.774Y17.275
X28.074Y16.874
X25.274Y17.275
X23.774Y17.774
X21.474Y19.074
X20.374Y20.174
X20.174
G0Z10
X7.574Y7.074
G1Z-9.1F500
X7.774F1000
X9.974Y4.974
X13.074Y2.875
X16.874Y0.975
X20.374Y-0.225
X23.975Y-0.925
X28.974Y-1.125
X32.074Y-0.925
X35.675Y-0.225
X39.175Y0.975
X42.974Y2.875
X45.674Y4.675
X48.974Y7.574
Y7.774
X51.074Y9.974
X53.174Y13.074
X55.074Y16.874
X56.274Y20.374
X56.975Y23.975
X57.174Y28.974
X56.975Y32.074
X56.274Y35.675
X55.074Y39.175
X53.174Y42.974
X51.374Y45.674
X48.474Y48.974
X48.274
X46.074Y51.074
X42.974Y53.174
X39.175Y55.074
X35.675Y56.274
X32.074Y56.975
X27.074Y57.174
X23.975Y56.975
X20.374Y56.274
X16.874Y55.074
X13.074Y53.174
X10.375Y51.374
X7.074Y48.474
X5.674Y46.674
X4.974Y46.074
X2.875Y42.974
X0.975Y39.175
X-0.225Y35.675
X-0.925Y32.074
X-1.125Y27.074
X-0.925Y23.975
X-0.225Y20.374
X0.975Y16.874
X2.875Y13.074
X4.675Y10.375
X7.574Y7.074
G0Z10
X20.574Y20.174
G1Z-9.1F500
X19.474Y21.374F1000
X17.974Y23.975
X17.475Y25.574
X17.174Y27.474
X17.275Y29.474
X17.974Y32.074
X18.674Y33.475
X20.174Y35.474
X21.374Y36.574
X23.975Y38.075
X25.574Y38.574
X27.474Y38.874
X29.474Y38.774
X32.074Y38.075
X33.475Y37.374
X35.474Y35.875
X36.574Y34.674
X38.075Y32.074
X38.574Y30.474
X38.874Y28.475
X38.774Y26.574
X38.075Y23.975
X37.374Y22.574
X35.875Y20.574
X34.674Y19.474
X32.074Y17.974
X30.474Y17.475
X28.574Y17.174
X26.574Y17.275
X23.975Y17.974
X22.574Y18.674
X20.574Y20.174
G0Z10
X7.974Y6.374
G1Z-10.1F500
X8.175F1000
X10.174Y4.474
X12.874Y2.674
X16.874Y0.674
X20.174Y-0.425
X23.574Y-1.125
X28.574Y-1.425
X32.474Y-1.125
X35.875Y-0.425
X39.175Y0.674
X43.174Y2.674
X45.874Y4.474
X49.674Y7.974
Y8.175
X51.574Y10.174
X53.374Y12.874
X55.374Y16.874
X56.474Y20.174
X57.174Y23.574
X57.374Y25.974
Y30.074
X57.174Y32.474
X56.474Y35.875
X55.374Y39.175
X53.374Y43.174
X51.174Y46.374
X48.374Y49.374
X46.374Y51.174
X43.174Y53.374
X39.175Y55.374
X35.875Y56.474
X31.574Y57.274
X25.974Y57.374
X23.574Y57.174
X20.574Y56.574
X16.874Y55.374
X12.874Y53.374
X10.174Y51.574
X6.374Y48.074
Y47.874
X4.474Y45.874
X2.674Y43.174
X0.674Y39.175
X-0.425Y35.875
X-1.125Y32.474
X-1.425Y27.474
X-1.125Y23.574
X-0.425Y20.174
X0.674Y16.874
X2.674Y12.874
X4.474Y10.174
X7.974Y6.374
G0Z10
X20.274Y20.874
G1Z-10.1F500
X18.874Y22.774F1000
X17.874Y25.175
X17.475Y26.974
Y29.074
X17.774Y30.574
X18.274Y32.074
X19.675Y34.474
X20.874Y35.774
X22.774Y37.175
X24.274Y37.875
X26.974Y38.574
X29.074
X30.574Y38.275
X32.074Y37.774
X34.474Y36.374
X35.774Y35.174
X37.175Y33.274
X38.275Y30.574
X38.574Y28.974
Y26.974
X38.275Y25.474
X37.774Y23.975
X36.374Y21.574
X35.174Y20.274
X33.274Y18.874
X32.074Y18.274
X29.074Y17.475
X26.974
X25.474Y17.774
X23.975Y18.274
X21.574Y19.675
X20.274Y20.874
G0Z10
X7.974Y6.374
G1Z-11.1F500
X8.175F1000
X10.174Y4.474
X12.874Y2.674
X16.874Y0.674
X20.174Y-0.425
X23.574Y-1.125
X28.574Y-1.425
X32.474Y-1.125
X35.875Y-0.425
X39.175Y0.674
X43.174Y2.674
X45.874Y4.474
X49.674Y7.974
Y8.175
X51.574Y10.174
X53.374Y12.874
X55.374Y16.874
X56.474Y20.174
X57.174Y23.574
X57.374Y25.974
Y30.074
X57.174Y32.474
X56.474Y35.875
X55.374Y39.175
X53.374Y43.174
X51.174Y46.374
X48.374Y49.374
X46.374Y51.174
X43.174Y53.374
X39.175Y55.374
X35.875Y56.474
X31.574Y57.274
X25.974Y57.374
X23.574Y57.174
X20.574Y56.574
X16.874Y55.374
X12.874Y53.374
X10.174Y51.574
X6.374Y48.074
Y47.874
X4.474Y45.874
X2.674Y43.174
X0.674Y39.175
X-0.425Y35.875
X-1.125Y32.474
X-1.425Y27.474
X-1.125Y23.574
X-0.425Y20.174
X0.674Y16.874
X2.674Y12.874
X4.474Y10.174
X7.974Y6.374
G0Z10
X20.274Y20.874
G1Z-11.1F500
X18.874Y22.774F1000
X17.874Y25.175
X17.475Y26.974
Y29.074
X17.774Y30.574
X18.274Y32.074
X19.675Y34.474
X20.874Y35.774
X22.774Y37.175
X24.274Y37.875
X26.974Y38.574
X29.074
X30.574Y38.275
X32.074Y37.774
X34.474Y36.374
X35.774Y35.174
X37.175Y33.274
X38.275Y30.574
X38.574Y28.974
Y26.974
X38.275Y25.474
X37.774Y23.975
X36.374Y21.574
X35.174Y20.274
X33.274Y18.874
X32.074Y18.274
X29.074Y17.475
X26.974
X25.474Y17.774
X23.975Y18.274
X21.574Y19.675
X20.274Y20.874
G0Z10
X7.974Y6.374
G1Z-12.1F500
X8.175F1000
X10.174Y4.474
X12.874Y2.674
X16.874Y0.674
X20.174Y-0.425
X23.574Y-1.125
X28.574Y-1.425
X32.474Y-1.125
X35.875Y-0.425
X39.175Y0.674
X43.174Y2.674
X45.874Y4.474
X49.674Y7.974
Y8.175
X51.574Y10.174
X53.374Y12.874
X55.374Y16.874
X56.474Y20.174
X57.174Y23.574
X57.374Y25.974
Y30.074
X57.174Y32.474
X56.474Y35.875
X55.374Y39.175
X53.374Y43.174
X51.174Y46.374
X48.374Y49.374
X46.374Y51.174
X43.174Y53.374
X39.175Y55.374
X35.875Y56.474
X31.574Y57.274
X25.974Y57.374
X23.574Y57.174
X20.574Y56.574
X16.874Y55.374
X12.874Y53.374
X10.174Y51.574
X6.374Y48.074
Y47.874
X4.474Y45.874
X2.674Y43.174
X0.674Y39.175
X-0.425Y35.875
X-1.125Y32.474
X-1.425Y27.474
X-1.125Y23.574
X-0.425Y20.174
X0.674Y16.874
X2.674Y12.874
X4.474Y10.174
X7.974Y6.374
G0Z10
X20.274Y20.874
G1Z-12.1F500
X18.874Y22.774F1000
X17.874Y25.175
X17.475Y26.974
Y29.074
X17.774Y30.574
X18.274Y32.074
X19.675Y34.474
X20.874Y35.774
X22.774Y37.175
X24.274Y37.875
X26.974Y38.574
X29.074
X30.574Y38.275
X32.074Y37.774
X34.474Y36.374
X35.774Y35.174
X37.175Y33.274
X38.275Y30.574
X38.574Y28.974
Y26.974
X38.275Y25.474
X37.774Y23.975
X36.374Y21.574
X35.174Y20.274
X33.274Y18.874
X32.074Y18.274
X29.074Y17.475
X26.974
X25.474Y17.774
X23.975Y18.274
X21.574Y19.675
X20.274Y20.874
G0Z10
X7.974Y6.374
G1Z-13.1F500
X8.175F1000
X10.174Y4.474
X12.874Y2.674
X16.874Y0.674
X20.174Y-0.425
X23.574Y-1.125
X28.574Y-1.425
X32.474Y-1.125
X35.875Y-0.425
X39.175Y0.674
X43.174Y2.674
X45.874Y4.474
X49.674Y7.974
Y8.175
X51.574Y10.174
X53.374Y12.874
X55.374Y16.874
X56.474Y20.174
X57.174Y23.574
X57.374Y25.974
Y30.074
X57.174Y32.474
X56.474Y35.875
X55.374Y39.175
X53.374Y43.174
X51.174Y46.374
X48.374Y49.374
X46.374Y51.174
X43.174Y53.374
X39.175Y55.374
X35.875Y56.474
X31.574Y57.274
X25.974Y57.374
X23.574Y57.174
X20.574Y56.574
X16.874Y55.374
X12.874Y53.374
X10.174Y51.574
X6.374Y48.074
Y47.874
X4.474Y45.874
X2.674Y43.174
X0.674Y39.175
X-0.425Y35.875
X-1.125Y32.474
X-1.425Y27.474
X-1.125Y23.574
X-0.425Y20.174
X0.674Y16.874
X2.674Y12.874
X4.474Y10.174
X7.974Y6.374
G0Z10
X20.274Y20.874
G1Z-13.1F500
X18.874Y22.774F1000
X17.874Y25.175
X17.475Y26.974
Y29.074
X17.774Y30.574
X18.274Y32.074
X19.675Y34.474
X20.874Y35.774
X22.774Y37.175
X24.274Y37.875
X26.974Y38.574
X29.074
X30.574Y38.275
X32.074Y37.774
X34.474Y36.374
X35.774Y35.174
X37.175Y33.274
X38.275Y30.574
X38.574Y28.974
Y26.974
X38.275Y25.474
X37.774Y23.975
X36.374Y21.574
X35.174Y20.274
X33.274Y18.874
X32.074Y18.274
X29.074Y17.475
X26.974
X25.474Y17.774
X23.975Y18.274
X21.574Y19.675
X20.274Y20.874
G0Z10
X7.974Y6.374
G1Z-14.1F500
X8.175F1000
X10.174Y4.474
X12.874Y2.674
X16.874Y0.674
X20.174Y-0.425
X23.574Y-1.125
X28.574Y-1.425
X32.474Y-1.125
X35.875Y-0.425
X39.175Y0.674
X43.174Y2.674
X45.874Y4.474
X49.674Y7.974
Y8.175
X51.574Y10.174
X53.374Y12.874
X55.374Y16.874
X56.474Y20.174
X57.174Y23.574
X57.374Y25.974
Y30.074
X57.174Y32.474
X56.474Y35.875
X55.374Y39.175
X53.374Y43.174
X51.174Y46.374
X48.374Y49.374
X46.374Y51.174
X43.174Y53.374
X39.175Y55.374
X35.875Y56.474
X31.574Y57.274
X25.974Y57.374
X23.574Y57.174
X20.574Y56.574
X16.874Y55.374
X12.874Y53.374
X10.174Y51.574
X6.374Y48.074
Y47.874
X4.474Y45.874
X2.674Y43.174
X0.674Y39.175
X-0.425Y35.875
X-1.125Y32.474
X-1.425Y27.474
X-1.125Y23.574
X-0.425Y20.174
X0.674Y16.874
X2.674Y12.874
X4.474Y10.174
X7.974Y6.374
G0Z10
X20.274Y20.874
G1Z-14.1F500
X18.874Y22.774F1000
X17.874Y25.175
X17.475Y26.974
Y29.074
X17.774Y30.574
X18.274Y32.074
X19.675Y34.474
X20.874Y35.774
X22.774Y37.175
X24.274Y37.875
X26.974Y38.574
X29.074
X30.574Y38.275
X32.074Y37.774
X34.474Y36.374
X35.774Y35.174
X37.175Y33.274
X38.275Y30.574
X38.574Y28.974
Y26.974
X38.275Y25.474
X37.774Y23.975
X36.374Y21.574
X35.174Y20.274
X33.274Y18.874
X32.074Y18.274
X29.074Y17.475
X26.974
X25.474Y17.774
X23.975Y18.274
X21.574Y19.675
X20.274Y20.874
G0Z10
X7.974Y6.374
G1Z-15.1F500
X8.175F1000
X10.174Y4.474
X12.874Y2.674
X16.874Y0.674
X20.174Y-0.425
X23.574Y-1.125
X28.574Y-1.425
X32.474Y-1.125
X35.875Y-0.425
X39.175Y0.674
X43.174Y2.674
X45.874Y4.474
X49.674Y7.974
Y8.175
X51.574Y10.174
X53.374Y12.874
X55.374Y16.874
X56.474Y20.174
X57.174Y23.574
X57.374Y25.974
Y30.074
X57.174Y32.474
X56.474Y35.875
X55.374Y39.175
X53.374Y43.174
X51.174Y46.374
X48.374Y49.374
X46.374Y51.174
X43.174Y53.374
X39.175Y55.374
X35.875Y56.474
X31.574Y57.274
X25.974Y57.374
X23.574Y57.174
X20.574Y56.574
X16.874Y55.374
X12.874Y53.374
X10.174Y51.574
X6.374Y48.074
Y47.874
X4.474Y45.874
X2.674Y43.174
X0.674Y39.175
X-0.425Y35.875
X-1.125Y32.474
X-1.425Y27.474
X-1.125Y23.574
X-0.425Y20.174
X0.674Y16.874
X2.674Y12.874
X4.474Y10.174
X7.974Y6.374
G0Z10
X20.274Y20.874
G1Z-15.1F500
X18.874Y22.774F1000
X17.874Y25.175
X17.475Y26.974
Y29.074
X17.774Y30.574
X18.274Y32.074
X19.675Y34.474
X20.874Y35.774
X22.774Y37.175
X24.274Y37.875
X26.974Y38.574
X29.074
X30.574Y38.275
X32.074Y37.774
X34.474Y36.374
X35.774Y35.174
X37.175Y33.274
X38.275Y30.574
X38.574Y28.974
Y26.974
X38.275Y25.474
X37.774Y23.975
X36.374Y21.574
X35.174Y20.274
X33.274Y18.874
X32.074Y18.274
X29.074Y17.475
X26.974
X25.474Y17.774
X23.975Y18.274
X21.574Y19.675
X20.274Y20.874
G0Z10
X7.974Y6.374
G1Z-16.1F500
X8.175F1000
X10.174Y4.474
X12.874Y2.674
X16.874Y0.674
X20.174Y-0.425
X23.574Y-1.125
X28.574Y-1.425
X32.474Y-1.125
X35.875Y-0.425
X39.175Y0.674
X43.174Y2.674
X45.874Y4.474
X49.674Y7.974
Y8.175
X51.574Y10.174
X53.374Y12.874
X55.374Y16.874
X56.474Y20.174
X57.174Y23.574
X57.374Y25.974
Y30.074
X57.174Y32.474
X56.474Y35.875
X55.374Y39.175
X53.374Y43.174
X51.174Y46.374
X48.374Y49.374
X46.374Y51.174
X43.174Y53.374
X39.175Y55.374
X35.875Y56.474
X31.574Y57.274
X25.974Y57.374
X23.574Y57.174
X20.574Y56.574
X16.874Y55.374
X12.874Y53.374
X10.174Y51.574
X6.374Y48.074
Y47.874
X4.474Y45.874
X2.674Y43.174
X0.674Y39.175
X-0.425Y35.875
X-1.125Y32.474
X-1.425Y27.474
X-1.125Y23.574
X-0.425Y20.174
X0.674Y16.874
X2.674Y12.874
X4.474Y10.174
X7.974Y6.374
G0Z10
X20.274Y20.874
G1Z-16.1F500
X18.874Y22.774F1000
X17.874Y25.175
X17.475Y26.974
Y29.074
X17.774Y30.574
X18.274Y32.074
X19.675Y34.474
X20.874Y35.774
X22.774Y37.175
X24.274Y37.875
X26.974Y38.574
X29.074
X30.574Y38.275
X32.074Y37.774
X34.474Y36.374
X35.774Y35.174
X37.175Y33.274
X38.275Y30.574
X38.574Y28.974
Y26.974
X38.275Y25.474
X37.774Y23.975
X36.374Y21.574
X35.174Y20.274
X33.274Y18.874
X32.074Y18.274
X29.074Y17.475
X26.974
X25.474Y17.774
X23.975Y18.274
X21.574Y19.675
X20.274Y20.874
G0Z10
X7.974Y6.374
G1Z-17.1F500
X8.175F1000
X10.174Y4.474
X12.874Y2.674
X16.874Y0.674
X20.174Y-0.425
X23.574Y-1.125
X28.574Y-1.425
X32.474Y-1.125
X35.875Y-0.425
X39.175Y0.674
X43.174Y2.674
X45.874Y4.474
X49.674Y7.974
Y8.175
X51.574Y10.174
X53.374Y12.874
X55.374Y16.874
X56.474Y20.174
X57.174Y23.574
X57.374Y25.974
Y30.074
X57.174Y32.474
X56.474Y35.875
X55.374Y39.175
X53.374Y43.174
X51.174Y46.374
X48.374Y49.374
X46.374Y51.174
X43.174Y53.374
X39.175Y55.374
X35.875Y56.474
X31.574Y57.274
X25.974Y57.374
X23.574Y57.174
X20.574Y56.574
X16.874Y55.374
X12.874Y53.374
X10.174Y51.574
X6.374Y48.074
Y47.874
X4.474Y45.874
X2.674Y43.174
X0.674Y39.175
X-0.425Y35.875
X-1.125Y32.474
X-1.425Y27.474
X-1.125Y23.574
X-0.425Y20.174
X0.674Y16.874
X2.674Y12.874
X4.474Y10.174
X7.974Y6.374
G0Z10
X20.274Y20.874
G1Z-17.1F500
X18.874Y22.774F1000
X17.874Y25.175
X17.475Y26.974
Y29.074
X17.774Y30.574
X18.274Y32.074
X19.675Y34.474
X20.874Y35.774
X22.774Y37.175
X24.274Y37.875
X26.974Y38.574
X29.074
X30.574Y38.275
X32.074Y37.774
X34.474Y36.374
X35.774Y35.174
X37.175Y33.274
X38.275Y30.574
X38.574Y28.974
Y26.974
X38.275Y25.474
X37.774Y23.975
X36.374Y21.574
X35.174Y20.274
X33.274Y18.874
X32.074Y18.274
X29.074Y17.475
X26.974
X25.474Y17.774
X23.975Y18.274
X21.574Y19.675
X20.274Y20.874
G0Z10
X7.974Y6.374
G1Z-18.099F500
X8.175F1000
X10.174Y4.474
X12.874Y2.674
X16.874Y0.674
X20.174Y-0.425
X23.574Y-1.125
X28.574Y-1.425
X32.474Y-1.125
X35.875Y-0.425
X39.175Y0.674
X43.174Y2.674
X45.874Y4.474
X49.674Y7.974
Y8.175
X51.574Y10.174
X53.374Y12.874
X55.374Y16.874
X56.474Y20.174
X57.174Y23.574
X57.374Y25.974
Y30.074
X57.174Y32.474
X56.474Y35.875
X55.374Y39.175
X53.374Y43.174
X51.174Y46.374
X48.374Y49.374
X46.374Y51.174
X43.174Y53.374
X39.175Y55.374
X35.875Y56.474
X31.574Y57.274
X25.974Y57.374
X23.574Y57.174
X20.574Y56.574
X16.874Y55.374
X12.874Y53.374
X10.174Y51.574
X6.374Y48.074
Y47.874
X4.474Y45.874
X2.674Y43.174
X0.674Y39.175
X-0.425Y35.875
X-1.125Y32.474
X-1.425Y27.474
X-1.125Y23.574
X-0.425Y20.174
X0.674Y16.874
X2.674Y12.874
X4.474Y10.174
X7.974Y6.374
G0Z10
X20.274Y20.874
G1Z-18.099F500
X18.874Y22.774F1000
X17.874Y25.175
X17.475Y26.974
Y29.074
X17.774Y30.574
X18.274Y32.074
X19.675Y34.474
X20.874Y35.774
X22.774Y37.175
X24.274Y37.875
X26.974Y38.574
X29.074
X30.574Y38.275
X32.074Y37.774
X34.474Y36.374
X35.774Y35.174
X37.175Y33.274
X38.275Y30.574
X38.574Y28.974
Y26.974
X38.275Y25.474
X37.774Y23.975
X36.374Y21.574
X35.174Y20.274
X33.274Y18.874
X32.074Y18.274
X29.074Y17.475
X26.974
X25.474Y17.774
X23.975Y18.274
X21.574Y19.675
X20.274Y20.874
G0Z10
 
