(Created with grbl post processor 2024/12/21 15:57)
G21
(G-code Generated with Fabex and NC library)
G17G90
S12000M03
G00 Z10.0

G0X0Y0Z10
X13.491Y13.763
G1Z-2.101F500
X13.533Y13.738F1000
X13.595Y13.699
X13.657Y13.658
X13.717Y13.617
X13.776Y13.573
X13.834Y13.528
X13.891Y13.482
X13.947Y13.435
X14.002Y13.386
X14.038Y13.352
X15.752Y11.729
X16.268Y11.384
X16.435Y11.273Z-2.103
X17.766Y10.386
X18.52Y10.022Z-2.101
X18.7Y9.935
X18.88Y9.848
X19.421Y9.587Z-2.1
X19.601Y9.5
X20.321Y9.152
X22.374Y8.442
X22.563Y8.376
X22.787Y8.331
X23.375Y8.214Z-2.101
X24.748Y7.939
X24.944Y7.9
X25.14Y7.861Z-2.1
X26.411Y7.802
X26.611Y7.792
X29.008Y7.681
X30.843Y7.848
X31.133Y7.906Z-2.101
X32.702Y8.219
X32.898Y8.259
X33.094Y8.298
X33.486Y8.376Z-2.1
X35.728Y9.152
X36.302Y9.429
X36.842Y9.69Z-2.101
X37.203Y9.864
X37.383Y9.951
X37.563Y10.038
X37.743Y10.125Z-2.102
X37.923Y10.212
X38.103Y10.299Z-2.103
X38.283Y10.386
X39.504Y11.2
X39.671Y11.311Z-2.101
X39.837Y11.422
X40.336Y11.755
X42.286Y13.491
X42.331Y13.564
X42.37Y13.626
X42.411Y13.687
X42.454Y13.747
X42.498Y13.805
X42.544Y13.863
X42.59Y13.919
X42.639Y13.975
X42.697Y14.038
X44.32Y15.752
X44.665Y16.268
X44.776Y16.435Z-2.103
X45.663Y17.766
X46.027Y18.52Z-2.101
X46.114Y18.7
X46.201Y18.88
X46.462Y19.421Z-2.1
X46.549Y19.601
X46.897Y20.321
X47.607Y22.374
X47.673Y22.563
X47.718Y22.787
X47.796Y23.179Z-2.101
X48.11Y24.748
X48.149Y24.944
X48.188Y25.14Z-2.1
X48.247Y26.411
X48.257Y26.611
X48.368Y29.008
X48.201Y30.843
X48.143Y31.133Z-2.101
X47.83Y32.702
X47.79Y32.898
X47.751Y33.094
X47.673Y33.486Z-2.1
X46.897Y35.728
X46.62Y36.302
X46.359Y36.842Z-2.101
X46.185Y37.203
X46.098Y37.383
X46.011Y37.563
X45.924Y37.743Z-2.102
X45.837Y37.923
X45.75Y38.103Z-2.103
X45.663Y38.283
X44.849Y39.504
X44.627Y39.837Z-2.101
X44.294Y40.336
X42.558Y42.286
X42.485Y42.331
X42.423Y42.37
X42.362Y42.411
X42.302Y42.454
X42.244Y42.498
X42.186Y42.544
X42.13Y42.59
X42.074Y42.639
X42.011Y42.697
X40.297Y44.32
X39.781Y44.665
X39.614Y44.776Z-2.103
X38.283Y45.663
X37.709Y45.94Z-2.102
X37.529Y46.027Z-2.101
X37.349Y46.114
X37.169Y46.201
X36.808Y46.375
X36.268Y46.636Z-2.1
X35.728Y46.897
X33.486Y47.673
X33.066Y47.757Z-2.101
X31.105Y48.149
X30.909Y48.188Z-2.1
X29.638Y48.247
X27.041Y48.368
X26.6Y48.328
X26.401Y48.31
X25.206Y48.201
X25.112Y48.183
X24.916Y48.143Z-2.101
X23.347Y47.83
X22.563Y47.673Z-2.1
X22.4Y47.616
X20.321Y46.897
X19.567Y46.533
X19.207Y46.359Z-2.101
X18.846Y46.185
X18.666Y46.098
X18.486Y46.011
X18.306Y45.924Z-2.102
X17.766Y45.663Z-2.103
X16.545Y44.849
X16.378Y44.738Z-2.102
X16.212Y44.627Z-2.101
X15.713Y44.294
X13.763Y42.558
X13.718Y42.485
X13.679Y42.423
X13.638Y42.362
X13.595Y42.302
X13.551Y42.244
X13.505Y42.186
X13.459Y42.13
X13.41Y42.074
X13.352Y42.011
X11.729Y40.297
X11.384Y39.781
X11.273Y39.614Z-2.102
X10.386Y38.283Z-2.103
X10.109Y37.709Z-2.102
X10.022Y37.529Z-2.101
X9.935Y37.349
X9.848Y37.169
X9.674Y36.808
X9.413Y36.268Z-2.1
X9.152Y35.728
X8.376Y33.486
X8.292Y33.066Z-2.101
X8.253Y32.87
X8.214Y32.674
X7.9Y31.105
X7.861Y30.909Z-2.1
X7.802Y29.638
X7.681Y27.041
X7.721Y26.6
X7.739Y26.401
X7.848Y25.206
X7.866Y25.112
X7.906Y24.916Z-2.101
X8.219Y23.347
X8.376Y22.563Z-2.1
X8.433Y22.4
X9.152Y20.321
X9.516Y19.567
X9.69Y19.207Z-2.101
X9.864Y18.846
X9.951Y18.666
X10.038Y18.486
X10.125Y18.306Z-2.102
X10.386Y17.766Z-2.103
X11.2Y16.545
X11.311Y16.378Z-2.102
X11.422Y16.212Z-2.101
X11.755Y15.713
X13.491Y13.763
X13.994Y14.237
X12.517Y15.899
X12.472Y15.951
X12.428Y16.005
X12.386Y16.06
X12.344Y16.116
X12.304Y16.172
X12.278Y16.21
X11.966Y16.679
X11.855Y16.846Z-2.103
X11.065Y18.031
X11.025Y18.094
X10.986Y18.158
X10.949Y18.223Z-2.102
X10.914Y18.289
X10.875Y18.365
X10.786Y18.544
X10.696Y18.723Z-2.101
X10.607Y18.902
X10.517Y19.081
X10.338Y19.438
X10.16Y19.796Z-2.1
X9.881Y20.354
X9.85Y20.418
X9.821Y20.483
X9.794Y20.548
X9.768Y20.614
X9.744Y20.681
X9.724Y20.739
X9.092Y22.636
X9.021Y22.848
X9Y22.915
X8.981Y22.983
X8.963Y23.051Z-2.101
X8.947Y23.119
X8.932Y23.188
X8.92Y23.257
X8.908Y23.326
X8.902Y23.373
X8.696Y24.893
X8.643Y25.289Z-2.1
X8.482Y26.478
X8.455Y26.676
X8.398Y27.097
X8.39Y27.169
X8.384Y27.242
X8.379Y27.315
X8.376Y27.388
X8.375Y27.461
Y27.534
X8.377Y27.607
X8.38Y27.656
X8.483Y29.359
X8.495Y29.559
X8.568Y30.756
X8.582Y30.979Z-2.101
X8.587Y31.049
X8.594Y31.119
X8.603Y31.189
X8.614Y31.258
X8.626Y31.327
X8.64Y31.396
X8.655Y31.464
X8.672Y31.532
X8.684Y31.577
X8.935Y32.48
X9.149Y33.25Z-2.1
X9.691Y35.201
X9.711Y35.27
X9.734Y35.339
X9.758Y35.407
X9.783Y35.474
X9.811Y35.541
X9.84Y35.607
X9.87Y35.673
X9.907Y35.748
X10.086Y36.106
X10.176Y36.285
X10.265Y36.464
X10.355Y36.643Z-2.101
X10.712Y37.358
X10.802Y37.537Z-2.102
X10.902Y37.738
X10.937Y37.804
X10.974Y37.869Z-2.103
X11.012Y37.934
X11.051Y37.997
X11.078Y38.039
X11.835Y39.173
X11.946Y39.339Z-2.101
X12.292Y39.859
X12.334Y39.92
X12.378Y39.979
X12.424Y40.038
X12.47Y40.095
X12.518Y40.152
X12.568Y40.207
X12.619Y40.261
X12.653Y40.296
X13.41Y41.052
X13.449Y41.125
X13.486Y41.19
X13.524Y41.254
X13.564Y41.317
X13.606Y41.379
X13.649Y41.439
X13.693Y41.499
X13.739Y41.558
X13.787Y41.615
X13.836Y41.671
X13.886Y41.726
X13.937Y41.78
X13.99Y41.832
X14.045Y41.883
X14.088Y41.922
X15.899Y43.532
X15.951Y43.577
X16.005Y43.621
X16.06Y43.663
X16.116Y43.705
X16.172Y43.745
X16.21Y43.771
X16.679Y44.083
X16.846Y44.194Z-2.103
X18.031Y44.984
X18.094Y45.024
X18.158Y45.063Z-2.102
X18.223Y45.1
X18.289Y45.135
X18.365Y45.174
X18.902Y45.442Z-2.101
X19.081Y45.532
X19.617Y45.8Z-2.1
X19.796Y45.889
X20.354Y46.168
X20.418Y46.199
X20.483Y46.228
X20.548Y46.255
X20.614Y46.281
X20.681Y46.305
X20.739Y46.325
X22.636Y46.957
X22.848Y47.028
X22.915Y47.049
X22.983Y47.068
X23.051Y47.086Z-2.101
X23.119Y47.102
X23.188Y47.117
X23.257Y47.129
X23.326Y47.141
X23.373Y47.147
X24.893Y47.353
X25.091Y47.38Z-2.1
X26.478Y47.567
X26.676Y47.594
X27.097Y47.651
X27.169Y47.659
X27.242Y47.665
X27.315Y47.67
X27.388Y47.673
X27.461Y47.674
X27.534
X27.607Y47.672
X27.656Y47.669
X29.359Y47.566
X29.559Y47.554
X30.756Y47.481
X30.979Y47.467Z-2.101
X31.049Y47.462
X31.119Y47.455
X31.189Y47.446
X31.258Y47.435
X31.327Y47.423
X31.396Y47.409
X31.464Y47.394
X31.532Y47.377
X31.577Y47.365
X32.48Y47.114
X33.443Y46.847Z-2.1
X35.201Y46.358
X35.27Y46.338
X35.339Y46.315
X35.407Y46.291
X35.474Y46.266
X35.541Y46.238
X35.607Y46.209
X35.673Y46.179
X35.748Y46.142
X36.106Y45.963
X36.285Y45.873
X36.464Y45.784
X36.643Y45.694Z-2.101
X37.001Y45.516
X37.179Y45.426
X37.358Y45.337
X37.537Y45.247Z-2.102
X37.738Y45.147
X37.804Y45.112
X37.869Y45.075
X37.934Y45.037Z-2.103
X37.997Y44.998
X38.039Y44.971
X39.173Y44.214
X39.339Y44.103Z-2.101
X39.859Y43.757
X39.92Y43.715
X39.979Y43.671
X40.038Y43.625
X40.095Y43.579
X40.152Y43.531
X40.207Y43.481
X40.261Y43.43
X40.295Y43.396
X41.054Y42.639
X41.125Y42.6
X41.19Y42.563
X41.254Y42.525
X41.317Y42.485
X41.379Y42.443
X41.439Y42.4
X41.499Y42.356
X41.558Y42.31
X41.615Y42.262
X41.671Y42.213
X41.726Y42.163
X41.78Y42.112
X41.832Y42.059
X41.883Y42.004
X41.922Y41.961
X43.532Y40.15
X43.577Y40.098
X43.621Y40.044
X43.663Y39.989
X43.705Y39.933
X43.745Y39.877
X43.771Y39.839
X44.083Y39.37
X44.194Y39.203Z-2.103
X44.984Y38.018
X45.024Y37.955
X45.063Y37.891
X45.1Y37.826Z-2.102
X45.135Y37.76
X45.174Y37.684
X45.263Y37.505
X45.353Y37.326Z-2.101
X45.442Y37.147
X45.532Y36.968
X45.711Y36.611
X45.979Y36.074Z-2.1
X46.168Y35.695
X46.199Y35.631
X46.228Y35.566
X46.255Y35.501
X46.281Y35.435
X46.305Y35.368
X46.325Y35.31
X46.957Y33.413
X47.028Y33.2
X47.049Y33.132
X47.069Y33.063
X47.087Y32.994
X47.103Y32.924Z-2.101
X47.118Y32.854
X47.131Y32.784
X47.142Y32.713
X47.153Y32.633
X47.362Y31.047
X47.388Y30.849Z-2.1
X47.571Y29.461
X47.652Y28.842
X47.66Y28.77
X47.666Y28.698
X47.671Y28.625
X47.673Y28.553
X47.674Y28.48
Y28.408
X47.671Y28.336
X47.668Y28.281
X47.568Y26.684
X47.556Y26.485
X47.467Y25.061
X47.46Y24.983Z-2.101
X47.452Y24.906
X47.441Y24.828
X47.428Y24.751
X47.414Y24.674
X47.397Y24.598
X47.379Y24.522
X47.365Y24.472
X47.114Y23.569
X46.954Y22.991Z-2.1
X46.9Y22.799
X46.847Y22.606
X46.358Y20.848
X46.338Y20.779
X46.315Y20.71
X46.291Y20.642
X46.266Y20.575
X46.238Y20.508
X46.209Y20.442
X46.179Y20.376
X46.142Y20.301
X45.873Y19.764
X45.694Y19.406Z-2.101
X45.516Y19.048
X45.426Y18.87
X45.337Y18.691
X45.247Y18.512Z-2.102
X45.147Y18.311
X45.112Y18.245
X45.075Y18.18
X45.037Y18.115Z-2.103
X44.998Y18.052
X44.971Y18.01
X44.214Y16.876
X44.103Y16.71Z-2.101
X43.757Y16.19
X43.715Y16.129
X43.671Y16.07
X43.625Y16.011
X43.579Y15.954
X43.531Y15.897
X43.481Y15.842
X43.43Y15.788
X43.396Y15.754
X42.639Y14.995
X42.6Y14.924
X42.563Y14.859
X42.525Y14.795
X42.485Y14.732
X42.443Y14.67
X42.4Y14.61
X42.356Y14.55
X42.31Y14.491
X42.262Y14.434
X42.213Y14.378
X42.163Y14.323
X42.112Y14.269
X42.059Y14.217
X42.004Y14.166
X41.961Y14.127
X40.15Y12.517
X40.098Y12.472
X40.044Y12.428
X39.989Y12.386
X39.933Y12.344
X39.877Y12.304
X39.839Y12.278
X39.37Y11.966
X39.203Y11.855Z-2.103
X38.018Y11.065
X37.955Y11.025
X37.891Y10.986
X37.826Y10.949Z-2.102
X37.76Y10.914
X37.684Y10.875
X37.505Y10.786
X37.326Y10.696Z-2.101
X37.147Y10.607
X36.968Y10.517
X36.611Y10.338
X36.074Y10.07Z-2.1
X35.695Y9.881
X35.631Y9.85
X35.566Y9.821
X35.501Y9.794
X35.435Y9.768
X35.368Y9.744
X35.31Y9.724
X33.413Y9.092
X33.201Y9.021
X33.134Y9
X33.066Y8.981
X32.998Y8.963
X32.93Y8.947Z-2.101
X32.861Y8.932
X32.792Y8.92
X32.723Y8.908
X32.676Y8.902
X32.544Y8.884
X31.156Y8.696
X30.76Y8.643Z-2.1
X29.571Y8.482
X29.373Y8.455
X28.952Y8.398
X28.88Y8.39
X28.807Y8.384
X28.734Y8.379
X28.661Y8.376
X28.588Y8.375
X28.515
X28.442Y8.377
X28.393Y8.38
X26.69Y8.483
X26.49Y8.495
X25.07Y8.582
X25Y8.587Z-2.101
X24.93Y8.594
X24.86Y8.603
X24.791Y8.614
X24.722Y8.626
X24.653Y8.64
X24.585Y8.655
X24.517Y8.672
X24.472Y8.684
X23.569Y8.935
X23.377Y8.988
X23.184Y9.042
X22.606Y9.202Z-2.1
X20.848Y9.691
X20.779Y9.711
X20.71Y9.734
X20.642Y9.758
X20.575Y9.783
X20.508Y9.811
X20.442Y9.84
X20.376Y9.87
X20.301Y9.907
X19.764Y10.176
X19.406Y10.355Z-2.101
X19.048Y10.533
X18.87Y10.623
X18.691Y10.712
X18.512Y10.802Z-2.102
X18.311Y10.902
X18.245Y10.937
X18.18Y10.974
X18.115Y11.012Z-2.103
X18.052Y11.051
X18.01Y11.078
X16.876Y11.835
X16.71Y11.946Z-2.101
X16.19Y12.292
X16.129Y12.334
X16.07Y12.378
X16.011Y12.424
X15.954Y12.47
X15.897Y12.518
X15.842Y12.568
X15.788Y12.619
X15.754Y12.653
X14.995Y13.41
X14.924Y13.449
X14.859Y13.486
X14.795Y13.524
X14.732Y13.564
X14.67Y13.606
X14.61Y13.649
X14.55Y13.693
X14.491Y13.739
X14.434Y13.787
X14.378Y13.836
X14.323Y13.886
X14.269Y13.937
X14.217Y13.99
X14.166Y14.045
X14.127Y14.088
X13.994Y14.237
X14.741Y14.901Z-2.102
X14.608Y15.051Z-2.101
X13.272Y16.554
X13.242Y16.59
X13.213Y16.625
X13.184Y16.662
X13.157Y16.699
X13.13Y16.736Z-2.102
X13.11Y16.765
X13.02Y16.901Z-2.103
X11.904Y18.575
X11.877Y18.617
X11.851Y18.66
X11.826Y18.703
X11.803Y18.747
X11.77Y18.812
X11.322Y19.707Z-2.102
X10.875Y20.601Z-2.101
X10.78Y20.791Z-2.1
X10.76Y20.833
X10.741Y20.876
X10.722Y20.92
X10.705Y20.964
X10.689Y21.009
X10.673Y21.055
X10.23Y22.383
X9.973Y23.153Z-2.101
X9.959Y23.198
X9.946Y23.243
X9.935Y23.288
X9.924Y23.334
X9.914Y23.38
X9.905Y23.426
X9.898Y23.472
X9.893Y23.507
X9.741Y24.63
X9.714Y24.828Z-2.102
X9.687Y25.026Z-2.101
X9.66Y25.225Z-2.102
X9.634Y25.423Z-2.104
X9.607Y25.621Z-2.103
X9.58Y25.819
X9.553Y26.017Z-2.104
X9.526Y26.216Z-2.101
X9.5Y26.414Z-2.1
X9.391Y27.219Z-2.101
X9.385Y27.267
X9.383Y27.291
X9.379Y27.34
X9.376Y27.389
X9.375Y27.437Z-2.1
Y27.486
Y27.535
X9.378Y27.595
X9.409Y28.101
X9.421Y28.3Z-2.101
X9.433Y28.5Z-2.103
X9.445Y28.7
X9.457Y28.899Z-2.101
X9.469Y29.099Z-2.1
X9.506Y29.698
X9.518Y29.897Z-2.101
X9.53Y30.097Z-2.103
X9.542Y30.297Z-2.102
X9.566Y30.696Z-2.101
X9.579Y30.907
X9.583Y30.954
X9.587Y31
X9.593Y31.047
X9.6Y31.093
X9.608Y31.139
X9.617Y31.185
X9.627Y31.231
X9.638Y31.276
X9.647Y31.31
X9.952Y32.405
X10.005Y32.597Z-2.102
X10.059Y32.79Z-2.101
X10.112Y32.983Z-2.102
X10.326Y33.754Z-2.1
X10.651Y34.921
X10.664Y34.968
X10.679Y35.013
X10.695Y35.059
X10.712Y35.104
X10.73Y35.149
X10.75Y35.193
X10.77Y35.236
X10.802Y35.301
X10.891Y35.48Z-2.101
X11.07Y35.838
X11.16Y36.017
X11.249Y36.196
X11.338Y36.374Z-2.102
X11.428Y36.553
X11.517Y36.732Z-2.103
X11.791Y37.28
X11.814Y37.324
X11.839Y37.368
X11.864Y37.41
X11.89Y37.453
X11.91Y37.484
X12.889Y38.951
X12.999Y39.117Z-2.102
X13.117Y39.294Z-2.101
X13.145Y39.335
X13.175Y39.375
X13.205Y39.414
X13.236Y39.452
X13.268Y39.49
X13.301Y39.526
X13.334Y39.562
X13.36Y39.589
X13.955Y40.184
X14.238Y40.467
X14.255Y40.505
X14.276Y40.55
X14.299Y40.594
X14.322Y40.638
X14.346Y40.681
X14.372Y40.724
X14.399Y40.766
X14.426Y40.807
X14.455Y40.848
X14.484Y40.888
X14.515Y40.927
X14.547Y40.965
X14.579Y41.003
X14.613Y41.039
X14.647Y41.075
X14.682Y41.11
X14.7Y41.127
X14.752Y41.175Z-2.102
X14.901Y41.308Z-2.101
X16.554Y42.777
X16.59Y42.807
X16.625Y42.836
X16.662Y42.865
X16.699Y42.892
X16.736Y42.919Z-2.102
X16.765Y42.939
X16.901Y43.029Z-2.103
X18.575Y44.145
X18.617Y44.172
X18.66Y44.198
X18.703Y44.223
X18.747Y44.246
X18.812Y44.279
X19.17Y44.458
X19.886Y44.816Z-2.101
X20.065Y44.906
X20.243Y44.995
X20.422Y45.084
X20.791Y45.269Z-2.1
X20.833Y45.289
X20.876Y45.308
X20.92Y45.327
X20.964Y45.344
X21.009Y45.36
X21.055Y45.376
X22.383Y45.819
X23.153Y46.076Z-2.101
X23.198Y46.09
X23.243Y46.103
X23.288Y46.114
X23.334Y46.125
X23.38Y46.135
X23.426Y46.144
X23.472Y46.151
X23.507Y46.156
X25.423Y46.415Z-2.102
X25.819Y46.469
X26.017Y46.496Z-2.1
X27.219Y46.658
X27.267Y46.664
X27.316Y46.668
X27.364Y46.671
X27.413Y46.674
X27.462
X27.51
X27.559Y46.673
X27.595Y46.671
X28.5Y46.616
X28.7Y46.604Z-2.101
X28.899Y46.592Z-2.1
X29.897Y46.531
X30.097Y46.519Z-2.101
X30.297Y46.507Z-2.102
X30.496Y46.495Z-2.101
X30.907Y46.47
X30.954Y46.466
X31Y46.462
X31.047Y46.456
X31.093Y46.449
X31.139Y46.441
X31.185Y46.432
X31.231Y46.422
X31.276Y46.411
X31.31Y46.402
X32.983Y45.937
X33.754Y45.723Z-2.1
X34.921Y45.398
X34.968Y45.385
X35.013Y45.37
X35.059Y45.354
X35.104Y45.337
X35.149Y45.319
X35.193Y45.299
X35.236Y45.279
X35.301Y45.247
X35.659Y45.068Z-2.101
X35.838Y44.979
X36.017Y44.889
X36.196Y44.8
X36.374Y44.711Z-2.102
X37.28Y44.258Z-2.103
X37.324Y44.235
X37.368Y44.21
X37.41Y44.185
X37.453Y44.159
X37.484Y44.139
X38.951Y43.16
X39.117Y43.05Z-2.102
X39.294Y42.932Z-2.101
X39.335Y42.904
X39.375Y42.874
X39.414Y42.844
X39.452Y42.813
X39.49Y42.781
X39.526Y42.748
X39.562Y42.715
X39.619Y42.659
X40.468Y41.81
X40.505Y41.794
X40.55Y41.773
X40.594Y41.75
X40.638Y41.727
X40.681Y41.703
X40.724Y41.677
X40.766Y41.65
X40.807Y41.623
X40.848Y41.594
X40.888Y41.565
X40.927Y41.534
X40.965Y41.502
X41.003Y41.47
X41.039Y41.436
X41.075Y41.402
X41.11Y41.367
X41.144Y41.331
X41.175Y41.297
X42.777Y39.495
X42.807Y39.459
X42.836Y39.424
X42.865Y39.387
X42.892Y39.35
X42.919Y39.313
X42.939Y39.284
X43.14Y38.982Z-2.103
X44.145Y37.474
X44.172Y37.432
X44.198Y37.389
X44.223Y37.346
X44.246Y37.302
X44.279Y37.237
X44.727Y36.342Z-2.102
X44.906Y35.984Z-2.101
X44.995Y35.806
X45.084Y35.627
X45.269Y35.258Z-2.1
X45.289Y35.216
X45.308Y35.173
X45.327Y35.129
X45.344Y35.085
X45.36Y35.04
X45.376Y34.994
X45.882Y33.476
X46.009Y33.097Z-2.101
X46.076Y32.896
X46.09Y32.85
X46.103Y32.804
X46.115Y32.758
X46.126Y32.712
X46.136Y32.665
X46.145Y32.618
X46.152Y32.571
X46.162Y32.503
X46.397Y30.718
X46.475Y30.123Z-2.102
X46.501Y29.925Z-2.1
X46.659Y28.723
X46.664Y28.675
X46.669Y28.627
X46.672Y28.579
X46.674Y28.531
Y28.483
Y28.434
X46.673Y28.386
X46.67Y28.344
X46.62Y27.545
X46.608Y27.345Z-2.101
X46.595Y27.146Z-2.1
X46.533Y26.148
X46.521Y25.948
X46.508Y25.749Z-2.102
X46.496Y25.549Z-2.101
X46.47Y25.137
X46.465Y25.085
X46.46Y25.033
X46.453Y24.981
X46.445Y24.93
X46.435Y24.879
X46.424Y24.828
X46.412Y24.777
X46.402Y24.739
X45.937Y23.066
X45.723Y22.295Z-2.1
X45.398Y21.128
X45.385Y21.081
X45.37Y21.036
X45.354Y20.99
X45.337Y20.945
X45.319Y20.9
X45.299Y20.856
X45.279Y20.813
X45.247Y20.748
X45.068Y20.39Z-2.101
X44.979Y20.211
X44.889Y20.032
X44.8Y19.853
X44.711Y19.675Z-2.102
X44.258Y18.769Z-2.103
X44.235Y18.725
X44.21Y18.681
X44.185Y18.639
X44.159Y18.596
X44.139Y18.565
X43.05Y16.932
X42.932Y16.755Z-2.102
X42.904Y16.714Z-2.101
X42.889Y16.694
X42.86Y16.655
X42.829Y16.616
X42.797Y16.578
X42.765Y16.541
X42.732Y16.505
X42.689Y16.461
X41.81Y15.581
X41.794Y15.544
X41.773Y15.499
X41.75Y15.455
X41.727Y15.411
X41.703Y15.368
X41.677Y15.325
X41.65Y15.283
X41.623Y15.242
X41.594Y15.201
X41.565Y15.161
X41.534Y15.122
X41.502Y15.084
X41.47Y15.046
X41.436Y15.01
X41.402Y14.974
X41.367Y14.939
X41.331Y14.905
X41.297Y14.874
X41.148Y14.741Z-2.102
X40.998Y14.608Z-2.101
X39.495Y13.272
X39.459Y13.242
X39.424Y13.213
X39.387Y13.184
X39.35Y13.157
X39.313Y13.13
X39.284Y13.11
X39.148Y13.02Z-2.102
X38.982Y12.909Z-2.103
X37.474Y11.904
X37.432Y11.877
X37.389Y11.851
X37.346Y11.826
X37.302Y11.803
X37.237Y11.77
X36.7Y11.501
X36.521Y11.412Z-2.102
X36.342Y11.322
X36.163Y11.233Z-2.101
X35.984Y11.143
X35.806Y11.054
X35.448Y10.875
X35.258Y10.78Z-2.1
X35.216Y10.76
X35.173Y10.741
X35.129Y10.722
X35.085Y10.705
X35.04Y10.689
X34.994Y10.673
X33.666Y10.23
X32.896Y9.973Z-2.101
X32.851Y9.959
X32.806Y9.946
X32.761Y9.935
X32.715Y9.924
X32.669Y9.914
X32.623Y9.905
X32.577Y9.898
X32.542Y9.893
X30.824Y9.66
X30.626Y9.634Z-2.103
X30.23Y9.58Z-2.102
X30.032Y9.553Z-2.104
X29.833Y9.526Z-2.101
X29.635Y9.5Z-2.1
X28.83Y9.391
X28.782Y9.385
X28.733Y9.381Z-2.101
X28.685Y9.378
X28.636Y9.375
X28.587
X28.539Z-2.1
X28.49Y9.376
X28.454Y9.378
X27.948Y9.409
X27.749Y9.421Z-2.101
X27.549Y9.433Z-2.102
X27.349Y9.445Z-2.104
X27.15Y9.457Z-2.102
X26.95Y9.469Z-2.1
X26.351Y9.506
X26.152Y9.518Z-2.101
X25.952Y9.53Z-2.103
X25.353Y9.566Z-2.101
X25.142Y9.579
X25.095Y9.583
X25.049Y9.587
X25.002Y9.593
X24.956Y9.6
X24.91Y9.608
X24.864Y9.617
X24.818Y9.627
X24.773Y9.638
X24.739Y9.647
X23.644Y9.952
X23.452Y10.005Z-2.102
X23.259Y10.059
X23.066Y10.112
X22.874Y10.166Z-2.101
X22.295Y10.326Z-2.1
X21.128Y10.651
X21.081Y10.664
X21.036Y10.679
X20.99Y10.695
X20.945Y10.712
X20.9Y10.73
X20.856Y10.75
X20.813Y10.77
X20.748Y10.802
X20.569Y10.891Z-2.101
X20.211Y11.07
X19.138Y11.607Z-2.103
X18.769Y11.791
X18.725Y11.814
X18.681Y11.839
X18.639Y11.864
X18.596Y11.89
X18.565Y11.91
X16.932Y12.999
X16.765Y13.11Z-2.102
X16.735Y13.131
X16.694Y13.16Z-2.101
X16.655Y13.189
X16.616Y13.22
X16.578Y13.252
X16.541Y13.284
X16.505Y13.317
X16.461Y13.36
X16.006Y13.815
X15.864Y13.956Z-2.102
X15.723Y14.097Z-2.101
X15.581Y14.239
X15.544Y14.255
X15.499Y14.276
X15.455Y14.299
X15.411Y14.322
X15.368Y14.346
X15.325Y14.372
X15.283Y14.399
X15.242Y14.426
X15.201Y14.455
X15.161Y14.484
X15.122Y14.515
X15.084Y14.547
X15.046Y14.579
X15.01Y14.613
X14.974Y14.647
X14.939Y14.682
X14.922Y14.7
X14.874Y14.752Z-2.102
X14.741Y14.901
X13.172Y12.776Z-2.101
X13.211Y12.746
X13.249Y12.716
X13.287Y12.684
X13.323Y12.651
X13.35Y12.626
X14.836Y11.219
X14.981Y11.081
X15.126Y10.944Z-2.103
X15.438Y10.736
X17.269Y9.515
X17.778Y9.27
X18.318Y9.009Z-2.102
X18.498Y8.922
X18.678Y8.835Z-2.101
X19.399Y8.487
X19.939Y8.226Z-2.1
X21.166Y7.802
X21.733Y7.605Z-2.101
X21.922Y7.54
X22.111Y7.474Z-2.102
X22.3Y7.409Z-2.101
X25.018Y6.865Z-2.102
X25.434Y6.846
X25.834Y6.827Z-2.1
X27.232Y6.762
X27.432Y6.753
X28.631Y6.697
X28.83Y6.688Z-2.102
X29.03Y6.679
X29.194Y6.694Z-2.1
X29.991Y6.766
X30.19Y6.784Z-2.101
X30.389Y6.802Z-2.102
X30.987Y6.857
X33.749Y7.409Z-2.101
X33.842Y7.441Z-2.102
X34.22Y7.572Z-2.101
X34.409Y7.638Z-2.1
X35.921Y8.161
X36.11Y8.226
X37.7Y8.994Z-2.102
X38.24Y9.255Z-2.103
X38.42Y9.342
X38.6Y9.428
X38.78Y9.515
X40.617Y10.74
X40.949Y10.961
X40.988Y10.996
X41.138Y11.129Z-2.101
X41.287Y11.262
X42.781Y12.591
X42.931Y12.724Z-2.103
X43.08Y12.857Z-2.104
X43.103Y12.904
X43.127Y12.947
X43.151Y12.989
X43.164Y13.01Z-2.103
X43.189Y13.052Z-2.102
X43.216Y13.093Z-2.101
X43.244Y13.133Z-2.102
X43.273Y13.172Z-2.101
X43.303Y13.211
X43.333Y13.249
X43.365Y13.287
X43.398Y13.323
X43.423Y13.35
X44.692Y14.69
X44.83Y14.836
X45.105Y15.126Z-2.103
X45.202Y15.272
X45.313Y15.438
X46.423Y17.102
X46.534Y17.269
X46.605Y17.417
X46.692Y17.598
X47.475Y19.219Z-2.101
X47.823Y19.939Z-2.1
X48.051Y20.599
X48.247Y21.166
X48.313Y21.355
X48.378Y21.544
X48.509Y21.922Z-2.101
X48.64Y22.3Z-2.102
X48.87Y23.45Z-2.101
X48.909Y23.646Z-2.102
X49.066Y24.43Z-2.101
X49.184Y25.018Z-2.102
X49.212Y25.634
X49.222Y25.834Z-2.101
X49.268Y26.833Z-2.1
X49.287Y27.232Z-2.101
X49.296Y27.432Z-2.1
X49.342Y28.431
X49.352Y28.631Z-2.101
X49.361Y28.83Z-2.104
X49.37Y29.03Z-2.106
X49.355Y29.194Z-2.103
X49.337Y29.394Z-2.101
X49.283Y29.991Z-2.1
X49.265Y30.19Z-2.102
X49.247Y30.389Z-2.104
X49.229Y30.589
X49.21Y30.788Z-2.102
X49.192Y30.987
X49.15Y31.199
X49.111Y31.395
X49.071Y31.592Z-2.101
X48.954Y32.18
X48.915Y32.376Z-2.102
X48.875Y32.572Z-2.101
X48.758Y33.16
X48.718Y33.357Z-2.102
X48.679Y33.553
X48.64Y33.749
X48.542Y34.031
X48.477Y34.22Z-2.101
X48.281Y34.787Z-2.1
X48.215Y34.976Z-2.101
X48.15Y35.165Z-2.1
X48.084Y35.354
X48.019Y35.543
X47.954Y35.732
X47.888Y35.921
X47.823Y36.11Z-2.101
X47.751Y36.259Z-2.1
X47.49Y36.799Z-2.101
X47.229Y37.339Z-2.103
X47.055Y37.7Z-2.102
X46.794Y38.24Z-2.103
X46.707Y38.42Z-2.104
X46.621Y38.6Z-2.103
X46.534Y38.78Z-2.104
X46.197Y39.285Z-2.103
X45.753Y39.951
X45.642Y40.117
X45.531Y40.284
X45.42Y40.45
X45.309Y40.617
X45.088Y40.949
X44.92Y41.138Z-2.102
X44.787Y41.287Z-2.101
X44.255Y41.885
X44.122Y42.034Z-2.102
X43.989Y42.184Z-2.101
X43.59Y42.632
X43.458Y42.781Z-2.102
X43.325Y42.931Z-2.103
X43.192Y43.08Z-2.104
X43.145Y43.103
X43.102Y43.127
X43.06Y43.151
X43.018Y43.176
X42.997Y43.189
X42.956Y43.216Z-2.103
X42.916Y43.244Z-2.102
X42.877Y43.273
X42.838Y43.303
X42.8Y43.333Z-2.101
X42.762Y43.365
X42.726Y43.398
X42.699Y43.423
X42.085Y44.005
X41.939Y44.142
X41.794Y44.28
X41.359Y44.692
X40.923Y45.105Z-2.103
X40.611Y45.313
X40.444Y45.424
X40.278Y45.535
X40.112Y45.646
X39.945Y45.757
X39.113Y46.312
X38.78Y46.534Z-2.104
X38.632Y46.605Z-2.103
X38.451Y46.692
X37.911Y46.953
X37.371Y47.214
X37.191Y47.301Z-2.101
X36.29Y47.736Z-2.1
X36.11Y47.823Z-2.101
X36.017Y47.855Z-2.1
X35.828Y47.92
X35.639Y47.986
X35.45Y48.051
X35.261Y48.117
X35.072Y48.182
X34.694Y48.313Z-2.101
X34.505Y48.378
X34.127Y48.509Z-2.102
X33.938Y48.575Z-2.101
X33.749Y48.64Z-2.102
X33.58Y48.674
X33.384Y48.713
X33.188Y48.752Z-2.101
X32.599Y48.87
X32.403Y48.909Z-2.102
X32.207Y48.948Z-2.101
X31.815Y49.027Z-2.102
X31.619Y49.066Z-2.101
X31.423Y49.105Z-2.102
X31.227Y49.144
X31.031Y49.184
X30.415Y49.212Z-2.103
X30.215Y49.222Z-2.101
X30.016Y49.231Z-2.1
X29.017Y49.277
X28.817Y49.287Z-2.101
X28.617Y49.296Z-2.1
X27.618Y49.342
X27.418Y49.352
X27.019Y49.37Z-2.106
X26.855Y49.355Z-2.103
X26.655Y49.337Z-2.101
X26.456Y49.319Z-2.1
X26.058Y49.283
X25.859Y49.265Z-2.101
X25.66Y49.247Z-2.103
X25.46Y49.229Z-2.104
X25.261Y49.21Z-2.102
X25.062Y49.192
X23.869Y48.954Z-2.101
X23.673Y48.915Z-2.102
X22.496Y48.679Z-2.101
X22.3Y48.64Z-2.102
X21.451Y48.346Z-2.1
X21.262Y48.281
X21.073Y48.215
X20.128Y47.888
X19.939Y47.823
X17.989Y46.881Z-2.103
X17.629Y46.707
X17.269Y46.534
X15.432Y45.309
X15.266Y45.199
X15.1Y45.088
X15.061Y45.053
X14.911Y44.92Z-2.101
X14.762Y44.787
X14.164Y44.255
X14.015Y44.122
X13.865Y43.989
X13.417Y43.59
X13.268Y43.458
X13.118Y43.325Z-2.103
X12.969Y43.192Z-2.104
X12.946Y43.145
X12.922Y43.102
X12.898Y43.06
X12.873Y43.018Z-2.103
X12.86Y42.997
X12.833Y42.956Z-2.102
X12.805Y42.916Z-2.101
X12.791Y42.896
X12.761Y42.857
X12.731Y42.819
X12.716Y42.8
X12.684Y42.762
X12.651Y42.726
X12.626Y42.699
X11.219Y41.213
X11.081Y41.068
X10.944Y40.923Z-2.103
X9.515Y38.78
X9.27Y38.271
X8.574Y36.83Z-2.101
X8.4Y36.47
X8.226Y36.11Z-2.1
X7.736Y34.694
X7.671Y34.505
X7.54Y34.127Z-2.101
X7.474Y33.938Z-2.102
X7.409Y33.749Z-2.101
X6.865Y31.031Z-2.102
X6.846Y30.615
X6.837Y30.415Z-2.101
X6.827Y30.215Z-2.1
X6.762Y28.817
X6.753Y28.617
X6.697Y27.418
X6.688Y27.219Z-2.101
X6.679Y27.019Z-2.102
X6.694Y26.855Z-2.101
X6.766Y26.058Z-2.1
X6.784Y25.859
X6.82Y25.46Z-2.102
X6.857Y25.062
X7.409Y22.3Z-2.101
X7.507Y22.018
X7.638Y21.64Z-2.1
X8.161Y20.128
X8.226Y19.939
X8.646Y19.07Z-2.101
X8.733Y18.89
X8.82Y18.71
X9.342Y17.629Z-2.103
X9.515Y17.269
X10.74Y15.432
X10.961Y15.1
X10.996Y15.061
X11.129Y14.911Z-2.101
X12.591Y13.268
X12.857Y12.969Z-2.104
X12.904Y12.946Z-2.103
X12.947Y12.922
X12.989Y12.898
X13.031Y12.873
X13.072Y12.846Z-2.102
X13.093Y12.833Z-2.101
X13.133Y12.805
X13.172Y12.776
X12.569Y11.979Z-2.305
X12.588Y11.964
X12.607Y11.949
X12.626Y11.933Z-2.304
X12.644Y11.917
X12.662Y11.9Z-2.305
X12.903Y11.672Z-2.308
X14.355Y10.297Z-2.329
X14.5Y10.159Z-2.335
X15.607Y9.422
X15.773Y9.311
X15.94Y9.2
X16.106Y9.089
X16.272Y8.978
X16.605Y8.756
X16.772Y8.645Z-2.339
X16.855Y8.605
X17.395Y8.344Z-2.337
X17.576Y8.257
X18.116Y7.996Z-2.335
X18.296Y7.909
X19.197Y7.474Z-2.332
X19.377Y7.387
X19.557Y7.3Z-2.333
X20.714Y6.9Z-2.335
X22.037Y6.442Z-2.338
X22.151Y6.419Z-2.336
X22.739Y6.301Z-2.335
X22.935Y6.262Z-2.336
X23.131Y6.223
X23.328Y6.184
X23.524Y6.144
X23.72Y6.105
X23.916Y6.066
X24.7Y5.909
X24.896Y5.87
X25.057Y5.862Z-2.33
X25.256Y5.853Z-2.322
X25.456Y5.844Z-2.32
X26.056Y5.816Z-2.317
X26.255Y5.807Z-2.316
X27.854Y5.732Z-2.307
X28.053Y5.723Z-2.308
X29.052Y5.677Z-2.339
X29.737Y5.739Z-2.334
X29.936Y5.757Z-2.332
X30.533Y5.811Z-2.328
X30.732Y5.829
X30.932Y5.847Z-2.333
X31.131Y5.866Z-2.339
X31.266Y5.893
X31.854Y6.01
X32.051Y6.05Z-2.338
X32.247Y6.089Z-2.339
X32.443Y6.128Z-2.338
X32.639Y6.167
X32.835Y6.206
X33.031Y6.246
X33.227Y6.285
X33.619Y6.363
X33.816Y6.403
X34.012Y6.442Z-2.342
X36.114Y7.17Z-2.338
X36.303Y7.235
X36.492Y7.3
X37.116Y7.602Z-2.339
X37.296Y7.689Z-2.34
X38.917Y8.471Z-2.344
X39.277Y8.645Z-2.345
X39.399Y8.726Z-2.342
X40.397Y9.391
X40.564Y9.502Z-2.343
X40.73Y9.613Z-2.342
X41.562Y10.168Z-2.343
X41.674Y10.268Z-2.34
X42.272Y10.799Z-2.339
X42.87Y11.331Z-2.337
X43.02Y11.464Z-2.336
X43.468Y11.862
X43.617Y11.995Z-2.335
X43.767Y12.128Z-2.338
X43.916Y12.261Z-2.341
X43.925Y12.287Z-2.338
X43.933Y12.31Z-2.335
X43.941Y12.333Z-2.332
X43.95Y12.356Z-2.329
X43.96Y12.378Z-2.327
X43.97Y12.401Z-2.325
X43.981Y12.423Z-2.323
X43.992Y12.444Z-2.322
X44.004Y12.466Z-2.32
X44.016Y12.487Z-2.319
X44.029Y12.508Z-2.318
X44.042Y12.528Z-2.317
X44.056Y12.549Z-2.316
X44.07Y12.569
X44.085Y12.588Z-2.315
X44.1Y12.607
X44.116Y12.626
X44.132Y12.644
X44.149Y12.662
X45.477Y14.065Z-2.334
X45.752Y14.355Z-2.339
X45.89Y14.5Z-2.347
X46.073Y14.775
X46.184Y14.941Z-2.346
X46.295Y15.107
X46.406Y15.274
X46.517Y15.44
X47.071Y16.272
X47.293Y16.605
X47.404Y16.772Z-2.351
X47.618Y17.215Z-2.35
X47.705Y17.395Z-2.349
X47.792Y17.576
X48.314Y18.656Z-2.346
X48.401Y18.836Z-2.345
X48.575Y19.197
X48.662Y19.377Z-2.344
X48.749Y19.557Z-2.346
X49.607Y22.037Z-2.351
X49.63Y22.151Z-2.349
X49.669Y22.347
X49.748Y22.739
X49.787Y22.935
X49.826Y23.131
X49.865Y23.328
X49.905Y23.524
X49.944Y23.72
X49.983Y23.916
X50.022Y24.112
X50.061Y24.308
X50.101Y24.504
X50.14Y24.7
X50.179Y24.896Z-2.35
X50.187Y25.057Z-2.343
X50.196Y25.256Z-2.335
X50.205Y25.456Z-2.333
X50.233Y26.056Z-2.33
X50.317Y27.854Z-2.321
X50.326Y28.053Z-2.322
X50.372Y29.052Z-2.352
X50.31Y29.737Z-2.347
X50.292Y29.936Z-2.346
X50.238Y30.533Z-2.342
X50.22Y30.732Z-2.341
X50.202Y30.932Z-2.346
X50.183Y31.131Z-2.352
X50.156Y31.266
X50.039Y31.854
X49.999Y32.051Z-2.351
X49.96Y32.247Z-2.352
X49.921Y32.443Z-2.351
X49.686Y33.619Z-2.352
X49.646Y33.816Z-2.351
X49.607Y34.012Z-2.355
X49.403Y34.602Z-2.353
X48.879Y36.114Z-2.351
X48.749Y36.492
X48.708Y36.576Z-2.35
X48.621Y36.756Z-2.351
X48.187Y37.656Z-2.352
X48.1Y37.837Z-2.353
X48.013Y38.017
X47.926Y38.197Z-2.354
X47.839Y38.377
X47.752Y38.557Z-2.355
X47.665Y38.737
X47.404Y39.277Z-2.357
X47.323Y39.399Z-2.353
X47.212Y39.565Z-2.354
X47.101Y39.732Z-2.353
X46.99Y39.898Z-2.354
X46.214Y41.063
X45.992Y41.396
X45.881Y41.562
X45.781Y41.674Z-2.35
X45.516Y41.973Z-2.349
X45.117Y42.422Z-2.348
X44.718Y42.87Z-2.347
X44.054Y43.617Z-2.345
X43.921Y43.767Z-2.347
X43.788Y43.916Z-2.35
X43.762Y43.925Z-2.347
X43.739Y43.933Z-2.344
X43.716Y43.941Z-2.341
X43.693Y43.95Z-2.339
X43.67Y43.96Z-2.336
X43.648Y43.97Z-2.334
X43.626Y43.981Z-2.332
X43.605Y43.992Z-2.33
X43.583Y44.004Z-2.329
X43.562Y44.016Z-2.328
X43.541Y44.029Z-2.327
X43.521Y44.042Z-2.326
X43.5Y44.056Z-2.325
X43.48Y44.07Z-2.324
X43.461Y44.085
X43.442Y44.1
X43.423Y44.116Z-2.323
X43.405Y44.132
X43.387Y44.149Z-2.324
X43.146Y44.377Z-2.327
X43.001Y44.514Z-2.329
X42.565Y44.927Z-2.335
X41.694Y45.752Z-2.348
X41.549Y45.89Z-2.354
X41.274Y46.073
X41.108Y46.184
X40.942Y46.295
X40.775Y46.406
X39.444Y47.293Z-2.353
X39.277Y47.404Z-2.357
X38.834Y47.618Z-2.356
X37.393Y48.314Z-2.352
X37.213Y48.401Z-2.351
X36.672Y48.662Z-2.35
X36.492Y48.749Z-2.351
X34.012Y49.607Z-2.355
X33.898Y49.63Z-2.351
X33.31Y49.748
X33.114Y49.787Z-2.352
X32.918Y49.826Z-2.351
X32.721Y49.865Z-2.352
X32.525Y49.905Z-2.351
X31.741Y50.061Z-2.352
X31.545Y50.101
X31.349Y50.14
X31.153Y50.179
X30.793Y50.196Z-2.337
X30.593Y50.205Z-2.334
X29.993Y50.233Z-2.331
X29.794Y50.242Z-2.33
X27.996Y50.326Z-2.321
X26.997Y50.372Z-2.351
X26.312Y50.31Z-2.347
X25.317Y50.22Z-2.34
X25.117Y50.202Z-2.344
X24.918Y50.183Z-2.35
X24.195Y50.039Z-2.349
X23.998Y49.999
X23.802Y49.96
X22.626Y49.725
X22.43Y49.686
X22.233Y49.646
X22.037Y49.607Z-2.351
X20.88Y49.207Z-2.348
X20.502Y49.076
X19.557Y48.749Z-2.346
X19.473Y48.708Z-2.344
X19.293Y48.621Z-2.345
X18.393Y48.187Z-2.347
X18.212Y48.1
X18.032Y48.013
X17.492Y47.752Z-2.349
X17.312Y47.665
X16.772Y47.404Z-2.351
X16.65Y47.323Z-2.347
X16.317Y47.101Z-2.346
X16.151Y46.99
X15.652Y46.658
X15.153Y46.325
X14.986Y46.214
X14.653Y45.992Z-2.347
X14.487Y45.881
X14.375Y45.781Z-2.342
X14.225Y45.648Z-2.341
X13.777Y45.25Z-2.34
X12.432Y44.054Z-2.336
X12.282Y43.921Z-2.338
X12.133Y43.788Z-2.341
X12.124Y43.762Z-2.337
X12.116Y43.739Z-2.335
X12.108Y43.716Z-2.332
X12.099Y43.693Z-2.33
X12.089Y43.67Z-2.327
X12.079Y43.648Z-2.324
X12.068Y43.626Z-2.322
X12.057Y43.605Z-2.32
X12.045Y43.583Z-2.319
X12.033Y43.562Z-2.318
X12.02Y43.541Z-2.317
X12.007Y43.521Z-2.316
X11.993Y43.5Z-2.315
X11.979Y43.48Z-2.314
X11.964Y43.461
X11.949Y43.442
X11.933Y43.423Z-2.313
X11.917Y43.405
X11.9Y43.387Z-2.314
X11.535Y43.001Z-2.319
X10.297Y41.694Z-2.338
X10.159Y41.549Z-2.343
X9.976Y41.274
X9.311Y40.276Z-2.342
X9.2Y40.109
X9.089Y39.943
X8.756Y39.444
X8.645Y39.277Z-2.345
X8.344Y38.654Z-2.343
X8.257Y38.473
X7.996Y37.933Z-2.341
X7.909Y37.753
X7.474Y36.852Z-2.338
X7.3Y36.492
X7.227Y36.28
X7.161Y36.091
X6.442Y34.012Z-2.342
X6.419Y33.898Z-2.338
X6.38Y33.702
X6.341Y33.506
X6.301Y33.31
X6.262Y33.114
X6.223Y32.918
X5.87Y31.153Z-2.339
X5.853Y30.793Z-2.324
X5.844Y30.593Z-2.321
X5.816Y29.993Z-2.317
X5.807Y29.794
X5.723Y27.996Z-2.307
X5.677Y26.997Z-2.338
X5.739Y26.312Z-2.333
X5.757Y26.113Z-2.331
X5.829Y25.317Z-2.326
X5.847Y25.117Z-2.33
X5.866Y24.918Z-2.336
X5.893Y24.783
X5.932Y24.587
X5.971Y24.391
X6.01Y24.195
X6.05Y23.998
X6.089Y23.802
X6.128Y23.606
X6.167Y23.41
X6.206Y23.214
X6.363Y22.43
X6.403Y22.233Z-2.335
X6.442Y22.037Z-2.338
X7.17Y19.935Z-2.334
X7.3Y19.557Z-2.333
X7.341Y19.473Z-2.332
X7.602Y18.933Z-2.333
X7.689Y18.753Z-2.334
X8.21Y17.672Z-2.336
X8.297Y17.492Z-2.337
X8.471Y17.132Z-2.338
X8.645Y16.772Z-2.339
X8.726Y16.65Z-2.335
X8.837Y16.484
X9.502Y15.485
X9.613Y15.319
X10.168Y14.487Z-2.336
X10.268Y14.375Z-2.331
X10.666Y13.926Z-2.33
X11.995Y12.432Z-2.326
X12.128Y12.282Z-2.328
X12.261Y12.133Z-2.331
X12.287Y12.124Z-2.328
X12.31Y12.116Z-2.325
X12.333Y12.108Z-2.322
X12.356Y12.099Z-2.32
X12.378Y12.089Z-2.317
X12.401Y12.079Z-2.315
X12.423Y12.068Z-2.313
X12.444Y12.057Z-2.311
X12.466Y12.045Z-2.31
X12.487Y12.033Z-2.309
X12.508Y12.02Z-2.308
X12.528Y12.007Z-2.307
X12.549Y11.993Z-2.306
X12.569Y11.979Z-2.305
G0Z10
X15.697Y15.339
G1Z-2.323F500
X15.679Y15.356F1000
X15.661Y15.374Z-2.324
X15.644Y15.392
X15.622Y15.416Z-2.325
X15.489Y15.566Z-2.33
X14.426Y16.762Z-2.327
X14.293Y16.911Z-2.326
X14.027Y17.21
X14.012Y17.228Z-2.325
X13.997Y17.245
X13.983Y17.263
X13.969Y17.282
X13.955Y17.301
X13.942Y17.32
X13.63Y17.789
X13.519Y17.955
X13.408Y18.121
X13.297Y18.288
X13.186Y18.454
X12.742Y19.12
X12.729Y19.141
X12.716Y19.162
X12.703Y19.183Z-2.326
X12.691Y19.205
X12.664Y19.26Z-2.328
X12.575Y19.438Z-2.33
X12.485Y19.617
X12.396Y19.796
X12.306Y19.975
X11.77Y21.048Z-2.328
X11.68Y21.227Z-2.325
X11.67Y21.249Z-2.324
X11.66Y21.27
X11.651Y21.292Z-2.323
X11.642Y21.314
X11.634Y21.336
X11.622Y21.371
X10.926Y23.458Z-2.326
X10.919Y23.481
X10.912Y23.503Z-2.327
X10.906Y23.526Z-2.326
X10.9Y23.548Z-2.327
X10.895Y23.571
X10.891Y23.594
X10.887Y23.617
X10.884Y23.641
X10.839Y23.971Z-2.333
X10.812Y24.169Z-2.336
X10.785Y24.368Z-2.34
X10.758Y24.566Z-2.343
X10.732Y24.764Z-2.346
X10.705Y24.962Z-2.349
X10.678Y25.16Z-2.353
X10.651Y25.359Z-2.356
X10.625Y25.557Z-2.358
X10.598Y25.755Z-2.355
X10.571Y25.953Z-2.35
X10.384Y27.341Z-2.325
X10.381Y27.365
X10.378Y27.389Z-2.324
X10.376Y27.413
X10.375Y27.438
Y27.462Z-2.325
Y27.486
Y27.511Z-2.326
X10.376Y27.535
X10.395Y27.84Z-2.337
X10.407Y28.04Z-2.342
X10.419Y28.24
X10.528Y30.036Z-2.339
X10.54Y30.236
X10.552Y30.436
X10.564Y30.635Z-2.333
X10.576Y30.835Z-2.326
X10.578Y30.858
X10.58Y30.882Z-2.325
X10.583Y30.905Z-2.324
X10.586Y30.928
X10.59Y30.951
X10.595Y30.974
X10.6Y30.997
X10.605Y31.02
X10.611Y31.042
X10.969Y32.33Z-2.351
X11.022Y32.522Z-2.352
X11.611Y34.642Z-2.319
X11.618Y34.665
X11.625Y34.688
X11.633Y34.711
X11.641Y34.734
X11.65Y34.756
X11.66Y34.778
X11.67Y34.8Z-2.32
X11.696Y34.854Z-2.321
X11.875Y35.212Z-2.322
X12.412Y36.285Z-2.324
X12.591Y36.643
X12.68Y36.822Z-2.32
X12.691Y36.844Z-2.319
X12.703Y36.866Z-2.318
X12.716Y36.887
X12.729Y36.908
X12.742Y36.929
X13.388Y37.897Z-2.317
X13.499Y38.064Z-2.318
X13.721Y38.396Z-2.317
X13.942Y38.729
X13.956Y38.75
X13.971Y38.77
X13.986Y38.789
X14.001Y38.808
X14.017Y38.827
X14.033Y38.846
X14.05Y38.864
X14.067Y38.882
X15.105Y39.919Z-2.343
X15.112Y39.944Z-2.34
X15.119Y39.968Z-2.337
X15.126Y39.992Z-2.335
X15.134Y40.015Z-2.332
X15.143Y40.038Z-2.33
X15.152Y40.061Z-2.328
X15.162Y40.084Z-2.325
X15.173Y40.107Z-2.324
X15.184Y40.129Z-2.322
X15.195Y40.151Z-2.321
X15.207Y40.173Z-2.319
X15.22Y40.194Z-2.318
X15.233Y40.215Z-2.317
X15.247Y40.236Z-2.316
X15.261Y40.256Z-2.315
X15.276Y40.276
X15.291Y40.296Z-2.314
X15.307Y40.315
X15.323Y40.334
X15.339Y40.352
X15.356Y40.37
X15.374Y40.388Z-2.315
X15.392Y40.405
X15.416Y40.427Z-2.316
X15.566Y40.56Z-2.32
X16.313Y41.225Z-2.318
X17.061Y41.889Z-2.316
X17.21Y42.022Z-2.315
X17.228Y42.037
X17.245Y42.052Z-2.314
X17.263Y42.066
X17.282Y42.08
X17.301Y42.094Z-2.313
X17.32Y42.107
X17.456Y42.197Z-2.314
X17.622Y42.308Z-2.313
X17.955Y42.53Z-2.314
X18.621Y42.974
X18.953Y43.196
X19.12Y43.307
X19.141Y43.32
X19.162Y43.333
X19.183Y43.346Z-2.315
X19.205Y43.358
X19.26Y43.385Z-2.317
X19.438Y43.474Z-2.318
X20.512Y44.011Z-2.316
X20.691Y44.101
X20.87Y44.19
X21.048Y44.279
X21.227Y44.369Z-2.313
X21.249Y44.379Z-2.312
X21.27Y44.389Z-2.311
X21.292Y44.398
X21.314Y44.407Z-2.31
X21.336Y44.415
X21.371Y44.427
X23.458Y45.123Z-2.313
X23.481Y45.13Z-2.314
X23.503Y45.137
X23.526Y45.143
X23.548Y45.149Z-2.313
X23.571Y45.154
X23.594Y45.158Z-2.314
X23.617Y45.162
X23.641Y45.165
X24.764Y45.317Z-2.333
X24.962Y45.344Z-2.336
X25.16Y45.371Z-2.34
X25.359Y45.398Z-2.343
X25.557Y45.424Z-2.345
X25.755Y45.451Z-2.341
X25.953Y45.478Z-2.337
X27.341Y45.665Z-2.312
X27.365Y45.668Z-2.311
X27.389Y45.671
X27.413Y45.673
X27.438Y45.674
X27.462
X27.486Z-2.312
X27.511
X27.535Y45.673Z-2.313
X27.84Y45.654Z-2.323
X28.04Y45.642Z-2.328
X30.036Y45.521Z-2.326
X30.236Y45.509
X30.436Y45.497
X30.635Y45.485Z-2.32
X30.835Y45.473Z-2.313
X30.858Y45.471Z-2.312
X30.882Y45.469
X30.905Y45.466Z-2.311
X30.928Y45.463
X30.951Y45.459
X30.974Y45.454
X30.997Y45.449
X31.02Y45.444
X31.042Y45.438
X31.173Y45.402Z-2.314
X31.366Y45.348Z-2.318
X31.559Y45.294Z-2.322
X31.752Y45.241Z-2.326
X31.944Y45.187Z-2.33
X32.137Y45.134Z-2.334
X32.33Y45.08Z-2.338
X32.522Y45.027Z-2.339
X34.642Y44.438Z-2.306
X34.665Y44.431
X34.688Y44.424
X34.711Y44.416
X34.734Y44.408
X34.756Y44.399
X34.778Y44.389Z-2.307
X34.8Y44.379
X34.854Y44.353Z-2.309
X35.033Y44.263Z-2.31
X35.57Y43.995Z-2.311
X35.748Y43.906
X35.927Y43.816
X36.643Y43.458Z-2.312
X36.822Y43.369Z-2.309
X36.844Y43.358Z-2.308
X36.866Y43.346Z-2.307
X36.887Y43.333
X36.908Y43.32
X36.929Y43.307Z-2.306
X37.065Y43.216Z-2.307
X37.398Y42.994Z-2.306
X37.564Y42.883
X38.396Y42.328
X38.729Y42.107
X38.75Y42.093
X38.77Y42.078
X38.789Y42.063
X38.808Y42.048
X38.827Y42.032Z-2.307
X38.846Y42.016
X38.864Y41.999
X38.882Y41.982
X39.919Y40.944Z-2.333
X39.944Y40.937Z-2.33
X39.968Y40.93Z-2.327
X39.992Y40.923Z-2.325
X40.015Y40.915Z-2.322
X40.038Y40.906Z-2.32
X40.061Y40.897Z-2.317
X40.084Y40.887Z-2.315
X40.107Y40.876Z-2.313
X40.129Y40.865Z-2.312
X40.151Y40.854Z-2.31
X40.173Y40.842Z-2.309
X40.194Y40.829Z-2.308
X40.215Y40.816Z-2.306
X40.236Y40.802
X40.256Y40.788Z-2.305
X40.276Y40.773Z-2.304
X40.296Y40.758
X40.315Y40.742
X40.334Y40.726
X40.352Y40.71
X40.37Y40.693
X40.388Y40.675
X40.405Y40.657Z-2.305
X40.427Y40.633Z-2.306
X40.56Y40.483Z-2.311
X40.693Y40.334
X41.225Y39.736Z-2.309
X41.358Y39.586Z-2.308
X41.756Y39.138
X42.022Y38.839Z-2.307
X42.037Y38.821Z-2.306
X42.052Y38.804
X42.066Y38.785
X42.08Y38.767
X42.094Y38.748
X42.107Y38.729
X42.197Y38.593
X42.308Y38.427
X42.53Y38.094
X43.085Y37.262
X43.196Y37.096Z-2.307
X43.307Y36.929Z-2.306
X43.32Y36.908Z-2.307
X43.333Y36.887
X43.346Y36.866
X43.358Y36.844Z-2.308
X43.385Y36.789Z-2.31
X43.474Y36.611Z-2.312
X44.011Y35.537Z-2.31
X44.101Y35.358
X44.19Y35.179
X44.279Y35.001
X44.369Y34.822Z-2.308
X44.379Y34.8Z-2.307
X44.389Y34.779
X44.398Y34.757Z-2.306
X44.407Y34.735
X44.415Y34.713
X44.427Y34.678
X45.123Y32.591Z-2.309
X45.13Y32.568
X45.137Y32.545
X45.143Y32.522Z-2.31
X45.149Y32.499
X45.154Y32.476
X45.159Y32.452Z-2.311
X45.163Y32.429
X45.17Y32.372Z-2.312
X45.196Y32.174Z-2.316
X45.222Y31.976Z-2.319
X45.248Y31.778Z-2.323
X45.379Y30.786Z-2.34
X45.405Y30.588Z-2.344
X45.431Y30.39
X45.666Y28.605Z-2.312
X45.669Y28.581
X45.671Y28.557
X45.673Y28.533
X45.674Y28.509
Y28.485
Y28.46Z-2.313
Y28.436
X45.672Y28.406Z-2.314
X45.647Y28.007Z-2.327
X45.622Y27.607Z-2.328
X45.522Y26.011Z-2.326
X45.51Y25.811
X45.498Y25.611
X45.485Y25.412Z-2.323
X45.473Y25.212Z-2.316
X45.471Y25.186Z-2.315
X45.468Y25.16Z-2.314
X45.465Y25.134
X45.461Y25.109
X45.456Y25.083Z-2.313
X45.451Y25.057
X45.445Y25.032Z-2.314
X45.438Y25.007
X45.402Y24.876Z-2.317
X45.348Y24.683Z-2.321
X45.294Y24.49Z-2.325
X45.241Y24.297Z-2.329
X45.187Y24.105Z-2.333
X45.134Y23.912Z-2.337
X45.08Y23.719Z-2.341
X45.027Y23.527Z-2.343
X44.599Y21.985Z-2.32
X44.438Y21.407Z-2.31
X44.431Y21.384
X44.424Y21.361
X44.416Y21.338
X44.408Y21.315
X44.399Y21.293Z-2.311
X44.389Y21.271
X44.379Y21.249Z-2.312
X44.353Y21.195Z-2.314
X44.263Y21.016Z-2.316
X44.174Y20.837
X44.084Y20.658
X43.995Y20.479
X43.906Y20.301Z-2.317
X43.458Y19.406Z-2.318
X43.369Y19.227Z-2.316
X43.358Y19.205Z-2.315
X43.346Y19.183
X43.333Y19.162Z-2.314
X43.32Y19.141
X43.307Y19.12
X43.216Y18.984
X42.994Y18.651
X42.883Y18.485
X42.439Y17.819
X42.328Y17.653Z-2.313
X42.107Y17.32
X42.093Y17.299
X42.078Y17.279Z-2.314
X42.063Y17.26
X42.048Y17.241
X42.032Y17.222Z-2.315
X42.016Y17.203
X41.999Y17.185Z-2.316
X41.982Y17.167
X40.944Y16.13Z-2.342
X40.937Y16.105Z-2.339
X40.93Y16.081Z-2.336
X40.923Y16.057Z-2.333
X40.915Y16.034Z-2.331
X40.906Y16.011Z-2.329
X40.897Y15.988Z-2.326
X40.887Y15.965Z-2.324
X40.876Y15.942Z-2.322
X40.865Y15.92Z-2.321
X40.854Y15.898Z-2.319
X40.842Y15.876Z-2.318
X40.829Y15.855Z-2.317
X40.816Y15.834Z-2.316
X40.802Y15.813Z-2.315
X40.788Y15.793Z-2.314
X40.773Y15.773Z-2.313
X40.758Y15.753
X40.742Y15.734
X40.726Y15.715
X40.71Y15.697
X40.693Y15.679
X40.675Y15.661
X40.657Y15.644Z-2.314
X40.633Y15.622Z-2.315
X40.483Y15.489Z-2.321
X39.736Y14.824Z-2.319
X39.586Y14.691
X38.839Y14.027Z-2.317
X38.821Y14.012
X38.804Y13.997
X38.785Y13.983
X38.767Y13.969
X38.748Y13.955
X38.729Y13.942
X38.094Y13.519Z-2.318
X37.928Y13.408Z-2.317
X37.761Y13.297Z-2.318
X37.595Y13.186Z-2.317
X36.929Y12.742Z-2.318
X36.908Y12.729
X36.887Y12.716
X36.866Y12.703
X36.844Y12.691Z-2.319
X36.789Y12.664Z-2.321
X36.611Y12.575Z-2.324
X36.432Y12.485
X36.253Y12.396
X36.074Y12.306
X35.001Y11.77Z-2.322
X34.822Y11.68Z-2.321
X34.8Y11.67Z-2.32
X34.779Y11.66
X34.757Y11.651Z-2.319
X34.735Y11.642
X34.713Y11.634
X34.678Y11.622
X33.16Y11.116Z-2.321
X32.591Y10.926Z-2.322
X32.568Y10.919
X32.546Y10.912
X32.523Y10.906Z-2.323
X32.501Y10.9
X32.478Y10.895
X32.455Y10.891Z-2.324
X32.432Y10.887
X32.408Y10.884Z-2.325
X32.276Y10.866Z-2.327
X32.078Y10.839Z-2.33
X31.88Y10.812Z-2.333
X31.681Y10.785Z-2.337
X31.483Y10.758Z-2.34
X31.285Y10.732Z-2.344
X31.087Y10.705Z-2.347
X30.69Y10.651Z-2.354
X30.492Y10.625Z-2.357
X30.294Y10.598Z-2.354
X28.708Y10.384Z-2.324
X28.684Y10.381
X28.66Y10.378Z-2.323
X28.636Y10.376
X28.611Y10.375Z-2.324
X28.587
X28.563
X28.538Z-2.325
X28.514Y10.376Z-2.326
X28.209Y10.395Z-2.336
X28.009Y10.407Z-2.342
X27.809Y10.419Z-2.343
X26.013Y10.528Z-2.34
X25.813Y10.54
X25.613Y10.552
X25.414Y10.564Z-2.336
X25.214Y10.576Z-2.329
X25.191Y10.578Z-2.328
X25.167Y10.58
X25.144Y10.583Z-2.327
X25.121Y10.586
X25.098Y10.59
X25.075Y10.595Z-2.326
X25.052Y10.6Z-2.327
X25.029Y10.605
X25.007Y10.611
X24.49Y10.755Z-2.338
X23.719Y10.969Z-2.354
X23.527Y11.022Z-2.356
X21.407Y11.611Z-2.323
X21.384Y11.618
X21.361Y11.625
X21.338Y11.633
X21.315Y11.641
X21.293Y11.65
X21.271Y11.66Z-2.324
X21.249Y11.67
X21.195Y11.696Z-2.327
X21.016Y11.786Z-2.328
X19.764Y12.412Z-2.33
X19.585Y12.501
X19.406Y12.591
X19.227Y12.68Z-2.327
X19.205Y12.691Z-2.326
X19.183Y12.703
X19.162Y12.716Z-2.325
X19.141Y12.729
X19.12Y12.742
X18.152Y13.388
X17.985Y13.499
X17.653Y13.721Z-2.324
X17.32Y13.942Z-2.325
X17.299Y13.956
X17.279Y13.971
X17.26Y13.986
X17.241Y14.001
X17.222Y14.017Z-2.326
X17.203Y14.033
X17.185Y14.05
X17.167Y14.067
X16.13Y15.105Z-2.352
X16.105Y15.112Z-2.349
X16.081Y15.119Z-2.346
X16.057Y15.126Z-2.344
X16.034Y15.134Z-2.341
X16.011Y15.143Z-2.339
X15.988Y15.152Z-2.336
X15.965Y15.162Z-2.334
X15.942Y15.173Z-2.333
X15.92Y15.184Z-2.331
X15.898Y15.195Z-2.329
X15.876Y15.207Z-2.328
X15.855Y15.22Z-2.327
X15.834Y15.233Z-2.326
X15.813Y15.247Z-2.325
X15.793Y15.261Z-2.324
X15.773Y15.276Z-2.323
X15.753Y15.291
X15.734Y15.307
X15.715Y15.323
X15.697Y15.339
G0Z10
X11.775Y11.175
G1Z-2.6F500
X11.975F1000
X13.874Y9.374
X16.275Y7.775
X19.174Y6.375
X21.775Y5.475
X24.774Y4.875
X29.074Y4.675
X31.275Y4.875
X34.274Y5.475
X36.874Y6.375
X39.774Y7.775
X42.174Y9.374
X44.875Y11.775
Y11.975
X46.675Y13.874
X48.274Y16.275
X49.674Y19.174
X50.574Y21.775
X51.174Y24.774
X51.374Y29.074
X51.174Y31.275
X50.574Y34.274
X49.674Y36.874
X48.274Y39.774
X46.675Y42.174
X44.275Y44.875
X44.074
X42.174Y46.675
X39.774Y48.274
X36.874Y49.674
X34.274Y50.574
X31.275Y51.174
X26.974Y51.374
X24.774Y51.174
X21.775Y50.574
X19.174Y49.674
X16.275Y48.274
X13.874Y46.675
X11.175Y44.275
Y44.074
X9.374Y42.174
X7.775Y39.774
X6.375Y36.874
X5.475Y34.274
X4.875Y31.275
X4.675Y26.974
X4.875Y24.774
X5.475Y21.775
X6.375Y19.174
X7.775Y16.275
X9.374Y13.874
X11.775Y11.175
G0Z10
X16.375Y16.075
G1Z-2.6F500
X14.775Y17.874F1000
X13.575Y19.675
X12.575Y21.675
X11.875Y23.775
X11.375Y27.474
X11.574Y30.774
X12.575Y34.375
X13.575Y36.374
X14.775Y38.174
X16.075Y39.474
Y39.674
X17.874Y41.274
X19.675Y42.475
X21.675Y43.474
X23.775Y44.174
X27.474Y44.675
X30.774Y44.475
X34.375Y43.474
X36.374Y42.475
X38.174Y41.274
X39.474Y39.974
X39.674
X41.274Y38.174
X42.475Y36.374
X43.474Y34.375
X44.174Y32.274
X44.675Y28.475
X44.475Y25.274
X43.474Y21.675
X42.475Y19.675
X41.274Y17.874
X39.974Y16.574
Y16.375
X38.174Y14.775
X36.374Y13.575
X34.375Y12.575
X32.274Y11.875
X28.574Y11.375
X25.274Y11.574
X21.675Y12.575
X19.675Y13.575
X17.874Y14.775
X16.574Y16.075
X16.375
G0Z10
X1.5Y1.501
G1Z-3.1F500
X4.871Y1.503F1000
X4.729Y1.609
X4.535Y1.76
X4.345Y1.915
X4.159Y2.075
X3.977Y2.24
X3.799Y2.409
X3.625Y2.582
X3.456Y2.76
X3.365Y2.859
X1.5Y4.917
Y1.501
X0.5Y0.5
X7.65Y0.504
X7.243Y0.781
X7.07Y0.904
X6.899Y1.032
X6.732Y1.163
X6.568Y1.299
X6.407Y1.438
X6.249Y1.581
X6.095Y1.728
X6.044Y1.778
X5.576Y2.228
X5.423Y2.339
X5.247Y2.472
X5.074Y2.61
X4.905Y2.752
X4.739Y2.898
X4.577Y3.048
X4.419Y3.202
X4.264Y3.36
X4.106Y3.531
X1.14Y6.804
X0.994Y6.973
X0.853Y7.144
X0.716Y7.32
X0.583Y7.498
X0.5Y7.616
Y0.5
X-0.499Y-0.499
X10.92
X10.782Y-0.41
X10.682Y-0.344
X7.814Y1.602
X7.66Y1.711
X7.509Y1.825
X7.36Y1.941
X7.214Y2.062
X7.071Y2.185
X6.931Y2.313
X6.793Y2.443
X6.742Y2.494
X6.221Y2.997
X6.098Y3.084
X5.94Y3.201
X5.785Y3.321
X5.633Y3.446
X5.484Y3.574
X5.338Y3.705
X5.196Y3.84
X5.057Y3.979
X4.921Y4.121
X4.847Y4.202
X1.889Y7.467
X1.76Y7.616
X1.634Y7.769
X1.512Y7.925
X1.394Y8.083
X1.28Y8.245
X1.218Y8.337
X-0.429Y10.81
X-0.499Y10.92
Y-0.499
X-1.499Y-1.499
X15.072
X11.973Y0.05
X11.809Y0.137
X11.648Y0.228
X11.489Y0.324
X11.332Y0.423
X11.244Y0.482
X8.386Y2.422
X8.251Y2.518
X8.118Y2.617
X7.988Y2.72
X7.86Y2.825
X7.735Y2.933
X7.612Y3.044
X7.492Y3.158
X6.882Y3.757
X6.754Y3.845
X6.614Y3.945
X6.477Y4.049
X6.343Y4.156
X6.211Y4.266
X6.082Y4.38
X5.956Y4.497
X5.833Y4.616
X5.713Y4.739
X5.588Y4.874
X2.638Y8.129
X2.525Y8.26
X2.415Y8.393
X2.308Y8.53
X2.205Y8.668
X2.106Y8.81
X2.05Y8.892
X0.409Y11.354
X0.316Y11.501
X0.226Y11.65
X0.141Y11.802
X0.059Y11.955
X0.014Y12.044
X-1.499Y15.072
Y-1.499
X-2.499Y-2.499
X21.555
X20.032Y-2.194
X19.874Y-2.159
X19.718Y-2.119
X19.562Y-2.075
X19.408Y-2.027
X19.319Y-1.997
X16.356Y-0.975
X16.209Y-0.92
X16.062Y-0.861
X15.917Y-0.798
X15.774Y-0.732
X15.691Y-0.691
X12.432Y0.938
X12.292Y1.013
X12.153Y1.091
X12.017Y1.173
X11.883Y1.258
X11.805Y1.31
X8.957Y3.243
X8.841Y3.325
X8.727Y3.41
X8.616Y3.498
X8.506Y3.588
X8.399Y3.681
X8.294Y3.776
X8.191Y3.874
X8.143Y3.921
X7.528Y4.529
X7.39Y4.62
X7.27Y4.705
X7.151Y4.792
X7.035Y4.883
X6.921Y4.976
X6.809Y5.072
X6.7Y5.17
X6.593Y5.272
X6.489Y5.376
X6.387Y5.482
X6.329Y5.545
X3.387Y8.791
X3.29Y8.903
X3.196Y9.018
X3.105Y9.135
X3.016Y9.254
X2.931Y9.375
X2.882Y9.446
X1.248Y11.898
X1.168Y12.024
X1.091Y12.152
X1.018Y12.282
X0.947Y12.414
X0.908Y12.491
X-0.72Y15.75
X-0.787Y15.893
X-0.851Y16.038
X-0.91Y16.184
X-0.966Y16.332
X-0.997Y16.419
X-2.018Y19.382
X-2.067Y19.536
X-2.112Y19.692
X-2.152Y19.848
X-2.189Y20.006
X-2.208Y20.098
X-2.499Y21.555
Y-2.499
G0Z10
X27.66Y27.388
G1Z-3.1F500
X27.863Y27.308F1000
X28.192Y27.318
X28.366Y27.365
X28.661Y27.66
X28.732Y27.841
X28.742Y28.159
X28.643Y28.407
X28.389Y28.661
X28.186Y28.741
X27.857Y28.731
X27.683Y28.684
X27.388Y28.389
X27.308Y28.186
X27.318Y27.857
X27.365Y27.683
X27.66Y27.388
X27.1Y26.534
X27.653Y26.316
X27.736Y26.304
X28.341Y26.322
X28.886Y26.471
X29.515Y27.1
X29.726Y27.636
X29.746Y28.253
X29.726Y28.393
X29.495Y28.969
X28.949Y29.515
X28.396Y29.733
X28.313Y29.745
X27.708Y29.727
X27.163Y29.578
X26.534Y28.949
X26.316Y28.396
X26.304Y28.313
X26.322Y27.708
X26.471Y27.163
X27.1Y26.534
X26.54Y25.68
X27.393Y25.343
X27.678Y25.301
X28.489Y25.326
X29.385Y25.57
X29.429Y25.6
X30.369Y26.54
X30.72Y27.431
X30.748Y28.308
X30.699Y28.653
X30.348Y29.531
X29.509Y30.369
X28.656Y30.706
X28.371Y30.748
X27.56Y30.723
X26.664Y30.479
X26.62Y30.449
X25.68Y29.509
X25.343Y28.656
X25.301Y28.371
X25.326Y27.56
X25.57Y26.664
X25.6Y26.62
X26.54Y25.68
X26.039Y24.802
X27.133Y24.371
X27.619Y24.299
X28.638Y24.33
X29.757Y24.635
X29.852Y24.68
X30.067Y24.823
X31.18Y25.937
X31.247Y26.039
X31.714Y27.226
X31.75Y28.364
X31.672Y28.914
X31.2Y30.093
X30.112Y31.18
X30.01Y31.247
X28.916Y31.678
X28.43Y31.75
X27.411Y31.719
X26.292Y31.414
X26.197Y31.369
X25.982Y31.226
X24.869Y30.112
X24.802Y30.01
X24.371Y28.916
X24.299Y28.43
X24.33Y27.411
X24.635Y26.292
X24.68Y26.197
X24.823Y25.982
X25.937Y24.869
X26.039Y24.802
X25.578Y23.909
X26.874Y23.399
X27.56Y23.297
X28.787Y23.334
X30.104Y23.693
X30.345Y23.807
X30.704Y24.046
X31.962Y25.304
X32.14Y25.578
X32.709Y27.021
X32.752Y28.419
X32.645Y29.174
X32.076Y30.594
X32.003Y30.704
X30.745Y31.962
X30.471Y32.14
X29.175Y32.65
X28.489Y32.752
X27.262Y32.715
X25.945Y32.356
X25.704Y32.242
X25.345Y32.003
X24.087Y30.745
X23.909Y30.471
X23.399Y29.175
X23.297Y28.489
X23.334Y27.262
X23.693Y25.945
X23.807Y25.704
X24.046Y25.345
X25.304Y24.087
X25.578Y23.909
X25.118Y23.015
X26.614Y22.426
X27.502Y22.295
X28.936Y22.338
X30.451Y22.751
X30.838Y22.933
X31.341Y23.269
X32.743Y24.671
X33.034Y25.118
X33.703Y26.816
X33.754Y28.475
X33.618Y29.434
X32.966Y31.062
X32.78Y31.341
X31.378Y32.743
X30.931Y33.034
X29.435Y33.623
X28.547Y33.754
X27.113Y33.711
X25.598Y33.298
X25.211Y33.116
X24.708Y32.78
X23.306Y31.378
X23.015Y30.931
X22.426Y29.435
X22.295Y28.547
X22.338Y27.113
X22.751Y25.598
X22.933Y25.211
X23.269Y24.708
X24.671Y23.306
X25.118Y23.015
X24.658Y22.122
X26.354Y21.454
X27.443Y21.292
X29.084Y21.342
X30.798Y21.809
X31.331Y22.06
X31.978Y22.491
X33.524Y24.038
X33.927Y24.658
X34.67Y26.543
X34.699Y26.69
X34.757Y28.53
X34.591Y29.694
X33.856Y31.53
X33.558Y31.978
X32.011Y33.524
X31.391Y33.927
X29.695Y34.595
X28.606Y34.757
X26.965Y34.707
X25.251Y34.24
X24.718Y33.989
X24.071Y33.558
X22.525Y32.011
X22.122Y31.391
X21.454Y29.695
X21.292Y28.606
X21.342Y26.965
X21.809Y25.251
X22.06Y24.718
X22.491Y24.071
X24.038Y22.525
X24.658Y22.122
X24.197Y21.229
X26.094Y20.481
X27.385Y20.29
X29.233Y20.346
X31.145Y20.868
X31.824Y21.187
X32.615Y21.714
X34.306Y23.405
X34.82Y24.197
X35.633Y26.259
X35.696Y26.576
X35.759Y28.586
X35.564Y29.954
X34.746Y31.998
X34.335Y32.615
X32.644Y34.306
X31.852Y34.82
X29.955Y35.568
X28.664Y35.759
X26.816Y35.703
X24.904Y35.181
X24.225Y34.862
X23.434Y34.335
X21.743Y32.644
X21.229Y31.852
X20.481Y29.955
X20.29Y28.664
X20.346Y26.816
X20.868Y24.904
X21.187Y24.225
X21.714Y23.434
X23.405Y21.743
X24.197Y21.229
X23.737Y20.335
X25.834Y19.509
X27.326Y19.288
X29.382Y19.35
X31.492Y19.926
X32.317Y20.314
X33.252Y20.937
X35.087Y22.772
X35.714Y23.737
X36.596Y25.976
X36.693Y26.461
X36.761Y28.641
X36.537Y30.214
X35.636Y32.466
X35.112Y33.252
X33.277Y35.087
X32.312Y35.714
X30.215Y36.54
X28.723Y36.761
X26.667Y36.699
X24.557Y36.123
X23.732Y35.735
X22.797Y35.112
X20.962Y33.277
X20.335Y32.312
X19.509Y30.215
X19.288Y28.723
X19.35Y26.667
X19.926Y24.557
X20.314Y23.732
X20.937Y22.797
X22.772Y20.962
X23.737Y20.335
G0Z10
X51.132Y1.5
G1Z-3.1F500
X54.497F1000
X54.49Y4.795
X54.365Y4.632
X54.212Y4.44
X54.054Y4.252
X53.892Y4.068
X53.725Y3.888
X53.554Y3.712
X53.378Y3.54
X53.19Y3.365
X51.132Y1.5
X49.316Y1.204
X49.161Y1.066
X48.991Y0.923
X48.817Y0.784
X48.64Y0.649
X48.46Y0.519
X48.433Y0.5
X55.499
X55.494Y7.538
X55.356Y7.35
X55.223Y7.178
X55.086Y7.01
X54.945Y6.845
X54.8Y6.683
X54.739Y6.618
X53.945Y5.756
X53.84Y5.602
X53.71Y5.423
X53.577Y5.247
X53.439Y5.074
X53.297Y4.905
X53.151Y4.739
X53.001Y4.577
X52.847Y4.419
X52.689Y4.264
X52.518Y4.106
X49.316Y1.204
X48.645Y1.945
X48.508Y1.824
X48.357Y1.696
X48.203Y1.573
X48.045Y1.453
X47.885Y1.337
X47.712Y1.218
X45.239Y-0.429
X45.129Y-0.499
X56.499
Y10.842
X56.431Y10.737
X54.784Y8.267
X54.673Y8.109
X54.559Y7.953
X54.44Y7.801
X54.319Y7.651
X54.193Y7.505
X54.065Y7.361
X54.007Y7.298
X53.161Y6.382
X53.078Y6.259
X52.965Y6.098
X52.848Y5.94
X52.728Y5.785
X52.603Y5.633
X52.475Y5.484
X52.344Y5.338
X52.209Y5.196
X52.07Y5.057
X51.928Y4.921
X51.847Y4.847
X48.645Y1.945
X47.974Y2.686
X47.855Y2.581
X47.723Y2.47
X47.588Y2.361
X47.45Y2.256
X47.31Y2.155
X47.157Y2.05
X44.695Y0.409
X44.548Y0.316
X44.399Y0.226
X44.247Y0.141
X44.094Y0.059
X44.005Y0.014
X40.977Y-1.499
X57.499
Y14.972
X56.002Y11.977
X55.92Y11.824
X55.835Y11.672
X55.746Y11.522
X55.653Y11.375
X55.599Y11.292
X53.958Y8.832
X53.862Y8.693
X53.762Y8.557
X53.658Y8.424
X53.552Y8.293
X53.442Y8.164
X53.329Y8.039
X52.386Y7.026
X52.301Y6.896
X52.204Y6.754
X52.104Y6.614
X52Y6.477
X51.893Y6.343
X51.783Y6.211
X51.669Y6.082
X51.552Y5.956
X51.433Y5.833
X51.31Y5.713
X51.175Y5.588
X47.974Y2.686
X47.303Y3.428
X47.202Y3.339
X47.089Y3.243
X46.973Y3.15
X46.855Y3.06
X46.735Y2.973
X46.603Y2.882
X44.151Y1.248
X44.025Y1.168
X43.897Y1.091
X43.767Y1.018
X43.635Y0.947
X43.558Y0.908
X40.299Y-0.72
X40.156Y-0.787
X40.011Y-0.851
X39.865Y-0.91
X39.717Y-0.966
X39.63Y-0.997
X36.667Y-2.018
X36.513Y-2.067
X36.357Y-2.112
X36.201Y-2.152
X36.043Y-2.189
X35.951Y-2.208
X34.494Y-2.499
X58.499
Y21.305
X58.244Y20.032
X58.209Y19.874
X58.169Y19.718
X58.125Y19.562
X58.077Y19.408
X58.047Y19.319
X57.025Y16.356
X56.97Y16.209
X56.911Y16.062
X56.848Y15.917
X56.782Y15.774
X56.741Y15.691
X55.113Y12.436
X55.043Y12.304
X54.97Y12.174
X54.894Y12.045
X54.815Y11.919
X54.767Y11.846
X53.133Y9.396
X53.05Y9.278
X52.964Y9.161
X52.876Y9.047
X52.785Y8.934
X52.691Y8.824
X52.594Y8.717
X52.544Y8.663
X51.6Y7.655
X51.51Y7.513
X51.429Y7.39
X51.344Y7.27
X51.257Y7.151
X51.166Y7.035
X51.073Y6.921
X50.977Y6.809
X50.879Y6.7
X50.777Y6.593
X50.673Y6.489
X50.567Y6.387
X50.504Y6.329
X47.303Y3.428
G0Z10
X54.499Y51.187
G1Z-3.1F500
Y54.499F1000
X51.241
X51.417Y54.365
X51.609Y54.212
X51.797Y54.054
X51.981Y53.892
X52.161Y53.725
X52.337Y53.554
X52.509Y53.378
X52.684Y53.19
X54.499Y51.187
X54.845Y49.316
X54.983Y49.161
X55.126Y48.991
X55.265Y48.817
X55.4Y48.64
X55.5Y48.504
Y55.5
X48.504
X48.699Y55.356
X48.871Y55.223
X49.039Y55.086
X49.204Y54.945
X49.366Y54.8
X49.431Y54.739
X50.293Y53.945
X50.447Y53.84
X50.626Y53.71
X50.802Y53.577
X50.975Y53.439
X51.144Y53.297
X51.31Y53.151
X51.472Y53.001
X51.63Y52.847
X51.785Y52.689
X51.943Y52.518
X54.845Y49.316
X54.104Y48.645
X54.225Y48.508
X54.353Y48.357
X54.476Y48.203
X54.596Y48.045
X54.712Y47.885
X54.831Y47.712
X56.479Y45.239
X56.499Y45.207
Y56.499
X45.207
X45.312Y56.431
X47.782Y54.784
X47.94Y54.673
X48.096Y54.559
X48.248Y54.44
X48.398Y54.319
X48.544Y54.193
X48.688Y54.065
X48.751Y54.007
X49.667Y53.161
X49.79Y53.078
X49.951Y52.965
X50.109Y52.848
X50.264Y52.728
X50.416Y52.603
X50.565Y52.475
X50.711Y52.344
X50.853Y52.209
X50.992Y52.07
X51.128Y51.928
X51.202Y51.847
X54.104Y48.645
X53.363Y47.974
X53.468Y47.855
X53.579Y47.723
X53.688Y47.588
X53.793Y47.45
X53.894Y47.31
X53.999Y47.157
X55.64Y44.695
X55.733Y44.548
X55.823Y44.399
X55.908Y44.247
X55.99Y44.094
X56.035Y44.005
X57.499Y41.077
Y57.499
X41.077
X44.072Y56.002
X44.225Y55.92
X44.377Y55.835
X44.527Y55.746
X44.674Y55.653
X44.757Y55.599
X47.217Y53.958
X47.356Y53.862
X47.492Y53.762
X47.625Y53.658
X47.756Y53.552
X47.885Y53.442
X48.01Y53.329
X49.023Y52.386
X49.153Y52.301
X49.295Y52.204
X49.435Y52.104
X49.572Y52
X49.706Y51.893
X49.838Y51.783
X49.967Y51.669
X50.093Y51.552
X50.216Y51.433
X50.336Y51.31
X50.461Y51.175
X53.363Y47.974
X52.621Y47.303
X52.71Y47.202
X52.806Y47.089
X52.899Y46.973
X52.989Y46.855
X53.076Y46.735
X53.167Y46.603
X54.801Y44.151
X54.881Y44.025
X54.958Y43.897
X55.031Y43.767
X55.102Y43.635
X55.141Y43.558
X56.77Y40.299
X56.837Y40.156
X56.901Y40.011
X56.96Y39.865
X57.016Y39.717
X57.047Y39.63
X58.068Y36.667
X58.117Y36.513
X58.162Y36.357
X58.202Y36.201
X58.239Y36.043
X58.258Y35.951
X58.499Y34.744
Y58.499
X34.744
X36.017Y58.244
X36.175Y58.209
X36.331Y58.169
X36.487Y58.125
X36.641Y58.077
X36.73Y58.047
X39.693Y57.025
X39.84Y56.97
X39.987Y56.911
X40.132Y56.848
X40.275Y56.782
X40.358Y56.741
X43.613Y55.113
X43.745Y55.043
X43.875Y54.97
X44.004Y54.894
X44.13Y54.815
X44.203Y54.767
X46.653Y53.133
X46.771Y53.05
X46.888Y52.964
X47.002Y52.876
X47.115Y52.785
X47.225Y52.691
X47.332Y52.594
X47.386Y52.544
X48.394Y51.6
X48.536Y51.51
X48.659Y51.429
X48.779Y51.344
X48.898Y51.257
X49.014Y51.166
X49.128Y51.073
X49.24Y50.977
X49.349Y50.879
X49.456Y50.777
X49.56Y50.673
X49.662Y50.567
X49.72Y50.504
X52.621Y47.303
G0Z10
X4.862Y54.499
G1Z-3.1F500
X1.5F1000
Y51.173
X1.609Y51.32
X1.76Y51.514
X1.915Y51.704
X2.075Y51.89
X2.24Y52.072
X2.409Y52.25
X2.582Y52.424
X2.76Y52.593
X2.859Y52.684
X4.862Y54.499
X6.733Y54.845
X6.888Y54.983
X7.058Y55.126
X7.232Y55.265
X7.409Y55.4
X7.545Y55.5
X0.5
Y48.392
X0.781Y48.806
X0.904Y48.979
X1.032Y49.15
X1.163Y49.317
X1.299Y49.481
X1.438Y49.642
X1.581Y49.8
X1.728Y49.954
X1.778Y50.005
X2.228Y50.473
X2.339Y50.626
X2.472Y50.802
X2.61Y50.975
X2.752Y51.144
X2.898Y51.31
X3.048Y51.472
X3.202Y51.63
X3.36Y51.785
X3.531Y51.943
X6.733Y54.845
X7.404Y54.104
X7.541Y54.225
X7.692Y54.353
X7.846Y54.476
X8.004Y54.596
X8.164Y54.712
X8.337Y54.831
X10.81Y56.479
X10.842Y56.499
X-0.499
Y45.129
X-0.41Y45.267
X-0.344Y45.367
X1.602Y48.235
X1.711Y48.389
X1.825Y48.54
X1.941Y48.689
X2.062Y48.835
X2.185Y48.978
X2.313Y49.118
X2.443Y49.256
X2.494Y49.307
X2.997Y49.828
X3.084Y49.951
X3.201Y50.109
X3.321Y50.264
X3.446Y50.416
X3.574Y50.565
X3.705Y50.711
X3.84Y50.853
X3.979Y50.992
X4.121Y51.128
X4.202Y51.202
X7.404Y54.104
X8.075Y53.363
X8.194Y53.468
X8.326Y53.579
X8.461Y53.688
X8.599Y53.793
X8.739Y53.894
X8.892Y53.999
X11.354Y55.64
X11.501Y55.733
X11.65Y55.823
X11.802Y55.908
X11.955Y55.99
X12.044Y56.035
X14.972Y57.499
X-1.499
Y40.977
X0.05Y44.076
X0.137Y44.24
X0.228Y44.401
X0.324Y44.56
X0.423Y44.717
X0.482Y44.805
X2.422Y47.663
X2.518Y47.798
X2.617Y47.931
X2.72Y48.061
X2.825Y48.189
X2.933Y48.314
X3.044Y48.437
X3.158Y48.557
X3.757Y49.167
X3.845Y49.295
X3.945Y49.435
X4.049Y49.572
X4.156Y49.706
X4.266Y49.838
X4.38Y49.967
X4.497Y50.093
X4.616Y50.216
X4.739Y50.336
X4.874Y50.461
X8.075Y53.363
X8.746Y52.621
X8.847Y52.71
X8.96Y52.806
X9.076Y52.899
X9.194Y52.989
X9.314Y53.076
X9.446Y53.167
X11.898Y54.801
X12.024Y54.881
X12.152Y54.958
X12.282Y55.031
X12.414Y55.102
X12.491Y55.141
X15.75Y56.77
X15.893Y56.837
X16.038Y56.901
X16.184Y56.96
X16.332Y57.016
X16.419Y57.047
X19.382Y58.068
X19.536Y58.117
X19.692Y58.162
X19.848Y58.202
X20.006Y58.239
X20.098Y58.258
X21.305Y58.499
X-2.499
Y34.494
X-2.194Y36.017
X-2.159Y36.175
X-2.119Y36.331
X-2.075Y36.487
X-2.027Y36.641
X-1.997Y36.73
X-0.975Y39.693
X-0.92Y39.84
X-0.861Y39.987
X-0.798Y40.132
X-0.732Y40.275
X-0.691Y40.358
X0.938Y43.617
X1.013Y43.757
X1.091Y43.896
X1.173Y44.032
X1.258Y44.166
X1.31Y44.244
X3.243Y47.092
X3.325Y47.208
X3.41Y47.322
X3.498Y47.433
X3.588Y47.543
X3.681Y47.65
X3.776Y47.755
X3.874Y47.858
X3.921Y47.906
X4.529Y48.521
X4.62Y48.659
X4.705Y48.779
X4.792Y48.898
X4.883Y49.014
X4.976Y49.128
X5.072Y49.24
X5.17Y49.349
X5.272Y49.456
X5.376Y49.56
X5.482Y49.662
X5.545Y49.72
X8.746Y52.621
X9.417Y51.879
X9.5Y51.953
X9.595Y52.033
X9.691Y52.11
X9.789Y52.185
X9.889Y52.258
X10.001Y52.335
X12.443Y53.962
X12.548Y54.029
X12.654Y54.093
X12.762Y54.154
X12.872Y54.213
X12.938Y54.247
X16.186Y55.87
X16.305Y55.926
X16.425Y55.979
X16.547Y56.028
X16.67Y56.075
X16.745Y56.101
X19.696Y57.119
X19.824Y57.159
X19.953Y57.197
X20.084Y57.231
X20.215Y57.261
X20.294Y57.277
X23.843Y57.987
X23.968Y58.009
X24.092Y58.028
X24.217Y58.043
X24.343Y58.056
X24.418Y58.062
X27.268Y58.265
X27.393Y58.271
X27.519Y58.274
X27.644
X27.769Y58.271
X27.844Y58.267
X31.592Y58.064
X31.711Y58.055
X31.83Y58.043
X31.949Y58.029
X32.067Y58.011
X32.185Y57.991
X32.255Y57.977
X35.808Y57.266
X35.939Y57.237
X36.07Y57.204
X36.199Y57.167
X36.328Y57.127
X36.404Y57.101
X39.354Y56.084
X39.477Y56.038
X39.6Y55.989
X39.72Y55.937
X39.84Y55.881
X39.911Y55.847
X43.155Y54.224
X43.265Y54.166
X43.373Y54.105
X43.48Y54.042
X43.586Y53.976
X43.648Y53.935
X46.088Y52.308
X46.187Y52.239
X46.284Y52.167
X46.379Y52.094
X46.473Y52.018
X46.565Y51.939
X46.655Y51.859
X46.702Y51.814
X47.789Y50.796
X47.887Y50.738
X47.991Y50.672
X48.093Y50.604
X48.194Y50.534
X48.292Y50.461
X48.389Y50.386
X48.484Y50.308
X48.578Y50.228
X48.669Y50.146
X48.758Y50.061
X48.845Y49.975
X48.93Y49.886
X48.979Y49.832
X51.912Y46.595
X51.993Y46.502
X52.072Y46.407
X52.148Y46.309
X52.222Y46.21
X52.293Y46.109
X52.335Y46.048
X53.962Y43.606
X54.029Y43.501
X54.093Y43.395
X54.154Y43.287
X54.213Y43.177
X54.247Y43.111
X55.87Y39.863
X55.926Y39.744
X55.979Y39.624
X56.028Y39.502
X56.075Y39.379
X56.101Y39.304
X57.119Y36.353
X57.159Y36.225
X57.197Y36.096
X57.231Y35.965
X57.261Y35.834
X57.277Y35.755
X57.987Y32.206
X58.009Y32.081
X58.028Y31.957
X58.043Y31.832
X58.056Y31.706
X58.062Y31.631
X58.265Y28.781
X58.271Y28.656
X58.274Y28.53
Y28.405
X58.271Y28.28
X58.267Y28.205
X58.064Y24.457
X58.055Y24.338
X58.043Y24.219
X58.029Y24.1
X58.011Y23.982
X57.991Y23.864
X57.977Y23.794
X57.266Y20.241
X57.237Y20.11
X57.204Y19.979
X57.167Y19.85
X57.127Y19.721
X57.101Y19.645
X56.084Y16.695
X56.038Y16.572
X55.989Y16.449
X55.937Y16.329
X55.881Y16.209
X55.847Y16.138
X54.224Y12.894
X54.166Y12.784
X54.105Y12.676
X54.042Y12.569
X53.976Y12.463
X53.935Y12.401
X52.308Y9.961
X52.239Y9.862
X52.167Y9.765
X52.094Y9.67
X52.018Y9.576
X51.939Y9.484
X51.859Y9.394
X51.814Y9.347
X50.796Y8.26
X50.738Y8.162
X50.672Y8.058
X50.604Y7.956
X50.534Y7.855
X50.461Y7.757
X50.386Y7.66
X50.308Y7.565
X50.228Y7.471
X50.146Y7.38
X50.061Y7.291
X49.975Y7.204
X49.886Y7.119
X49.832Y7.07
X46.595Y4.137
X46.502Y4.056
X46.407Y3.977
X46.309Y3.901
X46.21Y3.827
X46.109Y3.756
X46.048Y3.714
X43.606Y2.087
X43.501Y2.02
X43.395Y1.956
X43.287Y1.895
X43.177Y1.836
X43.111Y1.802
X39.863Y0.179
X39.744Y0.123
X39.624Y0.07
X39.502Y0.021
X39.379Y-0.025
X39.304Y-0.051
X36.353Y-1.069
X36.225Y-1.109
X36.096Y-1.147
X35.965Y-1.181
X35.834Y-1.211
X35.755Y-1.227
X32.206Y-1.937
X32.081Y-1.959
X31.957Y-1.978
X31.832Y-1.993
X31.706Y-2.006
X31.631Y-2.012
X28.781Y-2.215
X28.656Y-2.221
X28.53Y-2.224
X28.405
X28.28Y-2.221
X28.205Y-2.217
X24.457Y-2.014
X24.338Y-2.005
X24.219Y-1.993
X24.1Y-1.979
X23.982Y-1.961
X23.864Y-1.941
X23.794Y-1.927
X20.241Y-1.216
X20.11Y-1.187
X19.979Y-1.154
X19.85Y-1.117
X19.721Y-1.077
X19.645Y-1.051
X16.695Y-0.034
X16.572Y0.011
X16.449Y0.06
X16.329Y0.112
X16.209Y0.168
X16.138Y0.202
X12.891Y1.826
X12.774Y1.888
X12.659Y1.954
X12.545Y2.022
X12.433Y2.093
X12.367Y2.137
X9.528Y4.064
X9.432Y4.132
X9.337Y4.203
X9.244Y4.276
X9.152Y4.351
X9.063Y4.428
X8.975Y4.508
X8.89Y4.589
X8.154Y5.316
X8.058Y5.377
X7.956Y5.445
X7.855Y5.515
X7.757Y5.588
X7.66Y5.663
X7.565Y5.741
X7.471Y5.821
X7.38Y5.903
X7.291Y5.988
X7.204Y6.074
X7.119Y6.163
X7.07Y6.217
X4.137Y9.454
X4.056Y9.547
X3.977Y9.642
X3.901Y9.74
X3.827Y9.839
X3.756Y9.94
X3.714Y10.001
X2.087Y12.443
X2.02Y12.548
X1.956Y12.654
X1.895Y12.762
X1.836Y12.872
X1.802Y12.938
X0.179Y16.186
X0.123Y16.305
X0.07Y16.425
X0.021Y16.547
X-0.025Y16.67
X-0.051Y16.745
X-1.069Y19.696
X-1.109Y19.824
X-1.147Y19.953
X-1.181Y20.084
X-1.211Y20.215
X-1.227Y20.294
X-1.937Y23.843
X-1.959Y23.968
X-1.978Y24.092
X-1.993Y24.217
X-2.006Y24.343
X-2.012Y24.418
X-2.215Y27.268
X-2.221Y27.393
X-2.224Y27.519
Y27.644
X-2.221Y27.769
X-2.217Y27.844
X-2.014Y31.592
X-2.005Y31.711
X-1.993Y31.83
X-1.979Y31.949
X-1.961Y32.067
X-1.941Y32.185
X-1.927Y32.255
X-1.216Y35.808
X-1.187Y35.939
X-1.154Y36.07
X-1.117Y36.199
X-1.077Y36.328
X-1.051Y36.404
X-0.034Y39.354
X0.011Y39.477
X0.06Y39.6
X0.112Y39.72
X0.168Y39.84
X0.202Y39.911
X1.826Y43.158
X1.888Y43.275
X1.954Y43.39
X2.022Y43.504
X2.093Y43.616
X2.137Y43.682
X4.064Y46.521
X4.132Y46.617
X4.203Y46.712
X4.276Y46.805
X4.351Y46.897
X4.428Y46.986
X4.508Y47.074
X4.589Y47.159
X5.316Y47.895
X5.377Y47.991
X5.445Y48.093
X5.515Y48.194
X5.588Y48.292
X5.663Y48.389
X5.741Y48.484
X5.821Y48.578
X5.903Y48.669
X5.988Y48.758
X6.074Y48.845
X6.163Y48.93
X6.217Y48.979
X9.417Y51.879
G0Z10
X-3.499Y59.499
G1Z-3.1F500
Y-3.499F1000
X59.499
Y59.499
X-3.499
G0Z10
X20.181Y33.91
G1Z-3.1F500
X19.442Y32.773F1000
X18.537Y30.475
X18.286Y28.782
X18.354Y26.518
X18.984Y24.21
X19.441Y23.239
X20.16Y22.16
X22.139Y20.181
X23.276Y19.442
X25.574Y18.537
X27.267Y18.286
X29.531Y18.354
X31.839Y18.984
X32.81Y19.441
X33.889Y20.16
X35.868Y22.139
X36.607Y23.276
X37.559Y25.692
X37.69Y26.347
X37.763Y28.697
X37.51Y30.474
X36.525Y32.934
X35.889Y33.889
X33.91Y35.868
X32.773Y36.607
X30.475Y37.512
X28.782Y37.763
X26.518Y37.695
X24.21Y37.065
X23.239Y36.608
X22.16Y35.889
X20.181Y33.91
X19.4Y34.543
X18.548Y33.233
X17.564Y30.735
X17.283Y28.84
X17.358Y26.37
X18.042Y23.863
X18.567Y22.746
X19.383Y21.523
X21.506Y19.4
X22.816Y18.548
X25.314Y17.564
X27.209Y17.283
X29.679Y17.358
X32.186Y18.042
X33.303Y18.567
X34.526Y19.383
X36.649Y21.506
X37.501Y22.816
X38.522Y25.409
X38.687Y26.232
X38.766Y28.752
X38.483Y30.734
X37.415Y33.402
X36.666Y34.526
X34.543Y36.649
X33.233Y37.501
X30.735Y38.485
X28.84Y38.766
X26.37Y38.691
X23.863Y38.007
X22.746Y37.482
X21.523Y36.666
X19.4Y34.543
G0Z10
X6.109Y47.272
G1Z-3.1F500
X6.163Y47.362F1000
X6.215Y47.446
X6.269Y47.527
X6.326Y47.608
X6.384Y47.687
X6.444Y47.764
X6.506Y47.841
X6.57Y47.915
X6.636Y47.988
X6.703Y48.059
X6.772Y48.129
X6.843Y48.197
X6.888Y48.238
X10.116Y51.163
X10.191Y51.228
X10.267Y51.291
X10.345Y51.352
X10.424Y51.411
X10.505Y51.468
X10.556Y51.503
X12.987Y53.123
X13.071Y53.177
X13.156Y53.228
X13.243Y53.277
X13.33Y53.324
X13.386Y53.352
X16.621Y54.97
X16.716Y55.015
X16.813Y55.057
X16.91Y55.097
X17.009Y55.134
X17.071Y55.156
X20.009Y56.169
X20.111Y56.202
X20.215Y56.232
X20.319Y56.259
X20.424Y56.283
X20.49Y56.297
X24.027Y57.004
X24.126Y57.022
X24.226Y57.037
X24.326Y57.049
X24.427Y57.059
X24.49Y57.064
X27.327Y57.267
X27.427Y57.272
X27.527Y57.274
X27.628
X27.728Y57.272
X27.79Y57.269
X31.526Y57.067
X31.622Y57.059
X31.717Y57.05
X31.812Y57.038
X31.906Y57.024
X32Y57.008
X32.059Y56.997
X35.599Y56.289
X35.704Y56.265
X35.808Y56.239
X35.912Y56.209
X36.015Y56.177
X36.078Y56.156
X39.016Y55.143
X39.114Y55.106
X39.212Y55.067
X39.309Y55.025
X39.404Y54.981
X39.463Y54.952
X42.697Y53.335
X42.785Y53.289
X42.871Y53.24
X42.957Y53.19
X43.041Y53.137
X43.093Y53.103
X45.523Y51.482
X45.602Y51.427
X45.68Y51.37
X45.757Y51.311
X45.831Y51.25
X45.905Y51.188
X45.977Y51.124
X46.018Y51.085
X47.185Y49.988
X47.278Y49.936
X47.362Y49.886
X47.446Y49.834
X47.527Y49.78
X47.608Y49.723
X47.687Y49.665
X47.764Y49.605
X47.841Y49.543
X47.915Y49.479
X47.988Y49.413
X48.059Y49.346
X48.129Y49.277
X48.197Y49.206
X48.238Y49.161
X51.163Y45.933
X51.228Y45.858
X51.291Y45.782
X51.352Y45.704
X51.411Y45.625
X51.468Y45.544
X51.503Y45.493
X53.123Y43.062
X53.177Y42.978
X53.228Y42.893
X53.277Y42.806
X53.324Y42.719
X53.352Y42.663
X54.97Y39.428
X55.015Y39.333
X55.057Y39.236
X55.097Y39.139
X55.134Y39.04
X55.156Y38.978
X56.169Y36.04
X56.202Y35.938
X56.232Y35.834
X56.259Y35.73
X56.283Y35.625
X56.297Y35.559
X57.004Y32.022
X57.022Y31.923
X57.037Y31.823
X57.049Y31.723
X57.059Y31.622
X57.064Y31.559
X57.267Y28.722
X57.272Y28.622
X57.274Y28.522
Y28.421
X57.272Y28.321
X57.269Y28.259
X57.067Y24.523
X57.059Y24.427
X57.05Y24.332
X57.038Y24.237
X57.024Y24.143
X57.008Y24.049
X56.997Y23.99
X56.289Y20.45
X56.265Y20.345
X56.239Y20.241
X56.209Y20.137
X56.177Y20.034
X56.156Y19.971
X55.143Y17.033
X55.106Y16.935
X55.067Y16.837
X55.025Y16.74
X54.981Y16.645
X54.952Y16.586
X53.335Y13.352
X53.289Y13.264
X53.24Y13.178
X53.19Y13.092
X53.137Y13.008
X53.103Y12.956
X51.482Y10.526
X51.427Y10.447
X51.37Y10.369
X51.311Y10.292
X51.25Y10.218
X51.188Y10.144
X51.124Y10.072
X51.085Y10.031
X49.988Y8.864
X49.936Y8.771
X49.886Y8.687
X49.834Y8.603
X49.78Y8.522
X49.723Y8.441
X49.665Y8.362
X49.605Y8.285
X49.543Y8.208
X49.479Y8.134
X49.413Y8.061
X49.346Y7.99
X49.277Y7.92
X49.206Y7.852
X49.161Y7.811
X45.933Y4.886
X45.858Y4.821
X45.782Y4.758
X45.704Y4.697
X45.625Y4.638
X45.544Y4.581
X45.493Y4.546
X43.062Y2.926
X42.978Y2.872
X42.893Y2.821
X42.806Y2.772
X42.719Y2.725
X42.663Y2.697
X39.428Y1.079
X39.333Y1.034
X39.236Y0.992
X39.139Y0.952
X39.04Y0.915
X38.978Y0.893
X36.04Y-0.119
X35.938Y-0.152
X35.834Y-0.182
X35.73Y-0.209
X35.625Y-0.233
X35.559Y-0.247
X32.022Y-0.954
X31.923Y-0.972
X31.823Y-0.987
X31.723Y-0.999
X31.622Y-1.009
X31.559Y-1.014
X28.722Y-1.217
X28.622Y-1.222
X28.522Y-1.224
X28.421
X28.321Y-1.222
X28.259Y-1.219
X24.523Y-1.017
X24.427Y-1.009
X24.332Y-1
X24.237Y-0.988
X24.143Y-0.974
X24.049Y-0.958
X23.99Y-0.947
X20.45Y-0.239
X20.345Y-0.215
X20.241Y-0.189
X20.137Y-0.159
X20.034Y-0.127
X19.971Y-0.106
X17.033Y0.906
X16.935Y0.943
X16.837Y0.982
X16.74Y1.024
X16.645Y1.068
X16.586Y1.097
X13.35Y2.715
X13.256Y2.764
X13.164Y2.816
X13.073Y2.871
X12.984Y2.928
X12.928Y2.965
X10.099Y4.885
X10.022Y4.939
X9.946Y4.996
X9.872Y5.054
X9.799Y5.114
X9.727Y5.176
X9.657Y5.24
X9.588Y5.305
X9.55Y5.342
X8.776Y6.109
X8.687Y6.163
X8.603Y6.215
X8.522Y6.269
X8.441Y6.326
X8.362Y6.384
X8.285Y6.444
X8.208Y6.506
X8.134Y6.57
X8.061Y6.636
X7.99Y6.703
X7.92Y6.772
X7.852Y6.843
X7.811Y6.888
X4.886Y10.116
X4.821Y10.191
X4.758Y10.267
X4.697Y10.345
X4.638Y10.424
X4.581Y10.505
X4.546Y10.556
X2.926Y12.987
X2.872Y13.071
X2.821Y13.156
X2.772Y13.243
X2.725Y13.33
X2.697Y13.386
X1.079Y16.621
X1.034Y16.716
X0.992Y16.813
X0.952Y16.91
X0.915Y17.009
X0.893Y17.071
X-0.119Y20.009
X-0.152Y20.111
X-0.182Y20.215
X-0.209Y20.319
X-0.233Y20.424
X-0.247Y20.49
X-0.954Y24.027
X-0.972Y24.126
X-0.987Y24.226
X-0.999Y24.326
X-1.009Y24.427
X-1.014Y24.49
X-1.217Y27.327
X-1.222Y27.427
X-1.224Y27.527
Y27.628
X-1.222Y27.728
X-1.219Y27.79
X-1.017Y31.526
X-1.009Y31.622
X-1Y31.717
X-0.988Y31.812
X-0.974Y31.906
X-0.958Y32
X-0.947Y32.059
X-0.239Y35.599
X-0.215Y35.704
X-0.189Y35.808
X-0.159Y35.912
X-0.127Y36.015
X-0.106Y36.078
X0.906Y39.016
X0.943Y39.114
X0.982Y39.212
X1.024Y39.309
X1.068Y39.404
X1.097Y39.463
X2.715Y42.699
X2.764Y42.793
X2.816Y42.885
X2.871Y42.976
X2.928Y43.065
X2.965Y43.121
X4.885Y45.95
X4.939Y46.027
X4.996Y46.103
X5.054Y46.177
X5.114Y46.25
X5.176Y46.322
X5.24Y46.392
X5.305Y46.461
X5.342Y46.499
X6.109Y47.272
G0Z10
X-4.499Y60.5
G1Z-3.1F500
Y-4.499F1000
X60.5
Y60.5
X-4.499
X-5.5Y61.499
Y-5.5
X61.499
Y61.499
X-5.5
G0Z10
X7.524Y47.464
G1Z-3.1F500
X7.56Y47.497F1000
X10.778Y50.414
X10.834Y50.463
X10.891Y50.51
X10.95Y50.556
X11.009Y50.6
X11.07Y50.643
X11.11Y50.671
X13.531Y52.284
X13.594Y52.324
X13.658Y52.363
X13.723Y52.4
X13.789Y52.435
X13.833Y52.458
X17.056Y54.069
X17.128Y54.103
X17.2Y54.135
X17.273Y54.165
X17.347Y54.193
X17.397Y54.211
X20.322Y55.219
X20.399Y55.244
X20.477Y55.266
X20.555Y55.287
X20.633Y55.305
X20.686Y55.316
X24.211Y56.021
X24.285Y56.034
X24.36Y56.046
X24.435Y56.055
X24.51Y56.063
X24.561Y56.067
X27.386Y56.269
X27.461Y56.272
X27.536Y56.274
X27.611
X27.686Y56.272
X27.736Y56.27
X31.46Y56.069
X31.532Y56.063
X31.603Y56.056
X31.674Y56.048
X31.745Y56.037
X31.816Y56.025
X31.863Y56.016
X35.389Y55.311
X35.468Y55.293
X35.546Y55.273
X35.624Y55.252
X35.701Y55.228
X35.752Y55.211
X38.677Y54.202
X38.751Y54.175
X38.825Y54.145
X38.897Y54.114
X38.969Y54.081
X39.016Y54.058
X42.238Y52.447
X42.304Y52.412
X42.369Y52.375
X42.434Y52.337
X42.497Y52.298
X42.539Y52.271
X44.959Y50.657
X45.018Y50.616
X45.076Y50.573
X45.134Y50.529
X45.19Y50.483
X45.245Y50.437
X45.299Y50.388
X45.334Y50.356
X46.593Y49.169
X46.645Y49.143
X46.71Y49.109
X46.775Y49.072
X46.838Y49.035
X46.9Y48.996
X46.962Y48.955
X47.022Y48.913
X47.081Y48.869
X47.14Y48.824
X47.197Y48.778
X47.253Y48.73
X47.307Y48.681
X47.361Y48.63
X47.413Y48.578
X47.464Y48.525
X47.497Y48.489
X50.414Y45.271
X50.463Y45.215
X50.51Y45.158
X50.556Y45.099
X50.6Y45.04
X50.643Y44.979
X50.671Y44.939
X52.284Y42.518
X52.324Y42.455
X52.363Y42.391
X52.4Y42.326
X52.435Y42.26
X52.458Y42.216
X54.069Y38.993
X54.103Y38.921
X54.135Y38.849
X54.165Y38.776
X54.193Y38.702
X54.211Y38.652
X55.219Y35.727
X55.244Y35.65
X55.266Y35.572
X55.287Y35.494
X55.305Y35.416
X55.316Y35.363
X56.021Y31.838
X56.034Y31.764
X56.046Y31.689
X56.055Y31.614
X56.063Y31.539
X56.067Y31.488
X56.269Y28.663
X56.272Y28.588
X56.274Y28.513
Y28.438
X56.272Y28.363
X56.27Y28.313
X56.069Y24.589
X56.063Y24.517
X56.056Y24.446
X56.048Y24.375
X56.037Y24.304
X56.025Y24.233
X56.016Y24.186
X55.311Y20.66
X55.293Y20.581
X55.273Y20.503
X55.252Y20.425
X55.228Y20.348
X55.211Y20.297
X54.202Y17.372
X54.175Y17.298
X54.145Y17.224
X54.114Y17.152
X54.081Y17.08
X54.058Y17.033
X52.447Y13.811
X52.412Y13.745
X52.375Y13.68
X52.337Y13.615
X52.298Y13.552
X52.271Y13.51
X50.657Y11.09
X50.616Y11.031
X50.573Y10.973
X50.529Y10.915
X50.483Y10.859
X50.437Y10.804
X50.388Y10.75
X50.356Y10.715
X49.169Y9.456
X49.143Y9.404
X49.109Y9.339
X49.072Y9.274
X49.035Y9.211
X48.996Y9.149
X48.955Y9.087
X48.913Y9.027
X48.869Y8.968
X48.824Y8.909
X48.778Y8.852
X48.73Y8.796
X48.681Y8.742
X48.63Y8.688
X48.578Y8.636
X48.525Y8.585
X48.489Y8.552
X45.271Y5.635
X45.215Y5.586
X45.158Y5.539
X45.099Y5.493
X45.04Y5.449
X44.979Y5.406
X44.939Y5.378
X42.518Y3.765
X42.455Y3.725
X42.391Y3.686
X42.326Y3.649
X42.26Y3.614
X42.216Y3.591
X38.993Y1.98
X38.921Y1.946
X38.849Y1.914
X38.776Y1.884
X38.702Y1.856
X38.652Y1.838
X35.727Y0.83
X35.65Y0.805
X35.572Y0.783
X35.494Y0.762
X35.416Y0.744
X35.363Y0.733
X31.838Y0.028
X31.764Y0.015
X31.689Y0.003
X31.614Y-0.005
X31.539Y-0.013
X31.488Y-0.017
X28.663Y-0.219
X28.588Y-0.222
X28.513Y-0.224
X28.438
X28.363Y-0.222
X28.313Y-0.22
X24.589Y-0.019
X24.517Y-0.013
X24.446Y-0.006
X24.375Y0.001
X24.304Y0.012
X24.233Y0.024
X24.186Y0.033
X20.66Y0.738
X20.581Y0.756
X20.503Y0.776
X20.425Y0.797
X20.348Y0.821
X20.297Y0.838
X17.372Y1.847
X17.298Y1.874
X17.224Y1.904
X17.152Y1.935
X17.08Y1.968
X17.033Y1.991
X13.809Y3.603
X13.739Y3.64
X13.67Y3.679
X13.601Y3.72
X13.534Y3.763
X13.49Y3.792
X10.671Y5.705
X10.613Y5.746
X10.556Y5.789
X10.5Y5.832
X10.445Y5.877
X10.391Y5.924
X10.338Y5.971
X10.287Y6.02
X10.255Y6.052
X9.389Y6.914
X9.339Y6.94
X9.274Y6.977
X9.211Y7.014
X9.149Y7.053
X9.087Y7.094
X9.027Y7.136
X8.968Y7.18
X8.909Y7.225
X8.852Y7.271
X8.796Y7.319
X8.742Y7.368
X8.688Y7.419
X8.636Y7.471
X8.585Y7.524
X8.552Y7.56
X5.635Y10.778
X5.586Y10.834
X5.539Y10.891
X5.493Y10.95
X5.449Y11.009
X5.406Y11.07
X5.378Y11.11
X3.765Y13.531
X3.725Y13.594
X3.686Y13.658
X3.649Y13.723
X3.614Y13.789
X3.591Y13.833
X1.98Y17.056
X1.946Y17.128
X1.914Y17.2
X1.884Y17.273
X1.856Y17.347
X1.838Y17.397
X0.83Y20.322
X0.805Y20.399
X0.783Y20.477
X0.762Y20.555
X0.744Y20.633
X0.733Y20.686
X0.028Y24.211
X0.015Y24.285
X0.003Y24.36
X-0.005Y24.435
X-0.013Y24.51
X-0.017Y24.561
X-0.219Y27.386
X-0.222Y27.461
X-0.224Y27.536
Y27.611
X-0.222Y27.686
X-0.22Y27.736
X-0.019Y31.46
X-0.013Y31.532
X-0.006Y31.603
X0.001Y31.674
X0.012Y31.745
X0.024Y31.816
X0.033Y31.863
X0.738Y35.389
X0.756Y35.468
X0.776Y35.546
X0.797Y35.624
X0.821Y35.701
X0.838Y35.752
X1.847Y38.677
X1.874Y38.751
X1.904Y38.825
X1.935Y38.897
X1.968Y38.969
X1.991Y39.016
X3.603Y42.24
X3.64Y42.31
X3.679Y42.379
X3.72Y42.448
X3.763Y42.515
X3.792Y42.559
X5.705Y45.378
X5.746Y45.436
X5.789Y45.493
X5.832Y45.549
X5.877Y45.604
X5.924Y45.658
X5.971Y45.711
X6.02Y45.762
X6.052Y45.794
X6.914Y46.66
X6.94Y46.71
X6.977Y46.775
X7.014Y46.838
X7.053Y46.9
X7.094Y46.962
X7.136Y47.022
X7.18Y47.081
X7.225Y47.14
X7.271Y47.197
X7.319Y47.253
X7.368Y47.307
X7.419Y47.361
X7.471Y47.413
X7.524Y47.464
G0Z10
X18.618Y35.176
G1Z-3.1F500
X17.655Y33.693F1000
X16.592Y30.995
X16.281Y28.899
X16.362Y26.221
X17.1Y23.516
X17.694Y22.253
X18.606Y20.886
X20.873Y18.618
X22.356Y17.655
X25.054Y16.592
X27.15Y16.281
X29.828Y16.362
X32.533Y17.1
X33.796Y17.694
X35.163Y18.606
X37.431Y20.873
X38.394Y22.356
X39.485Y25.125
X39.684Y26.118
X39.768Y28.808
X39.456Y30.994
X38.305Y33.87
X37.443Y35.163
X35.176Y37.431
X33.693Y38.394
X30.995Y39.457
X28.899Y39.768
X26.221Y39.687
X23.516Y38.949
X22.253Y38.355
X20.886Y37.443
X18.618Y35.176
X17.837Y35.809
X16.761Y34.154
X15.619Y31.255
X15.279Y28.957
X15.366Y26.072
X16.158Y23.169
X16.821Y21.76
X17.829Y20.249
X20.24Y17.837
X21.895Y16.761
X24.794Y15.619
X27.092Y15.279
X29.977Y15.366
X32.88Y16.158
X34.289Y16.821
X35.8Y17.829
X38.212Y20.24
X39.288Y21.895
X40.448Y24.842
X40.681Y26.003
X40.77Y28.863
X40.429Y31.254
X39.195Y34.338
X38.22Y35.8
X35.809Y38.212
X34.154Y39.288
X31.255Y40.43
X28.957Y40.77
X26.072Y40.683
X23.169Y39.891
X21.76Y39.228
X20.249Y38.22
X17.837Y35.809
G0Z10
X7.738Y46.067
G1Z-3.1F500
X7.751Y46.096F1000
X7.772Y46.141
X7.794Y46.185
X7.817Y46.228
X7.84Y46.271
X7.865Y46.313
X7.891Y46.355
X7.918Y46.396
X7.947Y46.436
X7.976Y46.476
X8.005Y46.515
X8.036Y46.553
X8.068Y46.59
X8.101Y46.627
X8.135Y46.662
X8.169Y46.697
X8.204Y46.731
X8.231Y46.756
X11.441Y49.665
X11.478Y49.697
X11.516Y49.729
X11.555Y49.759
X11.594Y49.789
X11.634Y49.818
X11.665Y49.839
X14.075Y51.445
X14.117Y51.472
X14.16Y51.498
X14.203Y51.523
X14.247Y51.546
X14.28Y51.563
X17.492Y53.169
X17.539Y53.192
X17.588Y53.213
X17.636Y53.233
X17.685Y53.252
X17.723Y53.265
X20.635Y54.27
X20.687Y54.286
X20.738Y54.301
X20.79Y54.315
X20.843Y54.327
X20.882Y54.336
X24.395Y55.038
X24.444Y55.047
X24.494Y55.055
X24.544Y55.061
X24.594Y55.066
X24.632Y55.069
X27.445Y55.27
X27.495Y55.273
X27.545Y55.274
X27.595
X27.645Y55.273
X27.682Y55.272
X31.394Y55.071
X31.442Y55.067
X31.49Y55.063
X31.537Y55.057
X31.584Y55.05
X31.632Y55.042
X31.667Y55.036
X35.18Y54.333
X35.233Y54.321
X35.285Y54.308
X35.337Y54.294
X35.388Y54.278
X35.426Y54.265
X38.339Y53.261
X38.388Y53.243
X38.437Y53.223
X38.486Y53.203
X38.533Y53.181
X38.569Y53.163
X41.78Y51.558
X41.824Y51.535
X41.868Y51.51
X41.91Y51.485
X41.953Y51.459
X41.984Y51.439
X44.394Y49.832
X44.434Y49.804
X44.473Y49.776
X44.511Y49.747
X44.548Y49.716
X44.585Y49.685
X44.621Y49.653
X44.648Y49.629
X46.024Y48.329
X46.074Y48.308
X46.119Y48.288
X46.163Y48.266
X46.206Y48.244
X46.25Y48.221
X46.292Y48.196
X46.334Y48.171
X46.375Y48.144
X46.416Y48.117
X46.456Y48.088
X46.495Y48.059
X46.534Y48.028
X46.572Y47.997
X46.609Y47.965
X46.645Y47.931
X46.68Y47.897
X46.715Y47.862
X46.756Y47.818
X49.665Y44.608
X49.697Y44.571
X49.729Y44.533
X49.759Y44.494
X49.789Y44.455
X49.818Y44.415
X49.839Y44.384
X51.445Y41.974
X51.472Y41.932
X51.498Y41.889
X51.523Y41.846
X51.546Y41.802
X51.563Y41.769
X53.169Y38.557
X53.192Y38.51
X53.213Y38.461
X53.233Y38.413
X53.252Y38.364
X53.265Y38.326
X54.27Y35.414
X54.286Y35.362
X54.301Y35.311
X54.315Y35.259
X54.327Y35.206
X54.336Y35.167
X55.038Y31.654
X55.047Y31.605
X55.055Y31.555
X55.061Y31.505
X55.066Y31.455
X55.069Y31.417
X55.27Y28.604
X55.273Y28.554
X55.274Y28.504
Y28.454
X55.273Y28.404
X55.272Y28.367
X55.071Y24.655
X55.067Y24.607
X55.063Y24.559
X55.057Y24.512
X55.05Y24.465
X55.042Y24.417
X55.036Y24.382
X54.333Y20.869
X54.321Y20.816
X54.308Y20.764
X54.294Y20.712
X54.278Y20.661
X54.265Y20.623
X53.261Y17.71
X53.243Y17.661
X53.223Y17.612
X53.203Y17.563
X53.181Y17.516
X53.163Y17.48
X51.558Y14.269
X51.535Y14.225
X51.51Y14.181
X51.485Y14.139
X51.459Y14.096
X51.439Y14.065
X49.832Y11.655
X49.804Y11.615
X49.776Y11.576
X49.747Y11.538
X49.716Y11.501
X49.685Y11.464
X49.653Y11.428
X49.629Y11.401
X48.329Y10.025
X48.308Y9.975
X48.288Y9.93
X48.266Y9.886
X48.244Y9.843
X48.221Y9.799
X48.196Y9.757
X48.171Y9.715
X48.144Y9.674
X48.117Y9.633
X48.088Y9.593
X48.059Y9.554
X48.028Y9.515
X47.997Y9.477
X47.965Y9.44
X47.931Y9.404
X47.897Y9.369
X47.862Y9.334
X47.818Y9.293
X44.608Y6.384
X44.571Y6.352
X44.533Y6.32
X44.494Y6.29
X44.455Y6.26
X44.415Y6.231
X44.384Y6.21
X41.974Y4.604
X41.932Y4.577
X41.889Y4.551
X41.846Y4.526
X41.802Y4.503
X41.769Y4.486
X38.557Y2.88
X38.51Y2.857
X38.461Y2.836
X38.413Y2.816
X38.364Y2.797
X38.326Y2.784
X35.414Y1.779
X35.362Y1.763
X35.311Y1.748
X35.259Y1.734
X35.206Y1.722
X35.167Y1.713
X31.654Y1.011
X31.605Y1.002
X31.555Y0.994
X31.505Y0.988
X31.455Y0.983
X31.417Y0.98
X28.604Y0.779
X28.554Y0.776
X28.504Y0.775
X28.454
X28.404Y0.776
X28.367Y0.777
X24.655Y0.978
X24.607Y0.982
X24.559Y0.986
X24.512Y0.992
X24.465Y0.999
X24.417Y1.007
X24.382Y1.013
X20.869Y1.716
X20.816Y1.728
X20.764Y1.741
X20.712Y1.755
X20.661Y1.771
X20.623Y1.784
X17.71Y2.788
X17.661Y2.806
X17.612Y2.826
X17.563Y2.846
X17.516Y2.868
X17.48Y2.886
X14.268Y4.492
X14.221Y4.516
X14.175Y4.542
X14.129Y4.569
X14.085Y4.598
X14.051Y4.62
X11.242Y6.526
X11.203Y6.553
X11.165Y6.582
X11.128Y6.611
X11.091Y6.641
X11.055Y6.671
X11.02Y6.703
X10.986Y6.735
X10.96Y6.76
X9.982Y7.738
X9.953Y7.751
X9.908Y7.772
X9.864Y7.794
X9.821Y7.817
X9.778Y7.84
X9.736Y7.865
X9.694Y7.891
X9.653Y7.918
X9.613Y7.947
X9.573Y7.976
X9.534Y8.005
X9.496Y8.036
X9.459Y8.068
X9.422Y8.101
X9.387Y8.135
X9.352Y8.169
X9.318Y8.204
X9.293Y8.231
X6.384Y11.441
X6.352Y11.478
X6.32Y11.516
X6.29Y11.555
X6.26Y11.594
X6.231Y11.634
X6.21Y11.665
X4.604Y14.075
X4.577Y14.117
X4.551Y14.16
X4.526Y14.203
X4.503Y14.247
X4.486Y14.28
X2.88Y17.492
X2.857Y17.539
X2.836Y17.588
X2.816Y17.636
X2.797Y17.685
X2.784Y17.723
X1.779Y20.635
X1.763Y20.687
X1.748Y20.738
X1.734Y20.79
X1.722Y20.843
X1.713Y20.882
X1.011Y24.395
X1.002Y24.444
X0.994Y24.494
X0.988Y24.544
X0.983Y24.594
X0.98Y24.632
X0.779Y27.445
X0.776Y27.495
X0.775Y27.545
Y27.595
X0.776Y27.645
X0.777Y27.682
X0.978Y31.394
X0.982Y31.442
X0.986Y31.49
X0.992Y31.537
X0.999Y31.584
X1.007Y31.632
X1.013Y31.667
X1.716Y35.18
X1.728Y35.233
X1.741Y35.285
X1.755Y35.337
X1.771Y35.388
X1.784Y35.426
X2.788Y38.339
X2.806Y38.388
X2.826Y38.437
X2.846Y38.486
X2.868Y38.533
X2.886Y38.569
X4.492Y41.781
X4.516Y41.828
X4.542Y41.874
X4.569Y41.92
X4.598Y41.964
X4.62Y41.998
X6.526Y44.807
X6.553Y44.846
X6.582Y44.884
X6.611Y44.921
X6.641Y44.958
X6.671Y44.994
X6.703Y45.029
X6.735Y45.063
X6.76Y45.089
X7.738Y46.067
G0Z10
X-6.5Y62.5
G1Z-3.1F500
Y-6.5F1000
X62.5
Y62.5
X-6.5
X-7.499Y63.5
Y-7.499
X63.5
Y63.5
X-7.499
G0Z10
X8.885Y45.999
G1Z-3.1F500
X8.903Y46.015F1000
X12.103Y48.915
X12.121Y48.932
X12.14Y48.948
X12.16Y48.963
X12.179Y48.978
X12.199Y48.993
X12.22Y49.007
X14.62Y50.607
X14.641Y50.62
X14.662Y50.633
X14.683Y50.646
X14.705Y50.658
X14.727Y50.669
X17.927Y52.269
X17.951Y52.28
X17.975Y52.291
X17.999Y52.301
X18.024Y52.311
X18.049Y52.32
X20.949Y53.32
X20.974Y53.328
X21Y53.336
X21.026Y53.343
X21.052Y53.349
X21.078Y53.355
X24.578Y54.055
X24.603Y54.06
X24.628Y54.064
X24.653Y54.067
X24.678Y54.07
X24.703Y54.072
X27.503Y54.272
X27.528Y54.273
X27.553Y54.274
X27.578
X27.603
X27.628Y54.273
X31.328Y54.073
X31.352Y54.071
X31.376Y54.069
X31.4Y54.067
X31.424Y54.063
X31.447Y54.059
X31.471Y54.055
X34.971Y53.355
X34.997Y53.349
X35.023Y53.343
X35.049Y53.336
X35.075Y53.328
X35.1Y53.32
X38Y52.32
X38.025Y52.311
X38.05Y52.301
X38.074Y52.291
X38.098Y52.28
X38.122Y52.269
X41.322Y50.669
X41.344Y50.658
X41.366Y50.646
X41.387Y50.633
X41.408Y50.62
X41.429Y50.607
X43.829Y49.007
X43.849Y48.993
X43.869Y48.979
X43.888Y48.964
X43.907Y48.949
X43.925Y48.934
X43.943Y48.918
X43.961Y48.902
X45.499Y47.449
X45.517Y47.445
X45.541Y47.438
X45.565Y47.431
X45.588Y47.424
X45.611Y47.416
X45.634Y47.407
X45.657Y47.398
X45.68Y47.389
X45.702Y47.378
X45.724Y47.368
X45.746Y47.356
X45.767Y47.345
X45.789Y47.332
X45.81Y47.319
X45.83Y47.306
X45.85Y47.292
X45.87Y47.278
X45.89Y47.263
X45.909Y47.247
X45.928Y47.232
X45.946Y47.215
X45.964Y47.199
X45.982Y47.182
X45.999Y47.164
X46.015Y47.146
X48.915Y43.946
X48.932Y43.928
X48.948Y43.909
X48.963Y43.889
X48.978Y43.87
X48.993Y43.85
X49.007Y43.829
X50.607Y41.429
X50.62Y41.408
X50.633Y41.387
X50.646Y41.366
X50.658Y41.344
X50.669Y41.322
X52.269Y38.122
X52.28Y38.098
X52.291Y38.074
X52.301Y38.05
X52.311Y38.025
X52.32Y38
X53.32Y35.1
X53.328Y35.075
X53.336Y35.049
X53.343Y35.023
X53.349Y34.997
X53.355Y34.971
X54.055Y31.471
X54.06Y31.446
X54.064Y31.421
X54.067Y31.396
X54.07Y31.371
X54.072Y31.346
X54.272Y28.546
X54.273Y28.521
X54.274Y28.496
Y28.471
Y28.446
X54.273Y28.421
X54.073Y24.721
X54.071Y24.697
X54.069Y24.673
X54.067Y24.649
X54.063Y24.625
X54.059Y24.602
X54.055Y24.578
X53.355Y21.078
X53.349Y21.052
X53.343Y21.026
X53.336Y21
X53.328Y20.974
X53.32Y20.949
X52.32Y18.049
X52.311Y18.024
X52.301Y17.999
X52.291Y17.975
X52.28Y17.951
X52.269Y17.927
X50.669Y14.727
X50.658Y14.705
X50.646Y14.683
X50.633Y14.662
X50.62Y14.641
X50.607Y14.62
X49.007Y12.22
X48.993Y12.2
X48.979Y12.18
X48.964Y12.161
X48.949Y12.142
X48.934Y12.124
X48.918Y12.106
X48.902Y12.088
X47.449Y10.55
X47.445Y10.532
X47.438Y10.508
X47.431Y10.484
X47.424Y10.461
X47.416Y10.438
X47.407Y10.415
X47.398Y10.392
X47.389Y10.369
X47.378Y10.347
X47.368Y10.325
X47.356Y10.303
X47.345Y10.282
X47.332Y10.26
X47.319Y10.239
X47.306Y10.219
X47.292Y10.199
X47.278Y10.179
X47.263Y10.159
X47.247Y10.14
X47.232Y10.121
X47.215Y10.103
X47.199Y10.085
X47.182Y10.067
X47.164Y10.05
X47.146Y10.034
X43.946Y7.134
X43.928Y7.117
X43.909Y7.101
X43.889Y7.086
X43.87Y7.071
X43.85Y7.056
X43.829Y7.042
X41.429Y5.442
X41.408Y5.429
X41.387Y5.416
X41.366Y5.403
X41.344Y5.391
X41.322Y5.38
X38.122Y3.78
X38.098Y3.769
X38.074Y3.758
X38.05Y3.748
X38.025Y3.738
X38Y3.729
X35.1Y2.729
X35.075Y2.721
X35.049Y2.713
X35.023Y2.706
X34.997Y2.7
X34.971Y2.694
X31.471Y1.994
X31.446Y1.989
X31.421Y1.985
X31.396Y1.982
X31.371Y1.979
X31.346Y1.977
X28.546Y1.777
X28.521Y1.776
X28.496Y1.775
X28.471
X28.446
X28.421Y1.776
X24.721Y1.976
X24.697Y1.978
X24.673Y1.98
X24.649Y1.982
X24.625Y1.986
X24.602Y1.99
X24.578Y1.994
X21.078Y2.694
X21.052Y2.7
X21.026Y2.706
X21Y2.713
X20.974Y2.721
X20.949Y2.729
X18.049Y3.729
X18.024Y3.738
X17.999Y3.748
X17.975Y3.758
X17.951Y3.769
X17.927Y3.78
X14.727Y5.38
X14.704Y5.392
X14.681Y5.405
X14.658Y5.418
X14.635Y5.432
X14.613Y5.447
X11.813Y7.347
X11.794Y7.361
X11.775Y7.374
X11.756Y7.389
X11.737Y7.404
X11.719Y7.419
X11.702Y7.435
X11.684Y7.451
X11.667Y7.467
X10.53Y8.605
X10.508Y8.611
X10.484Y8.618
X10.461Y8.625
X10.438Y8.633
X10.415Y8.642
X10.392Y8.651
X10.369Y8.66
X10.347Y8.671
X10.325Y8.681
X10.303Y8.693
X10.282Y8.704
X10.26Y8.717
X10.239Y8.73
X10.219Y8.743
X10.199Y8.757
X10.179Y8.771
X10.159Y8.786
X10.14Y8.802
X10.121Y8.817
X10.103Y8.834
X10.085Y8.85
X10.067Y8.867
X10.05Y8.885
X10.034Y8.903
X7.134Y12.103
X7.117Y12.121
X7.101Y12.14
X7.086Y12.16
X7.071Y12.179
X7.056Y12.199
X7.042Y12.22
X5.442Y14.62
X5.429Y14.641
X5.416Y14.662
X5.403Y14.683
X5.391Y14.705
X5.38Y14.727
X3.78Y17.927
X3.769Y17.951
X3.758Y17.975
X3.748Y17.999
X3.738Y18.024
X3.729Y18.049
X2.729Y20.949
X2.721Y20.974
X2.713Y21
X2.706Y21.026
X2.7Y21.052
X2.694Y21.078
X1.994Y24.578
X1.989Y24.603
X1.985Y24.628
X1.982Y24.653
X1.979Y24.678
X1.977Y24.703
X1.777Y27.503
X1.776Y27.528
X1.775Y27.553
Y27.578
Y27.603
X1.776Y27.628
X1.976Y31.328
X1.978Y31.352
X1.98Y31.376
X1.982Y31.4
X1.986Y31.424
X1.99Y31.447
X1.994Y31.471
X2.694Y34.971
X2.7Y34.997
X2.706Y35.023
X2.713Y35.049
X2.721Y35.075
X2.729Y35.1
X3.729Y38
X3.738Y38.025
X3.748Y38.05
X3.758Y38.074
X3.769Y38.098
X3.78Y38.122
X5.38Y41.322
X5.392Y41.345
X5.405Y41.368
X5.418Y41.391
X5.432Y41.414
X5.447Y41.436
X7.347Y44.236
X7.361Y44.255
X7.374Y44.274
X7.389Y44.293
X7.404Y44.312
X7.419Y44.33
X7.435Y44.347
X7.451Y44.365
X7.467Y44.382
X8.605Y45.519
X8.611Y45.541
X8.618Y45.565
X8.625Y45.588
X8.633Y45.611
X8.642Y45.634
X8.651Y45.657
X8.66Y45.68
X8.671Y45.702
X8.681Y45.724
X8.693Y45.746
X8.704Y45.767
X8.717Y45.789
X8.73Y45.81
X8.743Y45.83
X8.757Y45.85
X8.771Y45.87
X8.786Y45.89
X8.802Y45.909
X8.817Y45.928
X8.834Y45.946
X8.85Y45.964
X8.867Y45.982
X8.885Y45.999
G0Z10
X17.056Y36.442
G1Z-3.1F500
X15.868Y34.614F1000
X14.647Y31.515
X14.277Y29.016
X14.37Y25.923
X15.216Y22.822
X15.948Y21.267
X17.052Y19.612
X19.607Y17.056
X21.435Y15.868
X24.534Y14.647
X27.033Y14.277
X30.126Y14.37
X33.227Y15.216
X34.782Y15.948
X36.437Y17.052
X38.993Y19.607
X40.181Y21.435
X41.411Y24.558
X41.678Y25.889
X41.772Y28.919
X41.402Y31.514
X40.085Y34.806
X38.997Y36.437
X36.442Y38.993
X34.614Y40.181
X31.515Y41.402
X29.016Y41.772
X25.923Y41.679
X22.822Y40.833
X21.267Y40.101
X19.612Y38.997
X17.056Y36.442
X16.275Y37.074
X18.974Y39.774
X20.775Y40.975
X22.474Y41.774
X25.774Y42.675
X29.074Y42.774
X31.774Y42.374
X35.074Y41.074
X37.074Y39.774
X39.774Y37.074
X40.975Y35.274
X42.374Y31.774
X42.774Y28.974
X42.675Y25.774
X42.374Y24.274
X41.074Y20.974
X39.774Y18.974
X37.074Y16.275
X35.274Y15.075
X33.574Y14.274
X30.274Y13.375
X26.974Y13.274
X24.274Y13.675
X20.974Y14.974
X18.974Y16.275
X16.275Y18.974
X15.075Y20.775
X14.274Y22.474
X13.375Y25.774
X13.274Y29.074
X13.675Y31.774
X14.974Y35.074
X16.275Y37.074
G0Z10
X9.575Y45.074
G1Z-3.1F500
X8.175Y43.674F1000
X6.275Y40.874
X4.675Y37.675
X3.675Y34.775
X2.975Y31.275
X2.775Y27.574
X2.975Y24.774
X3.675Y21.274
X4.675Y18.375
X6.275Y15.175
X7.875Y12.774
X10.775Y9.575
X10.975
X12.375Y8.175
X15.175Y6.275
X18.375Y4.675
X21.274Y3.675
X24.774Y2.975
X28.475Y2.775
X31.275Y2.975
X34.775Y3.675
X37.675Y4.675
X40.874Y6.275
X43.274Y7.875
X46.474Y10.775
Y10.975
X48.175Y12.774
X49.774Y15.175
X51.374Y18.375
X52.375Y21.274
X53.074Y24.774
X53.275Y28.475
X53.074Y31.275
X52.375Y34.775
X51.374Y37.675
X49.774Y40.874
X48.175Y43.274
X45.274Y46.474
X45.074
X43.274Y48.175
X40.874Y49.774
X37.675Y51.374
X34.775Y52.375
X31.275Y53.074
X27.574Y53.275
X24.774Y53.074
X21.274Y52.375
X18.375Y51.374
X15.175Y49.774
X12.774Y48.175
X9.575Y45.274
Y45.074
G0Z10
X10.175Y9.175
G1Z-3.6F500
X10.375F1000
X12.275Y7.375
X14.974Y5.575
X18.275Y3.975
X21.174Y2.975
X24.774Y2.275
X28.475Y2.075
X31.275Y2.275
X34.874Y2.975
X37.774Y3.975
X41.074Y5.575
X43.775Y7.375
X46.875Y10.175
Y10.375
X48.674Y12.275
X50.474Y14.974
X52.074Y18.275
X53.074Y21.174
X53.774Y24.774
X53.974Y28.475
X53.774Y31.275
X53.074Y34.874
X52.074Y37.774
X50.474Y41.074
X48.674Y43.775
X45.874Y46.875
X45.674
X43.775Y48.674
X41.074Y50.474
X37.774Y52.074
X34.874Y53.074
X31.275Y53.774
X27.574Y53.974
X24.774Y53.774
X21.174Y53.074
X18.275Y52.074
X14.974Y50.474
X12.275Y48.674
X9.175Y45.874
Y45.674
X7.375Y43.775
X5.575Y41.074
X3.975Y37.774
X2.975Y34.874
X2.275Y31.275
X2.075Y27.574
X2.275Y24.774
X2.975Y21.174
X3.975Y18.275
X5.575Y14.974
X7.375Y12.275
X10.175Y9.175
G0Z10
X17.375Y18.774
G1Z-3.6F500
X15.774Y20.974F1000
X14.974Y22.575
X14.075Y25.774
X13.975Y29.074
X14.274Y31.275
X14.974Y33.475
X16.774Y36.575
X18.774Y38.674
X20.974Y40.275
X22.575Y41.074
X25.774Y41.974
X29.074Y42.075
X31.275Y41.774
X33.475Y41.074
X36.575Y39.274
X38.674Y37.274
X40.275Y35.074
X41.074Y33.475
X41.674Y31.675
X42.075Y28.974
X41.974Y25.774
X41.674Y24.374
X41.074Y22.575
X39.274Y19.475
X37.274Y17.375
X35.074Y15.774
X33.475Y14.974
X30.274Y14.075
X26.974Y13.975
X24.774Y14.274
X22.575Y14.974
X19.475Y16.774
X17.375Y18.774
G0Z10
X9.875Y8.775
G1Z-4.1F500
X10.075F1000
X11.975Y6.975
X14.675Y5.175
X17.874Y3.575
X21.174Y2.475
X24.674Y1.775
X28.475Y1.575
X31.374Y1.775
X34.874Y2.475
X38.174Y3.575
X41.375Y5.175
X44.074Y6.975
X47.274Y9.875
Y10.075
X49.075Y11.975
X50.874Y14.675
X52.474Y17.874
X53.574Y21.174
X54.274Y24.674
X54.474Y28.475
X54.274Y31.374
X53.574Y34.874
X52.474Y38.174
X50.874Y41.375
X49.075Y44.074
X46.174Y47.274
X45.975
X44.074Y49.075
X41.375Y50.874
X38.174Y52.474
X34.874Y53.574
X31.374Y54.274
X27.574Y54.474
X24.674Y54.274
X21.174Y53.574
X17.874Y52.474
X14.675Y50.874
X11.975Y49.075
X8.775Y46.174
Y45.975
X6.975Y44.074
X5.175Y41.375
X3.575Y38.174
X2.475Y34.874
X1.775Y31.374
X1.575Y27.574
X1.775Y24.674
X2.475Y21.174
X3.575Y17.874
X5.175Y14.675
X6.975Y11.975
X9.875Y8.775
G0Z10
X17.774Y19.074
G1Z-4.1F500
X16.175Y21.274F1000
X15.474Y22.675
X14.575Y25.874
X14.474Y29.074
X14.775Y31.174
X15.474Y33.374
X17.175Y36.274
X19.074Y38.275
X21.274Y39.875
X22.675Y40.574
X25.874Y41.474
X29.074Y41.575
X31.574Y41.175
X33.374Y40.574
X36.274Y38.874
X38.275Y36.975
X39.875Y34.775
X41.175Y31.574
X41.575Y28.974
Y26.974
X41.175Y24.474
X40.574Y22.675
X38.874Y19.774
X36.975Y17.774
X34.775Y16.175
X33.374Y15.474
X30.174Y14.575
X26.974Y14.474
X24.875Y14.775
X22.675Y15.474
X19.774Y17.175
X17.774Y19.074
G0Z10
X9.575Y8.375
G1Z-4.6F500
X9.775F1000
X11.674Y6.575
X14.374Y4.775
X17.774Y3.075
X20.775Y2.075
X24.674Y1.275
X28.475Y1.075
X31.374Y1.275
X34.874Y1.975
X38.275Y3.075
X41.674Y4.775
X44.374Y6.575
X47.674Y9.575
Y9.775
X49.474Y11.674
X51.275Y14.374
X52.974Y17.774
X53.974Y20.775
X54.775Y24.674
X54.974Y28.475
X54.775Y31.374
X54.074Y34.874
X52.974Y38.275
X51.275Y41.674
X49.474Y44.374
X46.474Y47.674
X46.274
X44.374Y49.474
X41.674Y51.275
X38.275Y52.974
X35.274Y53.974
X31.374Y54.775
X27.574Y54.974
X24.674Y54.775
X21.174Y54.074
X17.774Y52.974
X14.374Y51.275
X11.674Y49.474
X8.375Y46.474
Y46.274
X6.575Y44.374
X4.775Y41.674
X3.075Y38.275
X2.075Y35.274
X1.275Y31.374
X1.075Y27.574
X1.275Y24.674
X1.975Y21.174
X3.075Y17.774
X4.775Y14.374
X6.575Y11.674
X9.575Y8.375
G0Z10
X20.074Y17.574
G1Z-4.6F500
X18.175Y19.375F1000
X16.574Y21.575
X15.975Y22.775
X15.075Y25.874
X14.974Y29.074
X15.275Y31.174
X15.975Y33.275
X17.574Y35.974
X19.375Y37.875
X21.575Y39.474
X22.775Y40.075
X25.874Y40.975
X29.074Y41.074
X31.174Y40.774
X33.275Y40.075
X35.974Y38.474
X37.875Y36.674
X39.474Y34.474
X40.774Y31.174
X41.074Y28.974
Y26.974
X40.774Y24.875
X40.075Y22.775
X38.474Y20.074
X36.674Y18.175
X34.474Y16.574
X33.275Y15.975
X30.174Y15.075
X26.974Y14.974
X24.875Y15.275
X22.775Y15.975
X20.074Y17.574
G0Z10
X9.275Y7.975
G1Z-5.1F500
X9.474F1000
X11.375Y6.175
X14.075Y4.375
X17.475Y2.675
X20.675Y1.575
X24.574Y0.775
X28.475Y0.575
X31.475Y0.775
X34.975Y1.475
X38.574Y2.675
X41.974Y4.375
X44.675Y6.175
X48.074Y9.275
Y9.474
X49.874Y11.375
X51.674Y14.075
X53.374Y17.475
X54.474Y20.675
X55.274Y24.574
X55.475Y28.475
X55.274Y31.475
X54.575Y34.975
X53.374Y38.574
X51.674Y41.974
X49.874Y44.675
X46.774Y48.074
X46.574
X44.675Y49.874
X41.974Y51.674
X38.574Y53.374
X35.374Y54.474
X31.475Y55.274
X27.574Y55.475
X24.574Y55.274
X21.074Y54.575
X17.475Y53.374
X14.075Y51.674
X11.375Y49.874
X7.975Y46.774
Y46.574
X6.175Y44.675
X4.375Y41.974
X2.675Y38.574
X1.575Y35.374
X0.775Y31.475
X0.575Y27.574
X0.775Y24.574
X1.475Y21.074
X2.675Y17.475
X4.375Y14.075
X6.175Y11.375
X9.275Y7.975
G0Z10
X20.375Y17.974
G1Z-5.1F500
X18.575Y19.675F1000
X16.974Y21.875
X15.774Y24.875
X15.474Y26.874
Y29.174
X15.774Y31.174
X16.874Y33.974
X17.974Y35.675
X19.675Y37.474
X21.875Y39.074
X24.875Y40.275
X26.974Y40.574
X29.074
X31.174Y40.275
X33.974Y39.175
X35.675Y38.075
X37.474Y36.374
X39.074Y34.174
X40.275Y31.174
X40.574Y28.974
Y26.974
X40.275Y24.875
X39.175Y22.074
X38.075Y20.375
X36.374Y18.575
X34.174Y16.974
X31.174Y15.774
X29.174Y15.474
X26.874
X24.875Y15.774
X22.074Y16.874
X20.375Y17.974
G0Z10
X8.975Y7.575
G1Z-5.6F500
X9.175F1000
X11.074Y5.775
X13.774Y3.975
X17.375Y2.175
X20.575Y1.075
X24.574Y0.275
X28.475Y0.075
X31.475Y0.275
X35.475Y1.075
X38.674Y2.175
X42.275Y3.975
X44.974Y5.775
X48.474Y8.975
Y9.175
X50.274Y11.074
X52.074Y13.774
X53.874Y17.375
X54.974Y20.575
X55.774Y24.574
X55.974Y28.475
X55.774Y31.475
X54.974Y35.475
X53.874Y38.674
X52.074Y42.275
X50.274Y44.974
X47.075Y48.474
X46.875
X44.974Y50.274
X42.275Y52.074
X38.674Y53.874
X35.475Y54.974
X31.475Y55.774
X27.574Y55.974
X24.574Y55.774
X20.575Y54.974
X17.375Y53.874
X13.774Y52.074
X11.074Y50.274
X7.575Y47.075
Y46.875
X5.775Y44.974
X3.975Y42.275
X2.175Y38.674
X1.075Y35.475
X0.275Y31.475
X0.075Y27.574
X0.275Y24.574
X1.075Y20.575
X2.175Y17.375
X3.975Y13.774
X5.775Y11.074
X8.975Y7.575
G0Z10
X20.675Y18.375
G1Z-5.6F500
X18.974Y19.974F1000
X17.574Y21.875
X16.774Y23.474
X16.075Y25.975
X15.975Y29.074
X16.275Y31.074
X16.774Y32.575
X18.375Y35.374
X19.974Y37.074
X21.875Y38.474
X23.474Y39.274
X25.975Y39.974
X29.074Y40.075
X31.074Y39.774
X32.575Y39.274
X35.374Y37.675
X37.074Y36.075
X38.474Y34.174
X39.774Y31.074
X40.075Y28.974
Y26.974
X39.774Y24.975
X39.274Y23.474
X37.675Y20.675
X36.075Y18.974
X34.174Y17.574
X32.575Y16.774
X30.074Y16.075
X26.974Y15.975
X24.975Y16.275
X23.474Y16.774
X20.675Y18.375
G0Z10
X8.675Y7.175
G1Z-6.1F500
X8.874F1000
X10.775Y5.375
X13.774Y3.375
X17.275Y1.675
X20.475Y0.575
X23.975Y-0.125
X28.475Y-0.425
X31.475Y-0.225
X35.574Y0.575
X38.775Y1.675
X41.575Y3.175
X42.275Y3.375
X45.274Y5.375
X48.875Y8.675
Y8.874
X50.674Y10.775
X52.674Y13.774
X52.874Y14.474
X54.375Y17.275
X55.475Y20.475
X56.174Y23.975
X56.474Y28.475
X56.274Y31.475
X55.475Y35.574
X54.375Y38.775
X52.874Y41.575
X52.674Y42.275
X50.674Y45.274
X47.374Y48.875
X47.174
X45.274Y50.674
X42.275Y52.674
X41.575Y52.874
X38.775Y54.375
X35.574Y55.475
X32.074Y56.174
X27.574Y56.474
X24.574Y56.274
X20.475Y55.475
X17.275Y54.375
X14.474Y52.874
X13.774Y52.674
X10.775Y50.674
X7.175Y47.374
Y47.174
X5.375Y45.274
X3.375Y42.275
X3.175Y41.575
X1.675Y38.775
X0.575Y35.574
X-0.125Y32.074
X-0.425Y27.574
X-0.225Y24.574
X0.575Y20.475
X1.675Y17.275
X3.375Y13.774
X5.375Y10.775
X8.675Y7.175
G0Z10
X20.974Y18.774
G1Z-6.1F500
X19.375Y20.274F1000
X17.974Y22.174
X17.275Y23.574
X16.574Y25.975
X16.474Y29.074
X16.674Y30.575
X17.275Y32.474
X18.774Y35.074
X20.274Y36.674
X22.174Y38.075
X23.574Y38.775
X25.975Y39.474
X29.074Y39.574
X30.575Y39.375
X32.474Y38.775
X35.074Y37.274
X36.674Y35.774
X38.075Y33.875
X39.274Y30.974
X39.574Y28.974
Y26.974
X39.274Y25.075
X38.775Y23.574
X37.274Y20.974
X35.774Y19.375
X33.875Y17.974
X32.474Y17.275
X30.074Y16.574
X26.974Y16.474
X25.474Y16.674
X23.574Y17.275
X20.974Y18.774
G0Z10
X8.475Y7.175
G1Z-6.6F500
X8.675F1000
X10.675Y5.275
X13.675Y3.275
X14.374Y3.075
X17.175Y1.575
X20.375Y0.475
X24.374Y-0.325
X28.974Y-0.525
X31.675Y-0.325
X35.274Y0.375
X38.874Y1.575
X41.674Y3.075
X42.374Y3.275
X45.375Y5.275
X48.875Y8.475
Y8.675
X50.774Y10.675
X52.774Y13.675
X52.974Y14.374
X54.474Y17.175
X55.574Y20.375
X56.374Y24.374
X56.575Y28.974
X56.374Y31.675
X55.675Y35.274
X54.474Y38.874
X52.974Y41.674
X52.774Y42.374
X50.774Y45.375
X47.574Y48.875
X47.374
X45.375Y50.774
X42.374Y52.774
X41.674Y52.974
X38.874Y54.474
X35.675Y55.574
X31.675Y56.374
X27.075Y56.575
X24.374Y56.374
X20.775Y55.675
X17.175Y54.474
X14.374Y52.974
X13.675Y52.774
X10.675Y50.774
X7.175Y47.574
Y47.374
X5.275Y45.375
X3.275Y42.374
X3.075Y41.674
X1.575Y38.874
X0.475Y35.675
X-0.325Y31.675
X-0.525Y27.075
X-0.325Y24.374
X0.375Y20.775
X1.575Y17.175
X3.075Y14.374
X3.275Y13.675
X5.275Y10.675
X8.475Y7.175
G0Z10
X20.475Y19.375
G1Z-6.6F500
X18.874Y21.074F1000
X17.375Y23.675
X16.874Y25.175
X16.574Y27.474
X16.674Y29.874
X17.375Y32.375
X18.074Y33.774
X19.375Y35.574
X21.074Y37.175
X23.675Y38.674
X25.175Y39.175
X27.474Y39.474
X29.874Y39.375
X32.375Y38.674
X33.774Y37.974
X35.574Y36.674
X37.175Y34.975
X38.674Y32.375
X39.175Y30.874
X39.474Y28.475
X39.375Y26.175
X38.674Y23.675
X37.974Y22.274
X36.674Y20.475
X34.975Y18.874
X32.375Y17.375
X30.874Y16.874
X28.574Y16.574
X26.175Y16.674
X23.675Y17.375
X22.274Y18.074
X20.475Y19.375
G0Z10
X8.274Y7.175
G1Z-7.1F500
X8.475F1000
X10.574Y5.175
X13.575Y3.175
X17.874Y1.175
X20.274Y0.375
X24.174Y-0.425
X29.475Y-0.625
X31.874Y-0.425
X35.374Y0.275
X38.975Y1.475
X41.774Y2.975
X42.475Y3.175
X45.474Y5.175
X48.875Y8.274
Y8.475
X50.874Y10.574
X52.874Y13.575
X54.874Y17.874
X55.675Y20.274
X56.474Y24.174
X56.674Y29.475
X56.474Y31.874
X55.774Y35.374
X54.575Y38.975
X53.074Y41.774
X52.874Y42.475
X50.874Y45.474
X47.775Y48.875
X47.574
X45.474Y50.874
X42.475Y52.874
X38.174Y54.874
X35.774Y55.675
X31.874Y56.474
X26.574Y56.674
X24.174Y56.474
X20.675Y55.774
X17.075Y54.575
X14.274Y53.074
X13.575Y52.874
X10.574Y50.874
X7.175Y47.775
Y47.574
X5.175Y45.474
X3.175Y42.475
X1.175Y38.174
X0.375Y35.774
X-0.425Y31.874
X-0.625Y26.574
X-0.425Y24.174
X0.275Y20.675
X1.475Y17.075
X2.975Y14.274
X3.175Y13.575
X5.175Y10.574
X8.274Y7.175
G0Z10
X19.375Y20.675
G1Z-7.1F500
X18.175Y22.374F1000
X17.275Y24.374
X16.774Y26.474
X16.674Y28.074
X17.075Y31.074
X17.974Y33.275
X18.974Y34.874
X20.675Y36.674
X22.374Y37.875
X24.374Y38.775
X26.474Y39.274
X28.074Y39.375
X31.074Y38.975
X33.275Y38.075
X34.874Y37.074
X36.674Y35.374
X37.875Y33.675
X38.975Y31.074
X39.274Y29.475
X39.375Y27.974
X38.975Y24.975
X37.875Y22.374
X37.074Y21.174
X35.374Y19.375
X33.675Y18.175
X31.675Y17.275
X29.575Y16.774
X27.974Y16.674
X24.975Y17.075
X22.575Y18.074
X21.174Y18.974
X19.375Y20.675
G0Z10
X8.075Y7.175
G1Z-7.6F500
X8.274F1000
X10.474Y5.075
X13.475Y3.075
X14.175Y2.875
X17.175Y1.275
X20.475Y0.175
X24.474Y-0.625
X28.475Y-0.825
X31.574Y-0.625
X35.574Y0.175
X38.874Y1.275
X41.874Y2.875
X42.574Y3.075
X45.575Y5.075
X48.875Y8.075
X49.574Y9.075
X50.974Y10.474
X52.974Y13.475
X53.174Y14.175
X54.775Y17.175
X55.875Y20.475
X56.674Y24.474
X56.874Y28.475
X56.674Y31.574
X55.875Y35.574
X54.775Y38.874
X53.174Y41.874
X52.974Y42.574
X50.974Y45.575
X47.975Y48.875
X46.974Y49.574
X45.575Y50.974
X42.574Y52.974
X41.874Y53.174
X38.874Y54.775
X35.574Y55.875
X31.574Y56.674
X27.574Y56.874
X24.474Y56.674
X20.475Y55.875
X17.175Y54.775
X14.175Y53.174
X13.475Y52.974
X10.474Y50.974
X7.175Y47.975
X6.475Y46.974
X5.075Y45.575
X3.075Y42.574
X2.875Y41.874
X1.275Y38.874
X0.175Y35.574
X-0.625Y31.574
X-0.825Y27.574
X-0.625Y24.474
X0.175Y20.475
X1.275Y17.175
X2.875Y14.175
X3.075Y13.475
X5.075Y10.474
X8.075Y7.175
G0Z10
X20.775Y19.475
G1Z-7.6F500
X19.475Y20.775F1000
X18.275Y22.474
X17.175Y25.175
X16.874Y26.974
Y29.074
X17.175Y30.874
X18.275Y33.574
X19.475Y35.274
X20.775Y36.575
X22.474Y37.774
X25.175Y38.874
X26.974Y39.175
X29.074
X30.874Y38.874
X33.574Y37.774
X35.274Y36.575
X36.575Y35.274
X37.774Y33.574
X38.874Y30.874
X39.175Y28.974
Y26.974
X38.874Y25.175
X37.774Y22.474
X36.575Y20.775
X35.274Y19.475
X33.574Y18.275
X30.874Y17.175
X29.074Y16.874
X26.974
X25.175Y17.175
X22.474Y18.275
X20.775Y19.475
G0Z10
X0.5Y0.5
G1Z-8.1F500
X1.829F1000
X1.71Y0.613
X1.552Y0.769
X1.399Y0.93
X1.315Y1.02
X0.5Y1.918
Y0.5
X-0.499Y-0.499
X4.536
X3.813Y0.222
X3.316Y0.571
X3.157Y0.688
X3.001Y0.809
X2.848Y0.933
X2.698Y1.062
X2.551Y1.194
X2.407Y1.33
X2.267Y1.469
X2.13Y1.611
X2.055Y1.693
X-0.499Y4.504
Y-0.499
X-1.499Y-1.499
X7.467
X6.43Y-0.807
X6.289Y-0.708
X6.15Y-0.606
X6.013Y-0.5
X5.88Y-0.391
X5.749Y-0.278
X5.62Y-0.162
X5.495Y-0.043
X5.425Y0.025
X4.458Y0.991
X3.9Y1.383
X3.761Y1.485
X3.624Y1.591
X3.49Y1.7
X3.358Y1.812
X3.23Y1.928
X3.104Y2.047
X2.982Y2.168
X2.862Y2.293
X2.795Y2.366
X-0.254Y5.722
X-0.369Y5.854
X-0.48Y5.988
X-0.588Y6.126
X-0.692Y6.266
X-0.793Y6.409
X-0.849Y6.492
X-1.499Y7.468
Y-1.499
X-2.499Y-2.499
X10.92
X10.802Y-2.445
X10.674Y-2.382
X10.547Y-2.316
X10.422Y-2.248
X10.298Y-2.176
X10.176Y-2.101
X10.046Y-2.017
X6.995Y0.017
X6.874Y0.102
X6.755Y0.189
X6.638Y0.28
X6.523Y0.374
X6.411Y0.47
X6.301Y0.569
X6.193Y0.671
X6.132Y0.732
X5.103Y1.76
X4.483Y2.195
X4.364Y2.283
X4.247Y2.373
X4.132Y2.467
X4.019Y2.563
X3.909Y2.662
X3.801Y2.764
X3.696Y2.868
X3.594Y2.975
X3.535Y3.038
X0.493Y6.385
X0.395Y6.498
X0.3Y6.614
X0.207Y6.731
X0.118Y6.852
X0.031Y6.974
X-0.017Y7.046
X-2.05Y10.096
X-2.126Y10.217
X-2.2Y10.339
X-2.271Y10.463
X-2.339Y10.589
X-2.404Y10.716
X-2.465Y10.845
X-2.499Y10.92
Y-2.499
X-3.499Y-3.499
X15.301
X15.223Y-3.469
X15.112Y-3.423
X15.002Y-3.375
X14.893Y-3.323
X14.785Y-3.27
X14.722Y-3.236
X12.19Y-1.886
X11.955Y-1.819
X11.841Y-1.784
X11.728Y-1.746
X11.616Y-1.705
X11.505Y-1.662
X11.395Y-1.616
X11.287Y-1.568
X11.179Y-1.517
X11.073Y-1.463
X10.968Y-1.407
X10.864Y-1.348
X10.762Y-1.287
X10.661Y-1.224
X10.601Y-1.185
X7.56Y0.842
X7.459Y0.913
X7.36Y0.986
X7.262Y1.061
X7.167Y1.139
X7.073Y1.22
X6.981Y1.302
X6.892Y1.387
X6.839Y1.439
X5.749Y2.529
X5.067Y3.007
X4.967Y3.08
X4.87Y3.155
X4.774Y3.233
X4.68Y3.313
X4.588Y3.396
X4.498Y3.481
X4.411Y3.568
X4.325Y3.657
X4.275Y3.711
X1.241Y7.048
X1.16Y7.143
X1.08Y7.239
X1.003Y7.337
X0.928Y7.437
X0.856Y7.539
X0.814Y7.601
X-1.211Y10.641
X-1.275Y10.741
X-1.336Y10.843
X-1.395Y10.947
X-1.452Y11.052
X-1.506Y11.158
X-1.558Y11.265
X-1.607Y11.374
X-1.653Y11.483
X-1.697Y11.594
X-1.738Y11.706
X-1.776Y11.819
X-1.812Y11.932
X-1.832Y12.001
X-1.886Y12.19
X-3.26Y14.766
X-3.316Y14.879
X-3.37Y14.992
X-3.421Y15.108
X-3.469Y15.224
X-3.499Y15.301
Y-3.499
X-4.499Y-4.499
X22.772
X19.536Y-3.836
X19.443Y-3.814
X19.35Y-3.791
X19.258Y-3.765
X19.166Y-3.738
X19.11Y-3.719
X15.775Y-2.608
X15.685Y-2.575
X15.595Y-2.541
X15.506Y-2.504
X15.418Y-2.465
X15.331Y-2.425
X15.245Y-2.382
X15.192Y-2.354
X12.567Y-0.954
X12.241Y-0.861
X12.15Y-0.832
X12.06Y-0.802
X11.97Y-0.77
X11.881Y-0.735
