(Created with grbl post processor 2024/12/13 12:46)
G21
(G-code Generated with Fabex and NC library)
G17G90
(Tool: D = 3.0 mm  type END flutes 2)
S12000M03
G00 Z10.0

G0X0Y0Z10
X-99.853Y101.501
G1Z-1F500
X100.147F1000
X100.739Y101.383
X101.383Y100.739
X101.501Y100.147
Y-100.147
X101.383Y-100.739
X100.739Y-101.383
X100.147Y-101.501
X-100.147
X-100.739Y-101.383
X-101.383Y-100.739
X-101.501Y-100.147
Y100.147
X-101.383Y100.739
X-100.494Y101.628
X-99.853Y101.501
Z-2F500
X100.147F1000
X100.739Y101.383
X101.383Y100.739
X101.501Y100.147
Y-100.147
X101.383Y-100.739
X100.739Y-101.383
X100.147Y-101.501
X-100.147
X-100.739Y-101.383
X-101.383Y-100.739
X-101.501Y-100.147
Y100.147
X-101.383Y100.739
X-100.494Y101.628
X-99.853Y101.501
Z-3F500
X100.147F1000
X100.739Y101.383
X101.383Y100.739
X101.501Y100.147
Y-100.147
X101.383Y-100.739
X100.739Y-101.383
X100.147Y-101.501
X-100.147
X-100.739Y-101.383
X-101.383Y-100.739
X-101.501Y-100.147
Y100.147
X-101.383Y100.739
X-100.494Y101.628
X-99.853Y101.501
Z-4F500
X100.147F1000
X100.739Y101.383
X101.383Y100.739
X101.501Y100.147
Y-100.147
X101.383Y-100.739
X100.739Y-101.383
X100.147Y-101.501
X-100.147
X-100.739Y-101.383
X-101.383Y-100.739
X-101.501Y-100.147
Y100.147
X-101.383Y100.739
X-100.494Y101.628
X-99.853Y101.501
Z-5F500
X100.147F1000
X100.739Y101.383
X101.383Y100.739
X101.501Y100.147
Y-100.147
X101.383Y-100.739
X100.739Y-101.383
X100.147Y-101.501
X-100.147
X-100.739Y-101.383
X-101.383Y-100.739
X-101.501Y-100.147
Y100.147
X-101.383Y100.739
X-100.494Y101.628
X-99.853Y101.501
Z-6F500
X100.147F1000
X100.739Y101.383
X101.383Y100.739
X101.501Y100.147
Y-100.147
X101.383Y-100.739
X100.739Y-101.383
X100.147Y-101.501
X-100.147
X-100.739Y-101.383
X-101.383Y-100.739
X-101.501Y-100.147
Y100.147
X-101.383Y100.739
X-100.494Y101.628
X-99.853Y101.501
Z-7F500
X100.147F1000
X100.739Y101.383
X101.383Y100.739
X101.501Y100.147
Y-100.147
X101.383Y-100.739
X100.739Y-101.383
X100.147Y-101.501
X-100.147
X-100.739Y-101.383
X-101.383Y-100.739
X-101.501Y-100.147
Y100.147
X-101.383Y100.739
X-100.494Y101.628
X-99.853Y101.501
Z-8F500
X100.147F1000
X100.739Y101.383
X101.383Y100.739
X101.501Y100.147
Y-100.147
X101.383Y-100.739
X100.739Y-101.383
X100.147Y-101.501
X-100.147
X-100.739Y-101.383
X-101.383Y-100.739
X-101.501Y-100.147
Y100.147
X-101.383Y100.739
X-100.494Y101.628
X-99.853Y101.501
Z-9F500
X100.147F1000
X100.739Y101.383
X101.383Y100.739
X101.501Y100.147
Y-100.147
X101.383Y-100.739
X100.739Y-101.383
X100.147Y-101.501
X-100.147
X-100.739Y-101.383
X-101.383Y-100.739
X-101.501Y-100.147
Y100.147
X-101.383Y100.739
X-100.494Y101.628
X-99.853Y101.501
Z-10F500
X100.147F1000
X100.739Y101.383
X101.383Y100.739
X101.501Y100.147
Y-100.147
X101.383Y-100.739
X100.739Y-101.383
X100.147Y-101.501
X-100.147
X-100.739Y-101.383
X-101.383Y-100.739
X-101.501Y-100.147
Y100.147
X-101.383Y100.739
X-100.494Y101.628
X-99.853Y101.501
G0Z10
 
