(Created with grbl post processor 2024/11/05 16:29)
G21
(G-code Generated with Fabex and NC library)
G17G90
(Tool: D = 3.0 mm  type END flutes 2)
S12000M03
G00 Z10.0

G0X0Y0Z10
X0.999Y2
G1Z-5.1F500
Y0.999F1000
X-0.999
Y-0.999
X3.999
Y3.999
X-3.999
Y-3.999
X6.999
Y6.999
X-6.999
Y-6.999
X9.999
Y9.999
X-9.999
Y-9.999
X12.999
Y12.999
X-12.999
Y-12.999
X15.999
Y15.999
X-15.999
Y-15.999
X18.999
Y18.999
X-18.999
Y-18.999
X21.999
Y21.999
X-21.999
Y-21.999
X24.999
Y24.999
X-24.999
Y-24.999
X27.999
Y27.999
X-27.999
Y-27.999
X30.999
Y30.999
X-30.999
Y-30.999
X33.999
Y33.999
X-33.999
Y-33.999
X36.999
Y36.999
X-36.999
Y-36.999
X39.999
Y39.999
X-39.999
Y-39.999
X42.999
Y42.999
X-42.999
Y-42.999
X45.999
Y45.999
X-45.999
Y-45.999
X48.999
Y47.5
G0Z10
X47.5Y48.999
G1Z-5.1F500
X-47.5F1000
G0Z10
X-48.999Y47.5
G1Z-5.1F500
Y-47.5F1000
G0Z10
X-47.5Y-48.999
G1Z-5.1F500
X47.5F1000
G0Z10
X51.999Y-44.5
G1Z-5.1F500
Y44.5F1000
G0Z10
X44.5Y51.999
G1Z-5.1F500
X-44.5F1000
G0Z10
X-51.999Y44.5
G1Z-5.1F500
Y-44.5F1000
G0Z10
X-44.5Y-51.999
G1Z-5.1F500
X44.5F1000
G0Z10
X54.999Y-40.5
G1Z-5.1F500
Y40.5F1000
G0Z10
X40.5Y54.999
G1Z-5.1F500
X-40.5F1000
G0Z10
X-54.999Y40.5
G1Z-5.1F500
Y-40.5F1000
G0Z10
X-40.5Y-54.999
G1Z-5.1F500
X40.5F1000
G0Z10
X57.999Y-36
G1Z-5.1F500
Y36F1000
G0Z10
X36Y57.999
G1Z-5.1F500
X-36F1000
G0Z10
X-57.999Y36
G1Z-5.1F500
Y-36F1000
G0Z10
X-36Y-57.999
G1Z-5.1F500
X36F1000
G0Z10
X60.999Y-31
G1Z-5.1F500
Y31F1000
G0Z10
X31Y60.999
G1Z-5.1F500
X-31F1000
G0Z10
X-60.999Y31
G1Z-5.1F500
Y-31F1000
G0Z10
X-31Y-60.999
G1Z-5.1F500
X31F1000
G0Z10
X63.999Y-24
G1Z-5.1F500
Y24F1000
G0Z10
X24Y63.999
G1Z-5.1F500
X-24F1000
G0Z10
X-63.999Y24
G1Z-5.1F500
Y-24F1000
G0Z10
X-24Y-63.999
G1Z-5.1F500
X24F1000
G0Z10
X67Y-14
G1Z-5.1F500
Y14F1000
G0Z10
X14Y67
G1Z-5.1F500
X-14F1000
G0Z10
X-67Y14
G1Z-5.1F500
Y-14F1000
G0Z10
X-14Y-67
G1Z-5.1F500
X14F1000
G0Z10
X0.999Y2
G1Z-6.912F500
Y0.999F1000
X-0.999
Y-0.999
X3.999
Y3.999
X-3.999
Y-3.999
X6.999
Y6.999
X-6.999
Y-6.999
X9.999
Y9.999
X-9.999
Y-9.999
X12.999
Y12.999
X-12.999
Y-12.999
X15.999
Y15.999
X-15.999
Y-15.999
X18.999
Y18.999
X-18.999
Y-18.999
X21.999
Y21.999
X-21.999
Y-21.999
X24.999
Y24.999
X-24.999
Y-24.999
X27.999
Y27.999
X-27.999
Y-27.999
X30.999
Y30.999
X-30.999
Y-30.999
X33.999
Y33.999
X-33.999
Y-33.999
X36.999
Y36.999
X-36.999
Y-36.999
X39.999
Y39.999
X-39.999
Y-39.999
X42.999
Y42.999
X-42.999
Y-42.999
X45.999
Y45.999
X-45.999
Y-45.999
X48.999
Y47.5
G0Z10
X47.5Y48.999
G1Z-6.912F500
X-47.5F1000
G0Z10
X-48.999Y47.5
G1Z-6.912F500
Y-47.5F1000
G0Z10
X-47.5Y-48.999
G1Z-6.912F500
X47.5F1000
G0Z10
X51.999Y-44.5
G1Z-6.912F500
Y44.5F1000
G0Z10
X44.5Y51.999
G1Z-6.912F500
X-44.5F1000
G0Z10
X-51.999Y44.5
G1Z-6.912F500
Y-44.5F1000
G0Z10
X-44.5Y-51.999
G1Z-6.912F500
X44.5F1000
G0Z10
X54.999Y-40.5
G1Z-6.912F500
Y40.5F1000
G0Z10
X40.5Y54.999
G1Z-6.912F500
X-40.5F1000
G0Z10
X-54.999Y40.5
G1Z-6.912F500
Y-40.5F1000
G0Z10
X-40.5Y-54.999
G1Z-6.912F500
X40.5F1000
G0Z10
X57.999Y-36
G1Z-6.912F500
Y36F1000
G0Z10
X36Y57.999
G1Z-6.912F500
X-36F1000
G0Z10
X-57.999Y36
G1Z-6.912F500
Y-36F1000
G0Z10
X-36Y-57.999
G1Z-6.912F500
X36F1000
G0Z10
X60.999Y-31
G1Z-6.912F500
Y31F1000
G0Z10
X31Y60.999
G1Z-6.912F500
X-31F1000
G0Z10
X-60.999Y31
G1Z-6.912F500
Y-31F1000
G0Z10
X-31Y-60.999
G1Z-6.912F500
X31F1000
G0Z10
X63.999Y-24
G1Z-6.912F500
Y24F1000
G0Z10
X24Y63.999
G1Z-6.912F500
X-24F1000
G0Z10
X-63.999Y24
G1Z-6.912F500
Y-24F1000
G0Z10
X-24Y-63.999
G1Z-6.912F500
X24F1000
G0Z10
X67Y-14
G1Z-6.912F500
Y14F1000
G0Z10
X14Y67
G1Z-6.912F500
X-14F1000
G0Z10
X-67Y14
G1Z-6.912F500
Y-14F1000
G0Z10
X-14Y-67
G1Z-6.912F500
X14F1000
G0Z10
 
