(Created with grbl post processor 2024/01/24 11:51)
G21
(G-code generated with BlenderCAM and NC library)
G17G90
(Tool: D = 3.0 mm  type END flutes 2)
S12000M03
G00 Z10.0

G0X0Y0Z10
X0.999Y2
G1Z-5.1F500
Y0.999F1000
X-0.999
Y-0.999
X3.999
Y3.999
X-3.999
Y-3.999
X6.999
Y6.999
X-6.999
Y-6.999
X9.999
Y9.999
X-9.999
Y-9.999
X12.999
Y12.999
X-12.999
Y-12.999
X15.999
Y15.999
X-15.999
Y-15.999
X18.999
Y18.999
X-18.999
Y-18.999
X21.999
Y21.999
X-21.999
Y-21.999
X24.999
Y24.999
X-24.999
Y-24.999
X27.999
Y27.999
X-27.999
Y-27.999
X30.999
Y30.999
X-30.999
Y-30.999
X33.999
Y33.999
X-33.999
Y-33.999
X36.999
Y36.999
X-36.999
Y-36.999
X39.999
Y39.999
X-39.999
Y-39.999
X42.999
Y42.999
X-42.999
Y-42.999
X45.999
Y45.999
X-45.999
Y-45.999
X48.999
Y48.999
X-48.999
Y-48.999
X51.999
Y51.999
X-51.999
Y-51.999
X54.999
Y54.999
X-54.999
Y-54.999
X57.999
Y57.999
X-57.999
Y-57.999
X60.999
Y60.999
X-60.999
Y-60.999
X63.999
Y63.999
X-63.999
Y-63.999
X67
Y67
X-67
Y-67
X70
Y70
X-70
Y-70
X72.999
Y72.999
X-72.999
Y-72.999
X75.999
Y75.999
X-75.999
Y-75.999
X78.999
Y78.999
X-78.999
Y-78.999
X82
Y82
X-82
Y-82
X85
Y85
X-85
Y-85
X88
Y88
X-88
Y-88
X90.999
Y90.999
X-90.999
Y-90.999
X94
Y94
X-94
Y-94
X97
Y97
X-97
Y-97
X98
G0Z10
X0.999Y2
G1Z-10F500
Y0.999F1000
X-0.999
Y-0.999
X3.999
Y3.999
X-3.999
Y-3.999
X6.999
Y6.999
X-6.999
Y-6.999
X9.999
Y9.999
X-9.999
Y-9.999
X12.999
Y12.999
X-12.999
Y-12.999
X15.999
Y15.999
X-15.999
Y-15.999
X18.999
Y18.999
X-18.999
Y-18.999
X21.999
Y21.999
X-21.999
Y-21.999
X24.999
Y24.999
X-24.999
Y-24.999
X27.999
Y27.999
X-27.999
Y-27.999
X30.999
Y30.999
X-30.999
Y-30.999
X33.999
Y33.999
X-33.999
Y-33.999
X36.999
Y36.999
X-36.999
Y-36.999
X39.999
Y39.999
X-39.999
Y-39.999
X42.999
Y42.999
X-42.999
Y-42.999
X45.999
Y45.999
X-45.999
Y-45.999
X48.999
Y48.999
X-48.999
Y-48.999
X51.999
Y51.999
X-51.999
Y-51.999
X54.999
Y54.999
X-54.999
Y-54.999
X57.999
Y57.999
X-57.999
Y-57.999
X60.999
Y60.999
X-60.999
Y-60.999
X63.999
Y63.999
X-63.999
Y-63.999
X67
Y67
X-67
Y-67
X70
Y70
X-70
Y-70
X72.999
Y72.999
X-72.999
Y-72.999
X75.999
Y75.999
X-75.999
Y-75.999
X78.999
Y78.999
X-78.999
Y-78.999
X82
Y82
X-82
Y-82
X85
Y85
X-85
Y-85
X88
Y88
X-88
Y-88
X90.999
Y90.999
X-90.999
Y-90.999
X94
Y94
X-94
Y-94
X97
Y97
X-97
Y-97
X98
G0Z10
 
