(Created with grbl post processor 2024/12/13 12:46)
G21
(G-code Generated with Fabex and NC library)
G17G90
(Tool: D = 3.0 mm  type END flutes 2)
S12000M03
G00 Z10.0

G0X0Y0Z10
X0.999
G1Z-5F500
Y0.999F1000
X-0.999
Y-0.999
X1.999
Y1.999
X-1.999
Y-1.999
X2.999
Y2.999
X-2.999
Y-2.999
X3.999
Y3.999
X-3.999
Y-3.999
X4.999
Y4.999
X-4.999
Y-4.999
X5.999
Y5.999
X-5.999
Y-5.999
X6.999
Y6.999
X-6.999
Y-6.999
X7.999
Y7.999
X-7.999
Y-7.999
X8.999
Y8.999
X-8.999
Y-8.999
X9.999
Y9.999
X-9.999
Y-9.999
X10.999
Y10.999
X-10.999
Y-10.999
X11.999
Y11.999
X-11.999
Y-11.999
X12.999
Y12.999
X-12.999
Y-12.999
X13.999
Y13.999
X-13.999
Y-13.999
X14.999
Y14.999
X-14.999
Y-14.999
X15.999
Y15.999
X-15.999
Y-15.999
X16.999
Y16.999
X-16.999
Y-16.999
X17.999
Y17.999
X-17.999
Y-17.999
X18.999
Y18.999
X-18.999
Y-18.999
X19.999
Y19.999
X-19.999
Y-19.999
X20.999
Y20.999
X-20.999
Y-20.999
X21.999
Y21.999
X-21.999
Y-21.999
X22.999
Y22.999
X-22.999
Y-22.999
X23.999
Y23.999
X-23.999
Y-23.999
X24.999
Y24.999
X-24.999
Y-24.999
X25.999
Y25.999
X-25.999
Y-25.999
X26.999
Y26.999
X-26.999
Y-26.999
X27.999
Y27.999
X-27.999
Y-27.999
X28.999
Y28.999
X-28.999
Y-28.999
X29.999
Y29.999
X-29.999
Y-29.999
X30.999
Y30.999
X-30.999
Y-30.999
X31.999
Y31.999
X-31.999
Y-31.999
X33
Y33
X-33
Y-33
X33.999
Y33.999
X-33.999
Y-33.999
X35
Y35
X-35
Y-35
X35.999
Y35.999
X-35.999
Y-35.999
X36.999
Y36.999
X-36.999
Y-36.999
X37.999
Y37.999
X-37.999
Y-37.999
X38.999
Y38.999
X-38.999
Y-38.999
X39.999
Y39.999
X-39.999
Y-39.999
X40.999
Y40.999
X-40.999
Y-40.999
X41.999
Y41.999
X-41.999
Y-41.999
X42.999
Y42.999
X-42.999
Y-42.999
X44
Y44
X-44
Y-44
X44.999
Y44.999
X-44.999
Y-44.999
X46
Y46
X-46
Y-46
X46.999
Y46.999
X-46.999
Y-46.999
X48
Y48
X-48
Y-48
X48.799
X48.999Y-47.799Z0
Z-5F500
Y47.799F1000
Z0
Y48.999
X47.799
Z-5F500
X-47.799F1000
Z0
X-48.999
Y47.799
Z-5F500
Y-47.799F1000
Z0
Y-48.999
X-47.799
Z-5F500
X47.799F1000
Z0
X50
Y-46.599
Z-5F500
Y46.599F1000
Z0
Y50
X46.599
Z-5F500
X-46.599F1000
Z0
X-50Y49.999
Y46.599
Z-5F500
Y-46.599F1000
Z0
X-49.999Y-50
X-46.599
Z-5F500
X46.599F1000
Z0
X50.999
Y-45.599
Z-5F500
Y45.599F1000
Z0
Y50.999
X45.599
Z-5F500
X-45.599F1000
Z0
X-50.999
Y45.599
Z-5F500
Y-45.599F1000
Z0
Y-50.999
X-45.599
Z-5F500
X45.599F1000
Z0
X52
Y-44.399
Z-5F500
Y44.399F1000
Z0
Y52
X44.399
Z-5F500
X-44.399F1000
Z0
X-52Y51.999
Y44.399
Z-5F500
Y-44.399F1000
Z0
X-51.999Y-52
X-44.399
Z-5F500
X44.399F1000
Z0
X52.999
Y-43.199
Z-5F500
Y43.199F1000
Z0
Y52.999
X43.199
Z-5F500
X-43.199F1000
Z0
X-52.999
Y43.199
Z-5F500
Y-43.199F1000
Z0
Y-52.999
X-43.199
Z-5F500
X43.199F1000
Z0
X53.999
Y-41.999
Z-5F500
Y41.999F1000
Z0
Y53.999
X41.999
Z-5F500
X-41.999F1000
Z0
X-53.999
Y41.999
Z-5F500
Y-41.999F1000
Z0
Y-53.999
X-41.999
Z-5F500
X41.999F1000
Z0
X55
Y-40.799
Z-5F500
Y40.799F1000
Z0
Y55
X40.799
Z-5F500
X-40.799F1000
Z0
X-55
Y40.799
Z-5F500
Y-40.799F1000
Z0
Y-55
X-40.799
Z-5F500
X40.799F1000
Z0
X55.999
Y-39.4
Z-5F500
Y39.4F1000
Z0
Y55.999
X39.4
Z-5F500
X-39.4F1000
Z0
X-55.999
Y39.4
Z-5F500
Y-39.4F1000
Z0
Y-55.999
X-39.4
Z-5F500
X39.4F1000
Z0
X57
Y-37.799
Z-5F500
Y37.799F1000
Z0
Y57
X37.799
Z-5F500
X-37.799F1000
Z0
X-57
Y37.799
Z-5F500
Y-37.799F1000
Z0
Y-57
X-37.799
Z-5F500
X37.799F1000
Z0
X57.999
Y-36.399
Z-5F500
Y36.399F1000
Z0
Y57.999
X36.399
Z-5F500
X-36.399F1000
Z0
X-57.999
Y36.399
Z-5F500
Y-36.399F1000
Z0
Y-57.999
X-36.399
Z-5F500
X36.399F1000
Z0
X59
Y-34.6
Z-5F500
Y34.6F1000
Z0
Y59
X34.6
Z-5F500
X-34.6F1000
Z0
X-59
Y34.6
Z-5F500
Y-34.6F1000
Z0
Y-59
X-34.6
Z-5F500
X34.6F1000
Z0
X59.999
Y-33
Z-5F500
Y33F1000
Z0
Y59.999
X33
Z-5F500
X-33F1000
Z0
X-59.999
Y33
Z-5F500
Y-33F1000
Z0
Y-59.999
X-33
Z-5F500
X33F1000
Z0
X61
Y-30.999
Z-5F500
Y30.999F1000
Z0
Y61
X30.999
Z-5F500
X-30.999F1000
Z0
X-61Y60.999
Y30.999
Z-5F500
Y-30.999F1000
Z0
X-60.999Y-61
X-30.999
Z-5F500
X30.999F1000
Z0
X61.999
Y-28.999
Z-5F500
Y28.999F1000
Z0
Y61.999
X28.999
Z-5F500
X-28.999F1000
Z0
X-61.999
Y28.999
Z-5F500
Y-28.999F1000
Z0
Y-61.999
X-28.999
Z-5F500
X28.999F1000
Z0
X63
Y-26.799
Z-5F500
Y26.799F1000
Z0
Y63
X26.799
Z-5F500
X-26.799F1000
Z0
X-63
Y26.799
Z-5F500
Y-26.799F1000
Z0
Y-63
X-26.799
Z-5F500
X26.799F1000
Z0
X64
Y-24.2
Z-5F500
Y24.2F1000
Z0
Y64
X24.2
Z-5F500
X-24.2F1000
Z0
X-64Y63.999
Y24.2
Z-5F500
Y-24.2F1000
Z0
X-63.999Y-64
X-24.2
Z-5F500
X24.2F1000
Z0
X64.999
Y-21.399
Z-5F500
Y21.399F1000
Z0
Y64.999
X21.399
Z-5F500
X-21.399F1000
Z0
X-64.999
Y21.399
Z-5F500
Y-21.399F1000
Z0
Y-64.999
X-21.399
Z-5F500
X21.399F1000
Z0
X66
Y-18.199
Z-5F500
Y18.199F1000
Z0
Y66
X18.199
Z-5F500
X-18.199F1000
Z0
X-66
Y18.199
Z-5F500
Y-18.199F1000
Z0
Y-66
X-18.199
Z-5F500
X18.199F1000
Z0
X67
Y-14
Z-5F500
Y14F1000
Z0
Y67
X14
Z-5F500
X-14F1000
Z0
X-67
Y14
Z-5F500
Y-14F1000
Z0
Y-67
X-14
Z-5F500
X14F1000
Z0
X68
Y-7.999
Z-5F500
Y7.999F1000
Z0
Y68
X7.999
Z-5F500
X-7.999F1000
Z0
X-68Y67.999
Y7.999
Z-5F500
Y-7.999F1000
Z0
X-67.999Y-68
X-7.999
Z-5F500
X7.999F1000
Z0
X68.999
Y68.999
X-68.999
Y-68.999
X70
Y70
X-70
Y-70
X71
Y71
X-71Y70.999
X-70.999Y-71
X71.999
Y71.999
X-71.999
Y-71.999
X72.999
Y72.999
X-72.999
Y-72.999
X74
Y74
X-74
Y-74
X75
Y75
X-75Y74.999
X-74.999Y-75
X75.999
Y75.999
X-75.999
Y-75.999
X77
Y77
X-77
Y-77
X78
Y78
X-78
Y-78
X79
Y79
X-79Y78.999
X-78.999Y-79
X79.999
Y79.999
X-79.999
Y-79.999
X81
Y81
X-81
Y-81
X82
Y82
X-82Y81.999
X-81.999Y-82
X83
Y83
X-83Y82.999
X-82.999Y-83
X83.999
Y83.999
X-83.999
Y-83.999
X85
Y85
X-85
Y-85
X86
Y86
X-86Y85.999
X-85.999Y-86
X86.999
Y86.999
X-86.999
Y-86.999
X88
Y88
X-88
Y-88
X89
Y89
X-89Y88.999
X-88.999Y-89
X90
Y90
X-90Y89.999
X-89.999Y-90
X90.999
Y90.999
X-90.999
Y-90.999
X92
Y92
X-92
Y-92
X93
Y93
X-93Y92.999
X-92.999Y-93
X94
Y94
X-94Y93.999
X-93.999Y-94
X94.999
Y94.999
X-94.999
Y-94.999
X96
Y96
X-96
Y-96
X97
Y97
X-97Y96.999
X-96.999Y-97
X98
Y98
X-98Y97.999
X-97.999Y-98
X98.399
G0Z10
X0.999Y0
G1Z-6.912F500
Y0.999F1000
X-0.999
Y-0.999
X1.999
Y1.999
X-1.999
Y-1.999
X2.999
Y2.999
X-2.999
Y-2.999
X3.999
Y3.999
X-3.999
Y-3.999
X4.999
Y4.999
X-4.999
Y-4.999
X5.999
Y5.999
X-5.999
Y-5.999
X6.999
Y6.999
X-6.999
Y-6.999
X7.999
Y7.999
X-7.999
Y-7.999
X8.999
Y8.999
X-8.999
Y-8.999
X9.999
Y9.999
X-9.999
Y-9.999
X10.999
Y10.999
X-10.999
Y-10.999
X11.999
Y11.999
X-11.999
Y-11.999
X12.999
Y12.999
X-12.999
Y-12.999
X13.999
Y13.999
X-13.999
Y-13.999
X14.999
Y14.999
X-14.999
Y-14.999
X15.999
Y15.999
X-15.999
Y-15.999
X16.999
Y16.999
X-16.999
Y-16.999
X17.999
Y17.999
X-17.999
Y-17.999
X18.999
Y18.999
X-18.999
Y-18.999
X19.999
Y19.999
X-19.999
Y-19.999
X20.999
Y20.999
X-20.999
Y-20.999
X21.999
Y21.999
X-21.999
Y-21.999
X22.999
Y22.999
X-22.999
Y-22.999
X23.999
Y23.999
X-23.999
Y-23.999
X24.999
Y24.999
X-24.999
Y-24.999
X25.999
Y25.999
X-25.999
Y-25.999
X26.999
Y26.999
X-26.999
Y-26.999
X27.999
Y27.999
X-27.999
Y-27.999
X28.999
Y28.999
X-28.999
Y-28.999
X29.999
Y29.999
X-29.999
Y-29.999
X30.999
Y30.999
X-30.999
Y-30.999
X31.999
Y31.999
X-31.999
Y-31.999
X33
Y33
X-33
Y-33
X33.999
Y33.999
X-33.999
Y-33.999
X35
Y35
X-35
Y-35
X35.999
Y35.999
X-35.999
Y-35.999
X36.999
Y36.999
X-36.999
Y-36.999
X37.999
Y37.999
X-37.999
Y-37.999
X38.999
Y38.999
X-38.999
Y-38.999
X39.999
Y39.999
X-39.999
Y-39.999
X40.999
Y40.999
X-40.999
Y-40.999
X41.999
Y41.999
X-41.999
Y-41.999
X42.999
Y42.999
X-42.999
Y-42.999
X44
Y44
X-44
Y-44
X44.999
Y44.999
X-44.999
Y-44.999
X46
Y46
X-46
Y-46
X46.999
Y46.999
X-46.999
Y-46.999
X48
Y48
X-48
Y-48
X48.799
Z-5
G0Z10
X48.999Y-47.799
G1Z-5F500
Y47.799Z-6.912F1000
Z-5
G0X47.799Y48.999Z10
G1Z-5F500
X-47.799Z-6.912F1000
Z-5
G0X-48.999Y47.799Z10
G1Z-5F500
Y-47.799Z-6.912F1000
Z-5
G0X-47.799Y-48.999Z10
G1Z-5F500
X47.799Z-6.912F1000
Z-5
G0X50Y-46.599Z10
G1Z-5F500
Y46.599Z-6.912F1000
Z-5
G0X46.599Y50Z10
G1Z-5F500
X-46.599Z-6.912F1000
Z-5
G0X-50Y46.599Z10
G1Z-5F500
Y-46.599Z-6.912F1000
Z-5
G0X-46.599Y-50Z10
G1Z-5F500
X46.599Z-6.912F1000
Z-5
G0X50.999Y-45.599Z10
G1Z-5F500
Y45.599Z-6.912F1000
Z-5
G0X45.599Y50.999Z10
G1Z-5F500
X-45.599Z-6.912F1000
Z-5
G0X-50.999Y45.599Z10
G1Z-5F500
Y-45.599Z-6.912F1000
Z-5
G0X-45.599Y-50.999Z10
G1Z-5F500
X45.599Z-6.912F1000
Z-5
G0X52Y-44.399Z10
G1Z-5F500
Y44.399Z-6.912F1000
Z-5
G0X44.399Y52Z10
G1Z-5F500
X-44.399Z-6.912F1000
Z-5
G0X-52Y44.399Z10
G1Z-5F500
Y-44.399Z-6.912F1000
Z-5
G0X-44.399Y-52Z10
G1Z-5F500
X44.399Z-6.912F1000
Z-5
G0X52.999Y-43.199Z10
G1Z-5F500
Y43.199Z-6.912F1000
Z-5
G0X43.199Y52.999Z10
G1Z-5F500
X-43.199Z-6.912F1000
Z-5
G0X-52.999Y43.199Z10
G1Z-5F500
Y-43.199Z-6.912F1000
Z-5
G0X-43.199Y-52.999Z10
G1Z-5F500
X43.199Z-6.912F1000
Z-5
G0X53.999Y-41.999Z10
G1Z-5F500
Y41.999Z-6.912F1000
Z-5
G0X41.999Y53.999Z10
G1Z-5F500
X-41.999Z-6.912F1000
Z-5
G0X-53.999Y41.999Z10
G1Z-5F500
Y-41.999Z-6.912F1000
Z-5
G0X-41.999Y-53.999Z10
G1Z-5F500
X41.999Z-6.912F1000
Z-5
G0X55Y-40.799Z10
G1Z-5F500
Y40.799Z-6.912F1000
Z-5
G0X40.799Y55Z10
G1Z-5F500
X-40.799Z-6.912F1000
Z-5
G0X-55Y40.799Z10
G1Z-5F500
Y-40.799Z-6.912F1000
Z-5
G0X-40.799Y-55Z10
G1Z-5F500
X40.799Z-6.912F1000
Z-5
G0X55.999Y-39.4Z10
G1Z-5F500
Y39.4Z-6.912F1000
Z-5
G0X39.4Y55.999Z10
G1Z-5F500
X-39.4Z-6.912F1000
Z-5
G0X-55.999Y39.4Z10
G1Z-5F500
Y-39.4Z-6.912F1000
Z-5
G0X-39.4Y-55.999Z10
G1Z-5F500
X39.4Z-6.912F1000
Z-5
G0X57Y-37.799Z10
G1Z-5F500
Y37.799Z-6.912F1000
Z-5
G0X37.799Y57Z10
G1Z-5F500
X-37.799Z-6.912F1000
Z-5
G0X-57Y37.799Z10
G1Z-5F500
Y-37.799Z-6.912F1000
Z-5
G0X-37.799Y-57Z10
G1Z-5F500
X37.799Z-6.912F1000
Z-5
G0X57.999Y-36.399Z10
G1Z-5F500
Y36.399Z-6.912F1000
Z-5
G0X36.399Y57.999Z10
G1Z-5F500
X-36.399Z-6.912F1000
Z-5
G0X-57.999Y36.399Z10
G1Z-5F500
Y-36.399Z-6.912F1000
Z-5
G0X-36.399Y-57.999Z10
G1Z-5F500
X36.399Z-6.912F1000
Z-5
G0X59Y-34.6Z10
G1Z-5F500
Y34.6Z-6.912F1000
Z-5
G0X34.6Y59Z10
G1Z-5F500
X-34.6Z-6.912F1000
Z-5
G0X-59Y34.6Z10
G1Z-5F500
Y-34.6Z-6.912F1000
Z-5
G0X-34.6Y-59Z10
G1Z-5F500
X34.6Z-6.912F1000
Z-5
G0X59.999Y-33Z10
G1Z-5F500
Y33Z-6.912F1000
Z-5
G0X33Y59.999Z10
G1Z-5F500
X-33Z-6.912F1000
Z-5
G0X-59.999Y33Z10
G1Z-5F500
Y-33Z-6.912F1000
Z-5
G0X-33Y-59.999Z10
G1Z-5F500
X33Z-6.912F1000
Z-5
G0X61Y-30.999Z10
G1Z-5F500
Y30.999Z-6.912F1000
Z-5
G0X30.999Y61Z10
G1Z-5F500
X-30.999Z-6.912F1000
Z-5
G0X-61Y30.999Z10
G1Z-5F500
Y-30.999Z-6.912F1000
Z-5
G0X-30.999Y-61Z10
G1Z-5F500
X30.999Z-6.912F1000
Z-5
G0X61.999Y-28.999Z10
G1Z-5F500
Y28.999Z-6.912F1000
Z-5
G0X28.999Y61.999Z10
G1Z-5F500
X-28.999Z-6.912F1000
Z-5
G0X-61.999Y28.999Z10
G1Z-5F500
Y-28.999Z-6.912F1000
Z-5
G0X-28.999Y-61.999Z10
G1Z-5F500
X28.999Z-6.912F1000
Z-5
G0X63Y-26.799Z10
G1Z-5F500
Y26.799Z-6.912F1000
Z-5
G0X26.799Y63Z10
G1Z-5F500
X-26.799Z-6.912F1000
Z-5
G0X-63Y26.799Z10
G1Z-5F500
Y-26.799Z-6.912F1000
Z-5
G0X-26.799Y-63Z10
G1Z-5F500
X26.799Z-6.912F1000
Z-5
G0X64Y-24.2Z10
G1Z-5F500
Y24.2Z-6.912F1000
Z-5
G0X24.2Y64Z10
G1Z-5F500
X-24.2Z-6.912F1000
Z-5
G0X-64Y24.2Z10
G1Z-5F500
Y-24.2Z-6.912F1000
Z-5
G0X-24.2Y-64Z10
G1Z-5F500
X24.2Z-6.912F1000
Z-5
G0X64.999Y-21.399Z10
G1Z-5F500
Y21.399Z-6.912F1000
Z-5
G0X21.399Y64.999Z10
G1Z-5F500
X-21.399Z-6.912F1000
Z-5
G0X-64.999Y21.399Z10
G1Z-5F500
Y-21.399Z-6.912F1000
Z-5
G0X-21.399Y-64.999Z10
G1Z-5F500
X21.399Z-6.912F1000
Z-5
G0X66Y-18.199Z10
G1Z-5F500
Y18.199Z-6.912F1000
Z-5
G0X18.199Y66Z10
G1Z-5F500
X-18.199Z-6.912F1000
Z-5
G0X-66Y18.199Z10
G1Z-5F500
Y-18.199Z-6.912F1000
Z-5
G0X-18.199Y-66Z10
G1Z-5F500
X18.199Z-6.912F1000
Z-5
G0X67Y-14Z10
G1Z-5F500
Y14Z-6.912F1000
Z-5
G0X14Y67Z10
G1Z-5F500
X-14Z-6.912F1000
Z-5
G0X-67Y14Z10
G1Z-5F500
Y-14Z-6.912F1000
Z-5
G0X-14Y-67Z10
G1Z-5F500
X14Z-6.912F1000
Z-5
G0X68Y-7.999Z10
G1Z-5F500
Y7.999Z-6.912F1000
Z-5
G0X7.999Y68Z10
G1Z-5F500
X-7.999Z-6.912F1000
Z-5
G0X-68Y7.999Z10
G1Z-5F500
Y-7.999Z-6.912F1000
Z-5
G0X-7.999Y-68Z10
G1Z-5F500
X7.999Z-6.912F1000
Z-5
 
