(Created with grbl post processor 2024/11/05 16:29)
G21
(G-code Generated with Fabex and NC library)
G17G90
(Tool: D = 3.0 mm  type END flutes 2)
S12000M03
G00 Z10.0

G0X0Y0Z10
G1Z-5.1F500
X-3F1000
X-2.958Y-0.497
X-2.834Y-0.981
X-2.632Y-1.438
X-2.357Y-1.855
X-2.017Y-2.22
X-1.62Y-2.524
X-1.179Y-2.758
X-0.705Y-2.915
X-0.212Y-2.992
X0.287Y-2.986
X0.778Y-2.897
X1.248Y-2.727
X1.683Y-2.482
X2.072Y-2.169
X2.403Y-1.795
X2.667Y-1.371
X2.858Y-0.91
X2.969Y-0.423
X2.999Y0.075
X2.945Y0.571
X2.809Y1.052
X2.595Y1.503
X2.31Y1.913
X1.96Y2.27
X1.557Y2.564
X1.11Y2.787
X0.632Y2.932
X0.137Y2.996
X-0.361Y2.978
X-0.85Y2.876
X-1.316Y2.695
X-1.745Y2.439
X-2.126Y2.116
X-2.447Y1.734
X-2.701Y1.304
X-2.88Y0.838
X-3Y0
X-6
X-5.979Y-0.499
X-5.916Y-0.995
X-5.813Y-1.484
X-5.669Y-1.963
X-5.486Y-2.428
X-5.265Y-2.876
X-5.007Y-3.304
X-4.715Y-3.71
X-4.39Y-4.089
X-4.034Y-4.441
X-3.65Y-4.761
X-3.241Y-5.048
X-2.81Y-5.301
X-2.359Y-5.516
X-1.891Y-5.693
X-1.411Y-5.831
X-0.921Y-5.928
X-0.424Y-5.984
X0.075Y-5.999
X0.574Y-5.972
X1.069Y-5.903
X1.557Y-5.794
X2.034Y-5.644
X2.496Y-5.455
X2.942Y-5.229
X3.367Y-4.965
X3.769Y-4.668
X4.144Y-4.338
X4.491Y-3.978
X4.806Y-3.59
X5.089Y-3.178
X5.335Y-2.743
X5.545Y-2.289
X5.717Y-1.82
X5.848Y-1.338
X5.939Y-0.846
X5.989Y-0.349
X5.998Y0.15
X5.964Y0.649
X5.89Y1.143
X5.774Y1.629
X5.618Y2.104
X5.424Y2.565
X5.191Y3.007
X4.923Y3.429
X4.62Y3.827
X4.286Y4.198
X3.921Y4.54
X3.53Y4.851
X3.114Y5.128
X2.676Y5.369
X2.22Y5.574
X1.748Y5.739
X1.264Y5.865
X0.772Y5.95
X0.274Y5.993
X-0.225Y5.995
X-0.723Y5.956
X-1.217Y5.875
X-1.701Y5.753
X-2.174Y5.591
X-2.632Y5.391
X-3.072Y5.153
X-3.49Y4.879
X-3.884Y4.572
X-4.252Y4.233
X-4.589Y3.864
X-4.895Y3.469
X-5.167Y3.049
X-5.403Y2.608
X-5.601Y2.15
X-5.761Y1.676
X-5.88Y1.191
X-5.959Y0.697
X-6Y0
X-9
X-8.986Y-0.499
X-8.944Y-0.997
X-8.875Y-1.493
X-8.778Y-1.983
X-8.655Y-2.467
X-8.504Y-2.944
X-8.327Y-3.412
X-8.125Y-3.869
X-7.898Y-4.314
X-7.646Y-4.746
X-7.371Y-5.164
X-7.072Y-5.565
X-6.753Y-5.949
X-6.412Y-6.315
X-6.051Y-6.661
X-5.672Y-6.987
X-5.275Y-7.291
X-4.862Y-7.573
X-4.434Y-7.831
X-3.992Y-8.065
X-3.538Y-8.275
X-3.074Y-8.458
X-2.599Y-8.616
X-2.117Y-8.747
X-1.628Y-8.851
X-1.134Y-8.928
X-0.636Y-8.977
X-0.137Y-8.998
X0.362Y-8.992
X0.861Y-8.958
X1.357Y-8.897
X1.849Y-8.807
X2.335Y-8.691
X2.814Y-8.548
X3.285Y-8.379
X3.745Y-8.183
X4.193Y-7.963
X4.629Y-7.717
X5.051Y-7.448
X5.456Y-7.156
X5.845Y-6.842
X6.216Y-6.507
X6.568Y-6.152
X6.9Y-5.778
X7.21Y-5.386
X7.498Y-4.977
X7.763Y-4.553
X8.003Y-4.115
X8.22Y-3.664
X8.41Y-3.202
X8.575Y-2.73
X8.714Y-2.25
X8.825Y-1.762
X8.909Y-1.27
X8.966Y-0.773
X8.995Y-0.274
X8.997Y0.225
X8.97Y0.724
X8.916Y1.221
X8.835Y1.715
X8.726Y2.203
X8.59Y2.684
X8.428Y3.157
X8.239Y3.62
X8.026Y4.072
X7.787Y4.511
X7.525Y4.936
X7.239Y5.347
X6.931Y5.74
X6.601Y6.116
X6.251Y6.474
X5.882Y6.811
X5.495Y7.127
X5.091Y7.421
X4.671Y7.692
X4.236Y7.94
X3.789Y8.163
X3.33Y8.361
X2.86Y8.533
X2.382Y8.678
X1.897Y8.797
X1.405Y8.889
X0.909Y8.953
X0.411Y8.99
X-0.088Y8.999
X-0.588Y8.98
X-1.085Y8.934
X-1.58Y8.86
X-2.069Y8.758
X-2.552Y8.63
X-3.028Y8.475
X-3.494Y8.294
X-3.949Y8.087
X-4.392Y7.855
X-4.821Y7.599
X-5.236Y7.319
X-5.634Y7.017
X-6.015Y6.694
X-6.378Y6.349
X-6.72Y5.985
X-7.042Y5.603
X-7.343Y5.203
X-7.62Y4.788
X-7.874Y4.357
X-8.104Y3.913
X-8.309Y3.457
X-8.488Y2.99
X-8.641Y2.514
X-8.767Y2.031
X-8.867Y1.541
X-8.938Y1.046
X-8.983Y0.548
X-9Y0
X-12
X-11.989Y-0.499
X-11.958Y-0.998
X-11.906Y-1.496
X-11.833Y-1.99
X-11.74Y-2.481
X-11.626Y-2.968
X-11.493Y-3.45
X-11.339Y-3.926
X-11.166Y-4.395
X-10.973Y-4.856
X-10.761Y-5.309
X-10.53Y-5.753
X-10.282Y-6.186
X-10.015Y-6.609
X-9.731Y-7.021
X-9.43Y-7.42
X-9.113Y-7.806
X-8.78Y-8.179
X-8.431Y-8.538
X-8.068Y-8.882
X-7.691Y-9.21
X-7.301Y-9.522
X-6.898Y-9.818
X-6.483Y-10.097
X-6.057Y-10.358
X-5.62Y-10.602
X-5.174Y-10.827
X-4.718Y-11.033
X-4.254Y-11.22
X-3.783Y-11.387
X-3.306Y-11.535
X-2.822Y-11.663
X-2.334Y-11.77
X-1.842Y-11.857
X-1.346Y-11.924
X-0.848Y-11.969
X-0.349Y-11.994
X0.15Y-11.999
X0.65Y-11.982
X1.148Y-11.944
X1.645Y-11.886
X2.138Y-11.807
X2.628Y-11.708
X3.114Y-11.588
X3.594Y-11.449
X4.068Y-11.289
X4.534Y-11.11
X4.993Y-10.911
X5.443Y-10.694
X5.884Y-10.458
X6.315Y-10.203
X6.734Y-9.931
X7.142Y-9.642
X7.538Y-9.336
X7.92Y-9.014
X8.289Y-8.677
X8.643Y-8.324
X8.982Y-7.956
X9.306Y-7.575
X9.613Y-7.181
X9.904Y-6.774
X10.178Y-6.356
X10.434Y-5.927
X10.671Y-5.487
X10.891Y-5.037
X11.091Y-4.579
X11.272Y-4.113
X11.434Y-3.64
X11.576Y-3.161
X11.697Y-2.676
X11.799Y-2.186
X11.879Y-1.693
X11.94Y-1.197
X11.979Y-0.698
X11.998Y-0.199
X11.996Y0.3
X11.973Y0.8
X11.929Y1.298
X11.865Y1.794
X11.78Y2.286
X11.674Y2.775
X11.548Y3.259
X11.403Y3.737
X11.237Y4.209
X11.052Y4.673
X10.848Y5.13
X10.625Y5.577
X10.383Y6.015
X10.123Y6.442
X9.846Y6.858
X9.552Y7.262
X9.241Y7.654
X8.914Y8.032
X8.572Y8.397
X8.215Y8.747
X7.843Y9.081
X7.458Y9.4
X7.06Y9.703
X6.65Y9.988
X6.228Y10.257
X5.795Y10.507
X5.353Y10.739
X4.901Y10.953
X4.44Y11.148
X3.972Y11.323
X3.497Y11.479
X3.015Y11.614
X2.529Y11.73
X2.038Y11.825
X1.544Y11.9
X1.047Y11.954
X0.548Y11.987
X0.048Y11.999
X-0.451Y11.991
X-0.95Y11.962
X-1.447Y11.912
X-1.942Y11.841
X-2.434Y11.75
X-2.921Y11.638
X-3.403Y11.507
X-3.88Y11.355
X-4.349Y11.183
X-4.812Y10.992
X-5.265Y10.782
X-5.71Y10.554
X-6.145Y10.307
X-6.569Y10.042
X-6.981Y9.759
X-7.382Y9.46
X-7.769Y9.144
X-8.144Y8.813
X-8.504Y8.466
X-8.849Y8.104
X-9.179Y7.729
X-9.493Y7.34
X-9.79Y6.938
X-10.071Y6.524
X-10.334Y6.099
X-10.579Y5.663
X-10.806Y5.218
X-11.014Y4.763
X-11.203Y4.3
X-11.372Y3.83
X-11.522Y3.353
X-11.651Y2.87
X-11.761Y2.382
X-11.85Y1.89
X-11.918Y1.395
X-11.966Y0.897
X-12Y0
X-15
X-14.991Y-0.499
X-14.966Y-0.999
X-14.925Y-1.497
X-14.866Y-1.994
X-14.792Y-2.488
X-14.7Y-2.98
X-14.593Y-3.468
X-14.469Y-3.952
X-14.33Y-4.432
X-14.174Y-4.907
X-14.002Y-5.377
X-13.815Y-5.841
X-13.613Y-6.298
X-13.396Y-6.748
X-13.163Y-7.191
X-12.916Y-7.626
X-12.655Y-8.052
X-12.38Y-8.469
X-12.09Y-8.877
X-11.788Y-9.275
X-11.472Y-9.663
X-11.144Y-10.04
X-10.803Y-10.406
X-10.45Y-10.76
X-10.086Y-11.102
X-9.71Y-11.432
X-9.324Y-11.749
X-8.927Y-12.054
X-8.52Y-12.344
X-8.104Y-12.622
X-7.679Y-12.885
X-7.245Y-13.133
X-6.803Y-13.368
X-6.354Y-13.587
X-5.898Y-13.791
X-5.435Y-13.98
X-4.966Y-14.153
X-4.491Y-14.311
X-4.012Y-14.453
X-3.528Y-14.579
X-3.04Y-14.688
X-2.549Y-14.781
X-2.055Y-14.858
X-1.559Y-14.918
X-1.061Y-14.962
X-0.561Y-14.989
X-0.061Y-14.999
X0.437Y-14.993
X0.937Y-14.97
X1.435Y-14.931
X1.932Y-14.874
X2.427Y-14.802
X2.919Y-14.713
X3.408Y-14.607
X3.892Y-14.486
X4.373Y-14.348
X4.849Y-14.194
X5.319Y-14.024
X5.784Y-13.839
X6.242Y-13.639
X6.693Y-13.423
X7.136Y-13.193
X7.572Y-12.948
X8Y-12.688
X8.418Y-12.414
X8.827Y-12.127
X9.226Y-11.826
X9.615Y-11.512
X9.994Y-11.185
X10.361Y-10.846
X10.717Y-10.494
X11.06Y-10.131
X11.392Y-9.757
X11.711Y-9.372
X12.017Y-8.977
X12.309Y-8.571
X12.588Y-8.156
X12.853Y-7.732
X13.103Y-7.299
X13.339Y-6.859
X13.561Y-6.41
X13.767Y-5.955
X13.958Y-5.493
X14.133Y-5.024
X14.292Y-4.551
X14.436Y-4.072
X14.564Y-3.588
X14.675Y-3.101
X14.771Y-2.61
X14.849Y-2.116
X14.912Y-1.62
X14.957Y-1.122
X14.987Y-0.623
X14.999Y-0.123
X14.995Y0.376
X14.974Y0.875
X14.936Y1.374
X14.882Y1.871
X14.812Y2.366
X14.725Y2.858
X14.621Y3.347
X14.501Y3.833
X14.366Y4.314
X14.214Y4.79
X14.046Y5.261
X13.863Y5.726
X13.665Y6.185
X13.451Y6.637
X13.222Y7.082
X12.979Y7.519
X12.721Y7.947
X12.449Y8.367
X12.163Y8.777
X11.864Y9.177
X11.552Y9.568
X11.226Y9.947
X10.888Y10.316
X10.539Y10.673
X10.177Y11.018
X9.804Y11.352
X9.42Y11.672
X9.026Y11.979
X8.622Y12.274
X8.208Y12.554
X7.785Y12.821
X7.353Y13.073
X6.914Y13.311
X6.466Y13.534
X6.011Y13.742
X5.55Y13.935
X5.083Y14.112
X4.609Y14.274
X4.131Y14.419
X3.648Y14.549
X3.161Y14.662
X2.671Y14.76
X2.178Y14.84
X1.682Y14.905
X1.184Y14.953
X0.685Y14.984
X0.185Y14.998
X-0.314Y14.996
X-0.813Y14.977
X-1.312Y14.942
X-1.809Y14.89
X-2.304Y14.821
X-2.797Y14.736
X-3.287Y14.635
X-3.773Y14.517
X-4.254Y14.383
X-4.731Y14.234
X-5.203Y14.068
X-5.669Y13.887
X-6.129Y13.69
X-6.582Y13.478
X-7.027Y13.251
X-7.465Y13.01
X-7.894Y12.754
X-8.315Y12.483
X-8.727Y12.199
X-9.128Y11.902
X-9.52Y11.591
X-9.901Y11.267
X-10.271Y10.931
X-10.63Y10.583
X-10.976Y10.222
X-11.311Y9.851
X-11.633Y9.468
X-11.942Y9.076
X-12.238Y8.672
X-12.52Y8.26
X-12.788Y7.838
X-13.043Y7.407
X-13.282Y6.969
X-13.507Y6.522
X-13.717Y6.068
X-13.912Y5.608
X-14.091Y5.141
X-14.254Y4.668
X-14.402Y4.191
X-14.534Y3.708
X-14.649Y3.222
X-14.748Y2.732
X-14.831Y2.239
X-14.898Y1.743
X-14.948Y1.246
X-14.981Y0.747
X-15Y0
X-18
X-17.993Y-0.499
X-17.972Y-0.999
X-17.937Y-1.498
X-17.889Y-1.995
X-17.826Y-2.491
X-17.75Y-2.986
X-17.66Y-3.477
X-17.557Y-3.967
X-17.44Y-4.453
X-17.31Y-4.935
X-17.166Y-5.414
X-17.009Y-5.889
X-16.839Y-6.359
X-16.655Y-6.824
X-16.459Y-7.284
X-16.251Y-7.739
X-16.03Y-8.187
X-15.796Y-8.629
X-15.55Y-9.065
X-15.292Y-9.493
X-15.023Y-9.914
X-14.742Y-10.328
X-14.449Y-10.733
X-14.145Y-11.13
X-13.831Y-11.519
X-13.506Y-11.898
X-13.17Y-12.269
X-12.824Y-12.63
X-12.468Y-12.981
X-12.103Y-13.323
X-11.728Y-13.654
X-11.344Y-13.974
X-10.952Y-14.284
X-10.551Y-14.583
X-10.142Y-14.87
X-9.725Y-15.146
X-9.301Y-15.41
X-8.869Y-15.663
X-8.43Y-15.903
X-7.985Y-16.131
X-7.534Y-16.347
X-7.077Y-16.55
X-6.615Y-16.74
X-6.148Y-16.917
X-5.675Y-17.081
X-5.199Y-17.232
X-4.718Y-17.37
X-4.234Y-17.494
X-3.746Y-17.605
X-3.256Y-17.703
X-2.763Y-17.786
X-2.268Y-17.856
X-1.771Y-17.912
X-1.273Y-17.954
X-0.774Y-17.983
X-0.274Y-17.997
X0.225Y-17.998
X0.725Y-17.985
X1.224Y-17.958
X1.723Y-17.917
X2.219Y-17.862
X2.715Y-17.794
X3.208Y-17.711
X3.699Y-17.615
X4.186Y-17.506
X4.671Y-17.383
X5.152Y-17.246
X5.629Y-17.097
X6.102Y-16.934
X6.57Y-16.758
X7.033Y-16.569
X7.49Y-16.367
X7.942Y-16.153
X8.387Y-15.926
X8.827Y-15.687
X9.259Y-15.435
X9.684Y-15.172
X10.102Y-14.897
X10.512Y-14.611
X10.913Y-14.313
X11.307Y-14.005
X11.691Y-13.685
X12.067Y-13.355
X12.433Y-13.015
X12.79Y-12.665
X13.137Y-12.305
X13.473Y-11.935
X13.8Y-11.556
X14.115Y-11.168
X14.42Y-10.772
X14.714Y-10.367
X14.996Y-9.955
X15.267Y-9.534
X15.526Y-9.107
X15.773Y-8.672
X16.007Y-8.23
X16.23Y-7.783
X16.44Y-7.329
X16.637Y-6.869
X16.821Y-6.405
X16.993Y-5.935
X17.151Y-5.461
X17.296Y-4.982
X17.428Y-4.5
X17.546Y-4.014
X17.651Y-3.525
X17.742Y-3.034
X17.819Y-2.54
X17.883Y-2.044
X17.933Y-1.546
X17.969Y-1.048
X17.991Y-0.548
X17.999Y-0.048
X17.994Y0.451
X17.974Y0.95
X17.941Y1.449
X17.894Y1.947
X17.833Y2.443
X17.758Y2.938
X17.67Y3.43
X17.568Y3.919
X17.452Y4.406
X17.323Y4.889
X17.18Y5.368
X17.025Y5.843
X16.856Y6.314
X16.674Y6.779
X16.479Y7.24
X16.272Y7.695
X16.052Y8.144
X15.819Y8.586
X15.575Y9.022
X15.318Y9.452
X15.05Y9.873
X14.77Y10.288
X14.478Y10.694
X14.176Y11.092
X13.862Y11.481
X13.538Y11.862
X13.203Y12.233
X12.858Y12.595
X12.503Y12.948
X12.139Y13.29
X11.765Y13.622
X11.382Y13.943
X10.991Y14.254
X10.59Y14.554
X10.182Y14.843
X9.766Y15.12
X9.342Y15.385
X8.911Y15.639
X8.473Y15.88
X8.029Y16.109
X7.579Y16.326
X7.122Y16.53
X6.66Y16.722
X6.193Y16.9
X5.721Y17.066
X5.245Y17.218
X4.765Y17.357
X4.281Y17.483
X3.794Y17.595
X3.304Y17.694
X2.811Y17.779
X2.316Y17.85
X1.819Y17.907
X1.321Y17.951
X0.822Y17.981
X0.322Y17.997
X-0.176Y17.999
X-0.676Y17.987
X-1.176Y17.961
X-1.674Y17.921
X-2.171Y17.868
X-2.667Y17.801
X-3.16Y17.72
X-3.651Y17.625
X-4.139Y17.517
X-4.624Y17.395
X-5.105Y17.26
X-5.583Y17.112
X-6.056Y16.95
X-6.524Y16.775
X-6.988Y16.588
X-7.446Y16.387
X-7.898Y16.174
X-8.344Y15.948
X-8.784Y15.71
X-9.217Y15.46
X-9.643Y15.198
X-10.061Y14.925
X-10.472Y14.639
X-10.875Y14.343
X-11.269Y14.035
X-11.654Y13.717
X-12.031Y13.388
X-12.398Y13.049
X-12.756Y12.699
X-13.103Y12.34
X-13.441Y11.971
X-13.768Y11.593
X-14.085Y11.207
X-14.391Y10.811
X-14.686Y10.407
X-14.969Y9.995
X-15.241Y9.576
X-15.501Y9.149
X-15.749Y8.714
X-15.985Y8.274
X-16.209Y7.827
X-16.42Y7.373
X-16.618Y6.914
X-16.804Y6.45
X-16.977Y5.981
X-17.136Y5.507
X-17.283Y5.029
X-17.416Y4.547
X-17.535Y4.062
X-17.641Y3.573
X-17.734Y3.082
X-17.812Y2.588
X-17.878Y2.092
X-17.929Y1.595
X-17.966Y1.096
X-17.99Y0.597
X-18Y0
X-21
X-20.994Y-0.499
X-20.976Y-0.999
X-20.946Y-1.498
X-20.904Y-1.996
X-20.851Y-2.494
X-20.786Y-2.989
X-20.709Y-3.483
X-20.62Y-3.975
X-20.519Y-4.465
X-20.407Y-4.952
X-20.283Y-5.437
X-20.148Y-5.918
X-20.002Y-6.396
X-19.844Y-6.871
X-19.674Y-7.341
X-19.494Y-7.807
X-19.303Y-8.269
X-19.1Y-8.727
X-18.887Y-9.179
X-18.663Y-9.626
X-18.429Y-10.067
X-18.184Y-10.503
X-17.929Y-10.933
X-17.663Y-11.357
X-17.388Y-11.774
X-17.103Y-12.185
X-16.808Y-12.589
X-16.503Y-12.985
X-16.189Y-13.375
X-15.866Y-13.756
X-15.534Y-14.13
X-15.193Y-14.496
X-14.844Y-14.853
X-14.486Y-15.203
X-14.12Y-15.543
X-13.746Y-15.875
X-13.364Y-16.198
X-12.975Y-16.511
X-12.578Y-16.816
X-12.174Y-17.11
X-11.763Y-17.395
X-11.346Y-17.67
X-10.922Y-17.936
X-10.492Y-18.19
X-10.056Y-18.435
X-9.614Y-18.669
X-9.167Y-18.893
X-8.714Y-19.106
X-8.257Y-19.308
X-7.795Y-19.499
X-7.329Y-19.679
X-6.858Y-19.848
X-6.384Y-20.006
X-5.905Y-20.152
X-5.424Y-20.287
X-4.939Y-20.41
X-4.452Y-20.522
X-3.962Y-20.622
X-3.47Y-20.711
X-2.976Y-20.787
X-2.48Y-20.852
X-1.983Y-20.906
X-1.485Y-20.947
X-0.986Y-20.976
X-0.486Y-20.994
X0.013Y-21
X0.513Y-20.993
X1.012Y-20.975
X1.511Y-20.945
X2.01Y-20.903
X2.507Y-20.849
X3.002Y-20.784
X3.496Y-20.706
X3.988Y-20.617
X4.478Y-20.516
X4.965Y-20.404
X5.45Y-20.28
X5.931Y-20.144
X6.409Y-19.998
X6.883Y-19.839
X7.354Y-19.67
X7.82Y-19.489
X8.282Y-19.297
X8.739Y-19.095
X9.191Y-18.881
X9.638Y-18.657
X10.079Y-18.422
X10.515Y-18.177
X10.945Y-17.922
X11.368Y-17.656
X11.785Y-17.38
X12.196Y-17.095
X12.599Y-16.8
X12.996Y-16.495
X13.385Y-16.181
X13.766Y-15.858
X14.14Y-15.525
X14.505Y-15.184
X14.863Y-14.835
X15.212Y-14.477
X15.552Y-14.11
X15.884Y-13.736
X16.206Y-13.354
X16.52Y-12.964
X16.824Y-12.567
X17.118Y-12.163
X17.403Y-11.752
X17.678Y-11.335
X17.942Y-10.911
X18.197Y-10.48
X18.441Y-10.044
X18.675Y-9.602
X18.899Y-9.155
X19.111Y-8.702
X19.313Y-8.245
X19.504Y-7.783
X19.684Y-7.316
X19.852Y-6.846
X20.01Y-6.371
X20.156Y-5.893
X20.29Y-5.411
X20.413Y-4.927
X20.525Y-4.439
X20.625Y-3.949
X20.713Y-3.457
X20.789Y-2.963
X20.854Y-2.467
X20.907Y-1.97
X20.948Y-1.472
X20.977Y-0.973
X20.994Y-0.473
X21Y0.026
X20.993Y0.526
X20.974Y1.026
X20.944Y1.525
X20.902Y2.023
X20.848Y2.52
X20.782Y3.016
X20.704Y3.51
X20.615Y4.001
X20.514Y4.491
X20.401Y4.978
X20.277Y5.462
X20.141Y5.944
X19.993Y6.422
X19.835Y6.896
X19.665Y7.366
X19.484Y7.832
X19.292Y8.294
X19.089Y8.751
X18.876Y9.203
X18.651Y9.649
X18.416Y10.091
X18.171Y10.526
X17.915Y10.956
X17.649Y11.379
X17.373Y11.796
X17.087Y12.207
X16.792Y12.61
X16.487Y13.006
X16.172Y13.395
X15.849Y13.776
X15.516Y14.15
X15.175Y14.515
X14.825Y14.872
X14.467Y15.221
X14.101Y15.561
X13.726Y15.892
X13.344Y16.215
X12.954Y16.528
X12.557Y16.832
X12.153Y17.126
X11.741Y17.41
X11.324Y17.685
X10.899Y17.949
X10.469Y18.204
X10.032Y18.448
X9.59Y18.681
X9.143Y18.905
X8.69Y19.117
X8.233Y19.318
X7.77Y19.509
X7.304Y19.688
X6.833Y19.857
X6.358Y20.014
X5.88Y20.159
X5.398Y20.294
X4.914Y20.416
X4.426Y20.528
X3.936Y20.627
X3.444Y20.715
X2.95Y20.791
X2.454Y20.856
X1.957Y20.908
X1.459Y20.949
X0.959Y20.978
X0.46Y20.995
X-0.039Y21
X-0.539Y20.993
X-1.039Y20.974
X-1.538Y20.943
X-2.036Y20.901
X-2.533Y20.846
X-3.029Y20.78
X-3.523Y20.702
X-4.014Y20.612
X-4.504Y20.511
X-4.991Y20.398
X-5.475Y20.273
X-5.956Y20.137
X-6.434Y19.989
X-6.908Y19.831
X-7.378Y19.66
X-7.844Y19.479
X-8.306Y19.287
X-8.763Y19.084
X-9.215Y18.87
X-9.661Y18.645
X-10.102Y18.41
X-10.538Y18.164
X-10.967Y17.908
X-11.391Y17.642
X-11.807Y17.366
X-12.217Y17.079
X-12.621Y16.784
X-13.017Y16.479
X-13.405Y16.164
X-13.786Y15.84
X-14.159Y15.508
X-14.525Y15.166
X-14.882Y14.816
X-15.23Y14.457
X-15.57Y14.091
X-15.901Y13.716
X-16.223Y13.334
X-16.536Y12.944
X-16.839Y12.546
X-17.133Y12.142
X-17.418Y11.73
X-17.692Y11.312
X-17.956Y10.888
X-18.21Y10.457
X-18.454Y10.021
X-18.688Y9.579
X-18.91Y9.131
X-19.122Y8.678
X-19.324Y8.22
X-19.514Y7.758
X-19.693Y7.291
X-19.861Y6.82
X-20.018Y6.346
X-20.163Y5.867
X-20.297Y5.386
X-20.42Y4.901
X-20.53Y4.413
X-20.63Y3.923
X-20.717Y3.431
X-20.793Y2.937
X-20.857Y2.441
X-20.909Y1.944
X-20.95Y1.445
X-20.978Y0.946
X-21Y0
X-24
X-23.994Y-0.499
X-23.979Y-0.999
X-23.953Y-1.499
X-23.916Y-1.997
X-23.869Y-2.495
X-23.812Y-2.992
X-23.745Y-3.487
X-23.667Y-3.981
X-23.579Y-4.473
X-23.481Y-4.963
X-23.372Y-5.451
X-23.253Y-5.937
X-23.125Y-6.42
X-22.986Y-6.901
X-22.837Y-7.378
X-22.678Y-7.852
X-22.51Y-8.323
X-22.332Y-8.79
X-22.144Y-9.253
X-21.946Y-9.713
X-21.739Y-10.168
X-21.522Y-10.618
X-21.297Y-11.064
X-21.061Y-11.506
X-20.817Y-11.942
X-20.564Y-12.373
X-20.302Y-12.799
X-20.031Y-13.219
X-19.751Y-13.633
X-19.463Y-14.042
X-19.166Y-14.444
X-18.861Y-14.84
X-18.548Y-15.23
X-18.226Y-15.613
X-17.897Y-15.989
X-17.56Y-16.359
X-17.215Y-16.721
X-16.863Y-17.076
X-16.504Y-17.424
X-16.137Y-17.764
X-15.764Y-18.096
X-15.383Y-18.421
X-14.996Y-18.737
X-14.603Y-19.045
X-14.203Y-19.345
X-13.797Y-19.637
X-13.385Y-19.92
X-12.967Y-20.195
X-12.543Y-20.461
X-12.114Y-20.717
X-11.68Y-20.965
X-11.241Y-21.204
X-10.797Y-21.434
X-10.348Y-21.654
X-9.894Y-21.865
X-9.437Y-22.066
X-8.975Y-22.258
X-8.509Y-22.44
X-8.04Y-22.613
X-7.567Y-22.775
X-7.091Y-22.928
X-6.612Y-23.071
X-6.13Y-23.203
X-5.645Y-23.326
X-5.158Y-23.439
X-4.669Y-23.541
X-4.177Y-23.633
X-3.684Y-23.715
X-3.189Y-23.787
X-2.693Y-23.848
X-2.196Y-23.899
X-1.697Y-23.939
X-1.198Y-23.97
X-0.699Y-23.989
X-0.199Y-23.999
X0.3Y-23.998
X0.8Y-23.986
X1.3Y-23.964
X1.799Y-23.932
X2.297Y-23.889
X2.794Y-23.836
X3.29Y-23.773
X3.785Y-23.699
X4.277Y-23.615
X4.768Y-23.521
X5.257Y-23.416
X5.744Y-23.302
X6.228Y-23.177
X6.71Y-23.042
X7.188Y-22.898
X7.664Y-22.743
X8.136Y-22.578
X8.604Y-22.404
X9.069Y-22.22
X9.53Y-22.026
X9.987Y-21.823
X10.439Y-21.61
X10.887Y-21.388
X11.331Y-21.156
X11.769Y-20.916
X12.202Y-20.666
X12.63Y-20.407
X13.052Y-20.14
X13.469Y-19.863
X13.88Y-19.578
X14.285Y-19.285
X14.683Y-18.983
X15.076Y-18.673
X15.461Y-18.355
X15.84Y-18.029
X16.213Y-17.695
X16.578Y-17.354
X16.936Y-17.004
X17.286Y-16.648
X17.629Y-16.284
X17.965Y-15.913
X18.292Y-15.536
X18.612Y-15.151
X18.924Y-14.76
X19.227Y-14.363
X19.522Y-13.959
X19.809Y-13.549
X20.086Y-13.134
X20.356Y-12.713
X20.616Y-12.286
X20.868Y-11.854
X21.11Y-11.416
X21.343Y-10.974
X21.567Y-10.527
X21.782Y-10.075
X21.987Y-9.619
X22.183Y-9.159
X22.369Y-8.695
X22.545Y-8.227
X22.712Y-7.756
X22.868Y-7.281
X23.015Y-6.803
X23.152Y-6.322
X23.278Y-5.839
X23.395Y-5.352
X23.501Y-4.864
X23.598Y-4.373
X23.684Y-3.881
X23.759Y-3.386
X23.825Y-2.891
X23.88Y-2.394
X23.924Y-1.896
X23.959Y-1.397
X23.983Y-0.898
X23.996Y-0.398
X23.999Y0.101
X23.992Y0.601
X23.974Y1.101
X23.946Y1.6
X23.907Y2.099
X23.859Y2.596
X23.799Y3.093
X23.73Y3.588
X23.65Y4.081
X23.56Y4.573
X23.459Y5.063
X23.349Y5.551
X23.228Y6.036
X23.097Y6.518
X22.956Y6.998
X22.806Y7.475
X22.645Y7.948
X22.474Y8.418
X22.294Y8.885
X22.104Y9.347
X21.905Y9.806
X21.696Y10.26
X21.477Y10.71
X21.249Y11.155
X21.012Y11.595
X20.766Y12.03
X20.511Y12.46
X20.247Y12.885
X19.974Y13.304
X19.693Y13.717
X19.403Y14.124
X19.104Y14.525
X18.798Y14.92
X18.483Y15.309
X18.16Y15.69
X17.829Y16.065
X17.49Y16.433
X17.144Y16.794
X16.791Y17.147
X16.43Y17.493
X16.062Y17.832
X15.687Y18.163
X15.305Y18.486
X14.917Y18.8
X14.522Y19.107
X14.121Y19.405
X13.713Y19.695
X13.3Y19.977
X12.881Y20.25
X12.456Y20.514
X12.026Y20.769
X11.591Y21.015
X11.151Y21.251
X10.706Y21.479
X10.256Y21.698
X9.802Y21.906
X9.343Y22.106
X8.881Y22.296
X8.414Y22.476
X7.944Y22.646
X7.471Y22.807
X6.994Y22.958
X6.514Y23.098
X6.031Y23.229
X5.546Y23.35
X5.059Y23.46
X4.569Y23.56
X4.077Y23.651
X3.583Y23.73
X3.088Y23.8
X2.592Y23.859
X2.094Y23.908
X1.596Y23.946
X1.096Y23.974
X0.597Y23.992
X0.097Y23.999
X-0.402Y23.996
X-0.902Y23.982
X-1.401Y23.958
X-1.9Y23.924
X-2.398Y23.879
X-2.895Y23.824
X-3.391Y23.759
X-3.885Y23.683
X-4.377Y23.597
X-4.868Y23.5
X-5.357Y23.394
X-5.843Y23.277
X-6.326Y23.15
X-6.807Y23.014
X-7.285Y22.867
X-7.76Y22.71
X-8.232Y22.543
X-8.699Y22.367
X-9.163Y22.181
X-9.624Y21.985
X-10.079Y21.78
X-10.531Y21.565
X-10.978Y21.341
X-11.42Y21.108
X-11.857Y20.865
X-12.29Y20.614
X-12.716Y20.353
X-13.138Y20.084
X-13.553Y19.806
X-13.963Y19.519
X-14.366Y19.224
X-14.764Y18.921
X-15.155Y18.609
X-15.539Y18.289
X-15.917Y17.962
X-16.287Y17.626
X-16.651Y17.283
X-17.008Y16.932
X-17.357Y16.574
X-17.698Y16.209
X-18.032Y15.837
X-18.358Y15.458
X-18.676Y15.072
X-18.986Y14.68
X-19.288Y14.281
X-19.581Y13.876
X-19.866Y13.465
X-20.142Y13.049
X-20.409Y12.626
X-20.668Y12.198
X-20.918Y11.765
X-21.158Y11.327
X-21.39Y10.883
X-21.612Y10.435
X-21.824Y9.983
X-22.028Y9.526
X-22.221Y9.065
X-22.405Y8.6
X-22.58Y8.132
X-22.744Y7.66
X-22.899Y7.184
X-23.043Y6.705
X-23.178Y6.224
X-23.303Y5.74
X-23.417Y5.253
X-23.522Y4.764
X-23.616Y4.273
X-23.7Y3.78
X-23.773Y3.286
X-23.837Y2.79
X-23.89Y2.292
X-23.932Y1.794
X-23.964Y1.295
X-23.986Y0.796
X-24Y0
X-27
X-26.995Y-0.499
X-26.981Y-0.999
X-26.958Y-1.499
X-26.925Y-1.998
X-26.884Y-2.496
X-26.833Y-2.993
X-26.773Y-3.49
X-26.704Y-3.985
X-26.625Y-4.479
X-26.538Y-4.971
X-26.441Y-5.462
X-26.336Y-5.95
X-26.221Y-6.437
X-26.097Y-6.921
X-25.965Y-7.403
X-25.823Y-7.883
X-25.673Y-8.36
X-25.513Y-8.834
X-25.345Y-9.305
X-25.169Y-9.772
X-24.983Y-10.237
X-24.79Y-10.698
X-24.587Y-11.155
X-24.376Y-11.608
X-24.157Y-12.058
X-23.93Y-12.503
X-23.694Y-12.944
X-23.45Y-13.381
X-23.199Y-13.812
X-22.939Y-14.24
X-22.671Y-14.662
X-22.396Y-15.079
X-22.113Y-15.491
X-21.822Y-15.898
X-21.524Y-16.3
X-21.218Y-16.695
X-20.906Y-17.086
X-20.586Y-17.47
X-20.259Y-17.848
X-19.925Y-18.22
X-19.584Y-18.586
X-19.236Y-18.945
X-18.882Y-19.298
X-18.522Y-19.645
X-18.155Y-19.984
X-17.781Y-20.317
X-17.402Y-20.643
X-17.017Y-20.962
X-16.626Y-21.273
X-16.229Y-21.577
X-15.827Y-21.874
X-15.419Y-22.163
X-15.006Y-22.445
X-14.588Y-22.719
X-14.164Y-22.985
X-13.736Y-23.244
X-13.304Y-23.494
X-12.866Y-23.737
X-12.424Y-23.971
X-11.978Y-24.197
X-11.528Y-24.414
X-11.074Y-24.624
X-10.616Y-24.824
X-10.155Y-25.017
X-9.69Y-25.201
X-9.222Y-25.376
X-8.75Y-25.542
X-8.276Y-25.7
X-7.798Y-25.849
X-7.318Y-25.989
X-6.836Y-26.12
X-6.351Y-26.242
X-5.864Y-26.355
X-5.375Y-26.459
X-4.884Y-26.554
X-4.391Y-26.64
X-3.897Y-26.717
X-3.402Y-26.784
X-2.905Y-26.843
X-2.408Y-26.892
X-1.909Y-26.932
X-1.41Y-26.963
X-0.911Y-26.984
X-0.411Y-26.996
X0.088Y-26.999
X0.588Y-26.993
X1.088Y-26.978
X1.587Y-26.953
X2.086Y-26.919
X2.584Y-26.875
X3.081Y-26.823
X3.577Y-26.761
X4.072Y-26.691
X4.566Y-26.611
X5.058Y-26.521
X5.548Y-26.423
X6.037Y-26.316
X6.523Y-26.2
X7.007Y-26.074
X7.488Y-25.94
X7.968Y-25.797
X8.444Y-25.645
X8.917Y-25.484
X9.388Y-25.315
X9.855Y-25.137
X10.319Y-24.95
X10.779Y-24.754
X11.235Y-24.55
X11.688Y-24.338
X12.137Y-24.118
X12.581Y-23.889
X13.022Y-23.652
X13.457Y-23.406
X13.888Y-23.153
X14.315Y-22.892
X14.736Y-22.623
X15.153Y-22.346
X15.564Y-22.062
X15.97Y-21.77
X16.37Y-21.47
X16.765Y-21.164
X17.154Y-20.849
X17.537Y-20.528
X17.914Y-20.2
X18.285Y-19.865
X18.65Y-19.523
X19.008Y-19.174
X19.36Y-18.819
X19.705Y-18.457
X20.044Y-18.089
X20.375Y-17.715
X20.7Y-17.334
X21.017Y-16.948
X21.327Y-16.556
X21.63Y-16.158
X21.926Y-15.755
X22.214Y-15.346
X22.494Y-14.932
X22.767Y-14.513
X23.032Y-14.089
X23.289Y-13.66
X23.538Y-13.226
X23.779Y-12.788
X24.011Y-12.346
X24.236Y-11.899
X24.452Y-11.448
X24.66Y-10.993
X24.859Y-10.535
X25.05Y-10.073
X25.232Y-9.607
X25.406Y-9.138
X25.571Y-8.666
X25.727Y-8.191
X25.874Y-7.713
X26.012Y-7.233
X26.142Y-6.75
X26.262Y-6.265
X26.374Y-5.777
X26.476Y-5.288
X26.57Y-4.797
X26.654Y-4.304
X26.729Y-3.81
X26.795Y-3.314
X26.852Y-2.817
X26.9Y-2.32
X26.938Y-1.821
X26.967Y-1.322
X26.987Y-0.822
X26.997Y-0.322
X26.999Y0.177
X26.991Y0.676
X26.974Y1.176
X26.947Y1.675
X26.912Y2.174
X26.867Y2.672
X26.813Y3.169
X26.749Y3.665
X26.677Y4.16
X26.595Y4.653
X26.505Y5.145
X26.405Y5.635
X26.296Y6.123
X26.178Y6.609
X26.051Y7.092
X25.915Y7.573
X25.771Y8.052
X25.617Y8.528
X25.455Y9.001
X25.284Y9.471
X25.104Y9.937
X24.916Y10.4
X24.719Y10.86
X24.513Y11.316
X24.3Y11.768
X24.078Y12.216
X23.847Y12.66
X23.609Y13.099
X23.362Y13.534
X23.108Y13.964
X22.845Y14.39
X22.575Y14.81
X22.296Y15.226
X22.011Y15.636
X21.717Y16.041
X21.417Y16.44
X21.108Y16.834
X20.793Y17.222
X20.471Y17.604
X20.141Y17.98
X19.805Y18.35
X19.462Y18.714
X19.112Y19.071
X18.755Y19.422
X18.392Y19.766
X18.023Y20.103
X17.648Y20.433
X17.266Y20.756
X16.879Y21.073
X16.486Y21.382
X16.087Y21.683
X15.683Y21.977
X15.273Y22.264
X14.858Y22.543
X14.438Y22.814
X14.013Y23.078
X13.584Y23.333
X13.149Y23.581
X12.71Y23.82
X12.267Y24.052
X11.82Y24.275
X11.368Y24.489
X10.913Y24.696
X10.453Y24.893
X9.991Y25.083
X9.524Y25.263
X9.055Y25.436
X8.582Y25.599
X8.107Y25.753
X7.629Y25.899
X7.148Y26.036
X6.664Y26.164
X6.179Y26.283
X5.691Y26.393
X5.201Y26.494
X4.71Y26.585
X4.217Y26.668
X3.722Y26.742
X3.226Y26.806
X2.729Y26.861
X2.231Y26.907
X1.733Y26.944
X1.234Y26.971
X0.734Y26.989
X0.234Y26.998
X-0.265
X-0.765Y26.989
X-1.265Y26.97
X-1.764Y26.942
X-2.262Y26.904
X-2.76Y26.858
X-3.257Y26.802
X-3.753Y26.737
X-4.247Y26.663
X-4.74Y26.58
X-5.232Y26.488
X-5.721Y26.386
X-6.209Y26.276
X-6.694Y26.156
X-7.178Y26.028
X-7.658Y25.89
X-8.136Y25.744
X-8.612Y25.589
X-9.084Y25.425
X-9.553Y25.253
X-10.019Y25.071
X-10.482Y24.881
X-10.941Y24.683
X-11.396Y24.476
X-11.847Y24.261
X-12.295Y24.037
X-12.738Y23.806
X-13.176Y23.566
X-13.61Y23.318
X-14.04Y23.062
X-14.465Y22.798
X-14.884Y22.526
X-15.299Y22.246
X-15.708Y21.959
X-16.112Y21.665
X-16.51Y21.363
X-16.903Y21.053
X-17.29Y20.737
X-17.671Y20.413
X-18.046Y20.082
X-18.415Y19.744
X-18.777Y19.4
X-19.133Y19.049
X-19.483Y18.691
X-19.826Y18.327
X-20.162Y17.957
X-20.491Y17.581
X-20.813Y17.198
X-21.128Y16.81
X-21.435Y16.416
X-21.736Y16.016
X-22.029Y15.611
X-22.314Y15.2
X-22.592Y14.784
X-22.861Y14.363
X-23.124Y13.938
X-23.378Y13.507
X-23.624Y13.072
X-23.862Y12.632
X-24.092Y12.188
X-24.313Y11.74
X-24.526Y11.288
X-24.731Y10.832
X-24.928Y10.372
X-25.115Y9.908
X-25.295Y9.442
X-25.465Y8.972
X-25.627Y8.498
X-25.78Y8.022
X-25.924Y7.544
X-26.059Y7.062
X-26.186Y6.579
X-26.303Y6.093
X-26.411Y5.604
X-26.51Y5.114
X-26.601Y4.623
X-26.682Y4.129
X-26.754Y3.634
X-26.816Y3.138
X-26.87Y2.641
X-26.914Y2.143
X-26.949Y1.644
X-26.975Y1.145
X-26.992Y0.645
X-27Y0
X-30
X-29.995Y-0.499
X-29.983Y-0.999
X-29.962Y-1.499
X-29.933Y-1.998
X-29.895Y-2.497
X-29.85Y-2.995
X-29.796Y-3.492
X-29.733Y-3.988
X-29.663Y-4.483
X-29.584Y-4.976
X-29.497Y-5.469
X-29.401Y-5.96
X-29.298Y-6.449
X-29.187Y-6.936
X-29.067Y-7.422
X-28.939Y-7.905
X-28.803Y-8.386
X-28.66Y-8.865
X-28.508Y-9.342
X-28.348Y-9.815
X-28.181Y-10.286
X-28.005Y-10.755
X-27.822Y-11.22
X-27.631Y-11.682
X-27.433Y-12.141
X-27.227Y-12.596
X-27.013Y-13.048
X-26.792Y-13.497
X-26.563Y-13.941
X-26.327Y-14.382
X-26.084Y-14.819
X-25.833Y-15.252
X-25.575Y-15.68
X-25.31Y-16.104
X-25.038Y-16.524
X-24.76Y-16.939
X-24.474Y-17.349
X-24.181Y-17.755
X-23.882Y-18.155
X-23.576Y-18.551
X-23.264Y-18.941
X-22.945Y-19.326
X-22.619Y-19.706
X-22.288Y-20.08
X-21.95Y-20.449
X-21.606Y-20.812
X-21.256Y-21.169
X-20.901Y-21.52
X-20.539Y-21.866
X-20.172Y-22.205
X-19.799Y-22.538
X-19.421Y-22.865
X-19.037Y-23.185
X-18.648Y-23.499
X-18.254Y-23.807
X-17.854Y-24.108
X-17.45Y-24.402
X-17.041Y-24.689
X-16.627Y-24.97
X-16.209Y-25.244
X-15.786Y-25.51
X-15.358Y-25.77
X-14.927Y-26.022
X-14.491Y-26.267
X-14.051Y-26.505
X-13.607Y-26.736
X-13.16Y-26.959
X-12.709Y-27.174
X-12.254Y-27.382
X-11.796Y-27.583
X-11.335Y-27.776
X-10.87Y-27.961
X-10.403Y-28.138
X-9.932Y-28.307
X-9.459Y-28.469
X-8.983Y-28.623
X-8.505Y-28.768
X-8.024Y-28.906
X-7.542Y-29.036
X-7.057Y-29.158
X-6.57Y-29.271
X-6.081Y-29.377
X-5.591Y-29.474
X-5.099Y-29.563
X-4.605Y-29.644
X-4.11Y-29.717
X-3.615Y-29.781
X-3.118Y-29.837
X-2.62Y-29.885
X-2.122Y-29.924
X-1.623Y-29.956
X-1.123Y-29.978
X-0.623Y-29.993
X-0.123Y-29.999
X0.376Y-29.997
X0.875Y-29.987
X1.375Y-29.968
X1.874Y-29.941
X2.373Y-29.905
X2.871Y-29.862
X3.368Y-29.81
X3.865Y-29.749
X4.36Y-29.681
X4.854Y-29.604
X5.347Y-29.519
X5.838Y-29.426
X6.328Y-29.324
X6.816Y-29.215
X7.302Y-29.097
X7.785Y-28.972
X8.267Y-28.838
X8.747Y-28.696
X9.224Y-28.546
X9.698Y-28.389
X10.17Y-28.223
X10.639Y-28.05
X11.105Y-27.868
X11.568Y-27.679
X12.028Y-27.483
X12.484Y-27.278
X12.937Y-27.067
X13.386Y-26.847
X13.832Y-26.62
X14.273Y-26.386
X14.711Y-26.145
X15.145Y-25.896
X15.574Y-25.64
X16Y-25.377
X16.42Y-25.106
X16.836Y-24.829
X17.248Y-24.545
X17.655Y-24.254
X18.056Y-23.957
X18.453Y-23.653
X18.845Y-23.342
X19.231Y-23.024
X19.612Y-22.701
X19.988Y-22.371
X20.358Y-22.034
X20.722Y-21.692
X21.081Y-21.344
X21.434Y-20.989
X21.781Y-20.629
X22.121Y-20.263
X22.456Y-19.892
X22.784Y-19.515
X23.106Y-19.132
X23.422Y-18.745
X23.731Y-18.352
X24.034Y-17.954
X24.33Y-17.551
X24.619Y-17.143
X24.901Y-16.73
X25.176Y-16.313
X25.445Y-15.891
X25.706Y-15.465
X25.96Y-15.034
X26.207Y-14.599
X26.447Y-14.16
X26.679Y-13.718
X26.904Y-13.271
X27.122Y-12.821
X27.332Y-12.367
X27.534Y-11.91
X27.729Y-11.449
X27.916Y-10.986
X28.095Y-10.519
X28.266Y-10.049
X28.43Y-9.577
X28.585Y-9.102
X28.733Y-8.624
X28.873Y-8.144
X29.005Y-7.661
X29.128Y-7.177
X29.244Y-6.691
X29.351Y-6.202
X29.451Y-5.712
X29.542Y-5.221
X29.625Y-4.728
X29.699Y-4.233
X29.766Y-3.738
X29.824Y-3.241
X29.874Y-2.743
X29.915Y-2.245
X29.949Y-1.746
X29.974Y-1.247
X29.99Y-0.747
X29.999Y-0.247
X29.998Y0.252
X29.99Y0.752
X29.973Y1.251
X29.948Y1.751
X29.915Y2.25
X29.873Y2.748
X29.823Y3.245
X29.765Y3.742
X29.699Y4.237
X29.624Y4.732
X29.541Y5.225
X29.45Y5.717
X29.35Y6.207
X29.243Y6.695
X29.127Y7.181
X29.003Y7.666
X28.872Y8.148
X28.732Y8.628
X28.584Y9.106
X28.428Y9.581
X28.265Y10.053
X28.093Y10.523
X27.914Y10.99
X27.727Y11.453
X27.532Y11.914
X27.33Y12.371
X27.12Y12.825
X26.902Y13.275
X26.677Y13.722
X26.445Y14.164
X26.205Y14.603
X25.958Y15.038
X25.704Y15.468
X25.443Y15.895
X25.174Y16.316
X24.899Y16.734
X24.616Y17.146
X24.327Y17.554
X24.031Y17.957
X23.729Y18.355
X23.419Y18.748
X23.104Y19.136
X22.782Y19.518
X22.453Y19.895
X22.118Y20.267
X21.778Y20.633
X21.431Y20.993
X21.078Y21.347
X20.719Y21.695
X20.355Y22.037
X19.985Y22.374
X19.609Y22.704
X19.228Y23.027
X18.841Y23.345
X18.45Y23.655
X18.053Y23.959
X17.651Y24.257
X17.244Y24.548
X16.833Y24.832
X16.417Y25.109
X15.996Y25.379
X15.571Y25.642
X15.141Y25.898
X14.707Y26.147
X14.27Y26.388
X13.828Y26.622
X13.382Y26.849
X12.933Y27.069
X12.48Y27.28
X12.024Y27.485
X11.564Y27.681
X11.101Y27.87
X10.635Y28.051
X10.166Y28.224
X9.694Y28.39
X9.22Y28.548
X8.742Y28.697
X8.263Y28.839
X7.781Y28.973
X7.297Y29.098
X6.811Y29.216
X6.323Y29.325
X5.834Y29.427
X5.343Y29.52
X4.85Y29.605
X4.356Y29.682
X3.86Y29.75
X3.364Y29.81
X2.867Y29.862
X2.369Y29.906
X1.87Y29.941
X1.371Y29.968
X0.871Y29.987
X0.371Y29.997
X-0.128Y29.999
X-0.628Y29.993
X-1.128Y29.978
X-1.627Y29.955
X-2.126Y29.924
X-2.624Y29.884
X-3.122Y29.837
X-3.619Y29.78
X-4.115Y29.716
X-4.609Y29.643
X-5.103Y29.562
X-5.595Y29.473
X-6.085Y29.376
X-6.574Y29.27
X-7.061Y29.157
X-7.546Y29.035
X-8.029Y28.905
X-8.509Y28.767
X-8.988Y28.621
X-9.463Y28.468
X-9.937Y28.306
X-10.407Y28.136
X-10.874Y27.959
X-11.339Y27.774
X-11.8Y27.581
X-12.258Y27.381
X-12.713Y27.173
X-13.164Y26.957
X-13.611Y26.734
X-14.055Y26.503
X-14.495Y26.265
X-14.93Y26.02
X-15.362Y25.768
X-15.789Y25.508
X-16.212Y25.241
X-16.631Y24.968
X-17.045Y24.687
X-17.454Y24.399
X-17.858Y24.105
X-18.257Y23.804
X-18.651Y23.497
X-19.04Y23.182
X-19.424Y22.862
X-19.802Y22.535
X-20.175Y22.202
X-20.542Y21.863
X-20.904Y21.517
X-21.26Y21.166
X-21.609Y20.808
X-21.953Y20.445
X-22.291Y20.077
X-22.622Y19.702
X-22.948Y19.323
X-23.267Y18.938
X-23.579Y18.547
X-23.885Y18.152
X-24.184Y17.751
X-24.476Y17.345
X-24.762Y16.935
X-25.041Y16.52
X-25.313Y16.1
X-25.578Y15.676
X-25.835Y15.248
X-26.086Y14.815
X-26.329Y14.378
X-26.565Y13.938
X-26.794Y13.493
X-27.015Y13.045
X-27.229Y12.592
X-27.435Y12.137
X-27.633Y11.678
X-27.824Y11.216
X-28.007Y10.751
X-28.182Y10.282
X-28.35Y9.811
X-28.509Y9.337
X-28.661Y8.861
X-28.805Y8.382
X-28.94Y7.901
X-29.068Y7.417
X-29.188Y6.932
X-29.299Y6.444
X-29.402Y5.955
X-29.498Y5.464
X-29.585Y4.972
X-29.663Y4.478
X-29.734Y3.983
X-29.796Y3.487
X-29.85Y2.99
X-29.896Y2.492
X-29.933Y1.994
X-29.962Y1.494
X-29.983Y0.995
X-30Y0
X-33
X-32.996Y-0.499
X-32.984Y-0.999
X-32.965Y-1.499
X-32.939Y-1.998
X-32.905Y-2.497
X-32.863Y-2.995
X-32.814Y-3.493
X-32.757Y-3.99
X-32.693Y-4.486
X-32.621Y-4.98
X-32.542Y-5.474
X-32.456Y-5.966
X-32.361Y-6.458
X-32.26Y-6.947
X-32.151Y-7.435
X-32.035Y-7.921
X-31.911Y-8.406
X-31.78Y-8.888
X-31.642Y-9.369
X-31.496Y-9.847
X-31.343Y-10.323
X-31.183Y-10.797
X-31.016Y-11.268
X-30.842Y-11.737
X-30.66Y-12.203
X-30.472Y-12.666
X-30.276Y-13.126
X-30.074Y-13.583
X-29.865Y-14.037
X-29.649Y-14.488
X-29.426Y-14.936
X-29.196Y-15.38
X-28.96Y-15.821
X-28.717Y-16.258
X-28.467Y-16.691
X-28.211Y-17.12
X-27.948Y-17.546
X-27.679Y-17.967
X-27.404Y-18.384
X-27.122Y-18.797
X-26.834Y-19.206
X-26.54Y-19.611
X-26.24Y-20.01
X-25.934Y-20.406
X-25.622Y-20.796
X-25.304Y-21.182
X-24.98Y-21.563
X-24.65Y-21.939
X-24.315Y-22.31
X-23.974Y-22.676
X-23.628Y-23.036
X-23.276Y-23.392
X-22.919Y-23.742
X-22.557Y-24.086
X-22.189Y-24.425
X-21.816Y-24.759
X-21.439Y-25.086
X-21.056Y-25.408
X-20.669Y-25.724
X-20.277Y-26.035
X-19.88Y-26.339
X-19.479Y-26.637
X-19.073Y-26.929
X-18.663Y-27.215
X-18.248Y-27.495
X-17.829Y-27.768
X-17.407Y-28.035
X-16.98Y-28.295
X-16.549Y-28.55
X-16.115Y-28.797
X-15.677Y-29.038
X-15.235Y-29.272
X-14.79Y-29.499
X-14.341Y-29.72
X-13.889Y-29.934
X-13.434Y-30.141
X-12.976Y-30.341
X-12.515Y-30.534
X-12.05Y-30.72
X-11.584Y-30.899
X-11.114Y-31.071
X-10.642Y-31.236
X-10.168Y-31.394
X-9.691Y-31.544
X-9.212Y-31.688
X-8.731Y-31.823
X-8.247Y-31.952
X-7.762Y-32.073
X-7.275Y-32.187
X-6.787Y-32.294
X-6.297Y-32.393
X-5.805Y-32.485
X-5.313Y-32.569
X-4.818Y-32.646
X-4.323Y-32.715
X-3.827Y-32.777
X-3.33Y-32.831
X-2.832Y-32.878
X-2.334Y-32.917
X-1.835Y-32.948
X-1.335Y-32.972
X-0.836Y-32.989
X-0.336Y-32.998
X0.163Y-32.999
X0.663Y-32.993
X1.163Y-32.979
X1.663Y-32.958
X2.162Y-32.929
X2.66Y-32.892
X3.158Y-32.848
X3.656Y-32.796
X4.152Y-32.737
X4.648Y-32.67
X5.142Y-32.596
X5.635Y-32.515
X6.127Y-32.425
X6.618Y-32.329
X7.107Y-32.225
X7.595Y-32.114
X8.08Y-31.995
X8.564Y-31.869
X9.046Y-31.735
X9.526Y-31.595
X10.003Y-31.447
X10.479Y-31.291
X10.951Y-31.129
X11.422Y-30.96
X11.89Y-30.783
X12.355Y-30.599
X12.817Y-30.409
X13.276Y-30.211
X13.732Y-30.006
X14.185Y-29.795
X14.635Y-29.576
X15.082Y-29.351
X15.525Y-29.119
X15.964Y-28.881
X16.4Y-28.636
X16.832Y-28.384
X17.26Y-28.126
X17.684Y-27.861
X18.104Y-27.59
X18.52Y-27.312
X18.932Y-27.028
X19.339Y-26.739
X19.742Y-26.442
X20.14Y-26.14
X20.534Y-25.832
X20.923Y-25.518
X21.307Y-25.198
X21.687Y-24.872
X22.061Y-24.541
X22.43Y-24.204
X22.794Y-23.861
X23.153Y-23.513
X23.507Y-23.16
X23.855Y-22.801
X24.198Y-22.437
X24.535Y-22.068
X24.867Y-21.693
X25.192Y-21.314
X25.512Y-20.93
X25.827Y-20.541
X26.135Y-20.147
X26.437Y-19.749
X26.733Y-19.346
X27.023Y-18.939
X27.307Y-18.527
X27.585Y-18.111
X27.856Y-17.691
X28.121Y-17.267
X28.379Y-16.839
X28.631Y-16.407
X28.877Y-15.972
X29.115Y-15.532
X29.347Y-15.089
X29.572Y-14.643
X29.791Y-14.193
X30.003Y-13.74
X30.207Y-13.284
X30.405Y-12.825
X30.596Y-12.363
X30.78Y-11.898
X30.956Y-11.43
X31.126Y-10.96
X31.289Y-10.487
X31.444Y-10.012
X31.592Y-9.534
X31.733Y-9.054
X31.866Y-8.573
X31.993Y-8.089
X32.111Y-7.603
X32.223Y-7.116
X32.327Y-6.627
X32.424Y-6.136
X32.513Y-5.644
X32.595Y-5.151
X32.669Y-4.656
X32.736Y-4.161
X32.795Y-3.664
X32.847Y-3.167
X32.891Y-2.669
X32.928Y-2.17
X32.957Y-1.671
X32.979Y-1.172
X32.993Y-0.672
X32.999Y-0.172
X32.998Y0.327
X32.989Y0.827
X32.973Y1.327
X32.949Y1.826
X32.917Y2.325
X32.878Y2.823
X32.832Y3.321
X32.778Y3.818
X32.716Y4.315
X32.647Y4.81
X32.57Y5.304
X32.486Y5.797
X32.395Y6.288
X32.296Y6.778
X32.189Y7.267
X32.075Y7.754
X31.954Y8.239
X31.826Y8.722
X31.69Y9.203
X31.547Y9.682
X31.397Y10.159
X31.239Y10.634
X31.074Y11.106
X30.902Y11.575
X30.724Y12.042
X30.538Y12.506
X30.345Y12.968
X30.145Y13.426
X29.938Y13.881
X29.724Y14.333
X29.503Y14.782
X29.276Y15.227
X29.042Y15.669
X28.801Y16.107
X28.554Y16.542
X28.3Y16.972
X28.04Y17.399
X27.773Y17.822
X27.499Y18.241
X27.22Y18.655
X26.934Y19.066
X26.642Y19.471
X26.344Y19.873
X26.04Y20.27
X25.73Y20.662
X25.414Y21.049
X25.092Y21.432
X24.764Y21.81
X24.431Y22.182
X24.092Y22.55
X23.748Y22.913
X23.398Y23.27
X23.043Y23.622
X22.682Y23.968
X22.316Y24.309
X21.946Y24.644
X21.57Y24.974
X21.189Y25.298
X20.803Y25.616
X20.413Y25.928
X20.017Y26.235
X19.618Y26.535
X19.213Y26.829
X18.805Y27.117
X18.392Y27.399
X17.974Y27.674
X17.553Y27.943
X17.128Y28.206
X16.698Y28.462
X16.265Y28.712
X15.828Y28.955
X15.388Y29.192
X14.944Y29.422
X14.496Y29.645
X14.045Y29.861
X13.591Y30.07
X13.134Y30.273
X12.674Y30.468
X12.211Y30.657
X11.745Y30.838
X11.276Y31.013
X10.805Y31.18
X10.332Y31.34
X9.856Y31.493
X9.377Y31.639
X8.897Y31.777
X8.414Y31.908
X7.93Y32.032
X7.444Y32.149
X6.956Y32.258
X6.466Y32.36
X5.975Y32.454
X5.483Y32.541
X4.989Y32.62
X4.494Y32.692
X3.998Y32.756
X3.502Y32.813
X3.004Y32.862
X2.506Y32.904
X2.007Y32.938
X1.508Y32.965
X1.008Y32.984
X0.508Y32.995
X0.008Y32.999
X-0.491Y32.996
X-0.991Y32.984
X-1.49Y32.966
X-1.989Y32.939
X-2.488Y32.905
X-2.987Y32.864
X-3.484Y32.815
X-3.981Y32.758
X-4.477Y32.694
X-4.972Y32.623
X-5.465Y32.544
X-5.958Y32.457
X-6.449Y32.363
X-6.938Y32.262
X-7.426Y32.153
X-7.913Y32.036
X-8.397Y31.913
X-8.88Y31.782
X-9.36Y31.644
X-9.839Y31.498
X-10.315Y31.346
X-10.789Y31.186
X-11.26Y31.019
X-11.728Y30.845
X-12.194Y30.663
X-12.658Y30.475
X-13.118Y30.28
X-13.575Y30.078
X-14.029Y29.868
X-14.48Y29.652
X-14.928Y29.43
X-15.372Y29.2
X-15.813Y28.964
X-16.25Y28.721
X-16.683Y28.471
X-17.112Y28.215
X-17.538Y27.953
X-17.96Y27.684
X-18.377Y27.409
X-18.79Y27.127
X-19.199Y26.839
X-19.603Y26.545
X-20.003Y26.245
X-20.399Y25.939
X-20.789Y25.627
X-21.175Y25.309
X-21.556Y24.985
X-21.932Y24.656
X-22.303Y24.321
X-22.669Y23.98
X-23.03Y23.634
X-23.385Y23.282
X-23.736Y22.925
X-24.08Y22.563
X-24.419Y22.196
X-24.753Y21.823
X-25.081Y21.445
X-25.403Y21.063
X-25.719Y20.676
X-26.029Y20.284
X-26.333Y19.887
X-26.632Y19.486
X-26.924Y19.08
X-27.21Y18.67
X-27.49Y18.255
X-27.763Y17.837
X-28.03Y17.414
X-28.291Y16.987
X-28.545Y16.557
X-28.793Y16.122
X-29.033Y15.684
X-29.268Y15.243
X-29.495Y14.797
X-29.716Y14.349
X-29.93Y13.897
X-30.137Y13.442
X-30.338Y12.984
X-30.531Y12.523
X-30.717Y12.059
X-30.896Y11.592
X-31.068Y11.122
X-31.233Y10.65
X-31.391Y10.176
X-31.542Y9.699
X-31.685Y9.22
X-31.821Y8.739
X-31.95Y8.256
X-32.071Y7.771
X-32.185Y7.284
X-32.292Y6.796
X-32.391Y6.306
X-32.483Y5.814
X-32.567Y5.321
X-32.644Y4.827
X-32.714Y4.332
X-32.776Y3.836
X-32.83Y3.339
X-32.877Y2.841
X-32.916Y2.343
X-32.948Y1.844
X-32.972Y1.344
X-32.988Y0.845
X-33Y0
X-36
X-35.996Y-0.499
X-35.986Y-0.999
X-35.968Y-1.499
X-35.944Y-1.998
X-35.913Y-2.497
X-35.875Y-2.996
X-35.829Y-3.494
X-35.778Y-3.991
X-35.719Y-4.488
X-35.653Y-4.983
X-35.58Y-5.478
X-35.501Y-5.972
X-35.414Y-6.464
X-35.321Y-6.955
X-35.221Y-7.445
X-35.114Y-7.934
X-35.001Y-8.421
X-34.88Y-8.906
X-34.753Y-9.39
X-34.62Y-9.871
X-34.479Y-10.351
X-34.332Y-10.829
X-34.178Y-11.305
X-34.018Y-11.779
X-33.851Y-12.25
X-33.678Y-12.719
X-33.498Y-13.185
X-33.311Y-13.649
X-33.119Y-14.111
X-32.919Y-14.569
X-32.714Y-15.025
X-32.502Y-15.478
X-32.284Y-15.928
X-32.06Y-16.375
X-31.829Y-16.818
X-31.592Y-17.259
X-31.35Y-17.696
X-31.101Y-18.13
X-30.846Y-18.56
X-30.585Y-18.986
X-30.319Y-19.409
X-30.046Y-19.829
X-29.768Y-20.244
X-29.484Y-20.656
X-29.194Y-21.063
X-28.899Y-21.466
X-28.598Y-21.866
X-28.291Y-22.261
X-27.98Y-22.652
X-27.662Y-23.038
X-27.34Y-23.42
X-27.012Y-23.797
X-26.679Y-24.17
X-26.34Y-24.539
X-25.997Y-24.902
X-25.649Y-25.261
X-25.295Y-25.614
X-24.937Y-25.963
X-24.574Y-26.307
X-24.206Y-26.646
X-23.834Y-26.98
X-23.457Y-27.308
X-23.075Y-27.631
X-22.689Y-27.949
X-22.299Y-28.261
X-21.904Y-28.568
X-21.506Y-28.87
X-21.102Y-29.166
X-20.695Y-29.456
X-20.284Y-29.741
X-19.869Y-30.019
X-19.45Y-30.292
X-19.028Y-30.56
X-18.602Y-30.821
X-18.172Y-31.076
X-17.738Y-31.326
X-17.302Y-31.569
X-16.861Y-31.806
X-16.418Y-32.038
X-15.971Y-32.262
X-15.522Y-32.481
X-15.069Y-32.694
X-14.614Y-32.9
X-14.155Y-33.1
X-13.694Y-33.293
X-13.231Y-33.48
X-12.764Y-33.66
X-12.296Y-33.835
X-11.825Y-34.002
X-11.351Y-34.163
X-10.876Y-34.317
X-10.398Y-34.465
X-9.918Y-34.606
X-9.437Y-34.741
X-8.953Y-34.868
X-8.468Y-34.989
X-7.981Y-35.104
X-7.493Y-35.211
X-7.003Y-35.312
X-6.512Y-35.406
X-6.02Y-35.493
X-5.526Y-35.573
X-5.032Y-35.646
X-4.536Y-35.713
X-4.04Y-35.772
X-3.542Y-35.825
X-3.045Y-35.871
X-2.546Y-35.909
X-2.047Y-35.941
X-1.548Y-35.966
X-1.048Y-35.984
X-0.548Y-35.995
X-0.048Y-36
X0.451Y-35.997
X0.951Y-35.987
X1.45Y-35.97
X1.95Y-35.947
X2.449Y-35.916
X2.948Y-35.879
X3.446Y-35.834
X3.943Y-35.783
X4.44Y-35.725
X4.935Y-35.66
X5.43Y-35.588
X5.924Y-35.509
X6.416Y-35.423
X6.908Y-35.33
X7.398Y-35.231
X7.886Y-35.125
X8.373Y-35.012
X8.859Y-34.892
X9.343Y-34.766
X9.825Y-34.633
X10.305Y-34.493
X10.783Y-34.347
X11.259Y-34.194
X11.733Y-34.034
X12.204Y-33.868
X12.673Y-33.695
X13.14Y-33.516
X13.604Y-33.33
X14.066Y-33.138
X14.525Y-32.939
X14.981Y-32.734
X15.434Y-32.523
X15.884Y-32.306
X16.331Y-32.082
X16.775Y-31.852
X17.216Y-31.616
X17.654Y-31.374
X18.088Y-31.125
X18.518Y-30.871
X18.945Y-30.611
X19.368Y-30.345
X19.788Y-30.073
X20.204Y-29.795
X20.616Y-29.512
X21.024Y-29.223
X21.427Y-28.928
X21.827Y-28.627
X22.223Y-28.322
X22.614Y-28.01
X23.001Y-27.693
X23.383Y-27.371
X23.761Y-27.044
X24.134Y-26.711
X24.503Y-26.373
X24.867Y-26.031
X25.226Y-25.683
X25.58Y-25.33
X25.93Y-24.972
X26.274Y-24.61
X26.613Y-24.242
X26.947Y-23.87
X27.276Y-23.494
X27.6Y-23.113
X27.918Y-22.727
X28.231Y-22.337
X28.539Y-21.943
X28.841Y-21.545
X29.137Y-21.142
X29.428Y-20.735
X29.713Y-20.324
X29.993Y-19.91
X30.266Y-19.491
X30.534Y-19.069
X30.796Y-18.643
X31.052Y-18.214
X31.302Y-17.781
X31.546Y-17.344
X31.784Y-16.904
X32.015Y-16.461
X32.241Y-16.015
X32.46Y-15.566
X32.673Y-15.113
X32.88Y-14.658
X33.08Y-14.2
X33.274Y-13.739
X33.462Y-13.276
X33.643Y-12.81
X33.818Y-12.341
X33.986Y-11.87
X34.148Y-11.397
X34.303Y-10.922
X34.451Y-10.444
X34.593Y-9.965
X34.728Y-9.484
X34.856Y-9
X34.978Y-8.515
X35.093Y-8.029
X35.201Y-7.541
X35.302Y-7.051
X35.397Y-6.56
X35.484Y-6.068
X35.565Y-5.574
X35.639Y-5.08
X35.706Y-4.584
X35.767Y-4.088
X35.82Y-3.591
X35.866Y-3.093
X35.906Y-2.595
X35.938Y-2.096
X35.964Y-1.596
X35.983Y-1.097
X35.995Y-0.597
X35.999Y-0.097
X35.997Y0.402
X35.988Y0.902
X35.972Y1.402
X35.949Y1.901
X35.919Y2.4
X35.883Y2.899
X35.839Y3.397
X35.788Y3.895
X35.731Y4.391
X35.666Y4.887
X35.595Y5.382
X35.517Y5.876
X35.432Y6.368
X35.34Y6.86
X35.241Y7.35
X35.136Y7.839
X35.023Y8.326
X34.904Y8.812
X34.779Y9.296
X34.646Y9.778
X34.507Y10.258
X34.361Y10.736
X34.209Y11.212
X34.05Y11.687
X33.884Y12.158
X33.712Y12.628
X33.533Y13.095
X33.348Y13.559
X33.157Y14.021
X32.959Y14.48
X32.755Y14.937
X32.544Y15.39
X32.327Y15.841
X32.104Y16.288
X31.875Y16.732
X31.639Y17.173
X31.398Y17.611
X31.15Y18.046
X30.896Y18.476
X30.637Y18.904
X30.371Y19.327
X30.1Y19.747
X29.823Y20.163
X29.54Y20.576
X29.251Y20.984
X28.957Y21.388
X28.657Y21.788
X28.352Y22.184
X28.041Y22.576
X27.724Y22.963
X27.403Y23.346
X27.076Y23.724
X26.744Y24.098
X26.407Y24.467
X26.064Y24.832
X25.717Y25.191
X25.365Y25.546
X25.007Y25.896
X24.645Y26.241
X24.278Y26.58
X23.907Y26.915
X23.531Y27.244
X23.15Y27.569
X22.765Y27.887
X22.375Y28.201
X21.982Y28.509
X21.584Y28.812
X21.181Y29.109
X20.775Y29.4
X20.365Y29.686
X19.95Y29.966
X19.532Y30.24
X19.11Y30.508
X18.685Y30.771
X18.256Y31.027
X17.823Y31.278
X17.387Y31.522
X16.947Y31.761
X16.505Y31.993
X16.059Y32.219
X15.61Y32.439
X15.158Y32.653
X14.703Y32.86
X14.245Y33.061
X13.784Y33.256
X13.321Y33.444
X12.855Y33.626
X12.387Y33.801
X11.916Y33.97
X11.443Y34.132
X10.968Y34.288
X10.491Y34.437
X10.012Y34.579
X9.531Y34.715
X9.047Y34.844
X8.563Y34.966
X8.076Y35.082
X7.588Y35.191
X7.099Y35.293
X6.608Y35.388
X6.116Y35.476
X5.622Y35.558
X5.128Y35.632
X4.633Y35.7
X4.136Y35.761
X3.639Y35.815
X3.142Y35.862
X2.643Y35.902
X2.144Y35.936
X1.645Y35.962
X1.145Y35.981
X0.645Y35.994
X0.146Y35.999
X-0.353Y35.998
X-0.853Y35.989
X-1.353Y35.974
X-1.853Y35.952
X-2.352Y35.923
X-2.851Y35.887
X-3.349Y35.843
X-3.846Y35.794
X-4.343Y35.737
X-4.839Y35.673
X-5.334Y35.602
X-5.828Y35.525
X-6.321Y35.44
X-6.812Y35.349
X-7.302Y35.251
X-7.791Y35.146
X-8.279Y35.035
X-8.765Y34.916
X-9.249Y34.791
X-9.731Y34.659
X-10.211Y34.521
X-10.69Y34.376
X-11.166Y34.224
X-11.64Y34.066
X-12.112Y33.901
X-12.582Y33.729
X-13.049Y33.551
X-13.514Y33.367
X-13.976Y33.176
X-14.436Y32.978
X-14.892Y32.775
X-15.346Y32.565
X-15.797Y32.348
X-16.245Y32.126
X-16.689Y31.897
X-17.131Y31.662
X-17.569Y31.421
X-18.003Y31.174
X-18.435Y30.921
X-18.862Y30.662
X-19.286Y30.397
X-19.707Y30.126
X-20.123Y29.85
X-20.536Y29.568
X-20.944Y29.279
X-21.349Y28.986
X-21.75Y28.686
X-22.146Y28.382
X-22.538Y28.071
X-22.926Y27.756
X-23.309Y27.434
X-23.688Y27.108
X-24.062Y26.776
X-24.432Y26.44
X-24.796Y26.098
X-25.156Y25.751
X-25.512Y25.399
X-25.862Y25.042
X-26.207Y24.681
X-26.548Y24.314
X-26.883Y23.943
X-27.213Y23.568
X-27.537Y23.187
X-27.857Y22.803
X-28.171Y22.414
X-28.479Y22.02
X-28.782Y21.622
X-29.08Y21.221
X-29.372Y20.815
X-29.658Y20.405
X-29.939Y19.991
X-30.213Y19.573
X-30.482Y19.152
X-30.745Y18.726
X-31.003Y18.298
X-31.254Y17.865
X-31.499Y17.429
X-31.738Y16.99
X-31.971Y16.548
X-32.197Y16.102
X-32.418Y15.654
X-32.632Y15.202
X-32.84Y14.747
X-33.042Y14.29
X-33.237Y13.829
X-33.426Y13.366
X-33.609Y12.901
X-33.784Y12.433
X-33.954Y11.962
X-34.117Y11.49
X-34.273Y11.015
X-34.423Y10.538
X-34.566Y10.059
X-34.702Y9.577
X-34.832Y9.095
X-34.955Y8.61
X-35.071Y8.124
X-35.18Y7.636
X-35.283Y7.146
X-35.379Y6.656
X-35.468Y6.164
X-35.55Y5.67
X-35.625Y5.176
X-35.694Y4.681
X-35.756Y4.185
X-35.81Y3.688
X-35.858Y3.19
X-35.899Y2.692
X-35.933Y2.193
X-35.96Y1.694
X-35.98Y1.194
X-35.993Y0.694
X-36Y0
X-39
X-38.996Y-0.499
X-38.987Y-0.999
X-38.971Y-1.499
X-38.948Y-1.999
X-38.919Y-2.498
X-38.884Y-2.997
X-38.843Y-3.495
X-38.795Y-3.992
X-38.74Y-4.49
X-38.679Y-4.986
X-38.612Y-5.481
X-38.539Y-5.976
X-38.459Y-6.469
X-38.373Y-6.962
X-38.281Y-7.453
X-38.182Y-7.944
X-38.077Y-8.432
X-37.966Y-8.92
X-37.848Y-9.406
X-37.724Y-9.89
X-37.595Y-10.373
X-37.458Y-10.854
X-37.316Y-11.334
X-37.168Y-11.811
X-37.013Y-12.287
X-36.853Y-12.76
X-36.686Y-13.232
X-36.514Y-13.701
X-36.335Y-14.168
X-36.15Y-14.632
X-35.96Y-15.095
X-35.763Y-15.554
X-35.561Y-16.012
X-35.353Y-16.466
X-35.139Y-16.918
X-34.919Y-17.367
X-34.693Y-17.813
X-34.462Y-18.257
X-34.225Y-18.697
X-33.983Y-19.134
X-33.735Y-19.568
X-33.481Y-19.999
X-33.222Y-20.427
X-32.957Y-20.851
X-32.687Y-21.272
X-32.412Y-21.689
X-32.131Y-22.103
X-31.845Y-22.513
X-31.554Y-22.92
X-31.257Y-23.322
X-30.956Y-23.721
X-30.649Y-24.116
X-30.337Y-24.507
X-30.021Y-24.894
X-29.699Y-25.277
X-29.373Y-25.655
X-29.041Y-26.03
X-28.705Y-26.4
X-28.364Y-26.766
X-28.019Y-27.127
X-27.669Y-27.484
X-27.314Y-27.837
X-26.955Y-28.185
X-26.591Y-28.528
X-26.224Y-28.866
X-25.851Y-29.2
X-25.475Y-29.529
X-25.094Y-29.853
X-24.709Y-30.173
X-24.321Y-30.487
X-23.928Y-30.796
X-23.531Y-31.1
X-23.13Y-31.4
X-22.726Y-31.694
X-22.318Y-31.982
X-21.906Y-32.266
X-21.49Y-32.544
X-21.071Y-32.817
X-20.649Y-33.084
X-20.223Y-33.346
X-19.794Y-33.603
X-19.361Y-33.854
X-18.926Y-34.099
X-18.487Y-34.339
X-18.045Y-34.573
X-17.601Y-34.802
X-17.153Y-35.025
X-16.702Y-35.242
X-16.249Y-35.453
X-15.793Y-35.658
X-15.335Y-35.858
X-14.874Y-36.051
X-14.411Y-36.239
X-13.945Y-36.421
X-13.477Y-36.597
X-13.006Y-36.767
X-12.534Y-36.93
X-12.06Y-37.088
X-11.583Y-37.239
X-11.105Y-37.385
X-10.625Y-37.524
X-10.143Y-37.657
X-9.659Y-37.784
X-9.174Y-37.905
X-8.687Y-38.02
X-8.199Y-38.128
X-7.709Y-38.23
X-7.219Y-38.325
X-6.727Y-38.415
X-6.234Y-38.498
X-5.74Y-38.575
X-5.245Y-38.645
X-4.749Y-38.709
X-4.252Y-38.767
X-3.755Y-38.818
X-3.257Y-38.863
X-2.758Y-38.902
X-2.259Y-38.934
X-1.76Y-38.96
X-1.26Y-38.979
X-0.761Y-38.992
X-0.261Y-38.999
X0.238
X0.738Y-38.992
X1.238Y-38.98
X1.738Y-38.961
X2.237Y-38.935
X2.736Y-38.903
X3.235Y-38.865
X3.733Y-38.82
X4.23Y-38.769
X4.727Y-38.712
X5.223Y-38.648
X5.718Y-38.578
X6.212Y-38.501
X6.705Y-38.419
X7.197Y-38.33
X7.688Y-38.234
X8.177Y-38.132
X8.665Y-38.024
X9.152Y-37.91
X9.638Y-37.79
X10.121Y-37.663
X10.603Y-37.53
X11.084Y-37.391
X11.562Y-37.246
X12.039Y-37.095
X12.513Y-36.937
X12.986Y-36.774
X13.456Y-36.604
X13.924Y-36.429
X14.39Y-36.247
X14.854Y-36.06
X15.315Y-35.866
X15.773Y-35.667
X16.229Y-35.462
X16.682Y-35.251
X17.133Y-35.034
X17.581Y-34.812
X18.026Y-34.583
X18.468Y-34.35
X18.906Y-34.11
X19.342Y-33.865
X19.775Y-33.614
X20.204Y-33.358
X20.63Y-33.096
X21.053Y-32.829
X21.472Y-32.556
X21.887Y-32.278
X22.299Y-31.995
X22.708Y-31.706
X23.112Y-31.413
X23.513Y-31.114
X23.91Y-30.81
X24.303Y-30.501
X24.692Y-30.187
X25.077Y-29.868
X25.458Y-29.544
X25.835Y-29.215
X26.207Y-28.881
X26.575Y-28.543
X26.939Y-28.2
X27.298Y-27.852
X27.653Y-27.5
X28.003Y-27.143
X28.349Y-26.782
X28.69Y-26.416
X29.026Y-26.046
X29.358Y-25.672
X29.685Y-25.293
X30.007Y-24.911
X30.323Y-24.524
X30.635Y-24.133
X30.942Y-23.738
X31.244Y-23.34
X31.541Y-22.937
X31.832Y-22.531
X32.118Y-22.121
X32.399Y-21.708
X32.675Y-21.29
X32.945Y-20.87
X33.21Y-20.446
X33.47Y-20.018
X33.723Y-19.588
X33.972Y-19.154
X34.215Y-18.716
X34.452Y-18.276
X34.683Y-17.833
X34.909Y-17.387
X35.129Y-16.938
X35.343Y-16.486
X35.552Y-16.032
X35.754Y-15.575
X35.951Y-15.115
X36.142Y-14.653
X36.327Y-14.188
X36.506Y-13.721
X36.679Y-13.252
X36.845Y-12.781
X37.006Y-12.308
X37.161Y-11.832
X37.31Y-11.355
X37.452Y-10.875
X37.589Y-10.394
X37.719Y-9.912
X37.843Y-9.427
X37.96Y-8.941
X38.072Y-8.454
X38.177Y-7.965
X38.276Y-7.475
X38.369Y-6.984
X38.455Y-6.491
X38.535Y-5.998
X38.609Y-5.503
X38.676Y-5.008
X38.738Y-4.511
X38.792Y-4.014
X38.84Y-3.517
X38.882Y-3.019
X38.918Y-2.52
X38.947Y-2.021
X38.97Y-1.521
X38.986Y-1.021
X38.996Y-0.522
X38.999Y-0.022
X38.996Y0.477
X38.987Y0.977
X38.971Y1.477
X38.949Y1.977
X38.921Y2.476
X38.886Y2.974
X38.844Y3.473
X38.797Y3.97
X38.743Y4.468
X38.682Y4.964
X38.615Y5.459
X38.542Y5.954
X38.463Y6.448
X38.377Y6.94
X38.285Y7.432
X38.186Y7.922
X38.082Y8.411
X37.971Y8.898
X37.853Y9.384
X37.73Y9.869
X37.6Y10.352
X37.464Y10.833
X37.323Y11.312
X37.174Y11.79
X37.02Y12.266
X36.86Y12.739
X36.694Y13.211
X36.521Y13.68
X36.343Y14.147
X36.158Y14.612
X35.968Y15.074
X35.772Y15.534
X35.57Y15.991
X35.362Y16.446
X35.148Y16.898
X34.929Y17.347
X34.703Y17.794
X34.472Y18.237
X34.236Y18.678
X33.993Y19.115
X33.746Y19.549
X33.492Y19.98
X33.233Y20.408
X32.969Y20.832
X32.699Y21.253
X32.424Y21.671
X32.143Y22.085
X31.858Y22.495
X31.567Y22.902
X31.27Y23.304
X30.969Y23.703
X30.663Y24.098
X30.351Y24.49
X30.035Y24.877
X29.713Y25.26
X29.387Y25.639
X29.056Y26.013
X28.72Y26.384
X28.379Y26.75
X28.034Y27.111
X27.684Y27.468
X27.33Y27.821
X26.971Y28.169
X26.608Y28.513
X26.24Y28.851
X25.868Y29.185
X25.492Y29.515
X25.111Y29.839
X24.726Y30.159
X24.338Y30.473
X23.945Y30.783
X23.548Y31.087
X23.148Y31.386
X22.744Y31.681
X22.336Y31.97
X21.924Y32.253
X21.509Y32.532
X21.09Y32.805
X20.668Y33.072
X20.242Y33.335
X19.813Y33.591
X19.38Y33.843
X18.945Y34.088
X18.506Y34.328
X18.065Y34.563
X17.62Y34.792
X17.173Y35.015
X16.722Y35.232
X16.269Y35.444
X15.814Y35.649
X15.355Y35.849
X14.894Y36.043
X14.431Y36.231
X13.965Y36.413
X13.497Y36.589
X13.027Y36.759
X12.555Y36.923
X12.081Y37.081
X11.604Y37.233
X11.126Y37.379
X10.646Y37.518
X10.164Y37.651
X9.68Y37.779
X9.195Y37.9
X8.709Y38.014
X8.221Y38.123
X7.731Y38.225
X7.24Y38.321
X6.748Y38.411
X6.255Y38.494
X5.761Y38.571
X5.267Y38.642
X4.771Y38.706
X4.274Y38.764
X3.777Y38.816
X3.279Y38.861
X2.78Y38.9
X2.281Y38.932
X1.782Y38.959
X1.282Y38.978
X0.783Y38.991
X0.283Y38.998
X-0.216Y38.999
X-0.716Y38.993
X-1.216Y38.98
X-1.716Y38.962
X-2.215Y38.936
X-2.714Y38.905
X-3.213Y38.867
X-3.711Y38.822
X-4.208Y38.772
X-4.705Y38.714
X-5.201Y38.651
X-5.696Y38.581
X-6.19Y38.505
X-6.683Y38.422
X-7.175Y38.333
X-7.666Y38.238
X-8.156Y38.137
X-8.644Y38.029
X-9.131Y37.915
X-9.616Y37.795
X-10.1Y37.669
X-10.582Y37.536
X-11.062Y37.397
X-11.541Y37.252
X-12.017Y37.101
X-12.492Y36.944
X-12.965Y36.781
X-13.435Y36.612
X-13.903Y36.437
X-14.369Y36.255
X-14.833Y36.068
X-15.294Y35.875
X-15.753Y35.676
X-16.209Y35.471
X-16.662Y35.26
X-17.113Y35.044
X-17.561Y34.822
X-18.006Y34.594
X-18.448Y34.36
X-18.887Y34.121
X-19.323Y33.876
X-19.756Y33.625
X-20.185Y33.369
X-20.611Y33.108
X-21.034Y32.841
X-21.453Y32.568
X-21.869Y32.29
X-22.281Y32.007
X-22.69Y31.719
X-23.094Y31.426
X-23.495Y31.127
X-23.893Y30.823
X-24.286Y30.514
X-24.675Y30.201
X-25.06Y29.882
X-25.441Y29.558
X-25.818Y29.229
X-26.191Y28.896
X-26.559Y28.558
X-26.923Y28.215
X-27.282Y27.867
X-27.637Y27.515
X-27.988Y27.159
X-28.334Y26.798
X-28.675Y26.432
X-29.012Y26.063
X-29.343Y25.688
X-29.67Y25.31
X-29.992Y24.928
X-30.309Y24.541
X-30.622Y24.151
X-30.929Y23.756
X-31.231Y23.357
X-31.528Y22.955
X-31.819Y22.549
X-32.106Y22.139
X-32.387Y21.726
X-32.663Y21.309
X-32.933Y20.888
X-33.198Y20.464
X-33.458Y20.037
X-33.712Y19.607
X-33.961Y19.173
X-34.204Y18.736
X-34.441Y18.296
X-34.673Y17.853
X-34.899Y17.407
X-35.119Y16.958
X-35.334Y16.506
X-35.542Y16.052
X-35.745Y15.595
X-35.942Y15.135
X-36.133Y14.673
X-36.319Y14.209
X-36.498Y13.742
X-36.671Y13.273
X-36.838Y12.802
X-36.999Y12.328
X-37.154Y11.853
X-37.303Y11.376
X-37.446Y10.897
X-37.583Y10.416
X-37.713Y9.933
X-37.837Y9.449
X-37.955Y8.963
X-38.067Y8.476
X-38.173Y7.987
X-38.272Y7.497
X-38.365Y7.005
X-38.451Y6.513
X-38.532Y6.02
X-38.606Y5.525
X-38.674Y5.03
X-38.735Y4.533
X-38.79Y4.036
X-38.838Y3.539
X-38.881Y3.041
X-38.916Y2.542
X-38.946Y2.043
X-38.969Y1.543
X-38.985Y1.044
X-38.995Y0.544
X-39Y0
X-42
X-41.997Y-0.499
X-41.988Y-0.999
X-41.973Y-1.499
X-41.952Y-1.999
X-41.925Y-2.498
X-41.892Y-2.997
X-41.854Y-3.495
X-41.809Y-3.993
X-41.759Y-4.491
X-41.702Y-4.988
X-41.64Y-5.484
X-41.572Y-5.979
X-41.498Y-6.474
X-41.418Y-6.967
X-41.332Y-7.46
X-41.24Y-7.951
X-41.142Y-8.442
X-41.039Y-8.931
X-40.93Y-9.419
X-40.815Y-9.905
X-40.694Y-10.39
X-40.567Y-10.874
X-40.435Y-11.356
X-40.297Y-11.837
X-40.153Y-12.316
X-40.004Y-12.793
X-39.848Y-13.268
X-39.688Y-13.742
X-39.521Y-14.213
X-39.349Y-14.683
X-39.172Y-15.15
X-38.989Y-15.615
X-38.8Y-16.078
X-38.606Y-16.539
X-38.406Y-16.998
X-38.201Y-17.454
X-37.991Y-17.907
X-37.775Y-18.358
X-37.553Y-18.806
X-37.327Y-19.252
X-37.095Y-19.695
X-36.858Y-20.135
X-36.616Y-20.573
X-36.368Y-21.007
X-36.115Y-21.439
X-35.858Y-21.867
X-35.595Y-22.292
X-35.327Y-22.715
X-35.054Y-23.133
X-34.776Y-23.549
X-34.493Y-23.961
X-34.206Y-24.37
X-33.913Y-24.776
X-33.616Y-25.178
X-33.314Y-25.576
X-33.007Y-25.971
X-32.695Y-26.362
X-32.379Y-26.749
X-32.058Y-27.133
X-31.733Y-27.513
X-31.403Y-27.889
X-31.069Y-28.26
X-30.73Y-28.628
X-30.387Y-28.992
X-30.04Y-29.352
X-29.689Y-29.707
X-29.333Y-30.059
X-28.973Y-30.406
X-28.609Y-30.749
X-28.241Y-31.087
X-27.869Y-31.421
X-27.493Y-31.75
X-27.113Y-32.075
X-26.729Y-32.396
X-26.341Y-32.712
X-25.95Y-33.023
X-25.555Y-33.33
X-25.157Y-33.632
X-24.754Y-33.929
X-24.349Y-34.221
X-23.94Y-34.508
X-23.527Y-34.791
X-23.111Y-35.069
X-22.692Y-35.341
X-22.27Y-35.609
X-21.844Y-35.871
X-21.416Y-36.129
X-20.984Y-36.381
X-20.55Y-36.629
X-20.112Y-36.871
X-19.672Y-37.107
X-19.229Y-37.339
X-18.783Y-37.565
X-18.334Y-37.786
X-17.883Y-38.002
X-17.429Y-38.212
X-16.973Y-38.417
X-16.515Y-38.616
X-16.054Y-38.81
X-15.591Y-38.998
X-15.125Y-39.181
X-14.658Y-39.359
X-14.188Y-39.53
X-13.717Y-39.696
X-13.243Y-39.857
X-12.768Y-40.012
X-12.29Y-40.161
X-11.811Y-40.304
X-11.331Y-40.442
X-10.849Y-40.574
X-10.365Y-40.7
X-9.879Y-40.821
X-9.393Y-40.936
X-8.905Y-41.045
X-8.416Y-41.148
X-7.925Y-41.245
X-7.434Y-41.336
X-6.941Y-41.422
X-6.447Y-41.502
X-5.953Y-41.575
X-5.457Y-41.643
X-4.961Y-41.705
X-4.464Y-41.761
X-3.967Y-41.812
X-3.469Y-41.856
X-2.97Y-41.894
X-2.472Y-41.927
X-1.972Y-41.953
X-1.473Y-41.974
X-0.973Y-41.988
X-0.473Y-41.997
X0.026Y-41.999
X0.526Y-41.996
X1.026Y-41.987
X1.526Y-41.972
X2.025Y-41.951
X2.525Y-41.923
X3.023Y-41.89
X3.522Y-41.851
X4.02Y-41.807
X4.517Y-41.756
X5.014Y-41.699
X5.51Y-41.636
X6.005Y-41.568
X6.5Y-41.493
X6.993Y-41.413
X7.486Y-41.327
X7.977Y-41.235
X8.468Y-41.137
X8.957Y-41.033
X9.445Y-40.924
X9.931Y-40.808
X10.416Y-40.687
X10.9Y-40.56
X11.382Y-40.428
X11.862Y-40.289
X12.341Y-40.145
X12.818Y-39.995
X13.293Y-39.84
X13.767Y-39.679
X14.238Y-39.512
X14.708Y-39.34
X15.175Y-39.162
X15.64Y-38.979
X16.103Y-38.79
X16.563Y-38.595
X17.022Y-38.395
X17.478Y-38.19
X17.931Y-37.979
X18.382Y-37.763
X18.83Y-37.542
X19.276Y-37.315
X19.719Y-37.083
X20.159Y-36.845
X20.596Y-36.603
X21.03Y-36.355
X21.461Y-36.102
X21.89Y-35.844
X22.315Y-35.581
X22.737Y-35.313
X23.156Y-35.039
X23.571Y-34.761
X23.983Y-34.478
X24.392Y-34.19
X24.797Y-33.897
X25.199Y-33.6
X25.597Y-33.297
X25.992Y-32.99
X26.383Y-32.679
X26.77Y-32.362
X27.153Y-32.041
X27.533Y-31.716
X27.908Y-31.386
X28.28Y-31.051
X28.648Y-30.712
X29.011Y-30.369
X29.371Y-30.022
X29.726Y-29.67
X30.077Y-29.314
X30.424Y-28.954
X30.767Y-28.589
X31.105Y-28.221
X31.438Y-27.849
X31.768Y-27.473
X32.093Y-27.092
X32.413Y-26.708
X32.729Y-26.321
X33.04Y-25.929
X33.346Y-25.534
X33.647Y-25.135
X33.944Y-24.733
X34.236Y-24.327
X34.524Y-23.918
X34.806Y-23.505
X35.083Y-23.089
X35.356Y-22.67
X35.623Y-22.247
X35.885Y-21.822
X36.143Y-21.393
X36.395Y-20.961
X36.642Y-20.526
X36.883Y-20.089
X37.12Y-19.648
X37.351Y-19.205
X37.577Y-18.759
X37.798Y-18.31
X38.013Y-17.859
X38.223Y-17.405
X38.428Y-16.949
X38.627Y-16.49
X38.82Y-16.029
X39.008Y-15.566
X39.191Y-15.1
X39.368Y-14.633
X39.539Y-14.163
X39.705Y-13.691
X39.865Y-13.218
X40.02Y-12.742
X40.169Y-12.265
X40.312Y-11.786
X40.449Y-11.305
X40.581Y-10.823
X40.707Y-10.339
X40.827Y-9.854
X40.941Y-9.367
X41.05Y-8.879
X41.153Y-8.39
X41.25Y-7.899
X41.341Y-7.407
X41.426Y-6.915
X41.506Y-6.421
X41.579Y-5.927
X41.647Y-5.431
X41.708Y-4.935
X41.764Y-4.438
X41.814Y-3.941
X41.858Y-3.443
X41.896Y-2.944
X41.928Y-2.445
X41.954Y-1.946
X41.974Y-1.446
X41.989Y-0.946
X41.997Y-0.446
X41.999Y0.053
X41.996Y0.553
X41.986Y1.052
X41.971Y1.552
X41.949Y2.052
X41.922Y2.551
X41.888Y3.05
X41.849Y3.548
X41.804Y4.046
X41.753Y4.544
X41.696Y5.04
X41.633Y5.536
X41.564Y6.032
X41.489Y6.526
X41.409Y7.019
X41.322Y7.512
X41.23Y8.003
X41.132Y8.494
X41.027Y8.983
X40.918Y9.47
X40.802Y9.957
X40.681Y10.442
X40.553Y10.925
X40.42Y11.407
X40.282Y11.888
X40.137Y12.367
X39.987Y12.843
X39.832Y13.319
X39.67Y13.792
X39.503Y14.263
X39.331Y14.732
X39.152Y15.2
X38.969Y15.665
X38.779Y16.127
X38.585Y16.588
X38.384Y17.046
X38.179Y17.502
X37.968Y17.955
X37.751Y18.406
X37.53Y18.854
X37.302Y19.299
X37.07Y19.742
X36.832Y20.182
X36.59Y20.619
X36.341Y21.053
X36.088Y21.484
X35.83Y21.912
X35.567Y22.337
X35.298Y22.759
X35.025Y23.178
X34.746Y23.593
X34.463Y24.005
X34.175Y24.414
X33.882Y24.819
X33.584Y25.22
X33.281Y25.618
X32.974Y26.013
X32.662Y26.403
X32.345Y26.79
X32.024Y27.173
X31.698Y27.553
X31.368Y27.928
X31.033Y28.3
X30.694Y28.667
X30.351Y29.03
X30.003Y29.39
X29.651Y29.745
X29.295Y30.096
X28.934Y30.442
X28.57Y30.785
X28.201Y31.123
X27.829Y31.456
X27.452Y31.785
X27.072Y32.11
X26.688Y32.43
X26.3Y32.745
X25.908Y33.056
X25.513Y33.362
X25.114Y33.663
X24.711Y33.96
X24.305Y34.252
X23.896Y34.539
X23.483Y34.821
X23.067Y35.098
X22.647Y35.37
X22.225Y35.637
X21.799Y35.899
X21.37Y36.156
X20.938Y36.408
X20.503Y36.654
X20.065Y36.896
X19.625Y37.132
X19.181Y37.363
X18.735Y37.589
X18.286Y37.809
X17.835Y38.024
X17.381Y38.234
X16.925Y38.438
X16.466Y38.637
X16.005Y38.83
X15.541Y39.018
X15.076Y39.2
X14.608Y39.377
X14.138Y39.548
X13.666Y39.714
X13.193Y39.873
X12.717Y40.028
X12.24Y40.176
X11.76Y40.319
X11.28Y40.456
X10.797Y40.588
X10.313Y40.713
X9.828Y40.833
X9.341Y40.947
X8.853Y41.056
X8.364Y41.158
X7.873Y41.255
X7.381Y41.346
X6.889Y41.431
X6.395Y41.51
X5.9Y41.583
X5.405Y41.65
X4.909Y41.711
X4.412Y41.767
X3.914Y41.817
X3.416Y41.86
X2.917Y41.898
X2.418Y41.93
X1.919Y41.955
X1.42Y41.975
X0.92Y41.989
X0.42Y41.997
X-0.079Y41.999
X-0.579Y41.995
X-1.079Y41.985
X-1.579Y41.97
X-2.078Y41.948
X-2.578Y41.92
X-3.076Y41.886
X-3.575Y41.847
X-4.073Y41.801
X-4.57Y41.75
X-5.067Y41.693
X-5.563Y41.629
X-6.058Y41.56
X-6.552Y41.485
X-7.046Y41.404
X-7.538Y41.317
X-8.029Y41.225
X-8.52Y41.126
X-9.009Y41.022
X-9.496Y40.912
X-9.983Y40.796
X-10.468Y40.674
X-10.951Y40.546
X-11.433Y40.413
X-11.913Y40.274
X-12.392Y40.129
X-12.869Y39.979
X-13.344Y39.823
X-13.817Y39.661
X-14.288Y39.494
X-14.757Y39.321
X-15.224Y39.143
X-15.689Y38.959
X-16.152Y38.769
X-16.612Y38.574
X-17.07Y38.374
X-17.526Y38.168
X-17.979Y37.956
X-18.43Y37.74
X-18.878Y37.518
X-19.323Y37.29
X-19.765Y37.057
X-20.205Y36.82
X-20.642Y36.576
X-21.076Y36.328
X-21.507Y36.075
X-21.935Y35.816
X-22.36Y35.552
X-22.781Y35.284
X-23.2Y35.01
X-23.615Y34.731
X-24.027Y34.448
X-24.435Y34.159
X-24.84Y33.866
X-25.241Y33.568
X-25.639Y33.265
X-26.033Y32.957
X-26.424Y32.645
X-26.811Y32.328
X-27.194Y32.007
X-27.573Y31.681
X-27.948Y31.35
X-28.319Y31.015
X-28.686Y30.676
X-29.05Y30.332
X-29.409Y29.984
X-29.764Y29.632
X-30.114Y29.276
X-30.461Y28.915
X-30.803Y28.55
X-31.14Y28.182
X-31.474Y27.809
X-31.802Y27.432
X-32.127Y27.052
X-32.447Y26.667
X-32.762Y26.279
X-33.072Y25.887
X-33.378Y25.492
X-33.679Y25.093
X-33.975Y24.69
X-34.267Y24.284
X-34.554Y23.874
X-34.835Y23.461
X-35.112Y23.045
X-35.384Y22.625
X-35.651Y22.202
X-35.913Y21.776
X-36.169Y21.347
X-36.421Y20.915
X-36.667Y20.48
X-36.909Y20.042
X-37.145Y19.601
X-37.375Y19.158
X-37.601Y18.711
X-37.821Y18.262
X-38.036Y17.811
X-38.245Y17.357
X-38.449Y16.9
X-38.647Y16.441
X-38.84Y15.98
X-39.028Y15.517
X-39.21Y15.051
X-39.386Y14.583
X-39.557Y14.113
X-39.722Y13.641
X-39.882Y13.167
X-40.036Y12.692
X-40.184Y12.214
X-40.326Y11.735
X-40.463Y11.254
X-40.594Y10.771
X-40.72Y10.287
X-40.839Y9.802
X-40.953Y9.315
X-41.061Y8.827
X-41.163Y8.337
X-41.26Y7.847
X-41.35Y7.355
X-41.435Y6.862
X-41.514Y6.369
X-41.586Y5.874
X-41.653Y5.378
X-41.715Y4.882
X-41.77Y4.385
X-41.819Y3.888
X-41.862Y3.39
X-41.9Y2.891
X-41.931Y2.392
X-41.957Y1.893
X-41.976Y1.393
X-41.99Y0.893
X-42Y0
X-45
X-44.997Y-0.499
X-44.988Y-0.999
X-44.975Y-1.499
X-44.955Y-1.999
X-44.93Y-2.498
X-44.9Y-2.997
X-44.863Y-3.496
X-44.822Y-3.994
X-44.775Y-4.492
X-44.722Y-4.989
X-44.664Y-5.486
X-44.6Y-5.982
X-44.531Y-6.477
X-44.456Y-6.971
X-44.376Y-7.465
X-44.29Y-7.957
X-44.199Y-8.449
X-44.102Y-8.94
X-44Y-9.429
X-43.893Y-9.917
X-43.78Y-10.404
X-43.662Y-10.89
X-43.538Y-11.375
X-43.409Y-11.858
X-43.275Y-12.339
X-43.135Y-12.819
X-42.99Y-13.298
X-42.839Y-13.775
X-42.684Y-14.25
X-42.523Y-14.723
X-42.356Y-15.195
X-42.185Y-15.664
X-42.008Y-16.132
X-41.826Y-16.598
X-41.639Y-17.062
X-41.447Y-17.523
X-41.25Y-17.983
X-41.048Y-18.44
X-40.84Y-18.895
X-40.628Y-19.348
X-40.41Y-19.798
X-40.188Y-20.246
X-39.96Y-20.691
X-39.728Y-21.134
X-39.491Y-21.574
X-39.249Y-22.011
X-39.002Y-22.446
X-38.75Y-22.878
X-38.493Y-23.307
X-38.232Y-23.733
X-37.966Y-24.156
X-37.695Y-24.577
X-37.42Y-24.994
X-37.14Y-25.408
X-36.855Y-25.819
X-36.566Y-26.227
X-36.272Y-26.632
X-35.974Y-27.033
X-35.671Y-27.431
X-35.364Y-27.826
X-35.053Y-28.217
X-34.737Y-28.605
X-34.417Y-28.989
X-34.093Y-29.37
X-33.765Y-29.747
X-33.432Y-30.12
X-33.095Y-30.49
X-32.755Y-30.856
X-32.41Y-31.218
X-32.061Y-31.576
X-31.708Y-31.93
X-31.351Y-32.28
X-30.991Y-32.627
X-30.626Y-32.969
X-30.258Y-33.307
X-29.886Y-33.642
X-29.51Y-33.972
X-29.131Y-34.297
X-28.748Y-34.619
X-28.362Y-34.936
X-27.972Y-35.249
X-27.579Y-35.558
X-27.182Y-35.862
X-26.782Y-36.162
X-26.378Y-36.457
X-25.971Y-36.748
X-25.562Y-37.034
X-25.148Y-37.316
X-24.732Y-37.593
X-24.313Y-37.866
X-23.891Y-38.133
X-23.466Y-38.397
X-23.038Y-38.655
X-22.607Y-38.908
X-22.173Y-39.157
X-21.737Y-39.401
X-21.297Y-39.64
X-20.856Y-39.874
X-20.411Y-40.104
X-19.964Y-40.328
X-19.515Y-40.547
X-19.063Y-40.762
X-18.609Y-40.971
X-18.153Y-41.175
X-17.694Y-41.374
X-17.233Y-41.568
X-16.771Y-41.757
X-16.306Y-41.941
X-15.839Y-42.12
X-15.37Y-42.293
X-14.899Y-42.461
X-14.426Y-42.624
X-13.952Y-42.782
X-13.475Y-42.934
X-12.997Y-43.081
X-12.518Y-43.223
X-12.037Y-43.36
X-11.554Y-43.491
X-11.07Y-43.616
X-10.585Y-43.737
X-10.099Y-43.852
X-9.611Y-43.961
X-9.122Y-44.065
X-8.631Y-44.164
X-8.14Y-44.257
X-7.648Y-44.345
X-7.155Y-44.427
X-6.661Y-44.504
X-6.166Y-44.575
X-5.67Y-44.641
X-5.174Y-44.701
X-4.677Y-44.756
X-4.179Y-44.805
X-3.681Y-44.849
X-3.183Y-44.887
X-2.684Y-44.919
X-2.184Y-44.946
X-1.685Y-44.968
X-1.185Y-44.984
X-0.685Y-44.994
X-0.185Y-44.999
X0.314Y-44.998
X0.814Y-44.992
X1.313Y-44.98
X1.813Y-44.963
X2.313Y-44.94
X2.812Y-44.911
X3.311Y-44.877
X3.809Y-44.838
X4.307Y-44.793
X4.804Y-44.742
X5.301Y-44.686
X5.797Y-44.624
X6.293Y-44.557
X6.788Y-44.484
X7.281Y-44.406
X7.774Y-44.323
X8.266Y-44.233
X8.757Y-44.139
X9.247Y-44.039
X9.736Y-43.933
X10.224Y-43.822
X10.71Y-43.706
X11.195Y-43.584
X11.678Y-43.457
X12.161Y-43.325
X12.641Y-43.187
X13.12Y-43.044
X13.598Y-42.896
X14.073Y-42.742
X14.547Y-42.583
X15.02Y-42.419
X15.49Y-42.249
X15.959Y-42.074
X16.425Y-41.894
X16.89Y-41.709
X17.352Y-41.519
X17.812Y-41.324
X18.27Y-41.123
X18.726Y-40.918
X19.18Y-40.707
X19.631Y-40.492
X20.079Y-40.271
X20.526Y-40.045
X20.969Y-39.815
X21.41Y-39.579
X21.849Y-39.339
X22.284Y-39.094
X22.717Y-38.844
X23.148Y-38.589
X23.575Y-38.329
X23.999Y-38.065
X24.421Y-37.796
X24.839Y-37.522
X25.255Y-37.244
X25.667Y-36.961
X26.076Y-36.674
X26.482Y-36.382
X26.885Y-36.085
X27.284Y-35.784
X27.68Y-35.479
X28.072Y-35.169
X28.461Y-34.855
X28.847Y-34.537
X29.229Y-34.214
X29.607Y-33.887
X29.982Y-33.556
X30.353Y-33.221
X30.72Y-32.882
X31.083Y-32.538
X31.443Y-32.191
X31.799Y-31.839
X32.151Y-31.484
X32.498Y-31.125
X32.842Y-30.762
X33.182Y-30.395
X33.518Y-30.025
X33.849Y-29.65
X34.177Y-29.272
X34.5Y-28.891
X34.819Y-28.506
X35.133Y-28.117
X35.443Y-27.725
X35.749Y-27.33
X36.051Y-26.931
X36.348Y-26.528
X36.64Y-26.123
X36.928Y-25.714
X37.212Y-25.302
X37.491Y-24.887
X37.765Y-24.469
X38.034Y-24.048
X38.299Y-23.624
X38.559Y-23.197
X38.815Y-22.767
X39.065Y-22.334
X39.311Y-21.899
X39.552Y-21.461
X39.788Y-21.02
X40.019Y-20.577
X40.245Y-20.131
X40.466Y-19.682
X40.683Y-19.231
X40.894Y-18.778
X41.1Y-18.323
X41.301Y-17.865
X41.497Y-17.405
X41.688Y-16.943
X41.873Y-16.479
X42.054Y-16.012
X42.229Y-15.544
X42.399Y-15.074
X42.564Y-14.602
X42.724Y-14.128
X42.878Y-13.652
X43.027Y-13.175
X43.171Y-12.696
X43.309Y-12.216
X43.442Y-11.734
X43.57Y-11.25
X43.692Y-10.766
X43.809Y-10.28
X43.921Y-9.792
X44.027Y-9.304
X44.128Y-8.814
X44.223Y-8.323
X44.313Y-7.831
X44.397Y-7.338
X44.476Y-6.844
X44.549Y-6.35
X44.617Y-5.854
X44.679Y-5.358
X44.736Y-4.862
X44.787Y-4.364
X44.833Y-3.866
X44.873Y-3.368
X44.908Y-2.869
X44.937Y-2.37
X44.96Y-1.871
X44.978Y-1.371
X44.991Y-0.871
X44.998Y-0.371
X44.999Y0.128
X44.995Y0.628
X44.985Y1.128
X44.97Y1.627
X44.949Y2.127
X44.922Y2.626
X44.891Y3.125
X44.853Y3.624
X44.81Y4.122
X44.761Y4.62
X44.707Y5.117
X44.648Y5.613
X44.583Y6.109
X44.512Y6.604
X44.436Y7.098
X44.354Y7.591
X44.267Y8.084
X44.175Y8.575
X44.077Y9.065
X43.973Y9.554
X43.864Y10.042
X43.75Y10.529
X43.63Y11.015
X43.505Y11.499
X43.375Y11.981
X43.239Y12.463
X43.098Y12.942
X42.951Y13.42
X42.799Y13.897
X42.642Y14.371
X42.48Y14.844
X42.313Y15.315
X42.14Y15.785
X41.962Y16.252
X41.779Y16.717
X41.59Y17.18
X41.397Y17.641
X41.198Y18.1
X40.995Y18.557
X40.786Y19.011
X40.572Y19.463
X40.353Y19.913
X40.13Y20.36
X39.901Y20.805
X39.667Y21.247
X39.429Y21.686
X39.185Y22.123
X38.937Y22.557
X38.684Y22.988
X38.426Y23.416
X38.164Y23.842
X37.896Y24.265
X37.625Y24.684
X37.348Y25.101
X37.067Y25.514
X36.781Y25.924
X36.491Y26.331
X36.196Y26.735
X35.897Y27.136
X35.593Y27.533
X35.285Y27.927
X34.972Y28.317
X34.655Y28.704
X34.334Y29.087
X34.009Y29.467
X33.68Y29.843
X33.346Y30.215
X33.008Y30.584
X32.666Y30.949
X32.32Y31.31
X31.97Y31.667
X31.617Y32.02
X31.259Y32.37
X30.897Y32.715
X30.532Y33.056
X30.163Y33.393
X29.79Y33.726
X29.413Y34.055
X29.033Y34.38
X28.649Y34.701
X28.262Y35.017
X27.871Y35.329
X27.477Y35.636
X27.079Y35.939
X26.678Y36.238
X26.274Y36.532
X25.866Y36.822
X25.456Y37.107
X25.042Y37.387
X24.625Y37.663
X24.205Y37.935
X23.782Y38.201
X23.356Y38.463
X22.927Y38.72
X22.495Y38.973
X22.061Y39.22
X21.624Y39.463
X21.184Y39.701
X20.742Y39.934
X20.297Y40.162
X19.849Y40.385
X19.399Y40.603
X18.947Y40.816
X18.492Y41.024
X18.035Y41.227
X17.576Y41.424
X17.115Y41.617
X16.651Y41.805
X16.186Y41.987
X15.718Y42.164
X15.249Y42.337
X14.777Y42.503
X14.304Y42.665
X13.829Y42.821
X13.353Y42.972
X12.874Y43.118
X12.395Y43.258
X11.913Y43.393
X11.43Y43.523
X10.946Y43.647
X10.46Y43.766
X9.973Y43.88
X9.485Y43.988
X8.996Y44.091
X8.505Y44.188
X8.014Y44.28
X7.521Y44.366
X7.028Y44.447
X6.534Y44.522
X6.039Y44.592
X5.543Y44.656
X5.046Y44.715
X4.549Y44.769
X4.051Y44.816
X3.553Y44.859
X3.055Y44.895
X2.556Y44.926
X2.056Y44.952
X1.557Y44.972
X1.057Y44.987
X0.557Y44.996
X0.057Y44.999
X-0.442Y44.997
X-0.942Y44.989
X-1.442Y44.976
X-1.941Y44.957
X-2.441Y44.933
X-2.94Y44.903
X-3.439Y44.867
X-3.937Y44.826
X-4.435Y44.78
X-4.932Y44.728
X-5.429Y44.67
X-5.925Y44.607
X-6.42Y44.539
X-6.914Y44.465
X-7.408Y44.385
X-7.901Y44.3
X-8.392Y44.209
X-8.883Y44.113
X-9.373Y44.012
X-9.861Y43.905
X-10.348Y43.793
X-10.834Y43.675
X-11.319Y43.552
X-11.802Y43.424
X-12.284Y43.29
X-12.764Y43.151
X-13.243Y43.006
X-13.72Y42.856
X-14.195Y42.701
X-14.669Y42.541
X-15.141Y42.375
X-15.61Y42.204
X-16.078Y42.028
X-16.544Y41.847
X-17.008Y41.661
X-17.47Y41.469
X-17.93Y41.273
X-18.387Y41.071
X-18.843Y40.864
X-19.295Y40.652
X-19.746Y40.435
X-20.194Y40.213
X-20.64Y39.986
X-21.083Y39.755
X-21.523Y39.518
X-21.961Y39.276
X-22.396Y39.03
X-22.828Y38.779
X-23.257Y38.523
X-23.684Y38.262
X-24.108Y37.996
X-24.528Y37.726
X-24.946Y37.451
X-25.361Y37.172
X-25.772Y36.888
X-26.18Y36.599
X-26.585Y36.306
X-26.987Y36.008
X-27.386Y35.706
X-27.781Y35.4
X-28.172Y35.089
X-28.56Y34.774
X-28.945Y34.454
X-29.326Y34.13
X-29.703Y33.802
X-30.077Y33.47
X-30.447Y33.134
X-30.813Y32.794
X-31.176Y32.449
X-31.535Y32.101
X-31.889Y31.748
X-32.24Y31.392
X-32.587Y31.032
X-32.93Y30.668
X-33.268Y30.3
X-33.603Y29.929
X-33.933Y29.554
X-34.26Y29.175
X-34.582Y28.792
X-34.9Y28.406
X-35.213Y28.017
X-35.522Y27.624
X-35.827Y27.227
X-36.127Y26.828
X-36.423Y26.424
X-36.714Y26.018
X-37.001Y25.609
X-37.283Y25.196
X-37.561Y24.78
X-37.834Y24.361
X-38.103Y23.939
X-38.366Y23.514
X-38.625Y23.087
X-38.879Y22.656
X-39.129Y22.223
X-39.373Y21.787
X-39.613Y21.348
X-39.847Y20.906
X-40.077Y20.462
X-40.302Y20.016
X-40.522Y19.567
X-40.737Y19.115
X-40.947Y18.661
X-41.152Y18.205
X-41.351Y17.747
X-41.546Y17.286
X-41.736Y16.824
X-41.92Y16.359
X-42.099Y15.892
X-42.273Y15.423
X-42.442Y14.953
X-42.605Y14.48
X-42.764Y14.006
X-42.917Y13.53
X-43.064Y13.052
X-43.207Y12.573
X-43.344Y12.092
X-43.475Y11.61
X-43.602Y11.126
X-43.723Y10.641
X-43.838Y10.154
X-43.948Y9.667
X-44.053Y9.178
X-44.152Y8.688
X-44.246Y8.197
X-44.334Y7.705
X-44.417Y7.212
X-44.495Y6.718
X-44.567Y6.223
X-44.633Y5.727
X-44.694Y5.231
X-44.749Y4.734
X-44.799Y4.237
X-44.843Y3.738
X-44.882Y3.24
X-44.915Y2.741
X-44.943Y2.242
X-44.965Y1.742
X-44.982Y1.243
X-44.993Y0.743
X-45Y0
X-48
X-47.997Y-0.499
X-47.989Y-0.999
X-47.976Y-1.499
X-47.958Y-1.999
X-47.934Y-2.498
X-47.906Y-2.998
X-47.872Y-3.496
X-47.833Y-3.995
X-47.789Y-4.493
X-47.739Y-4.99
X-47.685Y-5.487
X-47.625Y-5.984
X-47.56Y-6.48
X-47.49Y-6.975
X-47.415Y-7.469
X-47.334Y-7.963
X-47.249Y-8.455
X-47.158Y-8.947
X-47.062Y-9.438
X-46.962Y-9.927
X-46.856Y-10.416
X-46.745Y-10.903
X-46.628Y-11.39
X-46.507Y-11.875
X-46.381Y-12.359
X-46.25Y-12.841
X-46.114Y-13.322
X-45.972Y-13.802
X-45.826Y-14.28
X-45.675Y-14.757
X-45.519Y-15.232
X-45.357Y-15.705
X-45.191Y-16.176
X-45.02Y-16.646
X-44.845Y-17.114
X-44.664Y-17.581
X-44.478Y-18.045
X-44.288Y-18.507
X-44.093Y-18.968
X-43.893Y-19.426
X-43.688Y-19.882
X-43.479Y-20.336
X-43.264Y-20.788
X-43.046Y-21.237
X-42.822Y-21.685
X-42.594Y-22.129
X-42.361Y-22.572
X-42.124Y-23.012
X-41.882Y-23.449
X-41.635Y-23.884
X-41.384Y-24.317
X-41.128Y-24.747
X-40.868Y-25.174
X-40.604Y-25.598
X-40.335Y-26.02
X-40.062Y-26.438
X-39.784Y-26.854
X-39.502Y-27.267
X-39.216Y-27.677
X-38.926Y-28.084
X-38.631Y-28.488
X-38.332Y-28.889
X-38.029Y-29.287
X-37.722Y-29.681
X-37.411Y-30.073
X-37.096Y-30.461
X-36.776Y-30.845
X-36.453Y-31.227
X-36.126Y-31.605
X-35.795Y-31.979
X-35.46Y-32.351
X-35.121Y-32.718
X-34.778Y-33.082
X-34.431Y-33.443
X-34.081Y-33.8
X-33.727Y-34.153
X-33.37Y-34.502
X-33.008Y-34.848
X-32.644Y-35.19
X-32.275Y-35.528
X-31.904Y-35.862
X-31.528Y-36.193
X-31.15Y-36.519
X-30.767Y-36.842
X-30.382Y-37.16
X-29.993Y-37.475
X-29.601Y-37.785
X-29.206Y-38.091
X-28.808Y-38.393
X-28.406Y-38.691
X-28.002Y-38.985
X-27.594Y-39.275
X-27.183Y-39.56
X-26.77Y-39.841
X-26.353Y-40.118
X-25.934Y-40.39
X-25.512Y-40.658
X-25.087Y-40.922
X-24.659Y-41.181
X-24.229Y-41.435
X-23.796Y-41.686
X-23.361Y-41.931
X-22.923Y-42.172
X-22.482Y-42.409
X-22.039Y-42.641
X-21.594Y-42.868
X-21.146Y-43.091
X-20.696Y-43.308
X-20.244Y-43.522
X-19.789Y-43.73
X-19.333Y-43.934
X-18.874Y-44.133
X-18.413Y-44.327
X-17.951Y-44.517
X-17.486Y-44.701
X-17.019Y-44.881
X-16.551Y-45.056
X-16.081Y-45.226
X-15.609Y-45.391
X-15.135Y-45.551
X-14.66Y-45.706
X-14.183Y-45.856
X-13.704Y-46.002
X-13.224Y-46.142
X-12.743Y-46.277
X-12.26Y-46.407
X-11.776Y-46.532
X-11.291Y-46.653
X-10.804Y-46.768
X-10.317Y-46.878
X-9.828Y-46.983
X-9.338Y-47.082
X-8.847Y-47.177
X-8.355Y-47.267
X-7.862Y-47.351
X-7.368Y-47.431
X-6.874Y-47.505
X-6.379Y-47.574
X-5.883Y-47.638
X-5.386Y-47.696
X-4.889Y-47.75
X-4.392Y-47.798
X-3.893Y-47.841
X-3.395Y-47.879
X-2.896Y-47.912
X-2.397Y-47.94
X-1.897Y-47.962
X-1.398Y-47.979
X-0.898Y-47.991
X-0.398Y-47.998
X0.101Y-48
X0.601Y-47.996
X1.101Y-47.987
X1.601Y-47.973
X2.101Y-47.954
X2.6Y-47.929
X3.099Y-47.899
X3.598Y-47.865
X4.096Y-47.824
X4.594Y-47.779
X5.092Y-47.729
X5.589Y-47.673
X6.085Y-47.612
X6.58Y-47.546
X7.075Y-47.475
X7.57Y-47.399
X8.063Y-47.318
X8.555Y-47.231
X9.047Y-47.139
X9.537Y-47.042
X10.027Y-46.941
X10.515Y-46.834
X11.003Y-46.722
X11.489Y-46.604
X11.974Y-46.482
X12.457Y-46.355
X12.939Y-46.223
X13.42Y-46.085
X13.899Y-45.943
X14.377Y-45.796
X14.853Y-45.644
X15.328Y-45.486
X15.801Y-45.324
X16.272Y-45.157
X16.742Y-44.985
X17.209Y-44.808
X17.675Y-44.627
X18.139Y-44.44
X18.601Y-44.249
X19.061Y-44.053
X19.519Y-43.852
X19.975Y-43.646
X20.428Y-43.435
X20.88Y-43.22
X21.329Y-43.001
X21.775Y-42.776
X22.22Y-42.547
X22.662Y-42.313
X23.101Y-42.075
X23.538Y-41.832
X23.973Y-41.584
X24.405Y-41.332
X24.834Y-41.076
X25.26Y-40.815
X25.684Y-40.55
X26.105Y-40.28
X26.523Y-40.006
X26.939Y-39.727
X27.351Y-39.445
X27.76Y-39.158
X28.167Y-38.866
X28.57Y-38.571
X28.97Y-38.271
X29.367Y-37.967
X29.761Y-37.659
X30.152Y-37.347
X30.539Y-37.031
X30.923Y-36.711
X31.304Y-36.387
X31.681Y-36.059
X32.055Y-35.727
X32.426Y-35.391
X32.793Y-35.051
X33.156Y-34.708
X33.516Y-34.361
X33.872Y-34.01
X34.224Y-33.655
X34.573Y-33.297
X34.918Y-32.935
X35.259Y-32.569
X35.596Y-32.2
X35.93Y-31.827
X36.26Y-31.451
X36.585Y-31.072
X36.907Y-30.689
X37.225Y-30.303
X37.538Y-29.914
X37.848Y-29.521
X38.153Y-29.125
X38.455Y-28.726
X38.752Y-28.324
X39.045Y-27.919
X39.333Y-27.511
X39.618Y-27.1
X39.898Y-26.685
X40.174Y-26.268
X40.445Y-25.848
X40.712Y-25.426
X40.975Y-25
X41.233Y-24.572
X41.487Y-24.141
X41.736Y-23.708
X41.981Y-23.272
X42.221Y-22.833
X42.456Y-22.392
X42.687Y-21.949
X42.914Y-21.503
X43.135Y-21.055
X43.352Y-20.604
X43.565Y-20.151
X43.772Y-19.697
X43.975Y-19.24
X44.173Y-18.78
X44.366Y-18.319
X44.555Y-17.856
X44.738Y-17.391
X44.917Y-16.924
X45.091Y-16.455
X45.26Y-15.985
X45.424Y-15.512
X45.583Y-15.038
X45.737Y-14.563
X45.886Y-14.086
X46.031Y-13.607
X46.17Y-13.127
X46.304Y-12.645
X46.433Y-12.162
X46.557Y-11.678
X46.677Y-11.192
X46.791Y-10.705
X46.9Y-10.217
X47.004Y-9.728
X47.102Y-9.238
X47.196Y-8.747
X47.285Y-8.255
X47.368Y-7.762
X47.446Y-7.268
X47.519Y-6.773
X47.587Y-6.278
X47.65Y-5.782
X47.708Y-5.285
X47.76Y-4.788
X47.808Y-4.29
X47.85Y-3.792
X47.887Y-3.293
X47.918Y-2.794
X47.945Y-2.295
X47.966Y-1.796
X47.982Y-1.296
X47.993Y-0.796
X47.999Y-0.296
Y0.203
X47.995Y0.703
X47.985Y1.203
X47.97Y1.703
X47.949Y2.202
X47.924Y2.702
X47.893Y3.201
X47.857Y3.699
X47.816Y4.198
X47.769Y4.696
X47.718Y5.193
X47.661Y5.69
X47.599Y6.186
X47.532Y6.681
X47.46Y7.176
X47.383Y7.67
X47.3Y8.163
X47.213Y8.655
X47.12Y9.147
X47.022Y9.637
X46.919Y10.126
X46.811Y10.615
X46.698Y11.102
X46.58Y11.587
X46.457Y12.072
X46.329Y12.555
X46.195Y13.037
X46.057Y13.518
X45.914Y13.997
X45.765Y14.474
X45.612Y14.95
X45.454Y15.424
X45.291Y15.897
X45.123Y16.368
X44.95Y16.837
X44.772Y17.304
X44.589Y17.77
X44.402Y18.233
X44.209Y18.695
X44.012Y19.154
X43.81Y19.612
X43.604Y20.067
X43.392Y20.52
X43.176Y20.971
X42.955Y21.42
X42.73Y21.866
X42.5Y22.31
X42.265Y22.751
X42.026Y23.19
X41.782Y23.627
X41.534Y24.061
X41.281Y24.492
X41.023Y24.921
X40.761Y25.347
X40.495Y25.77
X40.225Y26.191
X39.95Y26.608
X39.67Y27.023
X39.387Y27.435
X39.099Y27.843
X38.807Y28.249
X38.51Y28.652
X38.21Y29.051
X37.905Y29.448
X37.596Y29.841
X37.283Y30.231
X36.966Y30.618
X36.645Y31.001
X36.32Y31.381
X35.992Y31.758
X35.659Y32.131
X35.322Y32.501
X34.982Y32.867
X34.637Y33.23
X34.289Y33.589
X33.938Y33.944
X33.582Y34.296
X33.223Y34.644
X32.861Y34.988
X32.494Y35.328
X32.125Y35.665
X31.751Y35.997
X31.375Y36.326
X30.995Y36.651
X30.611Y36.972
X30.224Y37.289
X29.834Y37.602
X29.441Y37.91
X29.044Y38.215
X28.645Y38.515
X28.242Y38.812
X27.836Y39.104
X27.427Y39.392
X27.016Y39.675
X26.601Y39.955
X26.183Y40.229
X25.763Y40.5
X25.339Y40.766
X24.913Y41.028
X24.485Y41.285
X24.053Y41.538
X23.619Y41.786
X23.183Y42.03
X22.744Y42.269
X22.302Y42.504
X21.858Y42.734
X21.412Y42.959
X20.963Y43.18
X20.512Y43.396
X20.059Y43.607
X19.604Y43.814
X19.146Y44.016
X18.687Y44.213
X18.225Y44.405
X17.762Y44.593
X17.296Y44.775
X16.829Y44.953
X16.36Y45.126
X15.889Y45.294
X15.416Y45.457
X14.942Y45.615
X14.466Y45.768
X13.988Y45.916
X13.509Y46.059
X13.029Y46.198
X12.547Y46.331
X12.064Y46.459
X11.579Y46.582
X11.093Y46.7
X10.606Y46.813
X10.118Y46.921
X9.628Y47.024
X9.138Y47.122
X8.647Y47.215
X8.154Y47.302
X7.661Y47.384
X7.167Y47.462
X6.673Y47.534
X6.177Y47.601
X5.681Y47.662
X5.184Y47.719
X4.687Y47.77
X4.189Y47.817
X3.691Y47.858
X3.192Y47.894
X2.693Y47.924
X2.193Y47.95
X1.694Y47.97
X1.194Y47.985
X0.694Y47.995
X0.194Y47.999
X-0.305
X-0.805Y47.993
X-1.305Y47.982
X-1.804Y47.966
X-2.304Y47.945
X-2.803Y47.918
X-3.302Y47.886
X-3.801Y47.849
X-4.299Y47.807
X-4.797Y47.76
X-5.294Y47.707
X-5.791Y47.649
X-6.287Y47.586
X-6.782Y47.518
X-7.277Y47.445
X-7.771Y47.367
X-8.264Y47.283
X-8.756Y47.194
X-9.247Y47.101
X-9.737Y47.002
X-10.226Y46.898
X-10.714Y46.789
X-11.201Y46.675
X-11.686Y46.555
X-12.171Y46.431
X-12.654Y46.302
X-13.135Y46.168
X-13.615Y46.028
X-14.094Y45.884
X-14.571Y45.735
X-15.047Y45.58
X-15.521Y45.421
X-15.993Y45.257
X-16.464Y45.088
X-16.932Y44.914
X-17.399Y44.735
X-17.864Y44.552
X-18.328Y44.363
X-18.789Y44.17
X-19.248Y43.972
X-19.705Y43.769
X-20.16Y43.561
X-20.612Y43.349
X-21.063Y43.132
X-21.511Y42.91
X-21.957Y42.683
X-22.4Y42.452
X-22.841Y42.217
X-23.28Y41.977
X-23.716Y41.732
X-24.149Y41.483
X-24.58Y41.229
X-25.008Y40.97
X-25.433Y40.708
X-25.856Y40.441
X-26.276Y40.169
X-26.693Y39.893
X-27.107Y39.613
X-27.518Y39.328
X-27.926Y39.04
X-28.331Y38.747
X-28.734Y38.449
X-29.132Y38.148
X-29.528Y37.842
X-29.921Y37.533
X-30.31Y37.219
X-30.696Y36.901
X-31.079Y36.58
X-31.458Y36.254
X-31.834Y35.924
X-32.207Y35.591
X-32.576Y35.253
X-32.941Y34.912
X-33.303Y34.567
X-33.661Y34.218
X-34.016Y33.866
X-34.367Y33.51
X-34.714Y33.15
X-35.057Y32.786
X-35.397Y32.419
X-35.733Y32.049
X-36.065Y31.675
X-36.393Y31.298
X-36.717Y30.917
X-37.037Y30.533
X-37.353Y30.145
X-37.665Y29.754
X-37.973Y29.361
X-38.277Y28.963
X-38.576Y28.563
X-38.872Y28.16
X-39.163Y27.753
X-39.45Y27.344
X-39.733Y26.931
X-40.011Y26.516
X-40.285Y26.098
X-40.555Y25.677
X-40.82Y25.253
X-41.081Y24.826
X-41.337Y24.397
X-41.589Y23.965
X-41.836Y23.531
X-42.079Y23.094
X-42.318Y22.654
X-42.551Y22.212
X-42.78Y21.768
X-43.005Y21.321
X-43.224Y20.872
X-43.44Y20.42
X-43.65Y19.967
X-43.855Y19.511
X-44.056Y19.053
X-44.252Y18.593
X-44.444Y18.131
X-44.63Y17.667
X-44.812Y17.201
X-44.989Y16.734
X-45.16Y16.264
X-45.327Y15.793
X-45.489Y15.32
X-45.647Y14.845
X-45.799Y14.369
X-45.946Y13.891
X-46.088Y13.412
X-46.225Y12.931
X-46.358Y12.449
X-46.485Y11.965
X-46.607Y11.48
X-46.724Y10.994
X-46.836Y10.507
X-46.943Y10.018
X-47.045Y9.529
X-47.141Y9.038
X-47.233Y8.547
X-47.319Y8.054
X-47.401Y7.561
X-47.477Y7.067
X-47.548Y6.572
X-47.614Y6.076
X-47.674Y5.58
X-47.73Y5.083
X-47.78Y4.585
X-47.826Y4.087
X-47.866Y3.589
X-47.9Y3.09
X-47.93Y2.591
X-47.954Y2.092
X-47.974Y1.592
X-47.988Y1.092
X-47.996Y0.592
X-48Y0
X-51
X-50.997Y-0.499
X-50.99Y-0.999
X-50.977Y-1.499
X-50.96Y-1.999
X-50.938Y-2.498
X-50.911Y-2.998
X-50.879Y-3.497
X-50.843Y-3.995
X-50.801Y-4.494
X-50.755Y-4.991
X-50.703Y-5.489
X-50.647Y-5.986
X-50.586Y-6.482
X-50.52Y-6.978
X-50.449Y-7.472
X-50.373Y-7.967
X-50.293Y-8.46
X-50.207Y-8.953
X-50.117Y-9.445
X-50.022Y-9.936
X-49.922Y-10.425
X-49.818Y-10.914
X-49.708Y-11.402
X-49.594Y-11.889
X-49.475Y-12.375
X-49.352Y-12.859
X-49.223Y-13.342
X-49.09Y-13.824
X-48.952Y-14.305
X-48.809Y-14.784
X-48.662Y-15.262
X-48.51Y-15.738
X-48.354Y-16.213
X-48.192Y-16.686
X-48.026Y-17.158
X-47.856Y-17.628
X-47.681Y-18.096
X-47.501Y-18.563
X-47.317Y-19.028
X-47.128Y-19.491
X-46.935Y-19.952
X-46.737Y-20.411
X-46.534Y-20.868
X-46.328Y-21.324
X-46.116Y-21.777
X-45.901Y-22.228
X-45.68Y-22.677
X-45.456Y-23.123
X-45.227Y-23.568
X-44.994Y-24.01
X-44.756Y-24.45
X-44.514Y-24.888
X-44.268Y-25.323
X-44.018Y-25.756
X-43.763Y-26.186
X-43.504Y-26.614
X-43.241Y-27.039
X-42.974Y-27.462
X-42.703Y-27.882
X-42.428Y-28.299
X-42.148Y-28.714
X-41.864Y-29.126
X-41.577Y-29.535
X-41.285Y-29.941
X-40.99Y-30.344
X-40.69Y-30.744
X-40.387Y-31.142
X-40.08Y-31.536
X-39.769Y-31.928
X-39.454Y-32.316
X-39.135Y-32.701
X-38.813Y-33.084
X-38.486Y-33.462
X-38.156Y-33.838
X-37.823Y-34.211
X-37.486Y-34.58
X-37.145Y-34.946
X-36.8Y-35.308
X-36.452Y-35.667
X-36.101Y-36.023
X-35.746Y-36.375
X-35.388Y-36.724
X-35.026Y-37.069
X-34.661Y-37.411
X-34.293Y-37.749
X-33.921Y-38.083
X-33.546Y-38.414
X-33.168Y-38.741
X-32.786Y-39.064
X-32.402Y-39.384
X-32.014Y-39.699
X-31.623Y-40.011
X-31.229Y-40.319
X-30.833Y-40.624
X-30.433Y-40.924
X-30.03Y-41.22
X-29.625Y-41.513
X-29.216Y-41.801
X-28.805Y-42.086
X-28.391Y-42.366
X-27.974Y-42.642
X-27.555Y-42.915
X-27.133Y-43.183
X-26.708Y-43.447
X-26.281Y-43.706
X-25.851Y-43.962
X-25.419Y-44.213
X-24.984Y-44.46
X-24.547Y-44.703
X-24.108Y-44.942
X-23.666Y-45.176
X-23.222Y-45.406
X-22.776Y-45.631
X-22.327Y-45.852
X-21.877Y-46.069
X-21.424Y-46.281
X-20.969Y-46.489
X-20.512Y-46.692
X-20.054Y-46.891
X-19.593Y-47.086
X-19.13Y-47.275
X-18.666Y-47.461
X-18.2Y-47.641
X-17.732Y-47.818
X-17.262Y-47.989
X-16.791Y-48.156
X-16.318Y-48.318
X-15.844Y-48.476
X-15.368Y-48.629
X-14.89Y-48.777
X-14.411Y-48.921
X-13.931Y-49.06
X-13.449Y-49.194
X-12.966Y-49.324
X-12.482Y-49.448
X-11.997Y-49.568
X-11.51Y-49.684
X-11.022Y-49.794
X-10.534Y-49.9
X-10.044Y-50.001
X-9.553Y-50.097
X-9.062Y-50.188
X-8.569Y-50.274
X-8.076Y-50.356
X-7.582Y-50.433
X-7.087Y-50.505
X-6.592Y-50.572
X-6.096Y-50.634
X-5.599Y-50.691
X-5.102Y-50.744
X-4.604Y-50.791
X-4.106Y-50.834
X-3.607Y-50.872
X-3.108Y-50.905
X-2.609Y-50.933
X-2.11Y-50.956
X-1.61Y-50.974
X-1.11Y-50.988
X-0.61Y-50.996
X-0.11Y-50.999
X0.389Y-50.998
X0.889Y-50.992
X1.389Y-50.981
X1.888Y-50.965
X2.388Y-50.944
X2.887Y-50.918
X3.386Y-50.887
X3.885Y-50.851
X4.383Y-50.811
X4.881Y-50.765
X5.379Y-50.715
X5.876Y-50.66
X6.372Y-50.6
X6.868Y-50.535
X7.363Y-50.465
X7.857Y-50.391
X8.351Y-50.311
X8.844Y-50.227
X9.336Y-50.138
X9.827Y-50.044
X10.317Y-49.945
X10.806Y-49.841
X11.294Y-49.733
X11.782Y-49.62
X12.267Y-49.502
X12.752Y-49.379
X13.236Y-49.252
X13.718Y-49.12
X14.199Y-48.983
X14.678Y-48.842
X15.156Y-48.695
X15.633Y-48.544
X16.108Y-48.389
X16.582Y-48.229
X17.054Y-48.064
X17.524Y-47.894
X17.993Y-47.72
X18.46Y-47.541
X18.925Y-47.358
X19.389Y-47.17
X19.85Y-46.978
X20.31Y-46.781
X20.767Y-46.58
X21.223Y-46.374
X21.677Y-46.163
X22.128Y-45.949
X22.578Y-45.73
X23.025Y-45.506
X23.47Y-45.278
X23.913Y-45.046
X24.353Y-44.809
X24.791Y-44.568
X25.227Y-44.323
X25.66Y-44.074
X26.091Y-43.82
X26.52Y-43.562
X26.945Y-43.3
X27.369Y-43.034
X27.789Y-42.763
X28.207Y-42.489
X28.622Y-42.21
X29.035Y-41.928
X29.444Y-41.641
X29.851Y-41.35
X30.255Y-41.056
X30.656Y-40.757
X31.054Y-40.455
X31.449Y-40.148
X31.842Y-39.838
X32.231Y-39.524
X32.617Y-39.206
X32.999Y-38.884
X33.379Y-38.559
X33.755Y-38.23
X34.129Y-37.897
X34.498Y-37.561
X34.865Y-37.221
X35.228Y-36.877
X35.588Y-36.53
X35.945Y-36.179
X36.298Y-35.825
X36.647Y-35.467
X36.993Y-35.106
X37.335Y-34.742
X37.674Y-34.374
X38.009Y-34.003
X38.341Y-33.629
X38.669Y-33.252
X38.993Y-32.871
X39.313Y-32.487
X39.63Y-32.1
X39.943Y-31.71
X40.252Y-31.317
X40.557Y-30.921
X40.858Y-30.522
X41.155Y-30.12
X41.449Y-29.715
X41.738Y-29.307
X42.023Y-28.896
X42.304Y-28.483
X42.582Y-28.067
X42.855Y-27.648
X43.124Y-27.227
X43.389Y-26.802
X43.649Y-26.376
X43.906Y-25.947
X44.158Y-25.515
X44.406Y-25.081
X44.65Y-24.644
X44.889Y-24.205
X45.124Y-23.764
X45.355Y-23.32
X45.582Y-22.875
X45.804Y-22.427
X46.022Y-21.977
X46.235Y-21.524
X46.444Y-21.07
X46.648Y-20.614
X46.848Y-20.155
X47.043Y-19.695
X47.234Y-19.233
X47.42Y-18.769
X47.602Y-18.303
X47.779Y-17.836
X47.952Y-17.366
X48.12Y-16.895
X48.283Y-16.423
X48.442Y-15.949
X48.596Y-15.473
X48.745Y-14.996
X48.89Y-14.517
X49.03Y-14.037
X49.165Y-13.556
X49.296Y-13.073
X49.421Y-12.589
X49.542Y-12.104
X49.659Y-11.618
X49.77Y-11.13
X49.877Y-10.642
X49.979Y-10.152
X50.076Y-9.662
X50.168Y-9.171
X50.256Y-8.678
X50.339Y-8.185
X50.416Y-7.691
X50.489Y-7.197
X50.557Y-6.701
X50.621Y-6.205
X50.679Y-5.709
X50.733Y-5.212
X50.781Y-4.714
X50.825Y-4.216
X50.864Y-3.717
X50.898Y-3.219
X50.927Y-2.719
X50.951Y-2.22
X50.971Y-1.72
X50.985Y-1.221
X50.995Y-0.721
X50.999Y-0.221
Y0.278
X50.994Y0.778
X50.984Y1.278
X50.969Y1.778
X50.949Y2.278
X50.924Y2.777
X50.894Y3.276
X50.86Y3.775
X50.82Y4.273
X50.776Y4.771
X50.727Y5.269
X50.673Y5.766
X50.614Y6.262
X50.55Y6.758
X50.481Y7.254
X50.408Y7.748
X50.329Y8.242
X50.246Y8.735
X50.158Y9.227
X50.065Y9.718
X49.967Y10.209
X49.865Y10.698
X49.758Y11.187
X49.646Y11.674
X49.529Y12.16
X49.407Y12.645
X49.281Y13.129
X49.15Y13.611
X49.014Y14.093
X48.873Y14.572
X48.728Y15.051
X48.578Y15.528
X48.424Y16.003
X48.264Y16.477
X48.101Y16.95
X47.932Y17.42
X47.759Y17.89
X47.581Y18.357
X47.399Y18.822
X47.212Y19.286
X47.021Y19.748
X46.825Y20.208
X46.625Y20.666
X46.42Y21.122
X46.211Y21.577
X45.997Y22.029
X45.779Y22.478
X45.556Y22.926
X45.329Y23.372
X45.098Y23.815
X44.862Y24.256
X44.622Y24.695
X44.378Y25.131
X44.129Y25.565
X43.877Y25.996
X43.62Y26.425
X43.358Y26.851
X43.093Y27.275
X42.824Y27.696
X42.55Y28.115
X42.272Y28.531
X41.991Y28.944
X41.705Y29.354
X41.415Y29.762
X41.121Y30.166
X40.824Y30.568
X40.522Y30.967
X40.216Y31.362
X39.907Y31.755
X39.594Y32.145
X39.277Y32.531
X38.956Y32.915
X38.631Y33.295
X38.303Y33.672
X37.971Y34.046
X37.635Y34.417
X37.296Y34.784
X36.953Y35.148
X36.607Y35.509
X36.257Y35.866
X35.904Y36.22
X35.547Y36.57
X35.187Y36.917
X34.823Y37.26
X34.456Y37.6
X34.086Y37.936
X33.712Y38.268
X33.336Y38.597
X32.956Y38.922
X32.572Y39.243
X32.186Y39.56
X31.797Y39.874
X31.404Y40.184
X31.009Y40.49
X30.61Y40.792
X30.209Y41.09
X29.805Y41.384
X29.397Y41.674
X28.988Y41.961
X28.575Y42.243
X28.159Y42.521
X27.741Y42.795
X27.32Y43.065
X26.897Y43.331
X26.47Y43.592
X26.042Y43.85
X25.611Y44.103
X25.177Y44.352
X24.741Y44.596
X24.303Y44.837
X23.862Y45.073
X23.419Y45.305
X22.974Y45.532
X22.526Y45.755
X22.076Y45.974
X21.625Y46.188
X21.171Y46.398
X20.715Y46.603
X20.257Y46.804
X19.797Y47
X19.335Y47.192
X18.872Y47.38
X18.406Y47.562
X17.939Y47.74
X17.47Y47.914
X17Y48.083
X16.528Y48.247
X16.054Y48.407
X15.578Y48.562
X15.102Y48.713
X14.623Y48.858
X14.144Y48.999
X13.662Y49.136
X13.18Y49.267
X12.696Y49.394
X12.212Y49.516
X11.726Y49.634
X11.238Y49.746
X10.75Y49.854
X10.261Y49.957
X9.771Y50.055
X9.279Y50.148
X8.787Y50.237
X8.294Y50.321
X7.801Y50.4
X7.306Y50.474
X6.811Y50.543
X6.315Y50.607
X5.819Y50.667
X5.322Y50.721
X4.824Y50.771
X4.326Y50.816
X3.828Y50.856
X3.329Y50.891
X2.83Y50.921
X2.331Y50.947
X1.831Y50.967
X1.331Y50.982
X0.831Y50.993
X0.331Y50.999
X-0.168Y51
X-0.668Y50.995
X-1.168Y50.986
X-1.667Y50.973
X-2.167Y50.954
X-2.666Y50.93
X-3.166Y50.901
X-3.665Y50.868
X-4.163Y50.83
X-4.661Y50.786
X-5.159Y50.738
X-5.656Y50.685
X-6.153Y50.627
X-6.649Y50.565
X-7.144Y50.497
X-7.639Y50.424
X-8.133Y50.347
X-8.626Y50.265
X-9.118Y50.178
X-9.61Y50.086
X-10.1Y49.99
X-10.59Y49.888
X-11.079Y49.782
X-11.566Y49.671
X-12.053Y49.555
X-12.538Y49.435
X-13.022Y49.309
X-13.505Y49.179
X-13.986Y49.044
X-14.466Y48.905
X-14.945Y48.761
X-15.422Y48.612
X-15.898Y48.458
X-16.373Y48.3
X-16.845Y48.137
X-17.316Y47.97
X-17.786Y47.798
X-18.254Y47.621
X-18.72Y47.44
X-19.184Y47.254
X-19.646Y47.064
X-20.107Y46.869
X-20.565Y46.67
X-21.022Y46.466
X-21.476Y46.257
X-21.929Y46.045
X-22.379Y45.827
X-22.827Y45.606
X-23.273Y45.38
X-23.717Y45.149
X-24.159Y44.915
X-24.598Y44.676
X-25.035Y44.432
X-25.469Y44.185
X-25.901Y43.933
X-26.33Y43.677
X-26.757Y43.417
X-27.182Y43.152
X-27.604Y42.884
X-28.023Y42.611
X-28.439Y42.334
X-28.853Y42.053
X-29.264Y41.769
X-29.672Y41.48
X-30.077Y41.187
X-30.479Y40.89
X-30.879Y40.589
X-31.275Y40.284
X-31.669Y39.976
X-32.059Y39.663
X-32.446Y39.347
X-32.831Y39.027
X-33.212Y38.704
X-33.589Y38.376
X-33.964Y38.045
X-34.335Y37.71
X-34.703Y37.372
X-35.068Y37.03
X-35.43Y36.684
X-35.787Y36.335
X-36.142Y35.982
X-36.493Y35.626
X-36.841Y35.267
X-37.184Y34.904
X-37.525Y34.538
X-37.862Y34.168
X-38.195Y33.795
X-38.524Y33.419
X-38.85Y33.04
X-39.172Y32.657
X-39.49Y32.272
X-39.805Y31.883
X-40.116Y31.491
X-40.422Y31.097
X-40.725Y30.699
X-41.024Y30.298
X-41.319Y29.894
X-41.611Y29.488
X-41.898Y29.079
X-42.181Y28.666
X-42.46Y28.251
X-42.735Y27.834
X-43.006Y27.414
X-43.272Y26.991
X-43.535Y26.565
X-43.793Y26.137
X-44.047Y25.706
X-44.297Y25.273
X-44.543Y24.838
X-44.784Y24.4
X-45.021Y23.96
X-45.254Y23.517
X-45.482Y23.072
X-45.706Y22.625
X-45.926Y22.176
X-46.141Y21.725
X-46.352Y21.271
X-46.558Y20.816
X-46.76Y20.359
X-46.957Y19.899
X-47.15Y19.438
X-47.339Y18.975
X-47.522Y18.51
X-47.702Y18.043
X-47.876Y17.574
X-48.046Y17.104
X-48.212Y16.632
X-48.372Y16.159
X-48.528Y15.684
X-48.68Y15.207
X-48.827Y14.729
X-48.969Y14.25
X-49.106Y13.769
X-49.239Y13.287
X-49.367Y12.804
X-49.49Y12.319
X-49.608Y11.833
X-49.722Y11.346
X-49.831Y10.858
X-49.935Y10.369
X-50.034Y9.879
X-50.128Y9.388
X-50.218Y8.896
X-50.303Y8.404
X-50.383Y7.91
X-50.458Y7.416
X-50.528Y6.921
X-50.594Y6.425
X-50.654Y5.929
X-50.71Y5.432
X-50.761Y4.934
X-50.807Y4.436
X-50.848Y3.938
X-50.884Y3.439
X-50.915Y2.94
X-50.942Y2.441
X-50.963Y1.942
X-50.98Y1.442
X-50.991Y0.942
X-51Y0
X-54
X-53.997Y-0.499
X-53.99Y-0.999
X-53.979Y-1.499
X-53.962Y-1.999
X-53.942Y-2.499
X-53.916Y-2.998
X-53.886Y-3.497
X-53.851Y-3.996
X-53.812Y-4.494
X-53.768Y-4.992
X-53.72Y-5.49
X-53.667Y-5.987
X-53.609Y-6.484
X-53.546Y-6.98
X-53.48Y-7.475
X-53.408Y-7.97
X-53.332Y-8.464
X-53.251Y-8.958
X-53.166Y-9.451
X-53.076Y-9.942
X-52.982Y-10.433
X-52.883Y-10.924
X-52.78Y-11.413
X-52.672Y-11.901
X-52.559Y-12.388
X-52.442Y-12.874
X-52.321Y-13.359
X-52.195Y-13.843
X-52.064Y-14.326
X-51.93Y-14.807
X-51.79Y-15.288
X-51.646Y-15.766
X-51.498Y-16.244
X-51.346Y-16.72
X-51.189Y-17.195
X-51.027Y-17.668
X-50.861Y-18.14
X-50.691Y-18.61
X-50.517Y-19.078
X-50.338Y-19.545
X-50.155Y-20.011
X-49.967Y-20.474
X-49.776Y-20.936
X-49.58Y-21.396
X-49.379Y-21.854
X-49.175Y-22.31
X-48.966Y-22.765
X-48.753Y-23.217
X-48.536Y-23.668
X-48.315Y-24.116
X-48.09Y-24.562
X-47.86Y-25.007
X-47.627Y-25.449
X-47.389Y-25.888
X-47.147Y-26.326
X-46.901Y-26.762
X-46.652Y-27.195
X-46.398Y-27.626
X-46.14Y-28.054
X-45.878Y-28.48
X-45.613Y-28.904
X-45.343Y-29.325
X-45.07Y-29.743
X-44.792Y-30.159
X-44.511Y-30.573
X-44.226Y-30.984
X-43.937Y-31.392
X-43.645Y-31.797
X-43.349Y-32.2
X-43.049Y-32.6
X-42.745Y-32.997
X-42.437Y-33.391
X-42.126Y-33.783
X-41.812Y-34.172
X-41.494Y-34.557
X-41.172Y-34.94
X-40.847Y-35.32
X-40.518Y-35.696
X-40.186Y-36.07
X-39.85Y-36.441
X-39.511Y-36.808
X-39.168Y-37.172
X-38.822Y-37.533
X-38.473Y-37.891
X-38.121Y-38.246
X-37.765Y-38.597
X-37.406Y-38.945
X-37.044Y-39.29
X-36.678Y-39.631
X-36.31Y-39.969
X-35.938Y-40.304
X-35.563Y-40.635
X-35.186Y-40.962
X-34.805Y-41.286
X-34.421Y-41.607
X-34.034Y-41.924
X-33.645Y-42.237
X-33.252Y-42.547
X-32.857Y-42.853
X-32.459Y-43.155
X-32.058Y-43.454
X-31.654Y-43.749
X-31.248Y-44.04
X-30.838Y-44.327
X-30.427Y-44.611
X-30.012Y-44.891
X-29.595Y-45.167
X-29.176Y-45.439
X-28.754Y-45.707
X-28.329Y-45.971
X-27.903Y-46.232
X-27.473Y-46.488
X-27.042Y-46.741
X-26.608Y-46.989
X-26.171Y-47.233
X-25.733Y-47.474
X-25.292Y-47.71
X-24.85Y-47.942
X-24.405Y-48.17
X-23.957Y-48.394
X-23.508Y-48.614
X-23.057Y-48.829
X-22.604Y-49.041
X-22.149Y-49.248
X-21.692Y-49.451
X-21.233Y-49.65
X-20.773Y-49.844
X-20.31Y-50.034
X-19.846Y-50.22
X-19.38Y-50.402
X-18.913Y-50.579
X-18.444Y-50.752
X-17.973Y-50.921
X-17.501Y-51.085
X-17.027Y-51.245
X-16.552Y-51.4
X-16.075Y-51.551
X-15.597Y-51.698
X-15.118Y-51.84
X-14.637Y-51.978
X-14.155Y-52.111
X-13.672Y-52.24
X-13.188Y-52.364
X-12.702Y-52.484
X-12.216Y-52.6
X-11.728Y-52.71
X-11.24Y-52.817
X-10.75Y-52.919
X-10.26Y-53.016
X-9.768Y-53.109
X-9.276Y-53.197
X-8.783Y-53.28
X-8.29Y-53.359
X-7.795Y-53.434
X-7.3Y-53.504
X-6.804Y-53.569
X-6.308Y-53.63
X-5.811Y-53.686
X-5.314Y-53.737
X-4.816Y-53.784
X-4.318Y-53.827
X-3.819Y-53.864
X-3.32Y-53.897
X-2.821Y-53.926
X-2.322Y-53.95
X-1.822Y-53.969
X-1.322Y-53.983
X-0.822Y-53.993
X-0.322Y-53.999
X0.177
X0.676Y-53.995
X1.176Y-53.987
X1.676Y-53.974
X2.176Y-53.956
X2.675Y-53.933
X3.175Y-53.906
X3.674Y-53.874
X4.172Y-53.838
X4.671Y-53.797
X5.169Y-53.752
X5.666Y-53.701
X6.163Y-53.647
X6.66Y-53.587
X7.155Y-53.523
X7.651Y-53.455
X8.145Y-53.382
X8.639Y-53.304
X9.132Y-53.222
X9.625Y-53.135
X10.116Y-53.043
X10.607Y-52.947
X11.097Y-52.847
X11.586Y-52.742
X12.074Y-52.632
X12.56Y-52.518
X13.046Y-52.4
X13.531Y-52.277
X14.014Y-52.149
X14.496Y-52.017
X14.978Y-51.881
X15.457Y-51.74
X15.936Y-51.595
X16.413Y-51.445
X16.888Y-51.291
X17.363Y-51.132
X17.835Y-50.969
X18.306Y-50.802
X18.776Y-50.63
X19.244Y-50.454
X19.71Y-50.274
X20.175Y-50.089
X20.638Y-49.9
X21.099Y-49.707
X21.558Y-49.509
X22.016Y-49.308
X22.471Y-49.102
X22.925Y-48.891
X23.377Y-48.677
X23.827Y-48.459
X24.274Y-48.236
X24.72Y-48.009
X25.163Y-47.778
X25.605Y-47.543
X26.044Y-47.304
X26.481Y-47.061
X26.915Y-46.814
X27.348Y-46.562
X27.777Y-46.307
X28.205Y-46.048
X28.63Y-45.785
X29.053Y-45.518
X29.473Y-45.247
X29.891Y-44.972
X30.306Y-44.693
X30.718Y-44.411
X31.128Y-44.124
X31.536Y-43.834
X31.94Y-43.54
X32.342Y-43.243
X32.741Y-42.941
X33.137Y-42.636
X33.53Y-42.328
X33.921Y-42.016
X34.309Y-41.7
X34.693Y-41.38
X35.075Y-41.057
X35.453Y-40.731
X35.829Y-40.401
X36.202Y-40.067
X36.571Y-39.73
X36.937Y-39.39
X37.301Y-39.046
X37.66Y-38.699
X38.017Y-38.349
X38.371Y-37.995
X38.721Y-37.638
X39.068Y-37.278
X39.411Y-36.915
X39.751Y-36.548
X40.088Y-36.179
X40.421Y-35.806
X40.751Y-35.43
X41.077Y-35.051
X41.4Y-34.669
X41.719Y-34.285
X42.035Y-33.897
X42.347Y-33.506
X42.656Y-33.113
X42.96Y-32.716
X43.261Y-32.317
X43.559Y-31.915
X43.852Y-31.51
X44.142Y-31.103
X44.428Y-30.693
X44.711Y-30.28
X44.989Y-29.865
X45.264Y-29.447
X45.534Y-29.027
X45.801Y-28.604
X46.064Y-28.179
X46.323Y-27.751
X46.578Y-27.321
X46.829Y-26.888
X47.076Y-26.454
X47.319Y-26.017
X47.558Y-25.577
X47.793Y-25.136
X48.023Y-24.692
X48.25Y-24.247
X48.472Y-23.799
X48.691Y-23.349
X48.905Y-22.897
X49.115Y-22.443
X49.32Y-21.988
X49.522Y-21.53
X49.719Y-21.071
X49.912Y-20.609
X50.101Y-20.146
X50.285Y-19.681
X50.465Y-19.215
X50.641Y-18.747
X50.812Y-18.277
X50.979Y-17.806
X51.142Y-17.333
X51.3Y-16.859
X51.454Y-16.383
X51.604Y-15.906
X51.749Y-15.428
X51.889Y-14.948
X52.026Y-14.467
X52.157Y-13.984
X52.285Y-13.501
X52.407Y-13.016
X52.526Y-12.53
X52.639Y-12.043
X52.749Y-11.555
X52.853Y-11.067
X52.954Y-10.577
X53.049Y-10.086
X53.14Y-9.594
X53.227Y-9.102
X53.309Y-8.609
X53.386Y-8.115
X53.459Y-7.62
X53.528Y-7.125
X53.591Y-6.629
X53.65Y-6.132
X53.705Y-5.635
X53.755Y-5.138
X53.8Y-4.64
X53.841Y-4.141
X53.877Y-3.643
X53.908Y-3.144
X53.935Y-2.644
X53.957Y-2.145
X53.975Y-1.645
X53.988Y-1.145
X53.996Y-0.645
X54Y-0.146
X53.999Y0.353
X53.993Y0.853
X53.983Y1.353
X53.968Y1.853
X53.948Y2.353
X53.924Y2.852
X53.896Y3.351
X53.862Y3.85
X53.824Y4.349
X53.782Y4.847
X53.735Y5.345
X53.683Y5.842
X53.626Y6.339
X53.565Y6.835
X53.5Y7.331
X53.43Y7.826
X53.355Y8.32
X53.275Y8.814
X53.192Y9.307
X53.103Y9.799
X53.01Y10.29
X52.913Y10.781
X52.81Y11.27
X52.704Y11.759
X52.593Y12.246
X52.477Y12.733
X52.357Y13.218
X52.232Y13.702
X52.103Y14.185
X51.97Y14.667
X51.832Y15.148
X51.689Y15.627
X51.542Y16.105
X51.391Y16.581
X51.235Y17.056
X51.075Y17.53
X50.91Y18.002
X50.742Y18.473
X50.568Y18.942
X50.391Y19.409
X50.209Y19.875
X50.023Y20.339
X49.832Y20.801
X49.638Y21.262
X49.439Y21.721
X49.235Y22.177
X49.028Y22.632
X48.816Y23.085
X48.6Y23.536
X48.38Y23.985
X48.156Y24.432
X47.928Y24.877
X47.695Y25.32
X47.459Y25.76
X47.218Y26.199
X46.974Y26.635
X46.725Y27.069
X46.473Y27.5
X46.216Y27.929
X45.955Y28.356
X45.691Y28.78
X45.422Y29.202
X45.15Y29.621
X44.874Y30.038
X44.594Y30.452
X44.31Y30.864
X44.022Y31.273
X43.731Y31.679
X43.436Y32.083
X43.137Y32.484
X42.834Y32.882
X42.528Y33.277
X42.218Y33.669
X41.904Y34.059
X41.587Y34.445
X41.266Y34.829
X40.942Y35.209
X40.614Y35.587
X40.283Y35.961
X39.948Y36.333
X39.61Y36.701
X39.269Y37.066
X38.924Y37.428
X38.576Y37.787
X38.224Y38.143
X37.869Y38.495
X37.511Y38.844
X37.15Y39.19
X36.785Y39.532
X36.418Y39.871
X36.047Y40.206
X35.673Y40.538
X35.296Y40.867
X34.917Y41.192
X34.534Y41.514
X34.148Y41.832
X33.759Y42.146
X33.367Y42.457
X32.973Y42.764
X32.575Y43.067
X32.175Y43.367
X31.772Y43.663
X31.367Y43.956
X30.958Y44.244
X30.547Y44.529
X30.134Y44.81
X29.717Y45.087
X29.299Y45.36
X28.877Y45.629
X28.454Y45.895
X28.028Y46.156
X27.599Y46.414
X27.168Y46.667
X26.735Y46.917
X26.299Y47.163
X25.861Y47.404
X25.421Y47.641
X24.979Y47.875
X24.535Y48.104
X24.088Y48.329
X23.64Y48.55
X23.189Y48.767
X22.737Y48.98
X22.282Y49.188
X21.826Y49.392
X21.368Y49.592
X20.907Y49.788
X20.446Y49.979
X19.982Y50.167
X19.517Y50.349
X19.05Y50.528
X18.581Y50.702
X18.111Y50.872
X17.639Y51.038
X17.165Y51.199
X16.691Y51.355
X16.214Y51.508
X15.737Y51.656
X15.258Y51.799
X14.778Y51.938
X14.296Y52.073
X13.813Y52.203
X13.329Y52.329
X12.844Y52.45
X12.358Y52.567
X11.871Y52.679
X11.383Y52.786
X10.893Y52.89
X10.403Y52.988
X9.912Y53.082
X9.42Y53.172
X8.927Y53.257
X8.434Y53.337
X7.94Y53.413
X7.445Y53.484
X6.949Y53.551
X6.453Y53.613
X5.956Y53.67
X5.459Y53.723
X4.962Y53.771
X4.463Y53.815
X3.965Y53.854
X3.466Y53.888
X2.967Y53.918
X2.468Y53.943
X1.968Y53.964
X1.468Y53.98
X0.968Y53.991
X0.469Y53.998
X-0.03Y54
X-0.53Y53.997
X-1.03Y53.99
X-1.53Y53.978
X-2.03Y53.962
X-2.53Y53.94
X-3.029Y53.915
X-3.528Y53.884
X-4.027Y53.849
X-4.525Y53.81
X-5.023Y53.766
X-5.521Y53.717
X-6.018Y53.663
X-6.515Y53.605
X-7.011Y53.543
X-7.506Y53.475
X-8.001Y53.404
X-8.495Y53.327
X-8.989Y53.246
X-9.481Y53.161
X-9.973Y53.071
X-10.464Y52.976
X-10.954Y52.877
X-11.443Y52.773
X-11.931Y52.665
X-12.418Y52.552
X-12.904Y52.435
X-13.389Y52.313
X-13.873Y52.187
X-14.356Y52.056
X-14.837Y51.921
X-15.317Y51.782
X-15.796Y51.638
X-16.274Y51.489
X-16.75Y51.336
X-17.224Y51.179
X-17.697Y51.017
X-18.169Y50.851
X-18.639Y50.681
X-19.108Y50.506
X-19.574Y50.327
X-20.04Y50.144
X-20.503Y49.956
X-20.965Y49.764
X-21.425Y49.568
X-21.883Y49.367
X-22.339Y49.162
X-22.793Y48.953
X-23.245Y48.74
X-23.696Y48.523
X-24.144Y48.302
X-24.59Y48.076
X-25.034Y47.846
X-25.476Y47.612
X-25.916Y47.374
X-26.353Y47.132
X-26.789Y46.886
X-27.222Y46.636
X-27.652Y46.382
X-28.081Y46.124
X-28.506Y45.862
X-28.93Y45.596
X-29.351Y45.326
X-29.769Y45.053
X-30.185Y44.775
X-30.598Y44.494
X-31.009Y44.209
X-31.417Y43.92
X-31.822Y43.627
X-32.225Y43.33
X-32.625Y43.03
X-33.022Y42.726
X-33.416Y42.418
X-33.807Y42.107
X-34.196Y41.792
X-34.581Y41.474
X-34.964Y41.152
X-35.343Y40.827
X-35.72Y40.498
X-36.093Y40.165
X-36.464Y39.829
X-36.831Y39.49
X-37.195Y39.147
X-37.556Y38.801
X-37.914Y38.452
X-38.268Y38.099
X-38.619Y37.743
X-38.967Y37.384
X-39.311Y37.021
X-39.652Y36.656
X-39.99Y36.287
X-40.324Y35.915
X-40.655Y35.54
X-40.983Y35.162
X-41.306Y34.781
X-41.627Y34.397
X-41.943Y34.011
X-42.257Y33.621
X-42.566Y33.228
X-42.872Y32.832
X-43.174Y32.434
X-43.472Y32.033
X-43.767Y31.629
X-44.058Y31.222
X-44.345Y30.813
X-44.629Y30.401
X-44.908Y29.987
X-45.184Y29.57
X-45.456Y29.15
X-45.724Y28.728
X-45.988Y28.303
X-46.248Y27.876
X-46.504Y27.447
X-46.756Y27.015
X-47.004Y26.581
X-47.249Y26.145
X-47.489Y25.706
X-47.725Y25.265
X-47.957Y24.822
X-48.184Y24.377
X-48.408Y23.93
X-48.627Y23.481
X-48.843Y23.029
X-49.054Y22.576
X-49.261Y22.121
X-49.464Y21.664
X-49.662Y21.205
X-49.856Y20.744
X-50.046Y20.282
X-50.232Y19.817
X-50.413Y19.351
X-50.59Y18.884
X-50.763Y18.415
X-50.931Y17.944
X-51.095Y17.471
X-51.255Y16.998
X-51.41Y16.522
X-51.561Y16.046
X-51.707Y15.567
X-51.849Y15.088
X-51.987Y14.607
X-52.12Y14.125
X-52.248Y13.642
X-52.372Y13.158
X-52.492Y12.672
X-52.607Y12.186
X-52.717Y11.698
X-52.824Y11.209
X-52.925Y10.72
X-53.022Y10.229
X-53.114Y9.738
X-53.202Y9.246
X-53.286Y8.753
X-53.364Y8.259
X-53.439Y7.765
X-53.508Y7.269
X-53.573Y6.774
X-53.634Y6.277
X-53.69Y5.78
X-53.741Y5.283
X-53.787Y4.785
X-53.829Y4.287
X-53.867Y3.788
X-53.9Y3.289
X-53.928Y2.79
X-53.951Y2.291
X-53.97Y1.791
X-53.984Y1.291
X-53.994Y0.791
X-54Y0
X-57
X-56.997Y-0.499
X-56.991Y-0.999
X-56.98Y-1.499
X-56.964Y-1.999
X-56.945Y-2.499
X-56.921Y-2.998
X-56.892Y-3.497
X-56.859Y-3.996
X-56.822Y-4.495
X-56.78Y-4.993
X-56.734Y-5.491
X-56.684Y-5.988
X-56.629Y-6.485
X-56.57Y-6.982
X-56.507Y-7.478
X-56.439Y-7.973
X-56.367Y-8.468
X-56.29Y-8.962
X-56.21Y-9.456
X-56.125Y-9.948
X-56.035Y-10.44
X-55.941Y-10.931
X-55.843Y-11.422
X-55.741Y-11.911
X-55.634Y-12.4
X-55.524Y-12.887
X-55.408Y-13.374
X-55.289Y-13.859
X-55.165Y-14.344
X-55.037Y-14.827
X-54.905Y-15.309
X-54.769Y-15.79
X-54.628Y-16.27
X-54.483Y-16.749
X-54.334Y-17.226
X-54.181Y-17.702
X-54.024Y-18.176
X-53.862Y-18.65
X-53.696Y-19.121
X-53.527Y-19.592
X-53.353Y-20.06
X-53.175Y-20.528
X-52.993Y-20.993
X-52.806Y-21.457
X-52.616Y-21.92
X-52.422Y-22.38
X-52.223Y-22.839
X-52.021Y-23.297
X-51.815Y-23.752
X-51.604Y-24.206
X-51.39Y-24.657
X-51.172Y-25.107
X-50.95Y-25.555
X-50.724Y-26.001
X-50.493Y-26.445
X-50.26Y-26.887
X-50.022Y-27.327
X-49.78Y-27.765
X-49.535Y-28.2
X-49.285Y-28.634
X-49.032Y-29.065
X-48.776Y-29.494
X-48.515Y-29.92
X-48.251Y-30.345
X-47.983Y-30.767
X-47.711Y-31.187
X-47.435Y-31.604
X-47.156Y-32.019
X-46.874Y-32.431
X-46.587Y-32.841
X-46.298Y-33.249
X-46.004Y-33.653
X-45.707Y-34.056
X-45.407Y-34.455
X-45.103Y-34.852
X-44.795Y-35.247
X-44.484Y-35.638
X-44.17Y-36.027
X-43.852Y-36.413
X-43.531Y-36.796
