(Created with grbl post processor 2024/12/13 12:46)
G21
(G-code Generated with Fabex and NC library)
G17G90
(Tool: D = 3.0 mm  type END flutes 2)
S12000M03
G00 Z10.0

G0X0Y0Z10
X-98Y-98.398
G1Z0F500
Y98.402F1000
X-98.398Y98
X98.402
G0Z10
X-98.398Y97
G1Z0F500
X98.402F1000
G0Z10
X-98.398Y96
G1Z0F500
X98.402F1000
G0Z10
X-98.398Y95
G1Z0F500
X98.402F1000
G0Z10
X-98.398Y94
G1Z0F500
X98.402F1000
G0Z10
X-98.398Y93
G1Z0F500
X98.402F1000
G0Z10
X-98.398Y92
G1Z0F500
X98.402F1000
G0Z10
X-98.398Y91
G1Z0F500
X98.402F1000
G0Z10
X-98.398Y90
G1Z0F500
X98.402F1000
G0Z10
X-98.398Y89
G1Z0F500
X98.402F1000
G0Z10
X-98.398Y88
G1Z0F500
X98.402F1000
G0Z10
X-98.398Y87
G1Z0F500
X98.402F1000
G0Z10
X-98.398Y86
G1Z0F500
X98.402F1000
G0Z10
X-98.398Y85
G1Z0F500
X98.402F1000
G0Z10
X-98.398Y84
G1Z0F500
X98.402F1000
G0Z10
X-98.398Y83
G1Z0F500
X98.402F1000
G0Z10
X-98.398Y82
G1Z0F500
X98.402F1000
G0Z10
X-98.398Y81
G1Z0F500
X98.402F1000
G0Z10
X-98.398Y80
G1Z0F500
X98.402F1000
G0Z10
X-98.398Y79
G1Z0F500
X98.402F1000
G0Z10
X-98.398Y78
G1Z0F500
X98.402F1000
G0Z10
X-98.398Y77
G1Z0F500
X98.402F1000
G0Z10
X-98.398Y76
G1Z0F500
X98.402F1000
G0Z10
X-98.398Y75
G1Z0F500
X98.402F1000
G0Z10
X-98.398Y74
G1Z0F500
X98.402F1000
G0Z10
X-98.398Y73
G1Z0F500
X98.402F1000
G0Z10
X-98.398Y72
G1Z0F500
X98.402F1000
G0Z10
X-98.398Y71
G1Z0F500
X98.402F1000
G0Z10
X-98.398Y70
G1Z0F500
X98.402F1000
G0Z10
X-98.398Y69
G1Z0F500
X98.402F1000
G0Z10
X-98.398Y68
G1Z0F500
X-8.197F1000
X-8.053Z-5F500
X8.057F1000
X8.202Z0
X98.402
G0Z10
X-98.398Y67
G1Z0F500
X-14.197F1000
X-14.053Z-5F500
X14.057F1000
X14.202Z0
X98.402
G0Z10
X-98.398Y66
G1Z0F500
X-18.397F1000
X-18.253Z-5F500
X18.257F1000
X18.402Z0
X98.402
G0Z10
X-98.398Y65
G1Z0F500
X-21.597F1000
X-21.453Z-5F500
X21.457F1000
X21.602Z0
X98.402
G0Z10
X-98.398Y64
G1Z0F500
X-24.397F1000
X-24.253Z-5F500
X24.257F1000
X24.402Z0
X98.402
G0Z10
X-98.398Y63
G1Z0F500
X-26.997F1000
X-26.853Z-5F500
X26.857F1000
X27.002Z0
X98.402
G0Z10
X-98.398Y62
G1Z0F500
X-29.197F1000
X-29.053Z-5F500
X29.057F1000
X29.202Z0
X98.402
G0Z10
X-98.398Y61
G1Z0F500
X-31.197F1000
X-31.053Z-5F500
X31.057F1000
X31.202Z0
X98.402
G0Z10
X-98.398Y60
G1Z0F500
X-33.197F1000
X-33.053Z-5F500
X33.057F1000
X33.202Z0
X98.402
G0Z10
X-98.398Y59
G1Z0F500
X-34.797F1000
X-34.653Z-5F500
X34.657F1000
X34.802Z0
X98.402
G0Z10
X-98.398Y58
G1Z0F500
X-36.597F1000
X-36.453Z-5F500
X36.457F1000
X36.602Z0
X98.402
G0Z10
X-98.398Y57
G1Z0F500
X-37.997F1000
X-37.853Z-5F500
X37.857F1000
X38.002Z0
X98.402
G0Z10
X-98.398Y56
G1Z0F500
X-39.597F1000
X-39.453Z-5F500
X39.457F1000
X39.602Z0
X98.402
G0Z10
X-98.398Y55
G1Z0F500
X-40.997F1000
X-40.853Z-5F500
X40.857F1000
X41.002Z0
X98.402
G0Z10
X-98.398Y54
G1Z0F500
X-42.197F1000
X-42.053Z-5F500
X42.057F1000
X42.202Z0
X98.402
G0Z10
X-98.398Y53
G1Z0F500
X-43.397F1000
X-43.253Z-5F500
X43.257F1000
X43.402Z0
X98.402
G0Z10
X-98.398Y52
G1Z0F500
X-44.597F1000
X-44.453Z-5F500
X44.457F1000
X44.602Z0
X98.402
G0Z10
X-98.398Y51
G1Z0F500
X-45.797F1000
X-45.653Z-5F500
X45.657F1000
X45.802Z0
X98.402
G0Z10
X-98.398Y50
G1Z0F500
X-46.997F1000
X-46.797
X-46.653Z-5F500
X46.657F1000
X46.802Z0
X98.402
G0Z10
X-98.398Y49
G1Z0F500
X-47.997F1000
X-47.853Z-5F500
X47.857F1000
X48.002Z0
X98.402
G0Z10
X-98.398Y48
G1Z0F500
X-48.997F1000
X-48.853Z-5F500
X48.857F1000
X49.002Z0
X98.402
G0Z10
X-98.398Y47
G1Z0F500
X-49.997F1000
X-49.853Z-5F500
X49.857F1000
X50.002Z0
X98.402
G0Z10
X-98.398Y46
G1Z0F500
X-50.797F1000
X-50.653Z-5F500
X50.657F1000
X50.802Z0
X98.402
G0Z10
X-98.398Y45
G1Z0F500
X-51.797F1000
X-51.653Z-5F500
X51.657F1000
X51.802Z0
X98.402
G0Z10
X-98.398Y44
G1Z0F500
X-52.597F1000
X-52.453Z-5F500
X52.457F1000
X52.602Z0
X98.402
G0Z10
X-98.398Y43
G1Z0F500
X-53.397F1000
X-53.253Z-5F500
X53.257F1000
X53.402Z0
X98.402
G0Z10
X-98.398Y42
G1Z0F500
X-54.197F1000
X-54.053Z-5F500
X54.057F1000
X54.202Z0
X98.402
G0Z10
X-98.398Y41
G1Z0F500
X-54.997F1000
X-54.853Z-5F500
X54.857F1000
X55.002Z0
X98.402
G0Z10
X-98.398Y40
G1Z0F500
X-55.597F1000
X-55.453Z-5F500
X55.457F1000
X55.602Z0
X98.402
G0Z10
X-98.398Y39
G1Z0F500
X-56.397F1000
X-56.253Z-5F500
X56.257F1000
X56.402Z0
X98.402
G0Z10
X-98.398Y38
G1Z0F500
X-56.997F1000
X-56.853Z-5F500
X56.857F1000
X57.002Z0
X98.402
G0Z10
X-98.398Y37
G1Z0F500
X-57.797F1000
X-57.653Z-5F500
X57.657F1000
X57.802Z0
X98.402
G0Z10
X-98.398Y36
G1Z0F500
X-58.397F1000
X-58.253Z-5F500
X58.257F1000
X58.402Z0
X98.402
G0Z10
X-98.398Y35
G1Z0F500
X-58.997F1000
X-58.853Z-5F500
X58.857F1000
X59.002Z0
X98.402
G0Z10
X-98.398Y34
G1Z0F500
X-59.597F1000
X-59.452Z-5F500
X59.457F1000
X59.602Z0
X98.402
G0Z10
X-98.398Y33
G1Z0F500
X-60.197F1000
X-60.052Z-5F500
X60.057F1000
X60.202Z0
X98.402
G0Z10
X-98.398Y32
G1Z0F500
X-60.597F1000
X-60.452Z-5F500
X60.457F1000
X60.602Z0
X98.402
G0Z10
X-98.398Y31
G1Z0F500
X-61.197F1000
X-61.052Z-5F500
X61.057F1000
X61.202Z0
X98.402
G0Z10
X-98.398Y30
G1Z0F500
X-61.597F1000
X-61.452Z-5F500
X61.457F1000
X61.602Z0
X98.402
G0Z10
X-98.398Y29
G1Z0F500
X-62.197F1000
X-62.052Z-5F500
X62.057F1000
X62.202Z0
X98.402
G0Z10
X-98.398Y28
G1Z0F500
X-62.597F1000
X-62.452Z-5F500
X62.457F1000
X62.602Z0
X98.402
G0Z10
X-98.398Y27
G1Z0F500
X-62.997F1000
X-62.853Z-5F500
X62.857F1000
X63.002Z0
X98.402
G0Z10
X-98.398Y26
G1Z0F500
X-63.397F1000
X-63.253Z-5F500
X63.257F1000
X63.402Z0
X98.402
G0Z10
X-98.398Y25
G1Z0F500
X-63.797F1000
X-63.653Z-5F500
X63.657F1000
X63.802Z0
X98.402
G0Z10
X-98.398Y24
G1Z0F500
X-64.197F1000
X-64.053Z-5F500
X64.057F1000
X64.202Z0
X98.402
G0Z10
X-98.398Y23
G1Z0F500
X-64.597F1000
X-64.453Z-5F500
X64.457F1000
X64.602Z0
X98.402
G0Z10
X-98.398Y22
G1Z0F500
X-64.997F1000
X-64.853Z-5F500
X64.857F1000
X65.002Z0
X98.402
G0Z10
X-98.398Y21
G1Z0F500
X-65.197F1000
X-65.053Z-5F500
X65.057F1000
X65.202Z0
X98.402
G0Z10
X-98.398Y20
G1Z0F500
X-65.597F1000
X-65.453Z-5F500
X65.457F1000
X65.602Z0
X98.402
G0Z10
X-98.398Y19
G1Z0F500
X-65.797F1000
X-65.653Z-5F500
X65.657F1000
X65.802Z0
X98.402
G0Z10
X-98.398Y18
G1Z0F500
X-66.197F1000
X-66.053Z-5F500
X66.057F1000
X66.202Z0
X98.402
G0Z10
X-98.398Y17
G1Z0F500
X-66.397F1000
X-66.253Z-5F500
X66.257F1000
X66.402Z0
X98.402
G0Z10
X-98.398Y16
G1Z0F500
X-66.597F1000
X-66.453Z-5F500
X66.457F1000
X66.602Z0
X98.402
G0Z10
X-98.398Y15
G1Z0F500
X-66.997F1000
X-66.853Z-5F500
X66.857F1000
X67.002Z0
X98.402
G0Z10
X-98.398Y14
G1Z0F500
X-67.197F1000
X-67.053Z-5F500
X67.057F1000
X67.202Z0
X98.402
G0Z10
X-98.398Y13
G1Z0F500
X-67.397F1000
X-67.253Z-5F500
X67.257F1000
X67.402Z0
X98.402
G0Z10
X-98.398Y12
G1Z0F500
X-67.597F1000
X-67.453Z-5F500
X67.457F1000
X67.602Z0
X98.402
G0Z10
X-98.398Y11
G1Z0F500
X-67.597F1000
X-67.453Z-5F500
X67.457F1000
X67.602Z0
X98.402
G0Z10
X-98.398Y10
G1Z0F500
X-67.797F1000
X-67.653Z-5F500
X67.657F1000
X67.802Z0
X98.402
G0Z10
X-98.398Y9
G1Z0F500
X-67.997F1000
X-67.853Z-5F500
X67.857F1000
X68.002Z0
X98.402
G0Z10
X-98.398Y8
G1Z0F500
X-68.197F1000
X-68.053Z-5F500
X68.057F1000
X68.202Z0
X98.402
G0Z10
X-98.398Y7
G1Z0F500
X-68.197F1000
X-68.053Z-5F500
X68.057F1000
X68.202Z0
X98.402
G0Z10
X-98.398Y6
G1Z0F500
X-68.397F1000
X-68.253Z-5F500
X68.257F1000
X68.402Z0
X98.402
G0Z10
X-98.398Y5
G1Z0F500
X-68.397F1000
X-68.253Z-5F500
X68.257F1000
X68.402Z0
X98.402
G0Z10
X-98.398Y4
G1Z0F500
X-68.397F1000
X-68.253Z-5F500
X68.257F1000
X68.402Z0
X98.402
G0Z10
X-98.398Y3
G1Z0F500
X-68.597F1000
X-68.453Z-5F500
X68.457F1000
X68.602Z0
X98.402
G0Z10
X-98.398Y2
G1Z0F500
X-68.597F1000
X-68.453Z-5F500
X68.457F1000
X68.602Z0
X98.402
G0Z10
X-98.398Y1
G1Z0F500
X-68.597F1000
X-68.453Z-5F500
X68.457F1000
X68.602Z0
X98.402
G0Z10
X-98.398Y0
G1Z0F500
X-68.597F1000
X-68.453Z-5F500
X68.457F1000
X68.602Z0
X98.402
G0Z10
X-98.398Y-0.999
G1Z0F500
X-68.597F1000
X-68.453Z-5F500
X68.457F1000
X68.602Z0
X98.402
G0Z10
X-98.398Y-1.999
G1Z0F500
X-68.597F1000
X-68.453Z-5F500
X68.457F1000
X68.602Z0
X98.402
G0Z10
X-98.398Y-2.999
G1Z0F500
X-68.597F1000
X-68.453Z-5F500
X68.457F1000
X68.602Z0
X98.402
G0Z10
X-98.398Y-3.999
G1Z0F500
X-68.397F1000
X-68.253Z-5F500
X68.257F1000
X68.402Z0
X98.402
G0Z10
X-98.398Y-4.999
G1Z0F500
X-68.397F1000
X-68.253Z-5F500
X68.257F1000
X68.402Z0
X98.402
G0Z10
X-98.398Y-5.999
G1Z0F500
X-68.397F1000
X-68.253Z-5F500
X68.257F1000
X68.402Z0
X98.402
G0Z10
X-98.398Y-6.999
G1Z0F500
X-68.197F1000
X-68.053Z-5F500
X68.057F1000
X68.202Z0
X98.402
G0Z10
X-98.398Y-7.999
G1Z0F500
X-68.197F1000
X-68.053Z-5F500
X68.057F1000
X68.202Z0
X98.402
G0Z10
X-98.398Y-8.999
G1Z0F500
X-67.997F1000
X-67.853Z-5F500
X67.857F1000
X68.002Z0
X98.402
G0Z10
X-98.398Y-9.999
G1Z0F500
X-67.797F1000
X-67.653Z-5F500
X67.657F1000
X67.802Z0
X98.402
G0Z10
X-98.398Y-10.999
G1Z0F500
X-67.597F1000
X-67.453Z-5F500
X67.457F1000
X67.602Z0
X98.402
G0Z10
X-98.398Y-11.999
G1Z0F500
X-67.597F1000
X-67.453Z-5F500
X67.457F1000
X67.602Z0
X98.402
G0Z10
X-98.398Y-12.999
G1Z0F500
X-67.397F1000
X-67.253Z-5F500
X67.257F1000
X67.402Z0
X98.402
G0Z10
X-98.398Y-13.999
G1Z0F500
X-67.197F1000
X-67.053Z-5F500
X67.057F1000
X67.202Z0
X98.402
G0Z10
X-98.398Y-14.999
G1Z0F500
X-66.997F1000
X-66.853Z-5F500
X66.857F1000
X67.002Z0
X98.402
G0Z10
X-98.398Y-15.999
G1Z0F500
X-66.597F1000
X-66.453Z-5F500
X66.457F1000
X66.602Z0
X98.402
G0Z10
X-98.398Y-16.999
G1Z0F500
X-66.397F1000
X-66.253Z-5F500
X66.257F1000
X66.402Z0
X98.402
G0Z10
X-98.398Y-17.999
G1Z0F500
X-66.197F1000
X-66.053Z-5F500
X66.057F1000
X66.202Z0
X98.402
G0Z10
X-98.398Y-18.999
G1Z0F500
X-65.797F1000
X-65.653Z-5F500
X65.657F1000
X65.802Z0
X98.402
G0Z10
X-98.398Y-19.999
G1Z0F500
X-65.597F1000
X-65.453Z-5F500
X65.457F1000
X65.602Z0
X98.402
G0Z10
X-98.398Y-20.999
G1Z0F500
X-65.197F1000
X-65.053Z-5F500
X65.057F1000
X65.202Z0
X98.402
G0Z10
X-98.398Y-21.999
G1Z0F500
X-64.997F1000
X-64.853Z-5F500
X64.857F1000
X65.002Z0
X98.402
G0Z10
X-98.398Y-22.999
G1Z0F500
X-64.597F1000
X-64.453Z-5F500
X64.457F1000
X64.602Z0
X98.402
G0Z10
X-98.398Y-23.999
G1Z0F500
X-64.197F1000
X-64.053Z-5F500
X64.057F1000
X64.202Z0
X98.402
G0Z10
X-98.398Y-24.999
G1Z0F500
X-63.797F1000
X-63.653Z-5F500
X63.657F1000
X63.802Z0
X98.402
G0Z10
X-98.398Y-25.999
G1Z0F500
X-63.397F1000
X-63.253Z-5F500
X63.257F1000
X63.402Z0
X98.402
G0Z10
X-98.398Y-26.999
G1Z0F500
X-62.997F1000
X-62.853Z-5F500
X62.857F1000
X63.002Z0
X98.402
G0Z10
X-98.398Y-27.999
G1Z0F500
X-62.597F1000
X-62.452Z-5F500
X62.457F1000
X62.602Z0
X98.402
G0Z10
X-98.398Y-28.999
G1Z0F500
X-62.197F1000
X-62.052Z-5F500
X62.057F1000
X62.202Z0
X98.402
G0Z10
X-98.398Y-29.999
G1Z0F500
X-61.597F1000
X-61.452Z-5F500
X61.457F1000
X61.602Z0
X98.402
G0Z10
X-98.398Y-30.999
G1Z0F500
X-61.197F1000
X-61.052Z-5F500
X61.057F1000
X61.202Z0
X98.402
G0Z10
X-98.398Y-31.999
G1Z0F500
X-60.597F1000
X-60.452Z-5F500
X60.457F1000
X60.602Z0
X98.402
G0Z10
X-98.398Y-32.999
G1Z0F500
X-60.197F1000
X-60.052Z-5F500
X60.057F1000
X60.202Z0
X98.402
G0Z10
X-98.398Y-33.999
G1Z0F500
X-59.597F1000
X-59.452Z-5F500
X59.457F1000
X59.602Z0
X98.402
G0Z10
X-98.398Y-34.999
G1Z0F500
X-58.997F1000
X-58.853Z-5F500
X58.857F1000
X59.002Z0
X98.402
G0Z10
X-98.398Y-35.999
G1Z0F500
X-58.397F1000
X-58.253Z-5F500
X58.257F1000
X58.402Z0
X98.402
G0Z10
X-98.398Y-36.999
G1Z0F500
X-57.797F1000
X-57.653Z-5F500
X57.657F1000
X57.802Z0
X98.402
G0Z10
X-98.398Y-37.999
G1Z0F500
X-56.997F1000
X-56.853Z-5F500
X56.857F1000
X57.002Z0
X98.402
G0Z10
X-98.398Y-38.999
G1Z0F500
X-56.397F1000
X-56.253Z-5F500
X56.257F1000
X56.402Z0
X98.402
G0Z10
X-98.398Y-39.999
G1Z0F500
X-55.597F1000
X-55.453Z-5F500
X55.457F1000
X55.602Z0
X98.402
G0Z10
X-98.398Y-40.999
G1Z0F500
X-54.997F1000
X-54.853Z-5F500
X54.857F1000
X55.002Z0
X98.402
G0Z10
X-98.398Y-41.999
G1Z0F500
X-54.197F1000
X-54.053Z-5F500
X54.057F1000
X54.202Z0
X98.402
G0Z10
X-98.398Y-42.999
G1Z0F500
X-53.397F1000
X-53.253Z-5F500
X53.257F1000
X53.402Z0
X98.402
G0Z10
X-98.398Y-43.999
G1Z0F500
X-52.597F1000
X-52.453Z-5F500
X52.457F1000
X52.602Z0
X98.402
G0Z10
X-98.398Y-44.999
G1Z0F500
X-51.797F1000
X-51.653Z-5F500
X51.657F1000
X51.802Z0
X98.402
G0Z10
X-98.398Y-45.999
G1Z0F500
X-50.797F1000
X-50.653Z-5F500
X50.657F1000
X50.802Z0
X98.402
G0Z10
X-98.398Y-46.999
G1Z0F500
X-49.997F1000
X-49.853Z-5F500
X49.857F1000
X50.002Z0
X98.402
G0Z10
X-98.398Y-47.999
G1Z0F500
X-48.997F1000
X-48.853Z-5F500
X48.857F1000
X49.002Z0
X98.402
G0Z10
X-98.398Y-48.999
G1Z0F500
X-47.997F1000
X-47.853Z-5F500
X47.857F1000
X48.002Z0
X98.402
G0Z10
X-98.398Y-49.999
G1Z0F500
X-46.997F1000
X-46.797
X-46.653Z-5F500
X46.657F1000
X46.802Z0
X98.402
G0Z10
X-98.398Y-50.999
G1Z0F500
X-45.797F1000
X-45.653Z-5F500
X45.657F1000
X45.802Z0
X98.402
G0Z10
X-98.398Y-51.999
G1Z0F500
X-44.597F1000
X-44.453Z-5F500
X44.457F1000
X44.602Z0
X98.402
G0Z10
X-98.398Y-52.999
G1Z0F500
X-43.397F1000
X-43.253Z-5F500
X43.257F1000
X43.402Z0
X98.402
G0Z10
X-98.398Y-53.999
G1Z0F500
X-42.197F1000
X-42.053Z-5F500
X42.057F1000
X42.202Z0
X98.402
G0Z10
X-98.398Y-54.999
G1Z0F500
X-40.997F1000
X-40.853Z-5F500
X40.857F1000
X41.002Z0
X98.402
G0Z10
X-98.398Y-55.999
G1Z0F500
X-39.597F1000
X-39.453Z-5F500
X39.457F1000
X39.602Z0
X98.402
G0Z10
X-98.398Y-56.999
G1Z0F500
X-37.997F1000
X-37.853Z-5F500
X37.857F1000
X38.002Z0
X98.402
G0Z10
X-98.398Y-57.999
G1Z0F500
X-36.597F1000
X-36.453Z-5F500
X36.457F1000
X36.602Z0
X98.402
G0Z10
X-98.398Y-58.999
G1Z0F500
X-34.797F1000
X-34.653Z-5F500
X34.657F1000
X34.802Z0
X98.402
G0Z10
X-98.398Y-59.999
G1Z0F500
X-33.197F1000
X-33.053Z-5F500
X33.057F1000
X33.202Z0
X98.402
G0Z10
X-98.398Y-60.999
G1Z0F500
X-31.197F1000
X-31.053Z-5F500
X31.057F1000
X31.202Z0
X98.402
G0Z10
X-98.398Y-61.999
G1Z0F500
X-29.197F1000
X-29.053Z-5F500
X29.057F1000
X29.202Z0
X98.402
G0Z10
X-98.398Y-62.999
G1Z0F500
X-26.997F1000
X-26.853Z-5F500
X26.857F1000
X27.002Z0
X98.402
G0Z10
X-98.398Y-63.999
G1Z0F500
X-24.397F1000
X-24.253Z-5F500
X24.257F1000
X24.402Z0
X98.402
G0Z10
X-98.398Y-64.999
G1Z0F500
X-21.597F1000
X-21.453Z-5F500
X21.457F1000
X21.602Z0
X98.402
G0Z10
X-98.398Y-65.999
G1Z0F500
X-18.397F1000
X-18.253Z-5F500
X18.257F1000
X18.402Z0
X98.402
G0Z10
X-98.398Y-66.999
G1Z0F500
X-14.197F1000
X-14.053Z-5F500
X14.057F1000
X14.202Z0
X98.402
G0Z10
X-98.398Y-67.999
G1Z0F500
X-8.197F1000
X-8.053Z-5F500
X8.057F1000
X8.202Z0
X98.402
G0Z10
X-98.398Y-68.999
G1Z0F500
X98.402F1000
G0Z10
X-98.398Y-69.999
G1Z0F500
X98.402F1000
G0Z10
X-98.398Y-70.999
G1Z0F500
X98.402F1000
G0Z10
X-98.398Y-71.999
G1Z0F500
X98.402F1000
G0Z10
X-98.398Y-72.999
G1Z0F500
X98.402F1000
G0Z10
X-98.398Y-73.999
G1Z0F500
X98.402F1000
G0Z10
X-98.398Y-74.999
G1Z0F500
X98.402F1000
G0Z10
X-97Y-98.398
G1Z0F500
Y98.402F1000
G0Z10
X-98.398Y-75.999
G1Z0F500
X98.402F1000
G0Z10
X-96Y-98.398
G1Z0F500
Y98.402F1000
G0Z10
X-98.398Y-77
G1Z0F500
X98.402F1000
G0Z10
X-95Y-98.398
G1Z0F500
Y98.402F1000
G0Z10
X-98.398Y-77.999
G1Z0F500
X98.402F1000
G0Z10
X-94Y-98.398
G1Z0F500
Y98.402F1000
G0Z10
X-98.398Y-78.999
G1Z0F500
X98.402F1000
G0Z10
X-93Y-98.398
G1Z0F500
Y98.402F1000
G0Z10
X-98.398Y-79.999
G1Z0F500
X98.402F1000
G0Z10
X-92Y-98.398
G1Z0F500
Y98.402F1000
G0Z10
X-98.398Y-80.999
G1Z0F500
X98.402F1000
G0Z10
X-91Y-98.398
G1Z0F500
Y98.402F1000
G0Z10
X-98.398Y-81.999
G1Z0F500
X98.402F1000
G0Z10
X-90Y-98.398
G1Z0F500
Y98.402F1000
G0Z10
X-98.398Y-82.999
G1Z0F500
X98.402F1000
G0Z10
X-89Y-98.398
G1Z0F500
Y98.402F1000
G0Z10
X-98.398Y-83.999
G1Z0F500
X98.402F1000
G0Z10
X-88Y-98.398
G1Z0F500
Y98.402F1000
G0Z10
X-98.398Y-84.999
G1Z0F500
X98.402F1000
G0Z10
X-87Y-98.398
G1Z0F500
Y98.402F1000
G0Z10
X-98.398Y-85.999
G1Z0F500
X98.402F1000
G0Z10
X-86Y-98.398
G1Z0F500
Y98.402F1000
G0Z10
X-98.398Y-86.999
G1Z0F500
X98.402F1000
G0Z10
X-85Y-98.398
G1Z0F500
Y98.402F1000
G0Z10
X-98.398Y-88
G1Z0F500
X98.402F1000
G0Z10
X-84Y-98.398
G1Z0F500
Y98.402F1000
G0Z10
X-98.398Y-88.999
G1Z0F500
X98.402F1000
G0Z10
X-83Y-98.398
G1Z0F500
Y98.402F1000
G0Z10
X-98.398Y-89.999
G1Z0F500
X98.402F1000
G0Z10
X-82Y-98.398
G1Z0F500
Y98.402F1000
G0Z10
X-98.398Y-90.999
G1Z0F500
X98.402F1000
G0Z10
X-81Y-98.398
G1Z0F500
Y98.402F1000
G0Z10
X-98.398Y-92
G1Z0F500
X98.402F1000
G0Z10
X-80Y-98.398
G1Z0F500
Y98.402F1000
G0Z10
X-98.398Y-92.999
G1Z0F500
X98.402F1000
G0Z10
X-79Y-98.398
G1Z0F500
Y98.402F1000
G0Z10
X-98.398Y-93.999
G1Z0F500
X98.402F1000
G0Z10
X-78Y-98.398
G1Z0F500
Y98.402F1000
G0Z10
X-98.398Y-94.999
G1Z0F500
X98.402F1000
G0Z10
X-77Y-98.398
G1Z0F500
Y98.402F1000
G0Z10
X-98.398Y-95.999
G1Z0F500
X98.402F1000
G0Z10
X-76Y-98.398
G1Z0F500
Y98.402F1000
G0Z10
X-98.398Y-96.999
G1Z0F500
X98.402F1000
G0Z10
X-75Y-98.398
G1Z0F500
Y98.402F1000
G0Z10
X-74Y-98.398
G1Z0F500
Y98.402F1000
G0Z10
X-73Y-98.398
G1Z0F500
Y98.402F1000
G0Z10
X-72Y-98.398
G1Z0F500
Y98.402F1000
G0Z10
X-71Y-98.398
G1Z0F500
Y98.402F1000
G0Z10
X-70Y-98.398
G1Z0F500
Y98.402F1000
G0Z10
X-69Y-98.398
G1Z0F500
Y98.402F1000
G0Z10
X-68Y-98.398
G1Z0F500
Y-8.197F1000
Y-8.053Z-5F500
Y8.057F1000
Y8.202Z0
Y98.402
G0Z10
X-67Y-98.398
G1Z0F500
Y-14.197F1000
Y-14.053Z-5F500
Y14.057F1000
Y14.202Z0
Y98.402
G0Z10
X-66Y-98.398
G1Z0F500
Y-18.397F1000
Y-18.253Z-5F500
Y18.257F1000
Y18.402Z0
Y98.402
G0Z10
X-65Y-98.398
G1Z0F500
Y-21.597F1000
Y-21.453Z-5F500
Y21.457F1000
Y21.602Z0
Y98.402
G0Z10
X-64Y-98.398
G1Z0F500
Y-24.397F1000
Y-24.253Z-5F500
Y24.257F1000
Y24.402Z0
Y98.402
G0Z10
X-63Y-98.398
G1Z0F500
Y-26.997F1000
Y-26.853Z-5F500
Y26.857F1000
Y27.002Z0
Y98.402
G0Z10
X-62Y-98.398
G1Z0F500
Y-29.197F1000
Y-29.053Z-5F500
Y29.057F1000
Y29.202Z0
Y98.402
G0Z10
X-61Y-98.398
G1Z0F500
Y-31.197F1000
Y-31.053Z-5F500
Y31.057F1000
Y31.202Z0
Y98.402
G0Z10
X-60Y-98.398
G1Z0F500
Y-33.197F1000
Y-33.053Z-5F500
Y33.057F1000
Y33.202Z0
Y98.402
G0Z10
X-59Y-98.398
G1Z0F500
Y-34.797F1000
Y-34.653Z-5F500
Y34.657F1000
Y34.802Z0
Y98.402
G0Z10
X-58Y-98.398
G1Z0F500
Y-36.597F1000
Y-36.453Z-5F500
Y36.457F1000
Y36.602Z0
Y98.402
G0Z10
X-57Y-98.398
G1Z0F500
Y-37.997F1000
Y-37.853Z-5F500
Y37.857F1000
Y38.002Z0
Y98.402
G0Z10
X-56Y-98.398
G1Z0F500
Y-39.597F1000
Y-39.453Z-5F500
Y39.457F1000
Y39.602Z0
Y98.402
G0Z10
X-55Y-98.398
G1Z0F500
Y-40.997F1000
Y-40.853Z-5F500
Y40.857F1000
Y41.002Z0
Y98.402
G0Z10
X-54Y-98.398
G1Z0F500
Y-42.197F1000
Y-42.053Z-5F500
Y42.057F1000
Y42.202Z0
Y98.402
G0Z10
X-53Y-98.398
G1Z0F500
Y-43.397F1000
Y-43.253Z-5F500
Y43.257F1000
Y43.402Z0
Y98.402
G0Z10
X-52Y-98.398
G1Z0F500
Y-44.597F1000
Y-44.453Z-5F500
Y44.457F1000
Y44.602Z0
Y98.402
G0Z10
X-51Y-98.398
G1Z0F500
Y-45.797F1000
Y-45.653Z-5F500
Y45.657F1000
Y45.802Z0
Y98.402
G0Z10
X-50Y-98.398
G1Z0F500
Y-46.997F1000
Y-46.797
Y-46.653Z-5F500
Y46.657F1000
Y46.802Z0
Y98.402
G0Z10
X-49Y-98.398
G1Z0F500
Y-47.997F1000
Y-47.853Z-5F500
Y47.857F1000
Y48.002Z0
Y98.402
G0Z10
X-48Y-98.398
G1Z0F500
Y-48.997F1000
Y-48.853Z-5F500
Y48.857F1000
Y49.002Z0
Y98.402
G0Z10
X-47Y-98.398
G1Z0F500
Y-49.997F1000
Y-49.853Z-5F500
Y49.857F1000
Y50.002Z0
Y98.402
G0Z10
X-46Y-98.398
G1Z0F500
Y-50.797F1000
Y-50.653Z-5F500
Y50.657F1000
Y50.802Z0
Y98.402
G0Z10
X-45Y-98.398
G1Z0F500
Y-51.797F1000
Y-51.653Z-5F500
Y51.657F1000
Y51.802Z0
Y98.402
G0Z10
X-44Y-98.398
G1Z0F500
Y-52.597F1000
Y-52.453Z-5F500
Y52.457F1000
Y52.602Z0
Y98.402
G0Z10
X-43Y-98.398
G1Z0F500
Y-53.397F1000
Y-53.253Z-5F500
Y53.257F1000
Y53.402Z0
Y98.402
G0Z10
X-42Y-98.398
G1Z0F500
Y-54.197F1000
Y-54.053Z-5F500
Y54.057F1000
Y54.202Z0
Y98.402
G0Z10
X-41Y-98.398
G1Z0F500
Y-54.997F1000
Y-54.853Z-5F500
Y54.857F1000
Y55.002Z0
Y98.402
G0Z10
X-40Y-98.398
G1Z0F500
Y-55.597F1000
Y-55.453Z-5F500
Y55.457F1000
Y55.602Z0
Y98.402
G0Z10
X-39Y-98.398
G1Z0F500
Y-56.397F1000
Y-56.253Z-5F500
Y56.257F1000
Y56.402Z0
Y98.402
G0Z10
X-38Y-98.398
G1Z0F500
Y-56.997F1000
Y-56.853Z-5F500
Y56.857F1000
Y57.002Z0
Y98.402
G0Z10
X-37Y-98.398
G1Z0F500
Y-57.797F1000
Y-57.653Z-5F500
Y57.657F1000
Y57.802Z0
Y98.402
G0Z10
X-36Y-98.398
G1Z0F500
Y-58.397F1000
Y-58.253Z-5F500
Y58.257F1000
Y58.402Z0
Y98.402
G0Z10
X-35Y-98.398
G1Z0F500
Y-58.997F1000
Y-58.853Z-5F500
Y58.857F1000
Y59.002Z0
Y98.402
G0Z10
X-34Y-98.398
G1Z0F500
Y-59.597F1000
Y-59.452Z-5F500
Y59.457F1000
Y59.602Z0
Y98.402
G0Z10
X-33Y-98.398
G1Z0F500
Y-60.197F1000
Y-60.052Z-5F500
Y60.057F1000
Y60.202Z0
Y98.402
G0Z10
X-32Y-98.398
G1Z0F500
Y-60.597F1000
Y-60.452Z-5F500
Y60.457F1000
Y60.602Z0
Y98.402
G0Z10
X-31Y-98.398
G1Z0F500
Y-61.197F1000
Y-61.052Z-5F500
Y61.057F1000
Y61.202Z0
Y98.402
G0Z10
X-30Y-98.398
G1Z0F500
Y-61.597F1000
Y-61.452Z-5F500
Y61.457F1000
Y61.602Z0
Y98.402
G0Z10
X-29Y-98.398
G1Z0F500
Y-62.197F1000
Y-62.052Z-5F500
Y62.057F1000
Y62.202Z0
Y98.402
G0Z10
X-28Y-98.398
G1Z0F500
Y-62.597F1000
Y-62.452Z-5F500
Y62.457F1000
Y62.602Z0
Y98.402
G0Z10
X-27Y-98.398
G1Z0F500
Y-62.997F1000
Y-62.853Z-5F500
Y62.857F1000
Y63.002Z0
Y98.402
G0Z10
X-26Y-98.398
G1Z0F500
Y-63.397F1000
Y-63.253Z-5F500
Y63.257F1000
Y63.402Z0
Y98.402
G0Z10
X-25Y-98.398
G1Z0F500
Y-63.797F1000
Y-63.653Z-5F500
Y63.657F1000
Y63.802Z0
Y98.402
G0Z10
X-24Y-98.398
G1Z0F500
Y-64.197F1000
Y-64.053Z-5F500
Y64.057F1000
Y64.202Z0
Y98.402
G0Z10
X-23Y-98.398
G1Z0F500
Y-64.597F1000
Y-64.453Z-5F500
Y64.457F1000
Y64.602Z0
Y98.402
G0Z10
X-22Y-98.398
G1Z0F500
Y-64.997F1000
Y-64.853Z-5F500
Y64.857F1000
Y65.002Z0
Y98.402
G0Z10
X-21Y-98.398
G1Z0F500
Y-65.197F1000
Y-65.053Z-5F500
Y65.057F1000
Y65.202Z0
Y98.402
G0Z10
X-20Y-98.398
G1Z0F500
Y-65.597F1000
Y-65.453Z-5F500
Y65.457F1000
Y65.602Z0
Y98.402
G0Z10
X-19Y-98.398
G1Z0F500
Y-65.797F1000
Y-65.653Z-5F500
Y65.657F1000
Y65.802Z0
Y98.402
G0Z10
X-18Y-98.398
G1Z0F500
Y-66.197F1000
Y-66.053Z-5F500
Y66.057F1000
Y66.202Z0
Y98.402
G0Z10
X-17Y-98.398
G1Z0F500
Y-66.397F1000
Y-66.253Z-5F500
Y66.257F1000
Y66.402Z0
Y98.402
G0Z10
X-16Y-98.398
G1Z0F500
Y-66.597F1000
Y-66.453Z-5F500
Y66.457F1000
Y66.602Z0
Y98.402
G0Z10
X-15Y-98.398
G1Z0F500
Y-66.997F1000
Y-66.853Z-5F500
Y66.857F1000
Y67.002Z0
Y98.402
G0Z10
X-14Y-98.398
G1Z0F500
Y-67.197F1000
Y-67.053Z-5F500
Y67.057F1000
Y67.202Z0
Y98.402
G0Z10
X-13Y-98.398
G1Z0F500
Y-67.397F1000
Y-67.253Z-5F500
Y67.257F1000
Y67.402Z0
Y98.402
G0Z10
X-12Y-98.398
G1Z0F500
Y-67.597F1000
Y-67.453Z-5F500
Y67.457F1000
Y67.602Z0
Y98.402
G0Z10
X-11Y-98.398
G1Z0F500
Y-67.597F1000
Y-67.453Z-5F500
Y67.457F1000
Y67.602Z0
Y98.402
G0Z10
X-10Y-98.398
G1Z0F500
Y-67.797F1000
Y-67.653Z-5F500
Y67.657F1000
Y67.802Z0
Y98.402
G0Z10
X-9Y-98.398
G1Z0F500
Y-67.997F1000
Y-67.853Z-5F500
Y67.857F1000
Y68.002Z0
Y98.402
G0Z10
X-8Y-98.398
G1Z0F500
Y-68.197F1000
Y-68.053Z-5F500
Y68.057F1000
Y68.202Z0
Y98.402
G0Z10
X-7Y-98.398
G1Z0F500
Y-68.197F1000
Y-68.053Z-5F500
Y68.057F1000
Y68.202Z0
Y98.402
G0Z10
X-6Y-98.398
G1Z0F500
Y-68.397F1000
Y-68.253Z-5F500
Y68.257F1000
Y68.402Z0
Y98.402
G0Z10
X-5Y-98.398
G1Z0F500
Y-68.397F1000
Y-68.253Z-5F500
Y68.257F1000
Y68.402Z0
Y98.402
G0Z10
X-4Y-98.398
G1Z0F500
Y-68.397F1000
Y-68.253Z-5F500
Y68.257F1000
Y68.402Z0
Y98.402
G0Z10
X-3Y-98.398
G1Z0F500
Y-68.597F1000
Y-68.453Z-5F500
Y68.457F1000
Y68.602Z0
Y98.402
G0Z10
X-2Y-98.398
G1Z0F500
Y-68.597F1000
Y-68.453Z-5F500
Y68.457F1000
Y68.602Z0
Y98.402
G0Z10
X-1Y-98.398
G1Z0F500
Y-68.597F1000
Y-68.453Z-5F500
Y68.457F1000
Y68.602Z0
Y98.402
G0Z10
X0Y-98.398
G1Z0F500
Y-68.597F1000
Y-68.453Z-5F500
Y68.457F1000
Y68.602Z0
Y98.402
G0Z10
X1Y-98.398
G1Z0F500
Y-68.597F1000
Y-68.453Z-5F500
Y68.457F1000
Y68.602Z0
Y98.402
G0Z10
X2Y-98.398
G1Z0F500
Y-68.597F1000
Y-68.453Z-5F500
Y68.457F1000
Y68.602Z0
Y98.402
G0Z10
X3Y-98.398
G1Z0F500
Y-68.597F1000
Y-68.453Z-5F500
Y68.457F1000
Y68.602Z0
Y98.402
G0Z10
X4Y-98.398
G1Z0F500
Y-68.397F1000
Y-68.253Z-5F500
Y68.257F1000
Y68.402Z0
Y98.402
G0Z10
X5Y-98.398
G1Z0F500
Y-68.397F1000
Y-68.253Z-5F500
Y68.257F1000
Y68.402Z0
Y98.402
G0Z10
X6Y-98.398
G1Z0F500
Y-68.397F1000
Y-68.253Z-5F500
Y68.257F1000
Y68.402Z0
Y98.402
G0Z10
X7Y-98.398
G1Z0F500
Y-68.197F1000
Y-68.053Z-5F500
Y68.057F1000
Y68.202Z0
Y98.402
G0Z10
X8Y-98.398
G1Z0F500
Y-68.197F1000
Y-68.053Z-5F500
Y68.057F1000
Y68.202Z0
Y98.402
G0Z10
X9Y-98.398
G1Z0F500
Y-67.997F1000
Y-67.853Z-5F500
Y67.857F1000
Y68.002Z0
Y98.402
G0Z10
X10Y-98.398
G1Z0F500
Y-67.797F1000
Y-67.653Z-5F500
Y67.657F1000
Y67.802Z0
Y98.402
G0Z10
X11Y-98.398
G1Z0F500
Y-67.597F1000
Y-67.453Z-5F500
Y67.457F1000
Y67.602Z0
Y98.402
G0Z10
X12Y-98.398
G1Z0F500
Y-67.597F1000
Y-67.453Z-5F500
Y67.457F1000
Y67.602Z0
Y98.402
G0Z10
X13Y-98.398
G1Z0F500
Y-67.397F1000
Y-67.253Z-5F500
Y67.257F1000
Y67.402Z0
Y98.402
G0Z10
X14Y-98.398
G1Z0F500
Y-67.197F1000
Y-67.053Z-5F500
Y67.057F1000
Y67.202Z0
Y98.402
G0Z10
X15Y-98.398
G1Z0F500
Y-66.997F1000
Y-66.853Z-5F500
Y66.857F1000
Y67.002Z0
Y98.402
G0Z10
X16Y-98.398
G1Z0F500
Y-66.597F1000
Y-66.453Z-5F500
Y66.457F1000
Y66.602Z0
Y98.402
G0Z10
X17Y-98.398
G1Z0F500
Y-66.397F1000
Y-66.253Z-5F500
Y66.257F1000
Y66.402Z0
Y98.402
G0Z10
X18Y-98.398
G1Z0F500
Y-66.197F1000
Y-66.053Z-5F500
Y66.057F1000
Y66.202Z0
Y98.402
G0Z10
X19Y-98.398
G1Z0F500
Y-65.797F1000
Y-65.653Z-5F500
Y65.657F1000
Y65.802Z0
Y98.402
G0Z10
X20Y-98.398
G1Z0F500
Y-65.597F1000
Y-65.453Z-5F500
Y65.457F1000
Y65.602Z0
Y98.402
G0Z10
X21Y-98.398
G1Z0F500
Y-65.197F1000
Y-65.053Z-5F500
Y65.057F1000
Y65.202Z0
Y98.402
G0Z10
X22Y-98.398
G1Z0F500
Y-64.997F1000
Y-64.853Z-5F500
Y64.857F1000
Y65.002Z0
Y98.402
G0Z10
X23Y-98.398
G1Z0F500
Y-64.597F1000
Y-64.453Z-5F500
Y64.457F1000
Y64.602Z0
Y98.402
G0Z10
X24Y-98.398
G1Z0F500
Y-64.197F1000
Y-64.053Z-5F500
Y64.057F1000
Y64.202Z0
Y98.402
G0Z10
X25Y-98.398
G1Z0F500
Y-63.797F1000
Y-63.653Z-5F500
Y63.657F1000
Y63.802Z0
Y98.402
G0Z10
X26Y-98.398
G1Z0F500
Y-63.397F1000
Y-63.253Z-5F500
Y63.257F1000
Y63.402Z0
Y98.402
G0Z10
X27Y-98.398
G1Z0F500
Y-62.997F1000
Y-62.853Z-5F500
Y62.857F1000
Y63.002Z0
Y98.402
G0Z10
X28Y-98.398
G1Z0F500
Y-62.597F1000
Y-62.452Z-5F500
Y62.457F1000
Y62.602Z0
Y98.402
G0Z10
X29Y-98.398
G1Z0F500
Y-62.197F1000
Y-62.052Z-5F500
Y62.057F1000
Y62.202Z0
Y98.402
G0Z10
X30Y-98.398
G1Z0F500
Y-61.597F1000
Y-61.452Z-5F500
Y61.457F1000
Y61.602Z0
Y98.402
G0Z10
X31Y-98.398
G1Z0F500
Y-61.197F1000
Y-61.052Z-5F500
Y61.057F1000
Y61.202Z0
Y98.402
G0Z10
X32Y-98.398
G1Z0F500
Y-60.597F1000
Y-60.452Z-5F500
Y60.457F1000
Y60.602Z0
Y98.402
G0Z10
X33Y-98.398
G1Z0F500
Y-60.197F1000
Y-60.052Z-5F500
Y60.057F1000
Y60.202Z0
Y98.402
G0Z10
X34Y-98.398
G1Z0F500
Y-59.597F1000
Y-59.452Z-5F500
Y59.457F1000
Y59.602Z0
Y98.402
G0Z10
X35Y-98.398
G1Z0F500
Y-58.997F1000
Y-58.853Z-5F500
Y58.857F1000
Y59.002Z0
Y98.402
G0Z10
X36Y-98.398
G1Z0F500
Y-58.397F1000
Y-58.253Z-5F500
Y58.257F1000
Y58.402Z0
Y98.402
G0Z10
X37Y-98.398
G1Z0F500
Y-57.797F1000
Y-57.653Z-5F500
Y57.657F1000
Y57.802Z0
Y98.402
G0Z10
X38Y-98.398
G1Z0F500
Y-56.997F1000
Y-56.853Z-5F500
Y56.857F1000
Y57.002Z0
Y98.402
G0Z10
X39Y-98.398
G1Z0F500
Y-56.397F1000
Y-56.253Z-5F500
Y56.257F1000
Y56.402Z0
Y98.402
G0Z10
X40Y-98.398
G1Z0F500
Y-55.597F1000
Y-55.453Z-5F500
Y55.457F1000
Y55.602Z0
Y98.402
G0Z10
X41Y-98.398
G1Z0F500
Y-54.997F1000
Y-54.853Z-5F500
Y54.857F1000
Y55.002Z0
Y98.402
G0Z10
X42Y-98.398
G1Z0F500
Y-54.197F1000
Y-54.053Z-5F500
Y54.057F1000
Y54.202Z0
Y98.402
G0Z10
X43Y-98.398
G1Z0F500
Y-53.397F1000
Y-53.253Z-5F500
Y53.257F1000
Y53.402Z0
Y98.402
G0Z10
X44Y-98.398
G1Z0F500
Y-52.597F1000
Y-52.453Z-5F500
Y52.457F1000
Y52.602Z0
Y98.402
G0Z10
X45Y-98.398
G1Z0F500
Y-51.797F1000
Y-51.653Z-5F500
Y51.657F1000
Y51.802Z0
Y98.402
G0Z10
X46Y-98.398
G1Z0F500
Y-50.797F1000
Y-50.653Z-5F500
Y50.657F1000
Y50.802Z0
Y98.402
G0Z10
X47Y-98.398
G1Z0F500
Y-49.997F1000
Y-49.853Z-5F500
Y49.857F1000
Y50.002Z0
Y98.402
G0Z10
X48Y-98.398
G1Z0F500
Y-48.997F1000
Y-48.853Z-5F500
Y48.857F1000
Y49.002Z0
Y98.402
G0Z10
X49Y-98.398
G1Z0F500
Y-47.997F1000
Y-47.853Z-5F500
Y47.857F1000
Y48.002Z0
Y98.402
G0Z10
X50Y-98.398
G1Z0F500
Y-46.997F1000
Y-46.797
Y-46.653Z-5F500
Y46.657F1000
Y46.802Z0
Y98.402
G0Z10
X51Y-98.398
G1Z0F500
Y-45.797F1000
Y-45.653Z-5F500
Y45.657F1000
Y45.802Z0
Y98.402
G0Z10
X52Y-98.398
G1Z0F500
Y-44.597F1000
Y-44.453Z-5F500
Y44.457F1000
Y44.602Z0
Y98.402
G0Z10
X53Y-98.398
G1Z0F500
Y-43.397F1000
Y-43.253Z-5F500
Y43.257F1000
Y43.402Z0
Y98.402
G0Z10
X54Y-98.398
G1Z0F500
Y-42.197F1000
Y-42.053Z-5F500
Y42.057F1000
Y42.202Z0
Y98.402
G0Z10
X55Y-98.398
G1Z0F500
Y-40.997F1000
Y-40.853Z-5F500
Y40.857F1000
Y41.002Z0
Y98.402
G0Z10
X56Y-98.398
G1Z0F500
Y-39.597F1000
Y-39.453Z-5F500
Y39.457F1000
Y39.602Z0
Y98.402
G0Z10
X57Y-98.398
G1Z0F500
Y-37.997F1000
Y-37.853Z-5F500
Y37.857F1000
Y38.002Z0
Y98.402
G0Z10
X58Y-98.398
G1Z0F500
Y-36.597F1000
Y-36.453Z-5F500
Y36.457F1000
Y36.602Z0
Y98.402
G0Z10
X59Y-98.398
G1Z0F500
Y-34.797F1000
Y-34.653Z-5F500
Y34.657F1000
Y34.802Z0
Y98.402
G0Z10
X60Y-98.398
G1Z0F500
Y-33.197F1000
Y-33.053Z-5F500
Y33.057F1000
Y33.202Z0
Y98.402
G0Z10
X61Y-98.398
G1Z0F500
Y-31.197F1000
Y-31.053Z-5F500
Y31.057F1000
Y31.202Z0
Y98.402
G0Z10
X62Y-98.398
G1Z0F500
Y-29.197F1000
Y-29.053Z-5F500
Y29.057F1000
Y29.202Z0
Y98.402
G0Z10
X63Y-98.398
G1Z0F500
Y-26.997F1000
Y-26.853Z-5F500
Y26.857F1000
Y27.002Z0
Y98.402
G0Z10
X64Y-98.398
G1Z0F500
Y-24.397F1000
Y-24.253Z-5F500
Y24.257F1000
Y24.402Z0
Y98.402
G0Z10
X65Y-98.398
G1Z0F500
Y-21.597F1000
Y-21.453Z-5F500
Y21.457F1000
Y21.602Z0
Y98.402
G0Z10
X66Y-98.398
G1Z0F500
Y-18.397F1000
Y-18.253Z-5F500
Y18.257F1000
Y18.402Z0
Y98.402
G0Z10
X67Y-98.398
G1Z0F500
Y-14.197F1000
Y-14.053Z-5F500
Y14.057F1000
Y14.202Z0
Y98.402
G0Z10
X68Y-98.398
G1Z0F500
Y-8.197F1000
Y-8.053Z-5F500
Y8.057F1000
Y8.202Z0
Y98.402
G0Z10
X69Y-98.398
G1Z0F500
Y98.402F1000
G0Z10
X70Y-98.398
G1Z0F500
Y98.402F1000
G0Z10
X71Y-98.398
G1Z0F500
Y98.402F1000
G0Z10
X72Y-98.398
G1Z0F500
Y98.402F1000
G0Z10
X73Y-98.398
G1Z0F500
Y98.402F1000
G0Z10
X74Y-98.398
G1Z0F500
Y98.402F1000
G0Z10
X75Y-98.398
G1Z0F500
Y98.402F1000
G0Z10
X76Y-98.398
G1Z0F500
Y98.402F1000
G0Z10
X77Y-98.398
G1Z0F500
Y98.402F1000
G0Z10
X78Y-98.398
G1Z0F500
Y98.402F1000
G0Z10
X79Y-98.398
G1Z0F500
Y98.402F1000
G0Z10
X80Y-98.398
G1Z0F500
Y98.402F1000
G0Z10
X81Y-98.398
G1Z0F500
Y98.402F1000
G0Z10
X82Y-98.398
G1Z0F500
Y98.402F1000
G0Z10
X83Y-98.398
G1Z0F500
Y98.402F1000
G0Z10
X84Y-98.398
G1Z0F500
Y98.402F1000
G0Z10
X85Y-98.398
G1Z0F500
Y98.402F1000
G0Z10
X86Y-98.398
G1Z0F500
Y98.402F1000
G0Z10
X87Y-98.398
G1Z0F500
Y98.402F1000
G0Z10
X88Y-98.398
G1Z0F500
Y98.402F1000
G0Z10
X89Y-98.398
G1Z0F500
Y98.402F1000
G0Z10
X90Y-98.398
G1Z0F500
Y98.402F1000
G0Z10
X91Y-98.398
G1Z0F500
Y98.402F1000
G0Z10
X92Y-98.398
G1Z0F500
Y98.402F1000
G0Z10
X93Y-98.398
G1Z0F500
Y98.402F1000
G0Z10
X94Y-98.398
G1Z0F500
Y98.402F1000
G0Z10
X95Y-98.398
G1Z0F500
Y98.402F1000
G0Z10
X96Y-98.398
G1Z0F500
Y98.402F1000
G0Z10
X97Y-98.398
G1Z0F500
Y98.402F1000
G0Z10
X98Y-98.398
G1Z0F500
Y98.402F1000
G0Z10
X-98.398Y-97.999
G1Z0F500
X98.402F1000
G0Z10
X-68Y-8.053
G1Z-5F500
Y-7.997Z-6.912
Y8.002F1000
Y8.057Z-5
G0Z10
X-67Y-14.053
G1Z-5F500
Y-13.997Z-6.912
Y14.002F1000
Y14.057Z-5
G0Z10
X-66Y-18.253
G1Z-5F500
Y-18.197Z-6.912
Y18.202F1000
Y18.257Z-5
G0Z10
X-65Y-21.453
G1Z-5F500
Y-21.397Z-6.912
Y21.402F1000
Y21.457Z-5
G0Z10
X-64Y-24.253
G1Z-5F500
Y-24.197Z-6.912
Y24.202F1000
Y24.257Z-5
G0Z10
X-63Y-26.853
G1Z-5F500
Y-26.797Z-6.912
Y26.802F1000
Y26.857Z-5
G0Z10
X-62Y-29.053
G1Z-5F500
Y-28.997Z-6.912
Y29.002F1000
Y29.057Z-5
G0Z10
X-61Y-31.053
G1Z-5F500
Y-30.997Z-6.912
Y31.002F1000
Y31.057Z-5
G0Z10
X-60Y-33.053
G1Z-5F500
Y-32.997Z-6.912
Y33.002F1000
Y33.057Z-5
G0Z10
X-8.053Y68
G1Z-5F500
X-7.997Z-6.912
X8.002F1000
X8.057Z-5
G0Z10
X-14.053Y67
G1Z-5F500
X-13.997Z-6.912
X14.002F1000
X14.057Z-5
G0Z10
X-18.253Y66
G1Z-5F500
X-18.197Z-6.912
X18.202F1000
X18.257Z-5
G0Z10
X-21.453Y65
G1Z-5F500
X-21.397Z-6.912
X21.402F1000
X21.457Z-5
G0Z10
X-24.253Y64
G1Z-5F500
X-24.197Z-6.912
X24.202F1000
X24.257Z-5
G0Z10
X-26.853Y63
G1Z-5F500
X-26.797Z-6.912
X26.802F1000
X26.857Z-5
G0Z10
X-29.053Y62
G1Z-5F500
X-28.997Z-6.912
X29.002F1000
X29.057Z-5
G0Z10
X-31.053Y61
G1Z-5F500
X-30.997Z-6.912
X31.002F1000
X31.057Z-5
G0Z10
X-33.053Y60
G1Z-5F500
X-32.997Z-6.912
X33.002F1000
X33.057Z-5
G0Z10
X-34.653Y59
G1Z-5F500
X-34.597Z-6.912
X34.602F1000
X34.657Z-5
G0Z10
X-36.453Y58
G1Z-5F500
X-36.397Z-6.912
X36.402F1000
X36.457Z-5
G0Z10
X-37.853Y57
G1Z-5F500
X-37.797Z-6.912
X37.802F1000
X37.857Z-5
G0Z10
X-39.453Y56
G1Z-5F500
X-39.397Z-6.912
X39.402F1000
X39.457Z-5
G0Z10
X-40.853Y55
G1Z-5F500
X-40.797Z-6.912
X40.802F1000
X40.857Z-5
G0Z10
X-42.053Y54
G1Z-5F500
X-41.997Z-6.912
X42.002F1000
X42.057Z-5
G0Z10
X-43.253Y53
G1Z-5F500
X-43.197Z-6.912
X43.202F1000
X43.257Z-5
G0Z10
X-44.453Y52
G1Z-5F500
X-44.397Z-6.912
X44.402F1000
X44.457Z-5
G0Z10
X-45.653Y51
G1Z-5F500
X-45.597Z-6.912
X45.602F1000
X45.657Z-5
G0Z10
X-46.653Y50
G1Z-5F500
X-46.597Z-6.912
X46.602F1000
X46.657Z-5
G0Z10
X-47.853Y49
G1Z-5F500
X-47.797Z-6.912
X47.802F1000
X47.857Z-5
G0Z10
X-48.853Y48
G1Z-5F500
X-48.797Z-6.912
X48.802F1000
X48.857Z-5
G0Z10
X-49.853Y47
G1Z-5F500
X-49.797Z-6.912
X49.802F1000
X49.857Z-5
G0Z10
X-50.653Y46
G1Z-5F500
X-50.597Z-6.912
X50.602F1000
X50.657Z-5
G0Z10
X-51.653Y45
G1Z-5F500
X-51.597Z-6.912
X51.602F1000
X51.657Z-5
G0Z10
X-52.453Y44
G1Z-5F500
X-52.397Z-6.912
X52.402F1000
X52.457Z-5
G0Z10
X-53.253Y43
G1Z-5F500
X-53.197Z-6.912
X53.202F1000
X53.257Z-5
G0Z10
X-54.053Y42
G1Z-5F500
X-53.997Z-6.912
X54.002F1000
X54.057Z-5
G0Z10
X-54.853Y41
G1Z-5F500
X-54.797Z-6.912
X54.802F1000
X54.857Z-5
G0Z10
X-55.453Y40
G1Z-5F500
X-55.397Z-6.912
X55.402F1000
X55.457Z-5
G0Z10
X-56.253Y39
G1Z-5F500
X-56.197Z-6.912
X56.202F1000
X56.257Z-5
G0Z10
X-56.853Y38
G1Z-5F500
X-56.797Z-6.912
X56.802F1000
X56.857Z-5
G0Z10
X-57.653Y37
G1Z-5F500
X-57.597Z-6.912
X57.602F1000
X57.657Z-5
G0Z10
X-58.253Y36
G1Z-5F500
X-58.197Z-6.912
X58.202F1000
X58.257Z-5
G0Z10
X-58.853Y35
G1Z-5F500
X-58.797Z-6.912
X58.802F1000
X58.857Z-5
G0Z10
X-59.452Y34
G1Z-5F500
X-59.397Z-6.912
X59.402F1000
X59.457Z-5
G0Z10
X-60.052Y33
G1Z-5F500
X-59.997Z-6.912
X60.002F1000
X60.057Z-5
G0Z10
X-60.452Y32
G1Z-5F500
X-60.397Z-6.912
X60.402F1000
X60.457Z-5
G0Z10
X-61.052Y31
G1Z-5F500
X-60.997Z-6.912
X61.002F1000
X61.057Z-5
G0Z10
X-61.452Y30
G1Z-5F500
X-61.397Z-6.912
X61.402F1000
X61.457Z-5
G0Z10
X-62.052Y29
G1Z-5F500
X-61.997Z-6.912
X62.002F1000
X62.057Z-5
G0Z10
X-62.452Y28
G1Z-5F500
X-62.397Z-6.912
X62.402F1000
X62.457Z-5
G0Z10
X-62.853Y27
G1Z-5F500
X-62.797Z-6.912
X62.802F1000
X62.857Z-5
G0Z10
X-63.253Y26
G1Z-5F500
X-63.197Z-6.912
X63.202F1000
X63.257Z-5
G0Z10
X-63.653Y25
G1Z-5F500
X-63.597Z-6.912
X63.602F1000
X63.657Z-5
G0Z10
X-64.053Y24
G1Z-5F500
X-63.997Z-6.912
X64.002F1000
X64.057Z-5
G0Z10
X-64.453Y23
G1Z-5F500
X-64.397Z-6.912
X64.402F1000
X64.457Z-5
G0Z10
X-64.853Y22
G1Z-5F500
X-64.797Z-6.912
X64.802F1000
X64.857Z-5
G0Z10
X-65.053Y21
G1Z-5F500
X-64.997Z-6.912
X65.002F1000
X65.057Z-5
G0Z10
X-65.453Y20
G1Z-5F500
X-65.397Z-6.912
X65.402F1000
X65.457Z-5
G0Z10
X-65.653Y19
G1Z-5F500
X-65.597Z-6.912
X65.602F1000
X65.657Z-5
G0Z10
X-66.053Y18
G1Z-5F500
X-65.997Z-6.912
X66.002F1000
X66.057Z-5
G0Z10
X-66.253Y17
G1Z-5F500
X-66.197Z-6.912
X66.202F1000
X66.257Z-5
G0Z10
X-66.453Y16
G1Z-5F500
X-66.397Z-6.912
X66.402F1000
X66.457Z-5
G0Z10
X-66.853Y15
G1Z-5F500
X-66.797Z-6.912
X66.802F1000
X66.857Z-5
G0Z10
X-67.053Y14
G1Z-5F500
X-66.997Z-6.912
X67.002F1000
X67.057Z-5
G0Z10
X-67.253Y13
G1Z-5F500
X-67.197Z-6.912
X67.202F1000
X67.257Z-5
G0Z10
X-67.453Y12
G1Z-5F500
X-67.397Z-6.912
X67.402F1000
X67.457Z-5
G0Z10
X-59Y-34.653
G1Z-5F500
Y-34.597Z-6.912
Y34.602F1000
Y34.657Z-5
G0Z10
X-67.453Y11
G1Z-5F500
X-67.397Z-6.912
X67.402F1000
X67.457Z-5
G0Z10
X-58Y-36.453
G1Z-5F500
Y-36.397Z-6.912
Y36.402F1000
Y36.457Z-5
G0Z10
X-67.653Y10
G1Z-5F500
X-67.597Z-6.912
X67.602F1000
X67.657Z-5
G0Z10
X-57Y-37.853
G1Z-5F500
Y-37.797Z-6.912
Y37.802F1000
Y37.857Z-5
G0Z10
X-67.853Y9
G1Z-5F500
X-67.797Z-6.912
X67.802F1000
X67.857Z-5
G0Z10
X-56Y-39.453
G1Z-5F500
Y-39.397Z-6.912
Y39.402F1000
Y39.457Z-5
G0Z10
X-68.053Y8
G1Z-5F500
X-67.997Z-6.912
X68.002F1000
X68.057Z-5
G0Z10
X-55Y-40.853
G1Z-5F500
Y-40.797Z-6.912
Y40.802F1000
Y40.857Z-5
G0Z10
X-68.053Y7
G1Z-5F500
X-67.997Z-6.912
X68.002F1000
X68.057Z-5
G0Z10
X-54Y-42.053
G1Z-5F500
Y-41.997Z-6.912
Y42.002F1000
Y42.057Z-5
G0Z10
X-68.253Y6
G1Z-5F500
X-68.197Z-6.912
X68.202F1000
X68.257Z-5
G0Z10
X-53Y-43.253
G1Z-5F500
Y-43.197Z-6.912
Y43.202F1000
Y43.257Z-5
G0Z10
X-68.253Y5
G1Z-5F500
X-68.197Z-6.912
X68.202F1000
X68.257Z-5
G0Z10
X-52Y-44.453
G1Z-5F500
Y-44.397Z-6.912
Y44.402F1000
Y44.457Z-5
G0Z10
X-68.253Y4
G1Z-5F500
X-68.197Z-6.912
X68.202F1000
X68.257Z-5
G0Z10
X-51Y-45.653
G1Z-5F500
Y-45.597Z-6.912
Y45.602F1000
Y45.657Z-5
G0Z10
X-68.453Y3
G1Z-5F500
X-68.397Z-6.912
X68.402F1000
X68.457Z-5
G0Z10
X-50Y-46.653
G1Z-5F500
Y-46.597Z-6.912
Y46.602F1000
Y46.657Z-5
G0Z10
X-68.453Y2
G1Z-5F500
X-68.397Z-6.912
X68.402F1000
X68.457Z-5
G0Z10
X-49Y-47.853
G1Z-5F500
Y-47.797Z-6.912
Y47.802F1000
Y47.857Z-5
G0Z10
X-68.453Y1
G1Z-5F500
X-68.397Z-6.912
X68.402F1000
X68.457Z-5
G0Z10
X-48Y-48.853
G1Z-5F500
Y-48.797Z-6.912
Y48.802F1000
Y48.857Z-5
G0Z10
X-68.453Y0
G1Z-5F500
X-68.397Z-6.912
X68.402F1000
X68.457Z-5
G0Z10
X-47Y-49.853
G1Z-5F500
Y-49.797Z-6.912
Y49.802F1000
Y49.857Z-5
G0Z10
X-68.453Y-0.999
G1Z-5F500
X-68.397Z-6.912
X68.402F1000
X68.457Z-5
G0Z10
X-46Y-50.653
G1Z-5F500
Y-50.597Z-6.912
Y50.602F1000
Y50.657Z-5
G0Z10
X-68.453Y-1.999
G1Z-5F500
X-68.397Z-6.912
X68.402F1000
X68.457Z-5
G0Z10
X-45Y-51.653
G1Z-5F500
Y-51.597Z-6.912
Y51.602F1000
Y51.657Z-5
G0Z10
X-68.453Y-2.999
G1Z-5F500
X-68.397Z-6.912
X68.402F1000
X68.457Z-5
G0Z10
X-44Y-52.453
G1Z-5F500
Y-52.397Z-6.912
Y52.402F1000
Y52.457Z-5
G0Z10
X-68.253Y-3.999
G1Z-5F500
X-68.197Z-6.912
X68.202F1000
X68.257Z-5
G0Z10
X-43Y-53.253
G1Z-5F500
Y-53.197Z-6.912
Y53.202F1000
Y53.257Z-5
G0Z10
X-68.253Y-4.999
G1Z-5F500
X-68.197Z-6.912
X68.202F1000
X68.257Z-5
G0Z10
X-42Y-54.053
G1Z-5F500
Y-53.997Z-6.912
Y54.002F1000
Y54.057Z-5
G0Z10
X-68.253Y-5.999
G1Z-5F500
X-68.197Z-6.912
X68.202F1000
X68.257Z-5
G0Z10
X-41Y-54.853
G1Z-5F500
Y-54.797Z-6.912
Y54.802F1000
Y54.857Z-5
G0Z10
X-68.053Y-6.999
G1Z-5F500
X-67.997Z-6.912
X68.002F1000
X68.057Z-5
G0Z10
X-40Y-55.453
G1Z-5F500
Y-55.397Z-6.912
Y55.402F1000
Y55.457Z-5
G0Z10
X-68.053Y-7.999
G1Z-5F500
X-67.997Z-6.912
X68.002F1000
X68.057Z-5
G0Z10
X-39Y-56.253
G1Z-5F500
Y-56.197Z-6.912
Y56.202F1000
Y56.257Z-5
G0Z10
X-67.853Y-8.999
G1Z-5F500
X-67.797Z-6.912
X67.802F1000
X67.857Z-5
G0Z10
X-38Y-56.853
G1Z-5F500
Y-56.797Z-6.912
Y56.802F1000
Y56.857Z-5
G0Z10
X-67.653Y-9.999
G1Z-5F500
X-67.597Z-6.912
X67.602F1000
X67.657Z-5
G0Z10
X-37Y-57.653
G1Z-5F500
Y-57.597Z-6.912
Y57.602F1000
Y57.657Z-5
G0Z10
X-67.453Y-10.999
G1Z-5F500
X-67.397Z-6.912
X67.402F1000
X67.457Z-5
G0Z10
X-36Y-58.253
G1Z-5F500
Y-58.197Z-6.912
Y58.202F1000
Y58.257Z-5
G0Z10
X-67.453Y-11.999
G1Z-5F500
X-67.397Z-6.912
X67.402F1000
X67.457Z-5
G0Z10
X-35Y-58.853
G1Z-5F500
Y-58.797Z-6.912
Y58.802F1000
Y58.857Z-5
G0Z10
X-67.253Y-12.999
G1Z-5F500
X-67.197Z-6.912
X67.202F1000
X67.257Z-5
G0Z10
X-34Y-59.452
G1Z-5F500
Y-59.397Z-6.912
Y59.402F1000
Y59.457Z-5
G0Z10
X-67.053Y-13.999
G1Z-5F500
X-66.997Z-6.912
X67.002F1000
X67.057Z-5
G0Z10
X-33Y-60.052
G1Z-5F500
Y-59.997Z-6.912
Y60.002F1000
Y60.057Z-5
G0Z10
X-66.853Y-14.999
G1Z-5F500
X-66.797Z-6.912
X66.802F1000
X66.857Z-5
G0Z10
X-32Y-60.452
G1Z-5F500
Y-60.397Z-6.912
Y60.402F1000
Y60.457Z-5
G0Z10
X-66.453Y-15.999
G1Z-5F500
X-66.397Z-6.912
X66.402F1000
X66.457Z-5
G0Z10
X-31Y-61.052
G1Z-5F500
Y-60.997Z-6.912
Y61.002F1000
Y61.057Z-5
G0Z10
X-66.253Y-16.999
G1Z-5F500
X-66.197Z-6.912
X66.202F1000
X66.257Z-5
G0Z10
X-30Y-61.452
G1Z-5F500
Y-61.397Z-6.912
Y61.402F1000
Y61.457Z-5
G0Z10
X-66.053Y-17.999
G1Z-5F500
X-65.997Z-6.912
X66.002F1000
X66.057Z-5
G0Z10
X-29Y-62.052
G1Z-5F500
Y-61.997Z-6.912
Y62.002F1000
Y62.057Z-5
G0Z10
X-65.653Y-18.999
G1Z-5F500
X-65.597Z-6.912
X65.602F1000
X65.657Z-5
G0Z10
X-28Y-62.452
G1Z-5F500
Y-62.397Z-6.912
Y62.402F1000
Y62.457Z-5
G0Z10
X-65.453Y-19.999
G1Z-5F500
X-65.397Z-6.912
X65.402F1000
X65.457Z-5
G0Z10
X-27Y-62.853
G1Z-5F500
Y-62.797Z-6.912
Y62.802F1000
Y62.857Z-5
G0Z10
X-65.053Y-20.999
G1Z-5F500
X-64.997Z-6.912
X65.002F1000
X65.057Z-5
G0Z10
X-26Y-63.253
G1Z-5F500
Y-63.197Z-6.912
Y63.202F1000
Y63.257Z-5
G0Z10
X-64.853Y-21.999
G1Z-5F500
X-64.797Z-6.912
X64.802F1000
X64.857Z-5
G0Z10
X-25Y-63.653
G1Z-5F500
Y-63.597Z-6.912
Y63.602F1000
Y63.657Z-5
G0Z10
X-64.453Y-22.999
G1Z-5F500
X-64.397Z-6.912
X64.402F1000
X64.457Z-5
G0Z10
X-24Y-64.053
G1Z-5F500
Y-63.997Z-6.912
Y64.002F1000
Y64.057Z-5
G0Z10
X-64.053Y-23.999
G1Z-5F500
X-63.997Z-6.912
X64.002F1000
X64.057Z-5
G0Z10
X-23Y-64.453
G1Z-5F500
Y-64.397Z-6.912
Y64.402F1000
Y64.457Z-5
G0Z10
X-63.653Y-24.999
G1Z-5F500
X-63.597Z-6.912
X63.602F1000
X63.657Z-5
G0Z10
X-22Y-64.853
G1Z-5F500
Y-64.797Z-6.912
Y64.802F1000
Y64.857Z-5
G0Z10
X-63.253Y-25.999
G1Z-5F500
X-63.197Z-6.912
X63.202F1000
X63.257Z-5
G0Z10
X-21Y-65.053
G1Z-5F500
Y-64.997Z-6.912
Y65.002F1000
Y65.057Z-5
G0Z10
X-62.853Y-26.999
G1Z-5F500
X-62.797Z-6.912
X62.802F1000
X62.857Z-5
G0Z10
X-20Y-65.453
G1Z-5F500
Y-65.397Z-6.912
Y65.402F1000
Y65.457Z-5
G0Z10
X-62.452Y-27.999
G1Z-5F500
X-62.397Z-6.912
X62.402F1000
X62.457Z-5
G0Z10
X-19Y-65.653
G1Z-5F500
Y-65.597Z-6.912
Y65.602F1000
Y65.657Z-5
G0Z10
X-62.052Y-28.999
G1Z-5F500
X-61.997Z-6.912
X62.002F1000
X62.057Z-5
G0Z10
X-18Y-66.053
G1Z-5F500
Y-65.997Z-6.912
Y66.002F1000
Y66.057Z-5
G0Z10
X-61.452Y-29.999
G1Z-5F500
X-61.397Z-6.912
X61.402F1000
X61.457Z-5
G0Z10
X-17Y-66.253
G1Z-5F500
Y-66.197Z-6.912
Y66.202F1000
Y66.257Z-5
G0Z10
X-61.052Y-30.999
G1Z-5F500
X-60.997Z-6.912
X61.002F1000
X61.057Z-5
G0Z10
X-16Y-66.453
G1Z-5F500
Y-66.397Z-6.912
Y66.402F1000
Y66.457Z-5
G0Z10
X-60.452Y-31.999
G1Z-5F500
X-60.397Z-6.912
X60.402F1000
X60.457Z-5
G0Z10
X-15Y-66.853
G1Z-5F500
Y-66.797Z-6.912
Y66.802F1000
Y66.857Z-5
G0Z10
X-60.052Y-32.999
G1Z-5F500
X-59.997Z-6.912
X60.002F1000
X60.057Z-5
G0Z10
X-14Y-67.053
G1Z-5F500
Y-66.997Z-6.912
Y67.002F1000
Y67.057Z-5
G0Z10
X-59.452Y-33.999
G1Z-5F500
X-59.397Z-6.912
X59.402F1000
X59.457Z-5
G0Z10
X-13Y-67.253
G1Z-5F500
Y-67.197Z-6.912
Y67.202F1000
Y67.257Z-5
G0Z10
X-58.853Y-34.999
G1Z-5F500
X-58.797Z-6.912
X58.802F1000
X58.857Z-5
G0Z10
X-12Y-67.453
G1Z-5F500
Y-67.397Z-6.912
Y67.402F1000
Y67.457Z-5
G0Z10
X-58.253Y-35.999
G1Z-5F500
X-58.197Z-6.912
X58.202F1000
X58.257Z-5
G0Z10
X-11Y-67.453
G1Z-5F500
Y-67.397Z-6.912
Y67.402F1000
Y67.457Z-5
G0Z10
X-57.653Y-36.999
G1Z-5F500
X-57.597Z-6.912
X57.602F1000
X57.657Z-5
G0Z10
X-10Y-67.653
G1Z-5F500
Y-67.597Z-6.912
Y67.602F1000
Y67.657Z-5
G0Z10
X-56.853Y-37.999
G1Z-5F500
X-56.797Z-6.912
X56.802F1000
X56.857Z-5
G0Z10
X-9Y-67.853
G1Z-5F500
Y-67.797Z-6.912
Y67.802F1000
Y67.857Z-5
G0Z10
X-56.253Y-38.999
G1Z-5F500
X-56.197Z-6.912
X56.202F1000
X56.257Z-5
G0Z10
X-8Y-68.053
G1Z-5F500
Y-67.997Z-6.912
Y68.002F1000
Y68.057Z-5
G0Z10
X-55.453Y-39.999
G1Z-5F500
X-55.397Z-6.912
X55.402F1000
X55.457Z-5
G0Z10
X-7Y-68.053
G1Z-5F500
Y-67.997Z-6.912
Y68.002F1000
Y68.057Z-5
G0Z10
X-54.853Y-40.999
G1Z-5F500
X-54.797Z-6.912
X54.802F1000
X54.857Z-5
G0Z10
X-6Y-68.253
G1Z-5F500
Y-68.197Z-6.912
Y68.202F1000
Y68.257Z-5
G0Z10
X-54.053Y-41.999
G1Z-5F500
X-53.997Z-6.912
X54.002F1000
X54.057Z-5
G0Z10
X-5Y-68.253
G1Z-5F500
Y-68.197Z-6.912
Y68.202F1000
Y68.257Z-5
G0Z10
X-53.253Y-42.999
G1Z-5F500
X-53.197Z-6.912
X53.202F1000
X53.257Z-5
G0Z10
X-4Y-68.253
G1Z-5F500
Y-68.197Z-6.912
Y68.202F1000
Y68.257Z-5
G0Z10
X-52.453Y-43.999
G1Z-5F500
X-52.397Z-6.912
X52.402F1000
X52.457Z-5
G0Z10
X-3Y-68.453
G1Z-5F500
Y-68.397Z-6.912
Y68.402F1000
Y68.457Z-5
G0Z10
X-51.653Y-44.999
G1Z-5F500
X-51.597Z-6.912
X51.602F1000
X51.657Z-5
G0Z10
X-2Y-68.453
G1Z-5F500
Y-68.397Z-6.912
Y68.402F1000
Y68.457Z-5
G0Z10
X-50.653Y-45.999
G1Z-5F500
X-50.597Z-6.912
X50.602F1000
X50.657Z-5
G0Z10
X-1Y-68.453
G1Z-5F500
Y-68.397Z-6.912
Y68.402F1000
Y68.457Z-5
G0Z10
X-49.853Y-46.999
G1Z-5F500
X-49.797Z-6.912
X49.802F1000
X49.857Z-5
G0Z10
X0Y-68.453
G1Z-5F500
Y-68.397Z-6.912
Y68.402F1000
Y68.457Z-5
G0Z10
X-48.853Y-47.999
G1Z-5F500
X-48.797Z-6.912
X48.802F1000
X48.857Z-5
G0Z10
X1Y-68.453
G1Z-5F500
Y-68.397Z-6.912
Y68.402F1000
Y68.457Z-5
G0Z10
X-47.853Y-48.999
G1Z-5F500
X-47.797Z-6.912
X47.802F1000
X47.857Z-5
G0Z10
X2Y-68.453
G1Z-5F500
Y-68.397Z-6.912
Y68.402F1000
Y68.457Z-5
G0Z10
X-46.653Y-49.999
G1Z-5F500
X-46.597Z-6.912
X46.602F1000
X46.657Z-5
G0Z10
X3Y-68.453
G1Z-5F500
Y-68.397Z-6.912
Y68.402F1000
Y68.457Z-5
G0Z10
X-45.653Y-50.999
G1Z-5F500
X-45.597Z-6.912
X45.602F1000
X45.657Z-5
G0Z10
X4Y-68.253
G1Z-5F500
Y-68.197Z-6.912
Y68.202F1000
Y68.257Z-5
G0Z10
X-44.453Y-51.999
G1Z-5F500
X-44.397Z-6.912
X44.402F1000
X44.457Z-5
G0Z10
X5Y-68.253
G1Z-5F500
Y-68.197Z-6.912
Y68.202F1000
Y68.257Z-5
G0Z10
X-43.253Y-52.999
G1Z-5F500
X-43.197Z-6.912
X43.202F1000
X43.257Z-5
G0Z10
X6Y-68.253
G1Z-5F500
Y-68.197Z-6.912
Y68.202F1000
Y68.257Z-5
G0Z10
X-42.053Y-53.999
G1Z-5F500
X-41.997Z-6.912
X42.002F1000
X42.057Z-5
G0Z10
X7Y-68.053
G1Z-5F500
Y-67.997Z-6.912
Y68.002F1000
Y68.057Z-5
G0Z10
X-40.853Y-54.999
G1Z-5F500
X-40.797Z-6.912
X40.802F1000
X40.857Z-5
G0Z10
X8Y-68.053
G1Z-5F500
Y-67.997Z-6.912
Y68.002F1000
Y68.057Z-5
G0Z10
X-39.453Y-55.999
G1Z-5F500
X-39.397Z-6.912
X39.402F1000
X39.457Z-5
G0Z10
X9Y-67.853
G1Z-5F500
Y-67.797Z-6.912
Y67.802F1000
Y67.857Z-5
G0Z10
X-37.853Y-56.999
G1Z-5F500
X-37.797Z-6.912
X37.802F1000
X37.857Z-5
G0Z10
X10Y-67.653
G1Z-5F500
Y-67.597Z-6.912
Y67.602F1000
Y67.657Z-5
G0Z10
X-36.453Y-57.999
G1Z-5F500
X-36.397Z-6.912
X36.402F1000
X36.457Z-5
G0Z10
X11Y-67.453
G1Z-5F500
Y-67.397Z-6.912
Y67.402F1000
Y67.457Z-5
G0Z10
X-34.653Y-58.999
G1Z-5F500
X-34.597Z-6.912
X34.602F1000
X34.657Z-5
G0Z10
X12Y-67.453
G1Z-5F500
Y-67.397Z-6.912
Y67.402F1000
Y67.457Z-5
G0Z10
X13Y-67.253
G1Z-5F500
Y-67.197Z-6.912
Y67.202F1000
Y67.257Z-5
G0Z10
X14Y-67.053
G1Z-5F500
Y-66.997Z-6.912
Y67.002F1000
Y67.057Z-5
G0Z10
X15Y-66.853
G1Z-5F500
Y-66.797Z-6.912
Y66.802F1000
Y66.857Z-5
G0Z10
X16Y-66.453
G1Z-5F500
Y-66.397Z-6.912
Y66.402F1000
Y66.457Z-5
G0Z10
X17Y-66.253
G1Z-5F500
Y-66.197Z-6.912
Y66.202F1000
Y66.257Z-5
G0Z10
X18Y-66.053
G1Z-5F500
Y-65.997Z-6.912
Y66.002F1000
Y66.057Z-5
G0Z10
X19Y-65.653
G1Z-5F500
Y-65.597Z-6.912
Y65.602F1000
Y65.657Z-5
G0Z10
X20Y-65.453
G1Z-5F500
Y-65.397Z-6.912
Y65.402F1000
Y65.457Z-5
G0Z10
X21Y-65.053
G1Z-5F500
Y-64.997Z-6.912
Y65.002F1000
Y65.057Z-5
G0Z10
X22Y-64.853
G1Z-5F500
Y-64.797Z-6.912
Y64.802F1000
Y64.857Z-5
G0Z10
X23Y-64.453
G1Z-5F500
Y-64.397Z-6.912
Y64.402F1000
Y64.457Z-5
G0Z10
X24Y-64.053
G1Z-5F500
Y-63.997Z-6.912
Y64.002F1000
Y64.057Z-5
G0Z10
X25Y-63.653
G1Z-5F500
Y-63.597Z-6.912
Y63.602F1000
Y63.657Z-5
G0Z10
X26Y-63.253
G1Z-5F500
Y-63.197Z-6.912
Y63.202F1000
Y63.257Z-5
G0Z10
X27Y-62.853
G1Z-5F500
Y-62.797Z-6.912
Y62.802F1000
Y62.857Z-5
G0Z10
X28Y-62.452
G1Z-5F500
Y-62.397Z-6.912
Y62.402F1000
Y62.457Z-5
G0Z10
X29Y-62.052
G1Z-5F500
Y-61.997Z-6.912
Y62.002F1000
Y62.057Z-5
G0Z10
X30Y-61.452
G1Z-5F500
Y-61.397Z-6.912
Y61.402F1000
Y61.457Z-5
G0Z10
X31Y-61.052
G1Z-5F500
Y-60.997Z-6.912
Y61.002F1000
Y61.057Z-5
G0Z10
X32Y-60.452
G1Z-5F500
Y-60.397Z-6.912
Y60.402F1000
Y60.457Z-5
G0Z10
X33Y-60.052
G1Z-5F500
Y-59.997Z-6.912
Y60.002F1000
Y60.057Z-5
G0Z10
X34Y-59.452
G1Z-5F500
Y-59.397Z-6.912
Y59.402F1000
Y59.457Z-5
G0Z10
X35Y-58.853
G1Z-5F500
Y-58.797Z-6.912
Y58.802F1000
Y58.857Z-5
G0Z10
X36Y-58.253
G1Z-5F500
Y-58.197Z-6.912
Y58.202F1000
Y58.257Z-5
G0Z10
X37Y-57.653
G1Z-5F500
Y-57.597Z-6.912
Y57.602F1000
Y57.657Z-5
G0Z10
X38Y-56.853
G1Z-5F500
Y-56.797Z-6.912
Y56.802F1000
Y56.857Z-5
G0Z10
X39Y-56.253
G1Z-5F500
Y-56.197Z-6.912
Y56.202F1000
Y56.257Z-5
G0Z10
X40Y-55.453
G1Z-5F500
Y-55.397Z-6.912
Y55.402F1000
Y55.457Z-5
G0Z10
X41Y-54.853
G1Z-5F500
Y-54.797Z-6.912
Y54.802F1000
Y54.857Z-5
G0Z10
X42Y-54.053
G1Z-5F500
Y-53.997Z-6.912
Y54.002F1000
Y54.057Z-5
G0Z10
X43Y-53.253
G1Z-5F500
Y-53.197Z-6.912
Y53.202F1000
Y53.257Z-5
G0Z10
X44Y-52.453
G1Z-5F500
Y-52.397Z-6.912
Y52.402F1000
Y52.457Z-5
G0Z10
X45Y-51.653
G1Z-5F500
Y-51.597Z-6.912
Y51.602F1000
Y51.657Z-5
G0Z10
X46Y-50.653
G1Z-5F500
Y-50.597Z-6.912
Y50.602F1000
Y50.657Z-5
G0Z10
X47Y-49.853
G1Z-5F500
Y-49.797Z-6.912
Y49.802F1000
Y49.857Z-5
G0Z10
X48Y-48.853
G1Z-5F500
Y-48.797Z-6.912
Y48.802F1000
Y48.857Z-5
G0Z10
X49Y-47.853
G1Z-5F500
Y-47.797Z-6.912
Y47.802F1000
Y47.857Z-5
G0Z10
X50Y-46.653
G1Z-5F500
Y-46.597Z-6.912
Y46.602F1000
Y46.657Z-5
G0Z10
X51Y-45.653
G1Z-5F500
Y-45.597Z-6.912
Y45.602F1000
Y45.657Z-5
G0Z10
X52Y-44.453
G1Z-5F500
Y-44.397Z-6.912
Y44.402F1000
Y44.457Z-5
G0Z10
X53Y-43.253
G1Z-5F500
Y-43.197Z-6.912
Y43.202F1000
Y43.257Z-5
G0Z10
X54Y-42.053
G1Z-5F500
Y-41.997Z-6.912
Y42.002F1000
Y42.057Z-5
G0Z10
X55Y-40.853
G1Z-5F500
Y-40.797Z-6.912
Y40.802F1000
Y40.857Z-5
G0Z10
X56Y-39.453
G1Z-5F500
Y-39.397Z-6.912
Y39.402F1000
Y39.457Z-5
G0Z10
X57Y-37.853
G1Z-5F500
Y-37.797Z-6.912
Y37.802F1000
Y37.857Z-5
G0Z10
X58Y-36.453
G1Z-5F500
Y-36.397Z-6.912
Y36.402F1000
Y36.457Z-5
G0Z10
X59Y-34.653
G1Z-5F500
Y-34.597Z-6.912
Y34.602F1000
Y34.657Z-5
G0Z10
X60Y-33.053
G1Z-5F500
Y-32.997Z-6.912
Y33.002F1000
Y33.057Z-5
G0Z10
X61Y-31.053
G1Z-5F500
Y-30.997Z-6.912
Y31.002F1000
Y31.057Z-5
G0Z10
X62Y-29.053
G1Z-5F500
Y-28.997Z-6.912
Y29.002F1000
Y29.057Z-5
G0Z10
X63Y-26.853
G1Z-5F500
Y-26.797Z-6.912
Y26.802F1000
Y26.857Z-5
G0Z10
X64Y-24.253
G1Z-5F500
Y-24.197Z-6.912
Y24.202F1000
Y24.257Z-5
G0Z10
X65Y-21.453
G1Z-5F500
Y-21.397Z-6.912
Y21.402F1000
Y21.457Z-5
G0Z10
X66Y-18.253
G1Z-5F500
Y-18.197Z-6.912
Y18.202F1000
Y18.257Z-5
G0Z10
X67Y-14.053
G1Z-5F500
Y-13.997Z-6.912
Y14.002F1000
Y14.057Z-5
G0Z10
X68Y-8.053
G1Z-5F500
Y-7.997Z-6.912
Y8.002F1000
Y8.057Z-5
G0Z10
X-33.053Y-59.999
G1Z-5F500
X-32.997Z-6.912
X33.002F1000
X33.057Z-5
G0Z10
X-31.053Y-60.999
G1Z-5F500
X-30.997Z-6.912
X31.002F1000
X31.057Z-5
G0Z10
X-29.053Y-61.999
G1Z-5F500
X-28.997Z-6.912
X29.002F1000
X29.057Z-5
G0Z10
X-26.853Y-62.999
G1Z-5F500
X-26.797Z-6.912
X26.802F1000
X26.857Z-5
G0Z10
X-24.253Y-63.999
G1Z-5F500
X-24.197Z-6.912
X24.202F1000
X24.257Z-5
G0Z10
X-21.453Y-64.999
G1Z-5F500
X-21.397Z-6.912
X21.402F1000
X21.457Z-5
G0Z10
X-18.253Y-65.999
G1Z-5F500
X-18.197Z-6.912
X18.202F1000
X18.257Z-5
G0Z10
X-14.053Y-66.999
G1Z-5F500
X-13.997Z-6.912
X14.002F1000
X14.057Z-5
G0Z10
X-8.053Y-67.999
G1Z-5F500
X-7.997Z-6.912
X8.002F1000
X8.057Z-5
G0Z10
 
