(Created with grbl post processor 2024/01/24 11:51)
G21
(G-code generated with BlenderCAM and NC library)
G17G90
(Tool: D = 3.0 mm  type END flutes 2)
S12000M03
G00 Z10.0

G0X0Y0Z10
X-96Y-98
G1Z-5.1F500
Y98.499F1000
X-98Y96
X98.499
G0Z10
X-98Y93
G1Z-5.1F500
X98.499F1000
G0Z10
X-98Y90
G1Z-5.1F500
X98.499F1000
G0Z10
X-98Y87
G1Z-5.1F500
X98.499F1000
G0Z10
X-98Y84
G1Z-5.1F500
X98.499F1000
G0Z10
X-98Y81
G1Z-5.1F500
X98.499F1000
G0Z10
X-98Y78
G1Z-5.1F500
X98.499F1000
G0Z10
X-98Y75
G1Z-5.1F500
X98.499F1000
G0Z10
X-98Y72
G1Z-5.1F500
X98.499F1000
G0Z10
X-98Y69
G1Z-5.1F500
X98.499F1000
G0Z10
X-98Y66
G1Z-5.1F500
X98.499F1000
G0Z10
X-98Y63
G1Z-5.1F500
X98.499F1000
G0Z10
X-98Y60
G1Z-5.1F500
X98.499F1000
G0Z10
X-98Y57
G1Z-5.1F500
X98.499F1000
G0Z10
X-98Y54
G1Z-5.1F500
X98.499F1000
G0Z10
X-98Y51
G1Z-5.1F500
X98.499F1000
G0Z10
X-98Y48
G1Z-5.1F500
X98.499F1000
G0Z10
X-98Y45
G1Z-5.1F500
X98.499F1000
G0Z10
X-98Y42
G1Z-5.1F500
X98.499F1000
G0Z10
X-98Y39
G1Z-5.1F500
X98.499F1000
G0Z10
X-98Y36
G1Z-5.1F500
X98.499F1000
G0Z10
X-98Y33
G1Z-5.1F500
X98.499F1000
G0Z10
X-98Y30
G1Z-5.1F500
X98.499F1000
G0Z10
X-98Y27
G1Z-5.1F500
X98.499F1000
G0Z10
X-98Y24
G1Z-5.1F500
X98.499F1000
G0Z10
X-98Y21
G1Z-5.1F500
X98.499F1000
G0Z10
X-98Y18
G1Z-5.1F500
X98.499F1000
G0Z10
X-98Y15
G1Z-5.1F500
X98.499F1000
G0Z10
X-98Y12
G1Z-5.1F500
X98.499F1000
G0Z10
X-98Y9
G1Z-5.1F500
X98.499F1000
G0Z10
X-98Y6
G1Z-5.1F500
X98.499F1000
G0Z10
X-98Y3
G1Z-5.1F500
X98.499F1000
G0Z10
X-98Y0
G1Z-5.1F500
X98.499F1000
G0Z10
X-98Y-2.999
G1Z-5.1F500
X98.499F1000
G0Z10
X-98Y-5.999
G1Z-5.1F500
X98.499F1000
G0Z10
X-98Y-8.999
G1Z-5.1F500
X98.499F1000
G0Z10
X-98Y-11.999
G1Z-5.1F500
X98.499F1000
G0Z10
X-98Y-14.999
G1Z-5.1F500
X98.499F1000
G0Z10
X-98Y-17.999
G1Z-5.1F500
X98.499F1000
G0Z10
X-98Y-20.999
G1Z-5.1F500
X98.499F1000
G0Z10
X-98Y-23.999
G1Z-5.1F500
X98.499F1000
G0Z10
X-98Y-26.999
G1Z-5.1F500
X98.499F1000
G0Z10
X-98Y-29.999
G1Z-5.1F500
X98.499F1000
G0Z10
X-98Y-32.999
G1Z-5.1F500
X98.499F1000
G0Z10
X-98Y-35.999
G1Z-5.1F500
X98.499F1000
G0Z10
X-98Y-38.999
G1Z-5.1F500
X98.499F1000
G0Z10
X-98Y-41.999
G1Z-5.1F500
X98.499F1000
G0Z10
X-98Y-44.999
G1Z-5.1F500
X98.499F1000
G0Z10
X-98Y-47.999
G1Z-5.1F500
X98.499F1000
G0Z10
X-98Y-50.999
G1Z-5.1F500
X98.499F1000
G0Z10
X-98Y-53.999
G1Z-5.1F500
X98.499F1000
G0Z10
X-93Y-98
G1Z-5.1F500
Y98.499F1000
G0Z10
X-98Y-56.999
G1Z-5.1F500
X98.499F1000
G0Z10
X-90Y-98
G1Z-5.1F500
Y98.499F1000
G0Z10
X-98Y-59.999
G1Z-5.1F500
X98.499F1000
G0Z10
X-87Y-98
G1Z-5.1F500
Y98.499F1000
G0Z10
X-98Y-63
G1Z-5.1F500
X98.499F1000
G0Z10
X-84Y-98
G1Z-5.1F500
Y98.499F1000
G0Z10
X-98Y-66
G1Z-5.1F500
X98.499F1000
G0Z10
X-81Y-98
G1Z-5.1F500
Y98.499F1000
G0Z10
X-98Y-68.999
G1Z-5.1F500
X98.499F1000
G0Z10
X-78Y-98
G1Z-5.1F500
Y98.499F1000
G0Z10
X-98Y-71.999
G1Z-5.1F500
X98.499F1000
G0Z10
X-75Y-98
G1Z-5.1F500
Y98.499F1000
G0Z10
X-98Y-74.999
G1Z-5.1F500
X98.499F1000
G0Z10
X-72Y-98
G1Z-5.1F500
Y98.499F1000
G0Z10
X-98Y-78
G1Z-5.1F500
X98.499F1000
G0Z10
X-69Y-98
G1Z-5.1F500
Y98.499F1000
G0Z10
X-98Y-81
G1Z-5.1F500
X98.499F1000
G0Z10
X-66Y-98
G1Z-5.1F500
Y98.499F1000
G0Z10
X-98Y-83.999
G1Z-5.1F500
X98.499F1000
G0Z10
X-63Y-98
G1Z-5.1F500
Y98.499F1000
G0Z10
X-98Y-86.999
G1Z-5.1F500
X98.499F1000
G0Z10
X-60Y-98
G1Z-5.1F500
Y98.499F1000
G0Z10
X-98Y-90
G1Z-5.1F500
X98.499F1000
G0Z10
X-57Y-98
G1Z-5.1F500
Y98.499F1000
G0Z10
X-98Y-93
G1Z-5.1F500
X98.499F1000
G0Z10
X-54Y-98
G1Z-5.1F500
Y98.499F1000
G0Z10
X-51Y-98
G1Z-5.1F500
Y98.499F1000
G0Z10
X-48Y-98
G1Z-5.1F500
Y98.499F1000
G0Z10
X-45Y-98
G1Z-5.1F500
Y98.499F1000
G0Z10
X-42Y-98
G1Z-5.1F500
Y98.499F1000
G0Z10
X-39Y-98
G1Z-5.1F500
Y98.499F1000
G0Z10
X-36Y-98
G1Z-5.1F500
Y98.499F1000
G0Z10
X-33Y-98
G1Z-5.1F500
Y98.499F1000
G0Z10
X-30Y-98
G1Z-5.1F500
Y98.499F1000
G0Z10
X-27Y-98
G1Z-5.1F500
Y98.499F1000
G0Z10
X-24Y-98
G1Z-5.1F500
Y98.499F1000
G0Z10
X-21Y-98
G1Z-5.1F500
Y98.499F1000
G0Z10
X-18Y-98
G1Z-5.1F500
Y98.499F1000
G0Z10
X-15Y-98
G1Z-5.1F500
Y98.499F1000
G0Z10
X-12Y-98
G1Z-5.1F500
Y98.499F1000
G0Z10
X-9Y-98
G1Z-5.1F500
Y98.499F1000
G0Z10
X-6Y-98
G1Z-5.1F500
Y98.499F1000
G0Z10
X-3Y-98
G1Z-5.1F500
Y98.499F1000
G0Z10
X0Y-98
G1Z-5.1F500
Y98.499F1000
G0Z10
X3Y-98
G1Z-5.1F500
Y98.499F1000
G0Z10
X6Y-98
G1Z-5.1F500
Y98.499F1000
G0Z10
X9Y-98
G1Z-5.1F500
Y98.499F1000
G0Z10
X12Y-98
G1Z-5.1F500
Y98.499F1000
G0Z10
X15Y-98
G1Z-5.1F500
Y98.499F1000
G0Z10
X18Y-98
G1Z-5.1F500
Y98.499F1000
G0Z10
X21Y-98
G1Z-5.1F500
Y98.499F1000
G0Z10
X24Y-98
G1Z-5.1F500
Y98.499F1000
G0Z10
X27Y-98
G1Z-5.1F500
Y98.499F1000
G0Z10
X30Y-98
G1Z-5.1F500
Y98.499F1000
G0Z10
X33Y-98
G1Z-5.1F500
Y98.499F1000
G0Z10
X36Y-98
G1Z-5.1F500
Y98.499F1000
G0Z10
X39Y-98
G1Z-5.1F500
Y98.499F1000
G0Z10
X42Y-98
G1Z-5.1F500
Y98.499F1000
G0Z10
X45Y-98
G1Z-5.1F500
Y98.499F1000
G0Z10
X48Y-98
G1Z-5.1F500
Y98.499F1000
G0Z10
X51Y-98
G1Z-5.1F500
Y98.499F1000
G0Z10
X54Y-98
G1Z-5.1F500
Y98.499F1000
G0Z10
X57Y-98
G1Z-5.1F500
Y98.499F1000
G0Z10
X60Y-98
G1Z-5.1F500
Y98.499F1000
G0Z10
X63Y-98
G1Z-5.1F500
Y98.499F1000
G0Z10
X66Y-98
G1Z-5.1F500
Y98.499F1000
G0Z10
X69Y-98
G1Z-5.1F500
Y98.499F1000
G0Z10
X72Y-98
G1Z-5.1F500
Y98.499F1000
G0Z10
X75Y-98
G1Z-5.1F500
Y98.499F1000
G0Z10
X78Y-98
G1Z-5.1F500
Y98.499F1000
G0Z10
X81Y-98
G1Z-5.1F500
Y98.499F1000
G0Z10
X84Y-98
G1Z-5.1F500
Y98.499F1000
G0Z10
X87Y-98
G1Z-5.1F500
Y98.499F1000
G0Z10
X90Y-98
G1Z-5.1F500
Y98.499F1000
G0Z10
X93Y-98
G1Z-5.1F500
Y98.499F1000
G0Z10
X96Y-98
G1Z-5.1F500
Y98.499F1000
G0Z10
X-98Y-96
G1Z-5.1F500
X98.499F1000
G0Z10
X-96Y-98
G1Z-10F500
Y98.499F1000
X-98Y96
X98.499
G0Z10
X-98Y93
G1Z-10F500
X98.499F1000
G0Z10
X-98Y90
G1Z-10F500
X98.499F1000
G0Z10
X-98Y87
G1Z-10F500
X98.499F1000
G0Z10
X-98Y84
G1Z-10F500
X98.499F1000
G0Z10
X-98Y81
G1Z-10F500
X98.499F1000
G0Z10
X-98Y78
G1Z-10F500
X98.499F1000
G0Z10
X-98Y75
G1Z-10F500
X98.499F1000
G0Z10
X-98Y72
G1Z-10F500
X98.499F1000
G0Z10
X-98Y69
G1Z-10F500
X98.499F1000
G0Z10
X-98Y66
G1Z-10F500
X98.499F1000
G0Z10
X-98Y63
G1Z-10F500
X98.499F1000
G0Z10
X-98Y60
G1Z-10F500
X98.499F1000
G0Z10
X-98Y57
G1Z-10F500
X98.499F1000
G0Z10
X-98Y54
G1Z-10F500
X98.499F1000
G0Z10
X-98Y51
G1Z-10F500
X98.499F1000
G0Z10
X-98Y48
G1Z-10F500
X98.499F1000
G0Z10
X-98Y45
G1Z-10F500
X98.499F1000
G0Z10
X-98Y42
G1Z-10F500
X98.499F1000
G0Z10
X-98Y39
G1Z-10F500
X98.499F1000
G0Z10
X-98Y36
G1Z-10F500
X98.499F1000
G0Z10
X-98Y33
G1Z-10F500
X98.499F1000
G0Z10
X-98Y30
G1Z-10F500
X98.499F1000
G0Z10
X-98Y27
G1Z-10F500
X98.499F1000
G0Z10
X-98Y24
G1Z-10F500
X98.499F1000
G0Z10
X-98Y21
G1Z-10F500
X98.499F1000
G0Z10
X-98Y18
G1Z-10F500
X98.499F1000
G0Z10
X-98Y15
G1Z-10F500
X98.499F1000
G0Z10
X-98Y12
G1Z-10F500
X98.499F1000
G0Z10
X-98Y9
G1Z-10F500
X98.499F1000
G0Z10
X-98Y6
G1Z-10F500
X98.499F1000
G0Z10
X-98Y3
G1Z-10F500
X98.499F1000
G0Z10
X-98Y0
G1Z-10F500
X98.499F1000
G0Z10
X-98Y-2.999
G1Z-10F500
X98.499F1000
G0Z10
X-98Y-5.999
G1Z-10F500
X98.499F1000
G0Z10
X-98Y-8.999
G1Z-10F500
X98.499F1000
G0Z10
X-98Y-11.999
G1Z-10F500
X98.499F1000
G0Z10
X-98Y-14.999
G1Z-10F500
X98.499F1000
G0Z10
X-98Y-17.999
G1Z-10F500
X98.499F1000
G0Z10
X-98Y-20.999
G1Z-10F500
X98.499F1000
G0Z10
X-98Y-23.999
G1Z-10F500
X98.499F1000
G0Z10
X-98Y-26.999
G1Z-10F500
X98.499F1000
G0Z10
X-98Y-29.999
G1Z-10F500
X98.499F1000
G0Z10
X-98Y-32.999
G1Z-10F500
X98.499F1000
G0Z10
X-98Y-35.999
G1Z-10F500
X98.499F1000
G0Z10
X-98Y-38.999
G1Z-10F500
X98.499F1000
G0Z10
X-98Y-41.999
G1Z-10F500
X98.499F1000
G0Z10
X-98Y-44.999
G1Z-10F500
X98.499F1000
G0Z10
X-98Y-47.999
G1Z-10F500
X98.499F1000
G0Z10
X-98Y-50.999
G1Z-10F500
X98.499F1000
G0Z10
X-98Y-53.999
G1Z-10F500
X98.499F1000
G0Z10
X-93Y-98
G1Z-10F500
Y98.499F1000
G0Z10
X-98Y-56.999
G1Z-10F500
X98.499F1000
G0Z10
X-90Y-98
G1Z-10F500
Y98.499F1000
G0Z10
X-98Y-59.999
G1Z-10F500
X98.499F1000
G0Z10
X-87Y-98
G1Z-10F500
Y98.499F1000
G0Z10
X-98Y-63
G1Z-10F500
X98.499F1000
G0Z10
X-84Y-98
G1Z-10F500
Y98.499F1000
G0Z10
X-98Y-66
G1Z-10F500
X98.499F1000
G0Z10
X-81Y-98
G1Z-10F500
Y98.499F1000
G0Z10
X-98Y-68.999
G1Z-10F500
X98.499F1000
G0Z10
X-78Y-98
G1Z-10F500
Y98.499F1000
G0Z10
X-98Y-71.999
G1Z-10F500
X98.499F1000
G0Z10
X-75Y-98
G1Z-10F500
Y98.499F1000
G0Z10
X-98Y-74.999
G1Z-10F500
X98.499F1000
G0Z10
X-72Y-98
G1Z-10F500
Y98.499F1000
G0Z10
X-98Y-78
G1Z-10F500
X98.499F1000
G0Z10
X-69Y-98
G1Z-10F500
Y98.499F1000
G0Z10
X-98Y-81
G1Z-10F500
X98.499F1000
G0Z10
X-66Y-98
G1Z-10F500
Y98.499F1000
G0Z10
X-98Y-83.999
G1Z-10F500
X98.499F1000
G0Z10
X-63Y-98
G1Z-10F500
Y98.499F1000
G0Z10
X-98Y-86.999
G1Z-10F500
X98.499F1000
G0Z10
X-60Y-98
G1Z-10F500
Y98.499F1000
G0Z10
X-98Y-90
G1Z-10F500
X98.499F1000
G0Z10
X-57Y-98
G1Z-10F500
Y98.499F1000
G0Z10
X-98Y-93
G1Z-10F500
X98.499F1000
G0Z10
X-54Y-98
G1Z-10F500
Y98.499F1000
G0Z10
X-51Y-98
G1Z-10F500
Y98.499F1000
G0Z10
X-48Y-98
G1Z-10F500
Y98.499F1000
G0Z10
X-45Y-98
G1Z-10F500
Y98.499F1000
G0Z10
X-42Y-98
G1Z-10F500
Y98.499F1000
G0Z10
X-39Y-98
G1Z-10F500
Y98.499F1000
G0Z10
X-36Y-98
G1Z-10F500
Y98.499F1000
G0Z10
X-33Y-98
G1Z-10F500
Y98.499F1000
G0Z10
X-30Y-98
G1Z-10F500
Y98.499F1000
G0Z10
X-27Y-98
G1Z-10F500
Y98.499F1000
G0Z10
X-24Y-98
G1Z-10F500
Y98.499F1000
G0Z10
X-21Y-98
G1Z-10F500
Y98.499F1000
G0Z10
X-18Y-98
G1Z-10F500
Y98.499F1000
G0Z10
X-15Y-98
G1Z-10F500
Y98.499F1000
G0Z10
X-12Y-98
G1Z-10F500
Y98.499F1000
G0Z10
X-9Y-98
G1Z-10F500
Y98.499F1000
G0Z10
X-6Y-98
G1Z-10F500
Y98.499F1000
G0Z10
X-3Y-98
G1Z-10F500
Y98.499F1000
G0Z10
X0Y-98
G1Z-10F500
Y98.499F1000
G0Z10
X3Y-98
G1Z-10F500
Y98.499F1000
G0Z10
X6Y-98
G1Z-10F500
Y98.499F1000
G0Z10
X9Y-98
G1Z-10F500
Y98.499F1000
G0Z10
X12Y-98
G1Z-10F500
Y98.499F1000
G0Z10
X15Y-98
G1Z-10F500
Y98.499F1000
G0Z10
X18Y-98
G1Z-10F500
Y98.499F1000
G0Z10
X21Y-98
G1Z-10F500
Y98.499F1000
G0Z10
X24Y-98
G1Z-10F500
Y98.499F1000
G0Z10
X27Y-98
G1Z-10F500
Y98.499F1000
G0Z10
X30Y-98
G1Z-10F500
Y98.499F1000
G0Z10
X33Y-98
G1Z-10F500
Y98.499F1000
G0Z10
X36Y-98
G1Z-10F500
Y98.499F1000
G0Z10
X39Y-98
G1Z-10F500
Y98.499F1000
G0Z10
X42Y-98
G1Z-10F500
Y98.499F1000
G0Z10
X45Y-98
G1Z-10F500
Y98.499F1000
G0Z10
X48Y-98
G1Z-10F500
Y98.499F1000
G0Z10
X51Y-98
G1Z-10F500
Y98.499F1000
G0Z10
X54Y-98
G1Z-10F500
Y98.499F1000
G0Z10
X57Y-98
G1Z-10F500
Y98.499F1000
G0Z10
X60Y-98
G1Z-10F500
Y98.499F1000
G0Z10
X63Y-98
G1Z-10F500
Y98.499F1000
G0Z10
X66Y-98
G1Z-10F500
Y98.499F1000
G0Z10
X69Y-98
G1Z-10F500
Y98.499F1000
G0Z10
X72Y-98
G1Z-10F500
Y98.499F1000
G0Z10
X75Y-98
G1Z-10F500
Y98.499F1000
G0Z10
X78Y-98
G1Z-10F500
Y98.499F1000
G0Z10
X81Y-98
G1Z-10F500
Y98.499F1000
G0Z10
X84Y-98
G1Z-10F500
Y98.499F1000
G0Z10
X87Y-98
G1Z-10F500
Y98.499F1000
G0Z10
X90Y-98
G1Z-10F500
Y98.499F1000
G0Z10
X93Y-98
G1Z-10F500
Y98.499F1000
G0Z10
X96Y-98
G1Z-10F500
Y98.499F1000
G0Z10
X-98Y-96
G1Z-10F500
X98.499F1000
G0Z10
 
