(Created with grbl post processor 2024/01/26 12:08)
G21
(G-code generated with BlenderCAM and NC library)
G17G90
(Tool: D = 3.0 mm  type END flutes 2)
S12000M03
G00 Z10.0

G0X0Y0Z10
X-66Y-17.5
G1Z-0.299F500
Y-17Z-0.628
Y-16.5Z-1.25
Y-16.152Z-5.1
Y17.177F1000
Y17.499Z-2.089
Y17.999Z-0.704
G0Z10
X-63Y-26.5
G1Z-0.162F500
Y-26Z-0.494
Y-25.5Z-1.179
Y-25.15Z-5.1
Y25.662F1000
Y25.999Z-1.651
Y26.499Z-0.398
G0Z10
X-60Y-32.5
G1Z-0.31F500
Y-32Z-0.828
Y-31.641Z-5.1
Y32.132F1000
Y32.499Z-0.52
G0Z10
X-18.5Y66
G1Z-0.195F500
X-18Z-0.326F1000
X-17.5Z-0.496
X-17Z-0.733
X-16.5Z-1.193F500
X-16.15Z-5.1
X17.647F1000
X17.999Z-1.129
X18.499Z-0.853
X18.999Z-0.646
X19.499Z-0.493
X19.999Z-0.38
X20.499Z-0.281
X20.999Z-0.177
G0Z10
X-27Y63
G1Z-0.109F500
X-26.5Z-0.296F1000
X-26Z-0.581
X-25.5Z-1.145F500
X-25.149Z-5.1
X26.14F1000
X26.499Z-0.882
X26.999Z-0.603
X27.499Z-0.424
X27.999Z-0.301
X28.499Z-0.215
X28.999Z-0.136
G0Z10
X-33Y60
G1Z-0.113F500
X-32.5Z-0.372F1000
X-32Z-0.844F500
X-31.641Z-5.1
X32.141F1000
X32.499Z-0.885
X32.999Z-0.549
X33.499Z-0.353
X33.999Z-0.234
X34.499Z-0.16
G0Z10
X-37.5Y57
G1Z-0.357F500
X-37Z-0.895
X-36.642Z-5.1
X37.138F1000
X37.499Z-0.773
X37.999Z-0.439
X38.499Z-0.26
X38.999Z-0.172
X39.499Z-0.106
G0Z10
X-42Y54
G1Z-0.11F500
X-41.5Z-0.513
X-41.134Z-5.1
X41.14F1000
X41.499Z-0.868
X41.999Z-0.458
X42.499Z-0.258
X42.999Z-0.165
X43.499Z-0.102
G0Z10
X-45.5Y51
G1Z-0.171F500
X-45Z-0.721
X-44.638Z-5.1
X44.644F1000
X44.999Z-1.008
X45.499Z-0.47
X45.999Z-0.237
X46.499Z-0.15
G0Z10
X-48.5Y48
G1Z-0.314F500
X-48.13Z-5.1
X48.132F1000
X48.499Z-0.524
X48.999Z-0.246
X49.499Z-0.15
G0Z10
X-51Y45
G1Z-0.848F500
X-50.641Z-5.1
X50.639F1000
X50.999Z-0.823
X51.499Z-0.336
X51.999Z-0.171
X52.499Z-0.112
G0Z10
X-53.5Y42
G1Z-0.921F500
X-53.143Z-5.1
X53.138F1000
X53.499Z-0.771
X53.999Z-0.295
X54.499Z-0.157
G0Z10
X-56Y39
G1Z-0.347F500
X-55.63Z-5.1
X55.63F1000
X55.999Z-0.409
X56.499Z-0.174
X56.999Z-0.114
G0Z10
X-58Y36
G1Z-0.349F500
X-57.63Z-5.1
X57.629F1000
X57.999Z-0.364
X58.499Z-0.159
X58.999Z-0.103
G0Z10
X-59.5Y33
G1Z-5.1F500
X59.135F1000
X59.499Z-0.662
X59.999Z-0.203
X60.499Z-0.125
G0Z10
X-61.5Y30
G1Z-0.113F500
X-61.126Z-5.1
X60.639F1000
X60.999Z-0.816
X61.499Z-0.211
X61.999Z-0.126
G0Z10
X-62.5Y27
G1Z-5.1F500
X62.133F1000
X62.499Z-0.56
X62.999Z-0.163
X63.499Z-0.107
G0Z10
X-64Y24
G1Z-0.487F500
X-63.633Z-5.1
X63.626F1000
X63.999Z-0.221
X64.499Z-0.125
G0Z10
X-65Y21
G1Z-0.999F500
X-64.645Z-5.1
X64.627F1000
X64.999Z-0.238
X65.499Z-0.126
G0Z10
X-66Y18
G1Z-0.697F500
X-65.638Z-5.1
X65.625F1000
X65.999Z-0.169
X66.499Z-0.111
G0Z10
X-66.5Y15
G1Z-5.1F500
X66.13F1000
X66.499Z-0.408
X66.999Z-0.134
G0Z10
X-67.5Y12
G1Z-0.47F500
X-67.133Z-5.1
X66.646F1000
X66.999Z-1.088
X67.499Z-0.143
G0Z10
X-57Y-37.5
G1Z-0.322F500
Y-37Z-0.89
Y-36.642Z-5.1
Y37.131F1000
Y37.499Z-0.451
G0Z10
X-67.5Y9
G1Z-5.1F500
X67.625F1000
X67.999Z-0.137
G0Z10
X-54Y-42
G1Z-0.133F500
Y-41.5Z-0.528
Y-41.134Z-5.1
Y41.135F1000
Y41.499Z-0.629
G0Z10
X-68Y6
G1Z-5.1F500
X67.627F1000
X67.999Z-0.281
X68.499Z-0.118
G0Z10
X-51Y-45.5
G1Z-0.225F500
Y-45Z-0.74
Y-44.639Z-5.1
Y44.64F1000
Y44.999Z-0.852
Y45.499Z-0.16
G0Z10
X-68Y3
G1Z-5.1F500
X68.125F1000
X68.499Z-0.138
G0Z10
X-48Y-48.5
G1Z-0.408F500
Y-48.132Z-5.1
Y48.128F1000
Y48.499Z-0.312
G0Z10
X-68.5Y0
G1Z-0.119F500
X-68.126Z-5.1
X68.125F1000
X68.499Z-0.145
G0Z10
X-45Y-51.5
G1Z-0.251F500
Y-51Z-0.875
Y-50.642Z-5.1
Y50.637F1000
Y50.999Z-0.724
Y51.499Z-0.118
G0Z10
X-68Y-2.999
G1Z-5.1F500
X68.125F1000
X68.499Z-0.137
G0Z10
X-42Y-54
G1Z-0.263F500
Y-53.5Z-0.937
Y-53.143Z-5.1
Y53.136F1000
Y53.499Z-0.7
Y53.999Z-0.111
G0Z10
X-68Y-5.999
G1Z-0.748F500
X-67.639Z-5.1
X68.124F1000
X68.499Z-0.116
G0Z10
X-39Y-56
G1Z-0.518F500
Y-55.634Z-5.1
Y55.628F1000
Y55.999Z-0.311
G0Z10
X-67.5Y-8.999
G1Z-5.1F500
X67.625F1000
X67.999Z-0.132
G0Z10
X-36Y-58.5
G1Z-0.101F500
Y-58Z-0.544
Y-57.634Z-5.1
Y57.628F1000
Y57.999Z-0.303
G0Z10
X-67Y-11.999
G1Z-1.58F500
X-66.661Z-5.1
X67.125F1000
X67.499Z-0.135
G0Z10
X-33Y-60
G1Z-0.325F500
Y-59.63Z-5.1
Y59.136F1000
Y59.499Z-0.699
Y59.999Z-0.114
G0Z10
X-66.5Y-14.999
G1Z-0.641F500
X-66.137Z-5.1
X66.624F1000
X66.999Z-0.125
G0Z10
X-30Y-61.5
G1Z-0.439F500
Y-61.132Z-5.1
Y60.641F1000
Y60.999Z-0.899
Y61.499Z-0.18
G0Z10
X-65.5Y-17.999
G1Z-5.1F500
X65.625F1000
X65.999Z-0.151
X66.499Z-0.102
G0Z10
X-27Y-63
G1Z-0.36F500
Y-62.631Z-5.1
Y62.136F1000
Y62.499Z-0.683
Y62.999Z-0.109
G0Z10
X-65Y-20.999
G1Z-0.217F500
X-64.628Z-5.1
X64.626F1000
X64.999Z-0.201
X65.499Z-0.114
G0Z10
X-24Y-64.5
G1Z-0.153F500
Y-64Z-0.723
Y-63.638Z-5.1
Y63.628F1000
Y63.999Z-0.315
G0Z10
X-64Y-23.999
G1Z-0.146F500
X-63.626Z-5.1
X63.625F1000
X63.999Z-0.163
X64.499Z-0.112
G0Z10
X-21Y-65.5
G1Z-0.227F500
Y-65Z-0.995
Y-64.645Z-5.1
Y64.63F1000
Y64.999Z-0.406
G0Z10
X-62.5Y-26.999
G1Z-0.614F500
X-62.136Z-5.1
X62.625F1000
X62.999Z-0.142
G0Z10
X-18Y-66.5
G1Z-0.185F500
Y-66Z-0.857
Y-65.642Z-5.1
Y65.628F1000
Y65.999Z-0.327
G0Z10
X-61Y-29.999
G1Z-0.88F500
X-60.642Z-5.1
X61.125F1000
X61.499Z-0.156
X61.999Z-0.109
G0Z10
X-15Y-67
G1Z-0.5F500
Y-66.634Z-5.1
Y66.138F1000
Y66.499Z-0.759
Y66.999Z-0.139
G0Z10
X-59.5Y-32.999
G1Z-0.665F500
X-59.137Z-5.1
X59.625F1000
X59.999Z-0.153
X60.499Z-0.107
G0Z10
X-12Y-68
G1Z-0.162F500
Y-67.5Z-0.815
Y-67.141Z-5.1
Y67.127F1000
Y67.499Z-0.265
G0Z10
X-58Y-35.999
G1Z-0.264F500
X-57.629Z-5.1
X57.627F1000
X57.999Z-0.265
X58.499Z-0.133
G0Z10
X-9Y-68.5
G1Z-0.178F500
Y-68Z-0.871
Y-67.642Z-5.1
Y67.627F1000
Y67.999Z-0.281
G0Z10
X-56Y-38.999
G1Z-0.301F500
X-55.629Z-5.1
X55.628F1000
X55.999Z-0.296
X56.499Z-0.14
G0Z10
X-6Y-68.5
G1Z-0.621F500
Y-68.136Z-5.1
Y67.64F1000
Y67.999Z-0.849
Y68.499Z-0.168
G0Z10
X-54Y-41.999
G1Z-0.133F500
X-53.5Z-0.706
X-53.138Z-5.1
X53.137F1000
X53.499Z-0.752
X53.999Z-0.184
X54.499Z-0.125
G0Z10
X-3Y-69
G1Z-0.298F500
Y-68.5Z-0.79
Y-68.14Z-5.1
Y68.13F1000
Y68.499Z-0.398
G0Z10
X-51.5Y-44.999
G1Z-0.172F500
X-51Z-0.74
X-50.639Z-5.1
X50.637F1000
X50.999Z-0.734
X51.499Z-0.206
X51.999Z-0.133
G0Z10
X0Y-69
G1Z-0.339F500
Y-68.5Z-0.8
Y-68.14Z-5.1
Y68.133F1000
Y68.499Z-0.548
G0Z10
X-48.5Y-47.999
G1Z-0.384F500
X-48.131Z-5.1
X48.129F1000
X48.499Z-0.353
X48.999Z-0.159
X49.499Z-0.115
G0Z10
X3Y-69
G1Z-0.276F500
Y-68.5Z-0.643
Y-68.137Z-5.1
Y68.132F1000
Y68.499Z-0.525
G0Z10
X-45.5Y-50.999
G1Z-0.305F500
X-45Z-0.875
X-44.642Z-5.1
X44.637F1000
X44.999Z-0.725
X45.499Z-0.291
X45.999Z-0.156
X46.499Z-0.112
G0Z10
X6Y-69
G1Z-0.179F500
Y-68.5Z-0.417F1000
Y-68Z-1.065F500
Y-67.647Z-5.1
Y68.129F1000
Y68.499Z-0.346
G0Z10
X-42Y-53.999
G1Z-0.263F500
X-41.5Z-0.71
X-41.138Z-5.1
X41.133F1000
X41.499Z-0.572
X41.999Z-0.263
X42.499Z-0.159
X42.999Z-0.117
G0Z10
X9Y-68.5
G1Z-0.224F500
Y-68Z-0.515
Y-67.634Z-5.1
Y67.636F1000
Y67.999Z-0.679
Y68.499Z-0.117
G0Z10
X-38Y-56.999
G1Z-0.229F500
X-37.5Z-0.593
X-37.135Z-5.1
X36.642F1000
X36.999Z-0.956
X37.499Z-0.475
X37.999Z-0.243
X38.499Z-0.159
X38.999Z-0.117
G0Z10
X12Y-68
G1Z-0.217F500
Y-67.5Z-0.496F1000
Y-67.133Z-5.1F500
Y67.142F1000
Y67.499Z-0.938
Y67.999Z-0.193
G0Z10
X15Y-67.5
G1Z-0.172F500
Y-67Z-0.373F1000
Y-66.5Z-0.949F500
Y-66.144Z-5.1
Y66.638F1000
Y66.999Z-0.783
Y67.499Z-0.171
G0Z10
X18Y-67
G1Z-0.103F500
Y-66.5Z-0.226F1000
Y-66Z-0.531F500
Y-65.634Z-5.1
Y65.647F1000
Y65.999Z-1.13
Y66.499Z-0.461
G0Z10
X21Y-66
G1Z-0.122F500
Y-65.5Z-0.244F1000
Y-65Z-0.591F500
Y-64.635Z-5.1
Y64.65F1000
Y64.999Z-1.255
Y65.499Z-0.497
Y65.999Z-0.177
G0Z10
X24Y-65
G1Z-0.109F500
Y-64.5Z-0.21F1000
Y-64Z-0.496
Y-63.633Z-5.1F500
Y63.643F1000
Y63.999Z-0.969
Y64.499Z-0.417
Y64.999Z-0.171
G0Z10
X27Y-63.5
G1Z-0.157F500
Y-63Z-0.312F1000
Y-62.5Z-0.813F500
Y-62.141Z-5.1
Y62.634F1000
Y62.999Z-0.604
Y63.499Z-0.277
G0Z10
X30Y-62
G1Z-0.169F500
Y-61.5Z-0.358F1000
Y-61Z-0.996F500
Y-60.645Z-5.1
Y61.136F1000
Y61.499Z-0.668
Y61.999Z-0.304
Y62.499Z-0.14
G0Z10
X33Y-60.5
G1Z-0.154F500
Y-60Z-0.296F1000
Y-59.5Z-0.792F500
Y-59.14Z-5.1
Y59.633F1000
Y59.999Z-0.549
Y60.499Z-0.257
Y60.999Z-0.123
G0Z10
X36Y-59
G1Z-0.115F500
Y-58.5Z-0.184F1000
Y-58Z-0.432
Y-57.632Z-5.1F500
Y57.637F1000
Y57.999Z-0.741
Y58.499Z-0.337
Y58.999Z-0.174
G0Z10
X39Y-57
G1Z-0.117F500
Y-56.5Z-0.18F1000
Y-56Z-0.423
Y-55.632Z-5.1F500
Y55.636F1000
Y55.999Z-0.703
Y56.499Z-0.322
Y56.999Z-0.172
G0Z10
X42Y-54.5
G1Z-0.147F500
Y-54Z-0.262F1000
Y-53.5Z-0.727F500
Y-53.139Z-5.1
Y53.146F1000
Y53.499Z-1.086
Y53.999Z-0.459
Y54.499Z-0.223
Y54.999Z-0.13
G0Z10
X45Y-52
G1Z-0.146F500
Y-51.5Z-0.255F1000
Y-51Z-0.722F500
Y-50.638Z-5.1
Y50.644F1000
Y50.999Z-1.008
Y51.499Z-0.437
Y51.999Z-0.216
Y52.499Z-0.132
G0Z10
X48Y-49.5
G1Z-0.118F500
Y-49Z-0.164F1000
Y-48.5Z-0.37
Y-48.131Z-5.1F500
Y48.133F1000
Y48.499Z-0.545
Y48.999Z-0.263
Y49.499Z-0.159
G0Z10
X51Y-46.5
G1Z-0.106F500
Y-46Z-0.145F1000
Y-45.5Z-0.236
Y-45Z-0.731F500
Y-44.639Z-5.1
Y44.639F1000
Y44.999Z-0.823
Y45.499Z-0.377
Y45.999Z-0.197
Y46.499Z-0.136
G0Z10
X54Y-42.5
G1Z-0.135F500
Y-42Z-0.184F1000
Y-41.5Z-0.515F500
Y-41.134Z-5.1
Y41.134F1000
Y41.499Z-0.614
Y41.999Z-0.295
Y42.499Z-0.17
Y42.999Z-0.124
G0Z10
X57Y-38.5
G1Z-0.125F500
Y-38Z-0.154F1000
Y-37.5Z-0.318
Y-37.13Z-5.1F500
Y36.641F1000
Y36.999Z-0.886
Y37.499Z-0.407
Y37.999Z-0.212
Y38.499Z-0.151
Y38.999Z-0.114
G0Z10
X60Y-34
G1Z-0.1F500
Y-33Z-0.153F1000
Y-32.5Z-0.31
Y-32.13Z-5.1F500
Y31.638F1000
Y31.999Z-0.796
Y32.499Z-0.379
Y32.999Z-0.203
Y33.499Z-0.15
Y33.999Z-0.118
G0Z10
X63Y-28
G1Z-0.1F500
Y-27Z-0.142F1000
Y-26.5Z-0.176
Y-26Z-0.898F500
Y-25.642Z-5.1
Y25.143F1000
Y25.499Z-0.996
Y25.999Z-0.454
Y26.499Z-0.244
Y26.999Z-0.162
Y27.999Z-0.113
G0Z10
X66Y-19.5
G1Z-0.11F500
Y-18Z-0.151F1000
Y-17.5Z-0.442F500
Y-17.132Z-5.1
Y16.142F1000
Y16.499Z-0.94
Y16.999Z-0.449
Y17.499Z-0.253
Y17.999Z-0.169
Y18.499Z-0.15
Y19.999Z-0.105
G0Z10
X-33.5Y-59.999
G1Z-0.111F500
X-33Z-0.326F1000
X-32.5Z-0.681F500
X-32.137Z-5.1
X31.642F1000
X31.999Z-0.93
X32.499Z-0.507
X32.999Z-0.297
X33.499Z-0.189
X33.999Z-0.144
X34.499Z-0.104
G0Z10
X-27.5Y-63
G1Z-0.169F500
X-27Z-0.36F1000
X-26.5Z-0.65F500
X-26.137Z-5.1
X25.151F1000
X25.499Z-1.28
X25.999Z-0.723
X26.499Z-0.47
X26.999Z-0.313
X27.499Z-0.217
X27.999Z-0.166
X28.499Z-0.129
G0Z10
X-20Y-66
G1Z-0.105F500
X-19.5Z-0.224F1000
X-19Z-0.381
X-18.5Z-0.58
X-18Z-0.859
X-17.642Z-5.1F500
X16.153F1000
X16.499Z-1.361
X16.999Z-0.913
X17.499Z-0.689
X17.999Z-0.532
X18.499Z-0.415
X18.999Z-0.32
X19.499Z-0.243
X19.999Z-0.192
X20.499Z-0.157
X20.999Z-0.123
G0Z10
X-5.5Y-68.999
G1Z-0.136F500
X-5Z-0.168F1000
X-4.5Z-0.197
X-4Z-0.229
X-3.5Z-0.262
X-3Z-0.299
X-2.5Z-0.329
X-1.5Z-0.347
X-1Z-0.353
X1.499Z-0.319
X1.999Z-0.311
X2.499Z-0.293
X2.999Z-0.277
X5.999Z-0.179
X6.499Z-0.159
X7.499Z-0.114
G0Z10
X-66Y-16.152
G1Z-5.1F500
Y-16Z-6.769
Y16.999F1000
Y17.177Z-5.1
G0Z10
X-63Y-25.15
G1Z-5.1F500
Y-25Z-6.769
Y25.499F1000
Y25.662Z-5.1
G0Z10
X-60Y-31.641
G1Z-5.1F500
Y-31.5Z-6.769
Y31.999F1000
Y32.132Z-5.1
G0Z10
X-16.15Y66
G1Z-5.1F500
X-16Z-6.769
X17.499F1000
X17.647Z-5.1
G0Z10
X-25.149Y63
G1Z-5.1F500
X-25Z-6.769
X25.999F1000
X26.14Z-5.1
G0Z10
X-31.641Y60
G1Z-5.1F500
X-31.5Z-6.769
X31.999F1000
X32.141Z-5.1
G0Z10
X-36.642Y57
G1Z-5.1F500
X-36.5Z-6.769
X36.999F1000
X37.138Z-5.1
G0Z10
X-41.134Y54
G1Z-5.1F500
X-41Z-6.769
X40.999F1000
X41.14Z-5.1
G0Z10
X-44.638Y51
G1Z-5.1F500
X-44.5Z-6.769
X44.499F1000
X44.644Z-5.1
G0Z10
X-48.13Y48
G1Z-5.1F500
X-48Z-6.769
X47.999F1000
X48.132Z-5.1
G0Z10
X-50.641Y45
G1Z-5.1F500
X-50.5Z-6.769
X50.499F1000
X50.639Z-5.1
G0Z10
X-53.143Y42
G1Z-5.1F500
X-53Z-6.769
X52.999F1000
X53.138Z-5.1
G0Z10
X-55.63Y39
G1Z-5.1F500
X-55.5Z-6.769
X55.499F1000
X55.63Z-5.1
G0Z10
X-57.63Y36
G1Z-5.1F500
X-57.5Z-6.769
X57.499F1000
X57.629Z-5.1
G0Z10
X-59.5Y33
G1Z-6.769F500
X58.999F1000
X59.135Z-5.1
G0Z10
X-61.126Y30
G1Z-5.1F500
X-61Z-6.769
X60.499F1000
X60.639Z-5.1
G0Z10
X-62.5Y27
G1Z-6.769F500
X61.999F1000
X62.133Z-5.1
G0Z10
X-63.633Y24
G1Z-5.1F500
X-63.5Z-6.769
X63.499F1000
X63.626Z-5.1
G0Z10
X-64.645Y21
G1Z-5.1F500
X-64.5Z-6.769
X64.499F1000
X64.627Z-5.1
G0Z10
X-65.638Y18
G1Z-5.1F500
X-65.5Z-6.769
X65.499F1000
X65.625Z-5.1
G0Z10
X-66.5Y15
G1Z-6.769F500
X65.999F1000
X66.13Z-5.1
G0Z10
X-67.133Y12
G1Z-5.1F500
X-67Z-6.769
X66.499F1000
X66.646Z-5.1
G0Z10
X-57Y-36.642
G1Z-5.1F500
Y-36.5Z-6.769
Y36.999F1000
Y37.131Z-5.1
G0Z10
X-67.5Y9
G1Z-6.769F500
X67.499F1000
X67.625Z-5.1
G0Z10
X-54Y-41.134
G1Z-5.1F500
Y-41Z-6.769
Y40.999F1000
Y41.135Z-5.1
G0Z10
X-68Y6
G1Z-6.769F500
X67.499F1000
X67.627Z-5.1
G0Z10
X-51Y-44.639
G1Z-5.1F500
Y-44.5Z-6.769
Y44.499F1000
Y44.64Z-5.1
G0Z10
X-68Y3
G1Z-6.769F500
X67.999F1000
X68.125Z-5.1
G0Z10
X-48Y-48.132
G1Z-5.1F500
Y-48Z-6.769
Y47.999F1000
Y48.128Z-5.1
G0Z10
X-68.126Y0
G1Z-5.1F500
X-68Z-6.769
X67.999F1000
X68.125Z-5.1
G0Z10
X-45Y-50.642
G1Z-5.1F500
Y-50.5Z-6.769
Y50.499F1000
Y50.637Z-5.1
G0Z10
X-68Y-2.999
G1Z-6.769F500
X67.999F1000
X68.125Z-5.1
G0Z10
X-42Y-53.143
G1Z-5.1F500
Y-53Z-6.769
Y52.999F1000
Y53.136Z-5.1
G0Z10
X-67.639Y-5.999
G1Z-5.1F500
X-67.5Z-6.769
X67.999F1000
X68.124Z-5.1
G0Z10
X-39Y-55.634
G1Z-5.1F500
Y-55.5Z-6.769
Y55.499F1000
Y55.628Z-5.1
G0Z10
X-67.5Y-8.999
G1Z-6.769F500
X67.499F1000
X67.625Z-5.1
G0Z10
X-36Y-57.634
G1Z-5.1F500
Y-57.5Z-6.769
Y57.499F1000
Y57.628Z-5.1
G0Z10
X-66.661Y-11.999
G1Z-5.1F500
X-66.5Z-6.769
X66.999F1000
X67.125Z-5.1
G0Z10
X-33Y-59.63
G1Z-5.1F500
Y-59.5Z-6.769
Y58.999F1000
Y59.136Z-5.1
G0Z10
X-66.137Y-14.999
G1Z-5.1F500
X-66Z-6.769
X66.499F1000
X66.624Z-5.1
G0Z10
X-30Y-61.132
G1Z-5.1F500
Y-61Z-6.769
Y60.499F1000
Y60.641Z-5.1
G0Z10
X-65.5Y-17.999
G1Z-6.769F500
X65.499F1000
X65.625Z-5.1
G0Z10
X-27Y-62.631
G1Z-5.1F500
Y-62.5Z-6.769
Y61.999F1000
Y62.136Z-5.1
G0Z10
X-64.628Y-20.999
G1Z-5.1F500
X-64.5Z-6.769
X64.499F1000
X64.626Z-5.1
G0Z10
X-24Y-63.638
G1Z-5.1F500
Y-63.5Z-6.769
Y63.499F1000
Y63.628Z-5.1
G0Z10
X-63.626Y-23.999
G1Z-5.1F500
X-63.5Z-6.769
X63.499F1000
X63.625Z-5.1
G0Z10
X-21Y-64.645
G1Z-5.1F500
Y-64.5Z-6.769
Y64.499F1000
Y64.63Z-5.1
G0Z10
X-62.136Y-26.999
G1Z-5.1F500
X-62Z-6.769
X62.499F1000
X62.625Z-5.1
G0Z10
X-18Y-65.642
G1Z-5.1F500
Y-65.5Z-6.769
Y65.499F1000
Y65.628Z-5.1
G0Z10
X-60.642Y-29.999
G1Z-5.1F500
X-60.5Z-6.769
X60.999F1000
X61.125Z-5.1
G0Z10
X-15Y-66.634
G1Z-5.1F500
Y-66.5Z-6.769
Y65.999F1000
Y66.138Z-5.1
G0Z10
X-59.137Y-32.999
G1Z-5.1F500
X-59Z-6.769
X59.499F1000
X59.625Z-5.1
G0Z10
X-12Y-67.141
G1Z-5.1F500
Y-67Z-6.769
Y66.999F1000
Y67.127Z-5.1
G0Z10
X-57.629Y-35.999
G1Z-5.1F500
X-57.5Z-6.769
X57.499F1000
X57.627Z-5.1
G0Z10
X-9Y-67.642
G1Z-5.1F500
Y-67.5Z-6.769
Y67.499F1000
Y67.627Z-5.1
G0Z10
X-55.629Y-38.999
G1Z-5.1F500
X-55.5Z-6.769
X55.499F1000
X55.628Z-5.1
G0Z10
X-6Y-68.136
G1Z-5.1F500
Y-68Z-6.769
Y67.499F1000
Y67.64Z-5.1
G0Z10
X-53.138Y-41.999
G1Z-5.1F500
X-53Z-6.769
X52.999F1000
X53.137Z-5.1
G0Z10
X-3Y-68.14
G1Z-5.1F500
Y-68Z-6.769
Y67.999F1000
Y68.13Z-5.1
G0Z10
X-50.639Y-44.999
G1Z-5.1F500
X-50.5Z-6.769
X50.499F1000
X50.637Z-5.1
G0Z10
X0Y-68.14
G1Z-5.1F500
Y-68Z-6.769
Y67.999F1000
Y68.133Z-5.1
G0Z10
X-48.131Y-47.999
G1Z-5.1F500
X-48Z-6.769
X47.999F1000
X48.129Z-5.1
G0Z10
X3Y-68.137
G1Z-5.1F500
Y-68Z-6.769
Y67.999F1000
Y68.132Z-5.1
G0Z10
X-44.642Y-50.999
G1Z-5.1F500
X-44.5Z-6.769
X44.499F1000
X44.637Z-5.1
G0Z10
X6Y-67.647
G1Z-5.1F500
Y-67.5Z-6.769
Y67.999F1000
Y68.129Z-5.1
G0Z10
X-41.138Y-53.999
G1Z-5.1F500
X-41Z-6.769
X40.999F1000
X41.133Z-5.1
G0Z10
X9Y-67.634
G1Z-5.1F500
Y-67.5Z-6.769
Y67.499F1000
Y67.636Z-5.1
G0Z10
X-37.135Y-56.999
G1Z-5.1F500
X-37Z-6.769
X36.499F1000
X36.642Z-5.1
G0Z10
X12Y-67.133
G1Z-5.1F500
Y-67Z-6.769
Y66.999F1000
Y67.142Z-5.1
G0Z10
X15Y-66.144
G1Z-5.1F500
Y-66Z-6.769
Y66.499F1000
Y66.638Z-5.1
G0Z10
X18Y-65.634
G1Z-5.1F500
Y-65.5Z-6.769
Y65.499F1000
Y65.647Z-5.1
G0Z10
X21Y-64.635
G1Z-5.1F500
Y-64.5Z-6.769
Y64.499F1000
Y64.65Z-5.1
G0Z10
X24Y-63.633
G1Z-5.1F500
Y-63.5Z-6.769
Y63.499F1000
Y63.643Z-5.1
G0Z10
X27Y-62.141
G1Z-5.1F500
Y-62Z-6.769
Y62.499F1000
Y62.634Z-5.1
G0Z10
X30Y-60.645
G1Z-5.1F500
Y-60.5Z-6.769
Y60.999F1000
Y61.136Z-5.1
G0Z10
X33Y-59.14
G1Z-5.1F500
Y-59Z-6.769
Y59.499F1000
Y59.633Z-5.1
G0Z10
X36Y-57.632
G1Z-5.1F500
Y-57.5Z-6.769
Y57.499F1000
Y57.637Z-5.1
G0Z10
X39Y-55.632
G1Z-5.1F500
Y-55.5Z-6.769
Y55.499F1000
Y55.636Z-5.1
G0Z10
X42Y-53.139
G1Z-5.1F500
Y-53Z-6.769
Y52.999F1000
Y53.146Z-5.1
G0Z10
X45Y-50.638
G1Z-5.1F500
Y-50.5Z-6.769
Y50.499F1000
Y50.644Z-5.1
G0Z10
X48Y-48.131
G1Z-5.1F500
Y-48Z-6.769
Y47.999F1000
Y48.133Z-5.1
G0Z10
X51Y-44.639
G1Z-5.1F500
Y-44.5Z-6.769
Y44.499F1000
Y44.639Z-5.1
G0Z10
X54Y-41.134
G1Z-5.1F500
Y-41Z-6.769
Y40.999F1000
Y41.134Z-5.1
G0Z10
X57Y-37.13
G1Z-5.1F500
Y-37Z-6.769
Y36.499F1000
Y36.641Z-5.1
G0Z10
X60Y-32.13
G1Z-5.1F500
Y-32Z-6.769
Y31.499F1000
Y31.638Z-5.1
G0Z10
X63Y-25.642
G1Z-5.1F500
Y-25.5Z-6.769
Y24.999F1000
Y25.143Z-5.1
G0Z10
X66Y-17.132
G1Z-5.1F500
Y-17Z-6.769
Y15.999F1000
Y16.142Z-5.1
G0Z10
X-32.137Y-59.999
G1Z-5.1F500
X-32Z-6.769
X31.499F1000
X31.642Z-5.1
G0Z10
X-26.137Y-63
G1Z-5.1F500
X-26Z-6.769
X24.999F1000
X25.151Z-5.1
G0Z10
X-17.642Y-66
G1Z-5.1F500
X-17.5Z-6.769
X15.999F1000
X16.153Z-5.1
G0Z10
 
