(Created with grbl post processor 2024/12/21 15:57)
G21
(G-code Generated with Fabex and NC library)
G17G90
(Tool: D = 3.0 mm  type END flutes 2)
S12000M03
G00 Z10.0

G0X0Y0Z10
X-98Y-98.398
G1Z0F500
Y98.402F1000
G0Z10
X-97Y-98.398
G1Z0F500
Y98.402F1000
G0Z10
X-96Y-98.398
G1Z0F500
Y98.402F1000
G0Z10
X-95Y-98.398
G1Z0F500
Y98.402F1000
G0Z10
X-94Y-98.398
G1Z0F500
Y98.402F1000
G0Z10
X-93Y-98.398
G1Z0F500
Y98.402F1000
G0Z10
X-92Y-98.398
G1Z0F500
Y98.402F1000
G0Z10
X-91Y-98.398
G1Z0F500
Y98.402F1000
G0Z10
X-90Y-98.398
G1Z0F500
Y98.402F1000
G0Z10
X-89Y-98.398
G1Z0F500
Y98.402F1000
G0Z10
X-88Y-98.398
G1Z0F500
Y98.402F1000
G0Z10
X-87Y-98.398
G1Z0F500
Y98.402F1000
G0Z10
X-86Y-98.398
G1Z0F500
Y98.402F1000
G0Z10
X-85Y-98.398
G1Z0F500
Y98.402F1000
G0Z10
X-84Y-98.398
G1Z0F500
Y98.402F1000
G0Z10
X-83Y-98.398
G1Z0F500
Y98.402F1000
G0Z10
X-82Y-98.398
G1Z0F500
Y98.402F1000
G0Z10
X-81Y-98.398
G1Z0F500
Y98.402F1000
G0Z10
X-80Y-98.398
G1Z0F500
Y98.402F1000
G0Z10
X-79Y-98.398
G1Z0F500
Y98.402F1000
G0Z10
X-78Y-98.398
G1Z0F500
Y98.402F1000
G0Z10
X-77Y-98.398
G1Z0F500
Y98.402F1000
G0Z10
X-76Y-98.398
G1Z0F500
Y98.402F1000
G0Z10
X-75Y-98.398
G1Z0F500
Y98.402F1000
G0Z10
X-74Y-98.398
G1Z0F500
Y98.402F1000
G0Z10
X-73Y-98.398
G1Z0F500
Y98.402F1000
G0Z10
X-72Y-98.398
G1Z0F500
Y98.402F1000
G0Z10
X-71Y-98.398
G1Z0F500
Y98.402F1000
G0Z10
X-70Y-98.398
G1Z0F500
Y98.402F1000
G0Z10
X-69Y-98.398
G1Z0F500
Y98.402F1000
G0Z10
X-68Y-98.398
G1Z0F500
Y-9.397F1000
Y-8.597
Y-8.594Z-0.1F500
Y8.599F1000
Y8.602Z0
Y98.402
G0Z10
X-67Y-98.398
G1Z0F500
Y-14.797F1000
Y-14.397Z-0
Y-14.394Z-0.1F500
Y14.399F1000
Y14.402Z-0
Y98.402Z0
G0Z10
X-66Y-98.398
G1Z0F500
Y-18.797F1000
Y-18.597Z-0
Y-18.471Z-0.1F500
Y18.399F1000
Y18.402Z-0
Y18.602
Y18.802Z0
Y98.402
G0Z10
X-65Y-98.398
G1Z0F500
Y-21.797F1000
Y-21.671Z-0.1F500
Y21.599F1000
Y21.602Z0
Y98.402
G0Z10
X-64Y-98.398
G1Z0F500
Y-24.797F1000
Y-24.597Z-0
Y-24.471Z-0.1F500
Y24.399F1000
Y24.402Z-0
Y98.402Z0
G0Z10
X-63Y-98.398
G1Z0F500
Y-27.197F1000
Y-27.071Z-0.1F500
Y26.999F1000
Y27.002Z-0
Y27.202Z0
Y98.402
G0Z10
X-62Y-98.398
G1Z0F500
Y-29.397F1000
Y-29.271Z-0.1F500
Y29.199F1000
Y29.202Z-0
Y98.402Z0
G0Z10
X-61Y-98.398
G1Z0F500
Y-31.397F1000
Y-31.271Z-0.1F500
Y31.199F1000
Y31.202Z0
Y98.402
G0Z10
X-60Y-98.398
G1Z0F500
Y-33.397F1000
Y-33.197Z-0
Y-33.194Z-0.1F500
Y33.199F1000
Y33.202Z-0
Y98.402Z0
G0Z10
X-59Y-98.398
G1Z0F500
Y-34.997F1000
Y-34.994Z-0.1F500
Y34.999F1000
Y35.002Z0
Y98.402
G0Z10
X-58Y-98.398
G1Z0F500
Y-36.597F1000
Y-36.594Z-0.1F500
Y36.599F1000
Y36.602Z0
Y98.402
G0Z10
X-57Y-98.398
G1Z0F500
Y-38.197F1000
Y-38.072Z-0.1F500
Y37.999F1000
Y38.002Z-0
Y98.402Z0
G0Z10
X-56Y-98.398
G1Z0F500
Y-39.597F1000
Y-39.594Z-0.1F500
Y39.599F1000
Y39.602Z0
Y98.402
G0Z10
X-55Y-98.398
G1Z0F500
Y-40.997F1000
Y-40.994Z-0.1F500
Y40.999F1000
Y41.002Z0
Y98.402
G0Z10
X-54Y-98.398
G1Z0F500
Y-42.397F1000
Y-42.273Z-0.1F500
Y42.199F1000
Y42.202Z-0
Y42.402Z0
Y98.402
G0Z10
X-53Y-98.398
G1Z0F500
Y-43.597F1000
Y-43.473Z-0.1F500
Y43.399F1000
Y43.402Z-0
Y98.402Z0
G0Z10
X-52Y-98.398
G1Z0F500
Y-44.797F1000
Y-44.673Z-0.1F500
Y44.599F1000
Y44.602Z-0
Y44.802Z0
Y98.402
G0Z10
X-51Y-98.398
G1Z0F500
Y-45.997F1000
Y-45.873Z-0.1F500
Y45.799F1000
Y45.802Z-0
Y98.402Z0
G0Z10
X-50Y-98.398
G1Z0F500
Y-46.997F1000
Y-46.994Z-0.1F500
Y46.999F1000
Y47.002Z0
Y98.402
G0Z10
X-49Y-98.398
G1Z0F500
Y-47.997F1000
Y-47.994Z-0.1F500
Y47.999F1000
Y48.002Z0
Y98.402
G0Z10
X-48Y-98.398
G1Z0F500
Y-48.997F1000
Y-48.994Z-0.1F500
Y48.999F1000
Y49.002Z0
Y98.402
G0Z10
X-47Y-98.398
G1Z0F500
Y-49.997F1000
Y-49.994Z-0.1F500
Y49.999F1000
Y50.002Z0
Y98.402
G0Z10
X-46Y-98.398
G1Z0F500
Y-50.997F1000
Y-50.873Z-0.1F500
Y50.799F1000
Y50.802Z-0
Y98.402Z0
G0Z10
X-45Y-98.398
G1Z0F500
Y-51.797F1000
Y-51.794Z-0.1F500
Y51.799F1000
Y51.802Z0
Y98.402
G0Z10
X-44Y-98.398
G1Z0F500
Y-52.597F1000
Y-52.594Z-0.1F500
Y52.599F1000
Y52.602Z0
Y98.402
G0Z10
X-43Y-98.398
G1Z0F500
Y-53.597F1000
Y-53.473Z-0.1F500
Y53.399F1000
Y53.402Z0
Y98.402
G0Z10
X-42Y-98.398
G1Z0F500
Y-54.197F1000
Y-54.194Z-0.1F500
Y54.199F1000
Y54.202Z0
Y98.402
G0Z10
X-41Y-98.398
G1Z0F500
Y-54.997F1000
Y-54.994Z-0.1F500
Y54.999F1000
Y55.002Z0
Y98.402
G0Z10
X-40Y-98.398
G1Z0F500
Y-55.797F1000
Y-55.674Z-0.1F500
Y55.599F1000
Y55.602Z-0
Y98.402Z0
G0Z10
X-39Y-98.398
G1Z0F500
Y-56.397F1000
Y-56.394Z-0.1F500
Y56.399F1000
Y56.402Z0
Y98.402
G0Z10
X-38Y-98.398
G1Z0F500
Y-57.197F1000
Y-57.074Z-0.1F500
Y56.999F1000
Y57.002Z-0
Y98.402Z0
G0Z10
X-37Y-98.398
G1Z0F500
Y-57.797F1000
Y-57.794Z-0.1F500
Y57.799F1000
Y57.802Z0
Y98.402
G0Z10
X-36Y-98.398
G1Z0F500
Y-58.397F1000
Y-58.394Z-0.1F500
Y58.399F1000
Y58.402Z0
Y98.402
G0Z10
X-35Y-98.398
G1Z0F500
Y-58.997F1000
Y-58.994Z-0.1F500
Y58.999F1000
Y59.002Z0
Y98.402
G0Z10
X-34Y-98.398
G1Z0F500
Y-59.597F1000
Y-59.594Z-0.1F500
Y59.599F1000
Y59.602Z0
Y98.402
G0Z10
X-33Y-98.398
G1Z0F500
Y-60.197F1000
Y-60.194Z-0.1F500
Y60.199F1000
Y60.202Z0
Y98.402
G0Z10
X-32Y-98.398
G1Z0F500
Y-60.797F1000
Y-60.674Z-0.1F500
Y60.599F1000
Y60.602Z-0
Y60.802Z0
Y98.402
G0Z10
X-31Y-98.398
G1Z0F500
Y-61.197F1000
Y-61.194Z-0.1F500
Y61.199F1000
Y61.202Z0
Y98.402
G0Z10
X-30Y-98.398
G1Z0F500
Y-61.797F1000
Y-61.674Z-0.1F500
Y61.599F1000
Y61.602Z-0
Y61.802Z0
Y98.402
G0Z10
X-29Y-98.398
G1Z0F500
Y-62.197F1000
Y-62.194Z-0.1F500
Y62.199F1000
Y62.202Z0
Y98.402
G0Z10
X-28Y-98.398
G1Z0F500
Y-62.797F1000
Y-62.674Z-0.1F500
Y62.599F1000
Y62.602Z0
Y98.402
G0Z10
X-27Y-98.398
G1Z0F500
Y-63.197F1000
Y-63.074Z-0.1F500
Y62.999F1000
Y63.002Z-0
Y63.202Z0
Y98.402
G0Z10
X-26Y-98.398
G1Z0F500
Y-63.597F1000
Y-63.474Z-0.1F500
Y63.399F1000
Y63.402Z-0
Y63.602Z0
Y98.402
G0Z10
X-25Y-98.398
G1Z0F500
Y-63.997F1000
Y-63.873Z-0.1F500
Y63.799F1000
Y63.802Z-0
Y64.002Z0
Y98.402
G0Z10
X-24Y-98.398
G1Z0F500
Y-64.397F1000
Y-64.273Z-0.1F500
Y64.199F1000
Y64.202Z0
Y98.402
G0Z10
X-23Y-98.398
G1Z0F500
Y-64.797F1000
Y-64.672Z-0.1F500
Y64.599F1000
Y64.602Z0
Y98.402
G0Z10
X-22Y-98.398
G1Z0F500
Y-64.997F1000
Y-64.994Z-0.1F500
Y64.999F1000
Y65.002Z0
Y98.402
G0Z10
X-21Y-98.398
G1Z0F500
Y-65.397F1000
Y-65.272Z-0.1F500
Y65.199F1000
Y65.202Z-0
Y65.402Z0
Y98.402
G0Z10
X-20Y-98.398
G1Z0F500
Y-65.797F1000
Y-65.671Z-0.1F500
Y65.599F1000
Y65.602Z0
Y98.402
G0Z10
X-19Y-98.398
G1Z0F500
Y-65.997F1000
Y-65.994Z-0.1F500
Y65.999F1000
Y66.002Z0
Y98.402
G0Z10
X-18Y-98.398
G1Z0F500
Y-66.197F1000
Y-66.194Z-0.1F500
Y66.199F1000
Y66.202Z0
Y98.402
G0Z10
X-17Y-98.398
G1Z0F500
Y-66.597F1000
Y-66.471Z-0.1F500
Y66.399F1000
Y66.402Z0
Y98.402
G0Z10
X-16Y-98.398
G1Z0F500
Y-66.797F1000
Y-66.794Z-0.1F500
Y66.799F1000
Y66.802Z0
Y98.402
G0Z10
X-15Y-98.398
G1Z0F500
Y-66.997F1000
Y-66.994Z-0.1F500
Y66.999F1000
Y67.002Z0
Y98.402
G0Z10
X-14Y-98.398
G1Z0F500
Y-67.197F1000
Y-67.194Z-0.1F500
Y67.199F1000
Y67.202Z0
Y98.402
G0Z10
X-13Y-98.398
G1Z0F500
Y-67.397F1000
Y-67.394Z-0.1F500
Y67.399F1000
Y67.402Z0
Y98.402
G0Z10
X-12Y-98.398
G1Z0F500
Y-67.597F1000
Y-67.594Z-0.1F500
Y67.599F1000
Y67.602Z0
Y98.402
G0Z10
X-11Y-98.398
G1Z0F500
Y-67.797F1000
Y-67.794Z-0.1F500
Y67.799F1000
Y67.802Z0
Y98.402
G0Z10
X-10Y-98.398
G1Z0F500
Y-67.997F1000
Y-67.994Z-0.1F500
Y67.999F1000
Y68.002Z0
Y98.402
G0Z10
X-9Y-98.398
G1Z0F500
Y-68.197F1000
Y-68.069Z-0.1F500
Y67.999F1000
Y68.002Z0
Y98.402
G0Z10
X-8Y-98.398
G1Z0F500
Y-68.197F1000
Y-68.194Z-0.1F500
Y68.199F1000
Y68.202Z0
Y98.402
G0Z10
X-7Y-98.398
G1Z0F500
Y-68.397F1000
Y-68.269Z-0.1F500
Y68.199F1000
Y68.202Z0
Y98.402
G0Z10
X-6Y-98.398
G1Z0F500
Y-68.397F1000
Y-68.394Z-0.1F500
Y68.399F1000
Y68.402Z0
Y98.402
G0Z10
X-5Y-98.398
G1Z0F500
Y-68.597F1000
Y-68.469Z-0.1F500
Y68.399F1000
Y68.402Z0
Y98.402
G0Z10
X-4Y-98.398
G1Z0F500
Y-68.597F1000
Y-68.594Z-0.1F500
Y68.599F1000
Y68.602Z0
Y98.402
G0Z10
X-3Y-98.398
G1Z0F500
Y-68.797F1000
Y-68.669Z-0.1F500
Y68.599F1000
Y68.602Z0
Y98.402
G0Z10
X-2Y-98.398
G1Z0F500
Y-68.797F1000
Y-68.669Z-0.1F500
Y68.599F1000
Y68.602Z0
Y98.402
G0Z10
X-1Y-98.398
G1Z0F500
Y-68.797F1000
Y-68.669Z-0.1F500
Y68.599F1000
Y68.602Z0
Y98.402
G0Z10
X0Y-98.398
G1Z0F500
Y-68.797F1000
Y-68.669Z-0.1F500
Y68.599F1000
Y68.602Z0
Y98.402
G0Z10
X1Y-98.398
G1Z0F500
Y-68.797F1000
Y-68.669Z-0.1F500
Y68.599F1000
Y68.602Z0
Y98.402
G0Z10
X2Y-98.398
G1Z0F500
Y-68.797F1000
Y-68.669Z-0.1F500
Y68.599F1000
Y68.602Z0
Y98.402
G0Z10
X3Y-98.398
G1Z0F500
Y-68.797F1000
Y-68.669Z-0.1F500
Y68.599F1000
Y68.602Z0
Y98.402
G0Z10
X4Y-98.398
G1Z0F500
Y-68.597F1000
Y-68.594Z-0.1F500
Y68.599F1000
Y68.602Z0
Y98.402
G0Z10
X5Y-98.398
G1Z0F500
Y-68.597F1000
Y-68.469Z-0.1F500
Y68.399F1000
Y68.402Z0
Y98.402
G0Z10
X6Y-98.398
G1Z0F500
Y-68.397F1000
Y-68.394Z-0.1F500
Y68.399F1000
Y68.402Z0
Y98.402
G0Z10
X7Y-98.398
G1Z0F500
Y-68.397F1000
Y-68.269Z-0.1F500
Y68.199F1000
Y68.202Z0
Y98.402
G0Z10
X8Y-98.398
G1Z0F500
Y-68.197F1000
Y-68.194Z-0.1F500
Y68.199F1000
Y68.202Z0
Y98.402
G0Z10
X9Y-98.398
G1Z0F500
Y-68.197F1000
Y-68.069Z-0.1F500
Y67.999F1000
Y68.002Z0
Y98.402
G0Z10
X10Y-98.398
G1Z0F500
Y-67.997F1000
Y-67.994Z-0.1F500
Y67.999F1000
Y68.002Z0
Y98.402
G0Z10
X11Y-98.398
G1Z0F500
Y-67.797F1000
Y-67.794Z-0.1F500
Y67.799F1000
Y67.802Z0
Y98.402
G0Z10
X12Y-98.398
G1Z0F500
Y-67.597F1000
Y-67.594Z-0.1F500
Y67.599F1000
Y67.602Z0
Y98.402
G0Z10
X13Y-98.398
G1Z0F500
Y-67.397F1000
Y-67.394Z-0.1F500
Y67.399F1000
Y67.402Z0
Y98.402
G0Z10
X14Y-98.398
G1Z0F500
Y-67.197F1000
Y-67.194Z-0.1F500
Y67.199F1000
Y67.202Z0
Y98.402
G0Z10
X15Y-98.398
G1Z0F500
Y-66.997F1000
Y-66.994Z-0.1F500
Y66.999F1000
Y67.002Z0
Y98.402
G0Z10
X16Y-98.398
G1Z0F500
Y-66.797F1000
Y-66.794Z-0.1F500
Y66.799F1000
Y66.802Z0
Y98.402
G0Z10
X17Y-98.398
G1Z0F500
Y-66.597F1000
Y-66.471Z-0.1F500
Y66.399F1000
Y66.402Z0
Y98.402
G0Z10
X18Y-98.398
G1Z0F500
Y-66.197F1000
Y-66.194Z-0.1F500
Y66.199F1000
Y66.202Z0
Y98.402
G0Z10
X19Y-98.398
G1Z0F500
Y-65.997F1000
Y-65.994Z-0.1F500
Y65.999F1000
Y66.002Z0
Y98.402
G0Z10
X20Y-98.398
G1Z0F500
Y-65.797F1000
Y-65.671Z-0.1F500
Y65.599F1000
Y65.602Z0
Y98.402
G0Z10
X21Y-98.398
G1Z0F500
Y-65.397F1000
Y-65.272Z-0.1F500
Y65.199F1000
Y65.202Z0
Y98.402
G0Z10
X22Y-98.398
G1Z0F500
Y-64.997F1000
Y-64.994Z-0.1F500
Y64.999F1000
Y65.002Z0
Y98.402
G0Z10
X23Y-98.398
G1Z0F500
Y-64.797F1000
Y-64.672Z-0.1F500
Y64.599F1000
Y64.602Z0
Y98.402
G0Z10
X24Y-98.398
G1Z0F500
Y-64.397F1000
Y-64.273Z-0.1F500
Y64.199F1000
Y64.202Z0
Y98.402
G0Z10
X25Y-98.398
G1Z0F500
Y-63.997F1000
Y-63.873Z-0.1F500
Y63.799F1000
Y63.802Z0
Y98.402
G0Z10
X26Y-98.398
G1Z0F500
Y-63.597F1000
Y-63.473Z-0.1F500
Y63.399F1000
Y63.402Z0
Y98.402
G0Z10
X27Y-98.398
G1Z0F500
Y-63.197F1000
Y-63.074Z-0.1F500
Y62.999F1000
Y63.002Z0
Y98.402
G0Z10
X28Y-98.398
G1Z0F500
Y-62.797F1000
Y-62.674Z-0.1F500
Y62.599F1000
Y62.602Z0
Y98.402
G0Z10
X29Y-98.398
G1Z0F500
Y-62.197F1000
Y-62.194Z-0.1F500
Y62.199F1000
Y62.202Z0
Y98.402
G0Z10
X30Y-98.398
G1Z0F500
Y-61.797F1000
Y-61.674Z-0.1F500
Y61.599F1000
Y61.602Z0
Y98.402
G0Z10
X31Y-98.398
G1Z0F500
Y-61.197F1000
Y-61.194Z-0.1F500
Y61.199F1000
Y61.202Z0
Y98.402
G0Z10
X32Y-98.398
G1Z0F500
Y-60.797F1000
Y-60.674Z-0.1F500
Y60.599F1000
Y60.602Z0
Y98.402
G0Z10
X33Y-98.398
G1Z0F500
Y-60.197F1000
Y-60.194Z-0.1F500
Y60.199F1000
Y60.202Z0
Y98.402
G0Z10
X34Y-98.398
G1Z0F500
Y-59.597F1000
Y-59.594Z-0.1F500
Y59.599F1000
Y59.602Z0
Y98.402
G0Z10
X35Y-98.398
G1Z0F500
Y-58.997F1000
Y-58.994Z-0.1F500
Y58.999F1000
Y59.002Z0
Y98.402
G0Z10
X36Y-98.398
G1Z0F500
Y-58.397F1000
Y-58.394Z-0.1F500
Y58.399F1000
Y58.402Z0
Y98.402
G0Z10
X37Y-98.398
G1Z0F500
Y-57.797F1000
Y-57.794Z-0.1F500
Y57.799F1000
Y57.802Z0
Y98.402
G0Z10
X38Y-98.398
G1Z0F500
Y-57.197F1000
Y-57.074Z-0.1F500
Y56.999F1000
Y57.002Z0
Y98.402
G0Z10
X39Y-98.398
G1Z0F500
Y-56.397F1000
Y-56.394Z-0.1F500
Y56.399F1000
Y56.402Z0
Y98.402
G0Z10
X40Y-98.398
G1Z0F500
Y-55.797F1000
Y-55.673Z-0.1F500
Y55.599F1000
Y55.602Z0
Y98.402
G0Z10
X41Y-98.398
G1Z0F500
Y-54.997F1000
Y-54.994Z-0.1F500
Y54.999F1000
Y55.002Z0
Y98.402
G0Z10
X42Y-98.398
G1Z0F500
Y-54.197F1000
Y-54.194Z-0.1F500
Y54.199F1000
Y54.202Z0
Y98.402
G0Z10
X43Y-98.398
G1Z0F500
Y-53.597F1000
Y-53.473Z-0.1F500
Y53.399F1000
Y53.402Z0
Y98.402
G0Z10
X44Y-98.398
G1Z0F500
Y-52.597F1000
Y-52.594Z-0.1F500
Y52.599F1000
Y52.602Z0
Y98.402
G0Z10
X45Y-98.398
G1Z0F500
Y-51.797F1000
Y-51.794Z-0.1F500
Y51.799F1000
Y51.802Z0
Y98.402
G0Z10
X46Y-98.398
G1Z0F500
Y-50.997F1000
Y-50.873Z-0.1F500
Y50.799F1000
Y50.802Z0
Y98.402
G0Z10
X47Y-98.398
G1Z0F500
Y-49.997F1000
Y-49.994Z-0.1F500
Y49.999F1000
Y50.002Z0
Y98.402
G0Z10
X48Y-98.398
G1Z0F500
Y-48.997F1000
Y-48.994Z-0.1F500
Y48.999F1000
Y49.002Z0
Y98.402
G0Z10
X49Y-98.398
G1Z0F500
Y-47.997F1000
Y-47.994Z-0.1F500
Y47.999F1000
Y48.002Z0
Y98.402
G0Z10
X50Y-98.398
G1Z0F500
Y-46.997F1000
Y-46.994Z-0.1F500
Y46.999F1000
Y47.002Z0
Y98.402
G0Z10
X51Y-98.398
G1Z0F500
Y-45.997F1000
Y-45.873Z-0.1F500
Y45.799F1000
Y45.802Z0
Y98.402
G0Z10
X52Y-98.398
G1Z0F500
Y-44.797F1000
Y-44.673Z-0.1F500
Y44.599F1000
Y44.602Z0
Y98.402
G0Z10
X53Y-98.398
G1Z0F500
Y-43.597F1000
Y-43.472Z-0.1F500
Y43.399F1000
Y43.402Z0
Y98.402
G0Z10
X54Y-98.398
G1Z0F500
Y-42.397F1000
Y-42.272Z-0.1F500
Y42.199F1000
Y42.202Z0
Y98.402
G0Z10
X55Y-98.398
G1Z0F500
Y-40.997F1000
Y-40.994Z-0.1F500
Y40.999F1000
Y41.002Z0
Y98.402
G0Z10
X56Y-98.398
G1Z0F500
Y-39.597F1000
Y-39.594Z-0.1F500
Y39.599F1000
Y39.602Z0
Y98.402
G0Z10
X57Y-98.398
G1Z0F500
Y-38.197F1000
Y-38.072Z-0.1F500
Y37.999F1000
Y38.002Z0
Y98.402
G0Z10
X58Y-98.398
G1Z0F500
Y-36.597F1000
Y-36.594Z-0.1F500
Y36.599F1000
Y36.602Z0
Y98.402
G0Z10
X59Y-98.398
G1Z0F500
Y-34.997F1000
Y-34.994Z-0.1F500
Y34.999F1000
Y35.002Z0
Y98.402
G0Z10
X60Y-98.398
G1Z0F500
Y-33.197F1000
Y-33.194Z-0.1F500
Y33.199F1000
Y33.202Z0
Y98.402
G0Z10
X61Y-98.398
G1Z0F500
Y-31.397F1000
Y-31.271Z-0.1F500
Y31.199F1000
Y31.202Z0
Y98.402
G0Z10
X62Y-98.398
G1Z0F500
Y-29.397F1000
Y-29.271Z-0.1F500
Y29.199F1000
Y29.202Z0
Y98.402
G0Z10
X63Y-98.398
G1Z0F500
Y-27.197F1000
Y-27.071Z-0.1F500
Y26.999F1000
Y27.002Z0
Y98.402
G0Z10
X64Y-98.398
G1Z0F500
Y-24.597F1000
Y-24.471Z-0.1F500
Y24.399F1000
Y24.402Z0
Y98.402
G0Z10
X65Y-98.398
G1Z0F500
Y-21.797F1000
Y-21.67Z-0.1F500
Y21.599F1000
Y21.602Z0
Y98.402
G0Z10
X66Y-98.398
G1Z0F500
Y-18.597F1000
Y-18.47Z-0.1F500
Y18.399F1000
Y18.402Z0
Y98.402
G0Z10
X67Y-98.398
G1Z0F500
Y-14.397F1000
Y-14.394Z-0.1F500
Y14.399F1000
Y14.402Z0
Y98.402
G0Z10
X68Y-98.398
G1Z0F500
Y-8.597F1000
Y-8.594Z-0.1F500
Y8.599F1000
Y8.602Z0
Y98.402
G0Z10
X69Y-98.398
G1Z0F500
Y98.402F1000
G0Z10
X70Y-98.398
G1Z0F500
Y98.402F1000
G0Z10
X71Y-98.398
G1Z0F500
Y98.402F1000
G0Z10
X72Y-98.398
G1Z0F500
Y98.402F1000
G0Z10
X73Y-98.398
G1Z0F500
Y98.402F1000
G0Z10
X74Y-98.398
G1Z0F500
Y98.402F1000
G0Z10
X75Y-98.398
G1Z0F500
Y98.402F1000
G0Z10
X76Y-98.398
G1Z0F500
Y98.402F1000
G0Z10
X77Y-98.398
G1Z0F500
Y98.402F1000
G0Z10
X78Y-98.398
G1Z0F500
Y98.402F1000
G0Z10
X79Y-98.398
G1Z0F500
Y98.402F1000
G0Z10
X80Y-98.398
G1Z0F500
Y98.402F1000
G0Z10
X81Y-98.398
G1Z0F500
Y98.402F1000
G0Z10
X82Y-98.398
G1Z0F500
Y98.402F1000
G0Z10
X83Y-98.398
G1Z0F500
Y98.402F1000
G0Z10
X84Y-98.398
G1Z0F500
Y98.402F1000
G0Z10
X85Y-98.398
G1Z0F500
Y98.402F1000
G0Z10
X86Y-98.398
G1Z0F500
Y98.402F1000
G0Z10
X87Y-98.398
G1Z0F500
Y98.402F1000
G0Z10
X88Y-98.398
G1Z0F500
Y98.402F1000
G0Z10
X89Y-98.398
G1Z0F500
Y98.402F1000
G0Z10
X90Y-98.398
G1Z0F500
Y98.402F1000
G0Z10
X91Y-98.398
G1Z0F500
Y98.402F1000
G0Z10
X92Y-98.398
G1Z0F500
Y98.402F1000
G0Z10
X93Y-98.398
G1Z0F500
Y98.402F1000
G0Z10
X94Y-98.398
G1Z0F500
Y98.402F1000
G0Z10
X95Y-98.398
G1Z0F500
Y98.402F1000
G0Z10
X96Y-98.398
G1Z0F500
Y98.402F1000
G0Z10
X97Y-98.398
G1Z0F500
Y98.402F1000
G0Z10
X98Y-98.398
G1Z0F500
Y98.402F1000
G0Z10
X-68Y-8.594
G1Z-0.1F500
Y-8.591Z-0.2
Y8.596F1000
Y8.599Z-0.1
G0Z10
X-67Y-14.394
G1Z-0.1F500
Y-14.391Z-0.2
Y14.396F1000
Y14.399Z-0.1
G0Z10
X-66Y-18.471
G1Z-0.1F500
Y-18.397Z-0.157
Y-18.396Z-0.2
Y18.396F1000
Y18.399Z-0.1
G0Z10
X-65Y-21.671
G1Z-0.1F500
Y-21.597Z-0.157
Y-21.596Z-0.2
Y21.596F1000
Y21.599Z-0.1
G0Z10
X-64Y-24.471
G1Z-0.1F500
Y-24.397Z-0.158
Y-24.396Z-0.2
Y24.396F1000
Y24.399Z-0.1
G0Z10
X-63Y-27.071
G1Z-0.1F500
Y-26.997Z-0.158
Y-26.996Z-0.2
Y26.996F1000
Y26.999Z-0.1
G0Z10
X-62Y-29.271
G1Z-0.1F500
Y-29.197Z-0.158
Y-29.196Z-0.2
Y29.196F1000
Y29.199Z-0.1
G0Z10
X-61Y-31.271
G1Z-0.1F500
Y-31.197Z-0.158
Y-31.196Z-0.2
Y31.196F1000
Y31.199Z-0.1
G0Z10
X-60Y-33.194
G1Z-0.1F500
Y-33.191Z-0.2
Y33.196F1000
Y33.199Z-0.1
G0Z10
X-59Y-34.994
G1Z-0.1F500
Y-34.991Z-0.2
Y34.996F1000
Y34.999Z-0.1
G0Z10
X-58Y-36.594
G1Z-0.1F500
Y-36.591Z-0.2
Y36.596F1000
Y36.599Z-0.1
G0Z10
X-57Y-38.072
G1Z-0.1F500
Y-37.997Z-0.159
Y-37.996Z-0.2
Y37.996F1000
Y37.999Z-0.1
G0Z10
X-56Y-39.594
G1Z-0.1F500
Y-39.591Z-0.2
Y39.596F1000
Y39.599Z-0.1
G0Z10
X-55Y-40.994
G1Z-0.1F500
Y-40.991Z-0.2
Y40.996F1000
Y40.999Z-0.1
G0Z10
X-54Y-42.273
G1Z-0.1F500
Y-42.197Z-0.16
Y-42.196Z-0.2
Y42.196F1000
Y42.199Z-0.1
G0Z10
X-53Y-43.473
G1Z-0.1F500
Y-43.397Z-0.16
Y-43.396Z-0.2
Y43.396F1000
Y43.399Z-0.1
G0Z10
X-52Y-44.673
G1Z-0.1F500
Y-44.597Z-0.16
Y-44.596Z-0.2
Y44.596F1000
Y44.599Z-0.1
G0Z10
X-51Y-45.873
G1Z-0.1F500
Y-45.797Z-0.16
Y-45.796Z-0.2
Y45.796F1000
Y45.799Z-0.1
G0Z10
X-50Y-46.994
G1Z-0.1F500
Y-46.991Z-0.2
Y46.996F1000
Y46.999Z-0.1
G0Z10
X-49Y-47.994
G1Z-0.1F500
Y-47.991Z-0.2
Y47.996F1000
Y47.999Z-0.1
G0Z10
X-48Y-48.994
G1Z-0.1F500
Y-48.991Z-0.2
Y48.996F1000
Y48.999Z-0.1
G0Z10
X-47Y-49.994
G1Z-0.1F500
Y-49.991Z-0.2
Y49.996F1000
Y49.999Z-0.1
G0Z10
X-46Y-50.873
G1Z-0.1F500
Y-50.797Z-0.161
Y-50.796Z-0.2
Y50.796F1000
Y50.799Z-0.1
G0Z10
X-45Y-51.794
G1Z-0.1F500
Y-51.791Z-0.2
Y51.796F1000
Y51.799Z-0.1
G0Z10
X-44Y-52.594
G1Z-0.1F500
Y-52.591Z-0.2
Y52.596F1000
Y52.599Z-0.1
G0Z10
X-43Y-53.473
G1Z-0.1F500
Y-53.397Z-0.161
Y-53.396Z-0.2
Y53.396F1000
Y53.399Z-0.1
G0Z10
X-42Y-54.194
G1Z-0.1F500
Y-54.191Z-0.2
Y54.196F1000
Y54.199Z-0.1
G0Z10
X-41Y-54.994
G1Z-0.1F500
Y-54.991Z-0.2
Y54.996F1000
Y54.999Z-0.1
G0Z10
X-40Y-55.674
G1Z-0.1F500
Y-55.597Z-0.161
Y-55.596Z-0.2
Y55.596F1000
Y55.599Z-0.1
G0Z10
X-39Y-56.394
G1Z-0.1F500
Y-56.391Z-0.2
Y56.396F1000
Y56.399Z-0.1
G0Z10
X-38Y-57.074
G1Z-0.1F500
Y-56.997Z-0.162
Y-56.996Z-0.2
Y56.996F1000
Y56.999Z-0.1
G0Z10
X-37Y-57.794
G1Z-0.1F500
Y-57.791Z-0.2
Y57.796F1000
Y57.799Z-0.1
G0Z10
X-36Y-58.394
G1Z-0.1F500
Y-58.391Z-0.2
Y58.396F1000
Y58.399Z-0.1
G0Z10
X-35Y-58.994
G1Z-0.1F500
Y-58.991Z-0.2
Y58.996F1000
Y58.999Z-0.1
G0Z10
X-34Y-59.594
G1Z-0.1F500
Y-59.591Z-0.2
Y59.596F1000
Y59.599Z-0.1
G0Z10
X-33Y-60.194
G1Z-0.1F500
Y-60.191Z-0.2
Y60.196F1000
Y60.199Z-0.1
G0Z10
X-32Y-60.674
G1Z-0.1F500
Y-60.597Z-0.162
Y-60.596Z-0.2
Y60.596F1000
Y60.599Z-0.1
G0Z10
X-31Y-61.194
G1Z-0.1F500
Y-61.191Z-0.2
Y61.196F1000
Y61.199Z-0.1
G0Z10
X-30Y-61.674
G1Z-0.1F500
Y-61.597Z-0.162
Y-61.596Z-0.2
Y61.596F1000
Y61.599Z-0.1
G0Z10
X-29Y-62.194
G1Z-0.1F500
Y-62.191Z-0.2
Y62.196F1000
Y62.199Z-0.1
G0Z10
X-28Y-62.674
G1Z-0.1F500
Y-62.597Z-0.162
Y-62.596Z-0.2
Y62.596F1000
Y62.599Z-0.1
G0Z10
X-27Y-63.074
G1Z-0.1F500
Y-62.997Z-0.162
Y-62.996Z-0.2
Y62.996F1000
Y62.999Z-0.1
G0Z10
X-26Y-63.474
G1Z-0.1F500
Y-63.397Z-0.161
Y-63.396Z-0.2
Y63.396F1000
Y63.399Z-0.1
G0Z10
X-25Y-63.873
G1Z-0.1F500
Y-63.797Z-0.161
Y-63.796Z-0.2
Y63.796F1000
Y63.799Z-0.1
G0Z10
X-24Y-64.273
G1Z-0.1F500
Y-64.197Z-0.16
Y-64.196Z-0.2
Y64.196F1000
Y64.199Z-0.1
G0Z10
X-23Y-64.672
G1Z-0.1F500
Y-64.597Z-0.16
Y-64.596Z-0.2
Y64.596F1000
Y64.599Z-0.1
G0Z10
X-22Y-64.994
G1Z-0.1F500
Y-64.991Z-0.2
Y64.996F1000
Y64.999Z-0.1
G0Z10
X-21Y-65.272
G1Z-0.1F500
Y-65.197Z-0.159
Y-65.196Z-0.2
Y65.196F1000
Y65.199Z-0.1
G0Z10
X-20Y-65.671
G1Z-0.1F500
Y-65.597Z-0.158
Y-65.596Z-0.2
Y65.596F1000
Y65.599Z-0.1
G0Z10
X-19Y-65.994
G1Z-0.1F500
Y-65.991Z-0.2
Y65.996F1000
Y65.999Z-0.1
G0Z10
X-18Y-66.194
G1Z-0.1F500
Y-66.191Z-0.2
Y66.196F1000
Y66.199Z-0.1
G0Z10
X-17Y-66.471
G1Z-0.1F500
Y-66.397Z-0.157
Y-66.396Z-0.2
Y66.396F1000
Y66.399Z-0.1
G0Z10
X-16Y-66.794
G1Z-0.1F500
Y-66.791Z-0.2
Y66.796F1000
Y66.799Z-0.1
G0Z10
X-15Y-66.994
G1Z-0.1F500
Y-66.991Z-0.2
Y66.996F1000
Y66.999Z-0.1
G0Z10
X-14Y-67.194
G1Z-0.1F500
Y-67.191Z-0.2
Y67.196F1000
Y67.199Z-0.1
G0Z10
X-13Y-67.394
G1Z-0.1F500
Y-67.391Z-0.2
Y67.396F1000
Y67.399Z-0.1
G0Z10
X-12Y-67.594
G1Z-0.1F500
Y-67.591Z-0.2
Y67.596F1000
Y67.599Z-0.1
G0Z10
X-11Y-67.794
G1Z-0.1F500
Y-67.791Z-0.2
Y67.796F1000
Y67.799Z-0.1
G0Z10
X-10Y-67.994
G1Z-0.1F500
Y-67.991Z-0.2
Y67.996F1000
Y67.999Z-0.1
G0Z10
X-9Y-68.069
G1Z-0.1F500
Y-67.997Z-0.156
Y-67.996Z-0.2
Y67.996F1000
Y67.999Z-0.1
G0Z10
X-8Y-68.194
G1Z-0.1F500
Y-68.191Z-0.2
Y68.196F1000
Y68.199Z-0.1
G0Z10
X-7Y-68.269
G1Z-0.1F500
Y-68.197Z-0.155
Y-68.196Z-0.2
Y68.196F1000
Y68.199Z-0.1
G0Z10
X-6Y-68.394
G1Z-0.1F500
Y-68.391Z-0.2
Y68.396F1000
Y68.399Z-0.1
G0Z10
X-5Y-68.469
G1Z-0.1F500
Y-68.397Z-0.155
Y-68.396Z-0.2
Y68.396F1000
Y68.399Z-0.1
G0Z10
X-4Y-68.594
G1Z-0.1F500
Y-68.591Z-0.2
Y68.596F1000
Y68.599Z-0.1
G0Z10
X-3Y-68.669
G1Z-0.1F500
Y-68.597Z-0.155
Y-68.596Z-0.2
Y68.596F1000
Y68.599Z-0.1
G0Z10
X-2Y-68.669
G1Z-0.1F500
Y-68.597Z-0.155
Y-68.596Z-0.2
Y68.596F1000
Y68.599Z-0.1
G0Z10
X-1Y-68.669
G1Z-0.1F500
Y-68.597Z-0.155
Y-68.596Z-0.2
Y68.596F1000
Y68.599Z-0.1
G0Z10
X0Y-68.669
G1Z-0.1F500
Y-68.597Z-0.155
Y-68.596Z-0.2
Y68.596F1000
Y68.599Z-0.1
G0Z10
X1Y-68.669
G1Z-0.1F500
Y-68.597Z-0.155
Y-68.596Z-0.2
Y68.596F1000
Y68.599Z-0.1
G0Z10
X2Y-68.669
G1Z-0.1F500
Y-68.597Z-0.155
Y-68.596Z-0.2
Y68.596F1000
Y68.599Z-0.1
G0Z10
X3Y-68.669
G1Z-0.1F500
Y-68.597Z-0.155
Y-68.596Z-0.2
Y68.596F1000
Y68.599Z-0.1
G0Z10
X4Y-68.594
G1Z-0.1F500
Y-68.591Z-0.2
Y68.596F1000
Y68.599Z-0.1
G0Z10
X5Y-68.469
G1Z-0.1F500
Y-68.397Z-0.155
Y-68.396Z-0.2
Y68.396F1000
Y68.399Z-0.1
G0Z10
X6Y-68.394
G1Z-0.1F500
Y-68.391Z-0.2
Y68.396F1000
Y68.399Z-0.1
G0Z10
X7Y-68.269
G1Z-0.1F500
Y-68.197Z-0.155
Y-68.196Z-0.2
Y68.196F1000
Y68.199Z-0.1
G0Z10
X8Y-68.194
G1Z-0.1F500
Y-68.191Z-0.2
Y68.196F1000
Y68.199Z-0.1
G0Z10
X9Y-68.069
G1Z-0.1F500
Y-67.997Z-0.156
Y-67.996Z-0.2
Y67.996F1000
Y67.999Z-0.1
G0Z10
X10Y-67.994
G1Z-0.1F500
Y-67.991Z-0.2
Y67.996F1000
Y67.999Z-0.1
G0Z10
X11Y-67.794
G1Z-0.1F500
Y-67.791Z-0.2
Y67.796F1000
Y67.799Z-0.1
G0Z10
X12Y-67.594
G1Z-0.1F500
Y-67.591Z-0.2
Y67.596F1000
Y67.599Z-0.1
G0Z10
X13Y-67.394
G1Z-0.1F500
Y-67.391Z-0.2
Y67.396F1000
Y67.399Z-0.1
G0Z10
X14Y-67.194
G1Z-0.1F500
Y-67.191Z-0.2
Y67.196F1000
Y67.199Z-0.1
G0Z10
X15Y-66.994
G1Z-0.1F500
Y-66.991Z-0.2
Y66.996F1000
Y66.999Z-0.1
G0Z10
X16Y-66.794
G1Z-0.1F500
Y-66.791Z-0.2
Y66.796F1000
Y66.799Z-0.1
G0Z10
X17Y-66.471
G1Z-0.1F500
Y-66.397Z-0.157
Y-66.396Z-0.2
Y66.396F1000
Y66.399Z-0.1
G0Z10
X18Y-66.194
G1Z-0.1F500
Y-66.191Z-0.2
Y66.196F1000
Y66.199Z-0.1
G0Z10
X19Y-65.994
G1Z-0.1F500
Y-65.991Z-0.2
Y65.996F1000
Y65.999Z-0.1
G0Z10
X20Y-65.671
G1Z-0.1F500
Y-65.597Z-0.158
Y-65.596Z-0.2
Y65.596F1000
Y65.599Z-0.1
G0Z10
X21Y-65.272
G1Z-0.1F500
Y-65.197Z-0.159
Y-65.196Z-0.2
Y65.196F1000
Y65.199Z-0.1
G0Z10
X22Y-64.994
G1Z-0.1F500
Y-64.991Z-0.2
Y64.996F1000
Y64.999Z-0.1
G0Z10
X23Y-64.672
G1Z-0.1F500
Y-64.597Z-0.16
Y-64.596Z-0.2
Y64.596F1000
Y64.599Z-0.1
G0Z10
X24Y-64.273
G1Z-0.1F500
Y-64.197Z-0.16
Y-64.196Z-0.2
Y64.196F1000
Y64.199Z-0.1
G0Z10
X25Y-63.873
G1Z-0.1F500
Y-63.797Z-0.16
Y-63.796Z-0.2
Y63.796F1000
Y63.799Z-0.1
G0Z10
X26Y-63.473
G1Z-0.1F500
Y-63.397Z-0.161
Y-63.396Z-0.2
Y63.396F1000
Y63.399Z-0.1
G0Z10
X27Y-63.074
G1Z-0.1F500
Y-62.997Z-0.161
Y-62.996Z-0.2
Y62.996F1000
Y62.999Z-0.1
G0Z10
X28Y-62.674
G1Z-0.1F500
Y-62.597Z-0.162
Y-62.596Z-0.2
Y62.596F1000
Y62.599Z-0.1
G0Z10
X29Y-62.194
G1Z-0.1F500
Y-62.191Z-0.2
Y62.196F1000
Y62.199Z-0.1
G0Z10
X30Y-61.674
G1Z-0.1F500
Y-61.597Z-0.162
Y-61.596Z-0.2
Y61.596F1000
Y61.599Z-0.1
G0Z10
X31Y-61.194
G1Z-0.1F500
Y-61.191Z-0.2
Y61.196F1000
Y61.199Z-0.1
G0Z10
X32Y-60.674
G1Z-0.1F500
Y-60.597Z-0.162
Y-60.596Z-0.2
Y60.596F1000
Y60.599Z-0.1
G0Z10
X33Y-60.194
G1Z-0.1F500
Y-60.191Z-0.2
Y60.196F1000
Y60.199Z-0.1
G0Z10
X34Y-59.594
G1Z-0.1F500
Y-59.591Z-0.2
Y59.596F1000
Y59.599Z-0.1
G0Z10
X35Y-58.994
G1Z-0.1F500
Y-58.991Z-0.2
Y58.996F1000
Y58.999Z-0.1
G0Z10
X36Y-58.394
G1Z-0.1F500
Y-58.391Z-0.2
Y58.396F1000
Y58.399Z-0.1
G0Z10
X37Y-57.794
G1Z-0.1F500
Y-57.791Z-0.2
Y57.796F1000
Y57.799Z-0.1
G0Z10
X38Y-57.074
G1Z-0.1F500
Y-56.997Z-0.161
Y-56.996Z-0.2
Y56.996F1000
Y56.999Z-0.1
G0Z10
X39Y-56.394
G1Z-0.1F500
Y-56.391Z-0.2
Y56.396F1000
Y56.399Z-0.1
G0Z10
X40Y-55.673
G1Z-0.1F500
Y-55.597Z-0.161
Y-55.596Z-0.2
Y55.596F1000
Y55.599Z-0.1
G0Z10
X41Y-54.994
G1Z-0.1F500
Y-54.991Z-0.2
Y54.996F1000
Y54.999Z-0.1
G0Z10
X42Y-54.194
G1Z-0.1F500
Y-54.191Z-0.2
Y54.196F1000
Y54.199Z-0.1
G0Z10
X43Y-53.473
G1Z-0.1F500
Y-53.397Z-0.161
Y-53.396Z-0.2
Y53.396F1000
Y53.399Z-0.1
G0Z10
X44Y-52.594
G1Z-0.1F500
Y-52.591Z-0.2
Y52.596F1000
Y52.599Z-0.1
G0Z10
X45Y-51.794
G1Z-0.1F500
Y-51.791Z-0.2
Y51.796F1000
Y51.799Z-0.1
G0Z10
X46Y-50.873
G1Z-0.1F500
Y-50.797Z-0.16
Y-50.796Z-0.2
Y50.796F1000
Y50.799Z-0.1
G0Z10
X47Y-49.994
G1Z-0.1F500
Y-49.991Z-0.2
Y49.996F1000
Y49.999Z-0.1
G0Z10
X48Y-48.994
G1Z-0.1F500
Y-48.991Z-0.2
Y48.996F1000
Y48.999Z-0.1
G0Z10
X49Y-47.994
G1Z-0.1F500
Y-47.991Z-0.2
Y47.996F1000
Y47.999Z-0.1
G0Z10
X50Y-46.994
G1Z-0.1F500
Y-46.991Z-0.2
Y46.996F1000
Y46.999Z-0.1
G0Z10
X51Y-45.873
G1Z-0.1F500
Y-45.797Z-0.16
Y-45.796Z-0.2
Y45.796F1000
Y45.799Z-0.1
G0Z10
X52Y-44.673
G1Z-0.1F500
Y-44.597Z-0.16
Y-44.596Z-0.2
Y44.596F1000
Y44.599Z-0.1
G0Z10
X53Y-43.472
G1Z-0.1F500
Y-43.397Z-0.16
Y-43.396Z-0.2
Y43.396F1000
Y43.399Z-0.1
G0Z10
X54Y-42.272
G1Z-0.1F500
Y-42.197Z-0.159
Y-42.196Z-0.2
Y42.196F1000
Y42.199Z-0.1
G0Z10
X55Y-40.994
G1Z-0.1F500
Y-40.991Z-0.2
Y40.996F1000
Y40.999Z-0.1
G0Z10
X56Y-39.594
G1Z-0.1F500
Y-39.591Z-0.2
Y39.596F1000
Y39.599Z-0.1
G0Z10
X57Y-38.072
G1Z-0.1F500
Y-37.997Z-0.159
Y-37.996Z-0.2
Y37.996F1000
Y37.999Z-0.1
G0Z10
X58Y-36.594
G1Z-0.1F500
Y-36.591Z-0.2
Y36.596F1000
Y36.599Z-0.1
G0Z10
X59Y-34.994
G1Z-0.1F500
Y-34.991Z-0.2
Y34.996F1000
Y34.999Z-0.1
G0Z10
X60Y-33.194
G1Z-0.1F500
Y-33.191Z-0.2
Y33.196F1000
Y33.199Z-0.1
G0Z10
X61Y-31.271
G1Z-0.1F500
Y-31.197Z-0.158
Y-31.196Z-0.2
Y31.196F1000
Y31.199Z-0.1
G0Z10
X62Y-29.271
G1Z-0.1F500
Y-29.197Z-0.158
Y-29.196Z-0.2
Y29.196F1000
Y29.199Z-0.1
G0Z10
X63Y-27.071
G1Z-0.1F500
Y-26.997Z-0.158
Y-26.996Z-0.2
Y26.996F1000
Y26.999Z-0.1
G0Z10
X64Y-24.471
G1Z-0.1F500
Y-24.397Z-0.157
Y-24.396Z-0.2
Y24.396F1000
Y24.399Z-0.1
G0Z10
X65Y-21.67
G1Z-0.1F500
Y-21.597Z-0.157
Y-21.596Z-0.2
Y21.596F1000
Y21.599Z-0.1
G0Z10
X66Y-18.47
G1Z-0.1F500
Y-18.397Z-0.157
Y-18.396Z-0.2
Y18.396F1000
Y18.399Z-0.1
G0Z10
X67Y-14.394
G1Z-0.1F500
Y-14.391Z-0.2
Y14.396F1000
Y14.399Z-0.1
G0Z10
X68Y-8.594
G1Z-0.1F500
Y-8.591Z-0.2
Y8.596F1000
Y8.599Z-0.1
G0Z10
X-68Y-8.591
G1Z-0.2F500
Y-8.589Z-0.3
Y8.593F1000
Y8.596Z-0.2
G0Z10
X-67Y-14.391
G1Z-0.2F500
Y-14.389Z-0.3
Y14.393F1000
Y14.396Z-0.2
G0Z10
X-66Y-18.396
G1Z-0.2F500
Y-18.393Z-0.3
Y18.393F1000
Y18.396Z-0.2
G0Z10
X-65Y-21.596
G1Z-0.2F500
Y-21.593Z-0.3
Y21.593F1000
Y21.596Z-0.2
G0Z10
X-64Y-24.396
G1Z-0.2F500
Y-24.393Z-0.3
Y24.393F1000
Y24.396Z-0.2
G0Z10
X-63Y-26.996
G1Z-0.2F500
Y-26.993Z-0.3
Y26.993F1000
Y26.996Z-0.2
G0Z10
X-62Y-29.196
G1Z-0.2F500
Y-29.193Z-0.3
Y29.193F1000
Y29.196Z-0.2
G0Z10
X-61Y-31.196
G1Z-0.2F500
Y-31.193Z-0.3
Y31.193F1000
Y31.196Z-0.2
G0Z10
X-60Y-33.191
G1Z-0.2F500
Y-33.189Z-0.3
Y33.193F1000
Y33.196Z-0.2
G0Z10
X-59Y-34.991
G1Z-0.2F500
Y-34.989Z-0.3
Y34.993F1000
Y34.996Z-0.2
G0Z10
X-58Y-36.591
G1Z-0.2F500
Y-36.589Z-0.3
Y36.593F1000
Y36.596Z-0.2
G0Z10
X-57Y-37.996
G1Z-0.2F500
Y-37.993Z-0.3
Y37.993F1000
Y37.996Z-0.2
G0Z10
X-56Y-39.591
G1Z-0.2F500
Y-39.589Z-0.3
Y39.593F1000
Y39.596Z-0.2
G0Z10
X-55Y-40.991
G1Z-0.2F500
Y-40.989Z-0.3
Y40.993F1000
Y40.996Z-0.2
G0Z10
X-54Y-42.196
G1Z-0.2F500
Y-42.193Z-0.3
Y42.193F1000
Y42.196Z-0.2
G0Z10
X-53Y-43.396
G1Z-0.2F500
Y-43.393Z-0.3
Y43.393F1000
Y43.396Z-0.2
G0Z10
X-52Y-44.596
G1Z-0.2F500
Y-44.593Z-0.3
Y44.593F1000
Y44.596Z-0.2
G0Z10
X-51Y-45.796
G1Z-0.2F500
Y-45.793Z-0.3
Y45.793F1000
Y45.796Z-0.2
G0Z10
X-50Y-46.991
G1Z-0.2F500
Y-46.989Z-0.3
Y46.993F1000
Y46.996Z-0.2
G0Z10
X-49Y-47.991
G1Z-0.2F500
Y-47.989Z-0.3
Y47.993F1000
Y47.996Z-0.2
G0Z10
X-48Y-48.991
G1Z-0.2F500
Y-48.989Z-0.3
Y48.993F1000
Y48.996Z-0.2
G0Z10
X-47Y-49.991
G1Z-0.2F500
Y-49.989Z-0.3
Y49.993F1000
Y49.996Z-0.2
G0Z10
X-46Y-50.796
G1Z-0.2F500
Y-50.793Z-0.3
Y50.793F1000
Y50.796Z-0.2
G0Z10
X-45Y-51.791
G1Z-0.2F500
Y-51.789Z-0.3
Y51.793F1000
Y51.796Z-0.2
G0Z10
X-44Y-52.591
G1Z-0.2F500
Y-52.589Z-0.3
Y52.593F1000
Y52.596Z-0.2
G0Z10
X-43Y-53.396
G1Z-0.2F500
Y-53.393Z-0.3
Y53.393F1000
Y53.396Z-0.2
G0Z10
X-42Y-54.191
G1Z-0.2F500
Y-54.189Z-0.3
Y54.193F1000
Y54.196Z-0.2
G0Z10
X-41Y-54.991
G1Z-0.2F500
Y-54.989Z-0.3
Y54.993F1000
Y54.996Z-0.2
G0Z10
X-40Y-55.596
G1Z-0.2F500
Y-55.593Z-0.3
Y55.593F1000
Y55.596Z-0.2
G0Z10
X-39Y-56.391
G1Z-0.2F500
Y-56.389Z-0.3
Y56.393F1000
Y56.396Z-0.2
G0Z10
X-38Y-56.996
G1Z-0.2F500
Y-56.993Z-0.3
Y56.993F1000
Y56.996Z-0.2
G0Z10
X-37Y-57.791
G1Z-0.2F500
Y-57.788Z-0.3
Y57.793F1000
Y57.796Z-0.2
G0Z10
X-36Y-58.391
G1Z-0.2F500
Y-58.388Z-0.3
Y58.393F1000
Y58.396Z-0.2
G0Z10
X-35Y-58.991
G1Z-0.2F500
Y-58.988Z-0.3
Y58.993F1000
Y58.996Z-0.2
G0Z10
X-34Y-59.591
G1Z-0.2F500
Y-59.588Z-0.3
Y59.593F1000
Y59.596Z-0.2
G0Z10
X-33Y-60.191
G1Z-0.2F500
Y-60.188Z-0.3
Y60.193F1000
Y60.196Z-0.2
G0Z10
X-32Y-60.596
G1Z-0.2F500
Y-60.593Z-0.3
Y60.593F1000
Y60.596Z-0.2
G0Z10
X-31Y-61.191
G1Z-0.2F500
Y-61.188Z-0.3
Y61.193F1000
Y61.196Z-0.2
G0Z10
X-30Y-61.596
G1Z-0.2F500
Y-61.593Z-0.3
Y61.593F1000
Y61.596Z-0.2
G0Z10
X-29Y-62.191
G1Z-0.2F500
Y-62.188Z-0.3
Y62.193F1000
Y62.196Z-0.2
G0Z10
X-28Y-62.596
G1Z-0.2F500
Y-62.593Z-0.3
Y62.593F1000
Y62.596Z-0.2
G0Z10
X-27Y-62.996
G1Z-0.2F500
Y-62.993Z-0.3
Y62.993F1000
Y62.996Z-0.2
G0Z10
X-26Y-63.396
G1Z-0.2F500
Y-63.393Z-0.3
Y63.393F1000
Y63.396Z-0.2
G0Z10
X-25Y-63.796
G1Z-0.2F500
Y-63.793Z-0.3
Y63.793F1000
Y63.796Z-0.2
G0Z10
X-24Y-64.196
G1Z-0.2F500
Y-64.193Z-0.3
Y64.193F1000
Y64.196Z-0.2
G0Z10
X-23Y-64.596
G1Z-0.2F500
Y-64.593Z-0.3
Y64.593F1000
Y64.596Z-0.2
G0Z10
X-22Y-64.991
G1Z-0.2F500
Y-64.989Z-0.3
Y64.993F1000
Y64.996Z-0.2
G0Z10
X-21Y-65.196
G1Z-0.2F500
Y-65.193Z-0.3
Y65.193F1000
Y65.196Z-0.2
G0Z10
X-20Y-65.596
G1Z-0.2F500
Y-65.593Z-0.3
Y65.593F1000
Y65.596Z-0.2
G0Z10
X-19Y-65.991
G1Z-0.2F500
Y-65.989Z-0.3
Y65.993F1000
Y65.996Z-0.2
G0Z10
X-18Y-66.191
G1Z-0.2F500
Y-66.189Z-0.3
Y66.193F1000
Y66.196Z-0.2
G0Z10
X-17Y-66.396
G1Z-0.2F500
Y-66.393Z-0.3
Y66.393F1000
Y66.396Z-0.2
G0Z10
X-16Y-66.791
G1Z-0.2F500
Y-66.789Z-0.3
Y66.793F1000
Y66.796Z-0.2
G0Z10
X-15Y-66.991
G1Z-0.2F500
Y-66.989Z-0.3
Y66.993F1000
Y66.996Z-0.2
G0Z10
X-14Y-67.191
G1Z-0.2F500
Y-67.189Z-0.3
Y67.193F1000
Y67.196Z-0.2
G0Z10
X-13Y-67.391
G1Z-0.2F500
Y-67.389Z-0.3
Y67.393F1000
Y67.396Z-0.2
G0Z10
X-12Y-67.591
G1Z-0.2F500
Y-67.589Z-0.3
Y67.593F1000
Y67.596Z-0.2
G0Z10
X-11Y-67.791
G1Z-0.2F500
Y-67.789Z-0.3
Y67.793F1000
Y67.796Z-0.2
G0Z10
X-10Y-67.991
G1Z-0.2F500
Y-67.989Z-0.3
Y67.993F1000
Y67.996Z-0.2
G0Z10
X-9Y-67.996
G1Z-0.2F500
Y-67.993Z-0.3
Y67.993F1000
Y67.996Z-0.2
G0Z10
X-8Y-68.191
G1Z-0.2F500
Y-68.189Z-0.3
Y68.193F1000
Y68.196Z-0.2
G0Z10
X-7Y-68.196
G1Z-0.2F500
Y-68.193Z-0.3
Y68.193F1000
Y68.196Z-0.2
G0Z10
X-6Y-68.391
G1Z-0.2F500
Y-68.389Z-0.3
Y68.393F1000
Y68.396Z-0.2
G0Z10
X-5Y-68.396
G1Z-0.2F500
Y-68.393Z-0.3
Y68.393F1000
Y68.396Z-0.2
G0Z10
X-4Y-68.591
G1Z-0.2F500
Y-68.589Z-0.3
Y68.593F1000
Y68.596Z-0.2
G0Z10
X-3Y-68.596
G1Z-0.2F500
Y-68.593Z-0.3
Y68.593F1000
Y68.596Z-0.2
G0Z10
X-2Y-68.596
G1Z-0.2F500
Y-68.593Z-0.3
Y68.593F1000
Y68.596Z-0.2
G0Z10
X-1Y-68.596
G1Z-0.2F500
Y-68.593Z-0.3
Y68.593F1000
Y68.596Z-0.2
G0Z10
X0Y-68.596
G1Z-0.2F500
Y-68.593Z-0.3
Y68.593F1000
Y68.596Z-0.2
G0Z10
X1Y-68.596
G1Z-0.2F500
Y-68.593Z-0.3
Y68.593F1000
Y68.596Z-0.2
G0Z10
X2Y-68.596
G1Z-0.2F500
Y-68.593Z-0.3
Y68.593F1000
Y68.596Z-0.2
G0Z10
X3Y-68.596
G1Z-0.2F500
Y-68.593Z-0.3
Y68.593F1000
Y68.596Z-0.2
G0Z10
X4Y-68.591
G1Z-0.2F500
Y-68.589Z-0.3
Y68.593F1000
Y68.596Z-0.2
G0Z10
X5Y-68.396
G1Z-0.2F500
Y-68.393Z-0.3
Y68.393F1000
Y68.396Z-0.2
G0Z10
X6Y-68.391
G1Z-0.2F500
Y-68.389Z-0.3
Y68.393F1000
Y68.396Z-0.2
G0Z10
X7Y-68.196
G1Z-0.2F500
Y-68.193Z-0.3
Y68.193F1000
Y68.196Z-0.2
G0Z10
X8Y-68.191
G1Z-0.2F500
Y-68.189Z-0.3
Y68.193F1000
Y68.196Z-0.2
G0Z10
X9Y-67.996
G1Z-0.2F500
Y-67.993Z-0.3
Y67.993F1000
Y67.996Z-0.2
G0Z10
X10Y-67.991
G1Z-0.2F500
Y-67.989Z-0.3
Y67.993F1000
Y67.996Z-0.2
G0Z10
X11Y-67.791
G1Z-0.2F500
Y-67.789Z-0.3
Y67.793F1000
Y67.796Z-0.2
G0Z10
X12Y-67.591
G1Z-0.2F500
Y-67.589Z-0.3
Y67.593F1000
Y67.596Z-0.2
G0Z10
X13Y-67.391
G1Z-0.2F500
Y-67.389Z-0.3
Y67.393F1000
Y67.396Z-0.2
G0Z10
X14Y-67.191
G1Z-0.2F500
Y-67.189Z-0.3
Y67.193F1000
Y67.196Z-0.2
G0Z10
X15Y-66.991
G1Z-0.2F500
Y-66.989Z-0.3
Y66.993F1000
Y66.996Z-0.2
G0Z10
X16Y-66.791
G1Z-0.2F500
Y-66.789Z-0.3
Y66.793F1000
Y66.796Z-0.2
G0Z10
X17Y-66.396
G1Z-0.2F500
Y-66.393Z-0.3
Y66.393F1000
Y66.396Z-0.2
G0Z10
X18Y-66.191
G1Z-0.2F500
Y-66.189Z-0.3
Y66.193F1000
Y66.196Z-0.2
G0Z10
X19Y-65.991
G1Z-0.2F500
Y-65.989Z-0.3
Y65.993F1000
Y65.996Z-0.2
G0Z10
X20Y-65.596
G1Z-0.2F500
Y-65.593Z-0.3
Y65.593F1000
Y65.596Z-0.2
G0Z10
X21Y-65.196
G1Z-0.2F500
Y-65.193Z-0.3
Y65.193F1000
Y65.196Z-0.2
G0Z10
X22Y-64.991
G1Z-0.2F500
Y-64.989Z-0.3
Y64.993F1000
Y64.996Z-0.2
G0Z10
X23Y-64.596
G1Z-0.2F500
Y-64.593Z-0.3
Y64.593F1000
Y64.596Z-0.2
G0Z10
X24Y-64.196
G1Z-0.2F500
Y-64.193Z-0.3
Y64.193F1000
Y64.196Z-0.2
G0Z10
X25Y-63.796
G1Z-0.2F500
Y-63.793Z-0.3
Y63.793F1000
Y63.796Z-0.2
G0Z10
X26Y-63.396
G1Z-0.2F500
Y-63.393Z-0.3
Y63.393F1000
Y63.396Z-0.2
G0Z10
X27Y-62.996
G1Z-0.2F500
Y-62.993Z-0.3
Y62.993F1000
Y62.996Z-0.2
G0Z10
X28Y-62.596
G1Z-0.2F500
Y-62.593Z-0.3
Y62.593F1000
Y62.596Z-0.2
G0Z10
X29Y-62.191
G1Z-0.2F500
Y-62.188Z-0.3
Y62.193F1000
Y62.196Z-0.2
G0Z10
X30Y-61.596
G1Z-0.2F500
Y-61.593Z-0.3
Y61.593F1000
Y61.596Z-0.2
G0Z10
X31Y-61.191
G1Z-0.2F500
Y-61.188Z-0.3
Y61.193F1000
Y61.196Z-0.2
G0Z10
X32Y-60.596
G1Z-0.2F500
Y-60.593Z-0.3
Y60.593F1000
Y60.596Z-0.2
G0Z10
X33Y-60.191
G1Z-0.2F500
Y-60.188Z-0.3
Y60.193F1000
Y60.196Z-0.2
G0Z10
X34Y-59.591
G1Z-0.2F500
Y-59.588Z-0.3
Y59.593F1000
Y59.596Z-0.2
G0Z10
X35Y-58.991
G1Z-0.2F500
Y-58.988Z-0.3
Y58.993F1000
Y58.996Z-0.2
G0Z10
X36Y-58.391
G1Z-0.2F500
Y-58.388Z-0.3
Y58.393F1000
Y58.396Z-0.2
G0Z10
X37Y-57.791
G1Z-0.2F500
Y-57.788Z-0.3
Y57.793F1000
Y57.796Z-0.2
G0Z10
X38Y-56.996
G1Z-0.2F500
Y-56.993Z-0.3
Y56.993F1000
Y56.996Z-0.2
G0Z10
X39Y-56.391
G1Z-0.2F500
Y-56.389Z-0.3
Y56.393F1000
Y56.396Z-0.2
G0Z10
X40Y-55.596
G1Z-0.2F500
Y-55.593Z-0.3
Y55.593F1000
Y55.596Z-0.2
G0Z10
X41Y-54.991
G1Z-0.2F500
Y-54.989Z-0.3
Y54.993F1000
Y54.996Z-0.2
G0Z10
X42Y-54.191
G1Z-0.2F500
Y-54.189Z-0.3
Y54.193F1000
Y54.196Z-0.2
G0Z10
X43Y-53.396
G1Z-0.2F500
Y-53.393Z-0.3
Y53.393F1000
Y53.396Z-0.2
G0Z10
X44Y-52.591
G1Z-0.2F500
Y-52.589Z-0.3
Y52.593F1000
Y52.596Z-0.2
G0Z10
X45Y-51.791
G1Z-0.2F500
Y-51.789Z-0.3
Y51.793F1000
Y51.796Z-0.2
G0Z10
X46Y-50.796
G1Z-0.2F500
Y-50.793Z-0.3
Y50.793F1000
Y50.796Z-0.2
G0Z10
X47Y-49.991
G1Z-0.2F500
Y-49.989Z-0.3
Y49.993F1000
Y49.996Z-0.2
G0Z10
X48Y-48.991
G1Z-0.2F500
Y-48.989Z-0.3
Y48.993F1000
Y48.996Z-0.2
G0Z10
X49Y-47.991
G1Z-0.2F500
Y-47.989Z-0.3
Y47.993F1000
Y47.996Z-0.2
G0Z10
X50Y-46.991
G1Z-0.2F500
Y-46.989Z-0.3
Y46.993F1000
Y46.996Z-0.2
G0Z10
X51Y-45.796
G1Z-0.2F500
Y-45.793Z-0.3
Y45.793F1000
Y45.796Z-0.2
G0Z10
X52Y-44.596
G1Z-0.2F500
Y-44.593Z-0.3
Y44.593F1000
Y44.596Z-0.2
G0Z10
X53Y-43.396
G1Z-0.2F500
Y-43.393Z-0.3
Y43.393F1000
Y43.396Z-0.2
G0Z10
X54Y-42.196
G1Z-0.2F500
Y-42.193Z-0.3
Y42.193F1000
Y42.196Z-0.2
G0Z10
X55Y-40.991
G1Z-0.2F500
Y-40.989Z-0.3
Y40.993F1000
Y40.996Z-0.2
G0Z10
X56Y-39.591
G1Z-0.2F500
Y-39.589Z-0.3
Y39.593F1000
Y39.596Z-0.2
G0Z10
X57Y-37.996
G1Z-0.2F500
Y-37.993Z-0.3
Y37.993F1000
Y37.996Z-0.2
G0Z10
X58Y-36.591
G1Z-0.2F500
Y-36.589Z-0.3
Y36.593F1000
Y36.596Z-0.2
G0Z10
X59Y-34.991
G1Z-0.2F500
Y-34.989Z-0.3
Y34.993F1000
Y34.996Z-0.2
G0Z10
X60Y-33.191
G1Z-0.2F500
Y-33.189Z-0.3
Y33.193F1000
Y33.196Z-0.2
G0Z10
X61Y-31.196
G1Z-0.2F500
Y-31.193Z-0.3
Y31.193F1000
Y31.196Z-0.2
G0Z10
X62Y-29.196
G1Z-0.2F500
Y-29.193Z-0.3
Y29.193F1000
Y29.196Z-0.2
G0Z10
X63Y-26.996
G1Z-0.2F500
Y-26.993Z-0.3
Y26.993F1000
Y26.996Z-0.2
G0Z10
X64Y-24.396
G1Z-0.2F500
Y-24.393Z-0.3
Y24.393F1000
Y24.396Z-0.2
G0Z10
X65Y-21.596
G1Z-0.2F500
Y-21.593Z-0.3
Y21.593F1000
Y21.596Z-0.2
G0Z10
X66Y-18.396
G1Z-0.2F500
Y-18.393Z-0.3
Y18.393F1000
Y18.396Z-0.2
G0Z10
X67Y-14.391
G1Z-0.2F500
Y-14.389Z-0.3
Y14.393F1000
Y14.396Z-0.2
G0Z10
X68Y-8.591
G1Z-0.2F500
Y-8.589Z-0.3
Y8.593F1000
Y8.596Z-0.2
G0Z10
X-68Y-8.589
G1Z-0.3F500
Y-8.586Z-0.4
Y8.59F1000
Y8.593Z-0.3
G0Z10
X-67Y-14.389
G1Z-0.3F500
Y-14.386Z-0.4
Y14.39F1000
Y14.393Z-0.3
G0Z10
X-66Y-18.393
G1Z-0.3F500
Y-18.39Z-0.4
Y18.39F1000
Y18.393Z-0.3
G0Z10
X-65Y-21.593
G1Z-0.3F500
Y-21.59Z-0.4
Y21.59F1000
Y21.593Z-0.3
G0Z10
X-64Y-24.393
G1Z-0.3F500
Y-24.39Z-0.4
Y24.39F1000
Y24.393Z-0.3
G0Z10
X-63Y-26.993
G1Z-0.3F500
Y-26.99Z-0.4
Y26.99F1000
Y26.993Z-0.3
G0Z10
X-62Y-29.193
G1Z-0.3F500
Y-29.19Z-0.4
Y29.19F1000
Y29.193Z-0.3
G0Z10
X-61Y-31.193
G1Z-0.3F500
Y-31.19Z-0.4
Y31.19F1000
Y31.193Z-0.3
G0Z10
X-60Y-33.189
G1Z-0.3F500
Y-33.186Z-0.4
Y33.19F1000
Y33.193Z-0.3
G0Z10
X-59Y-34.989
G1Z-0.3F500
Y-34.986Z-0.4
Y34.99F1000
Y34.993Z-0.3
G0Z10
X-58Y-36.589
G1Z-0.3F500
Y-36.586Z-0.4
Y36.59F1000
Y36.593Z-0.3
G0Z10
X-57Y-37.993
G1Z-0.3F500
Y-37.99Z-0.4
Y37.99F1000
Y37.993Z-0.3
G0Z10
X-56Y-39.589
G1Z-0.3F500
Y-39.586Z-0.4
Y39.59F1000
Y39.593Z-0.3
G0Z10
X-55Y-40.989
G1Z-0.3F500
Y-40.986Z-0.4
Y40.99F1000
Y40.993Z-0.3
G0Z10
X-54Y-42.193
G1Z-0.3F500
Y-42.19Z-0.4
Y42.19F1000
Y42.193Z-0.3
G0Z10
X-53Y-43.393
G1Z-0.3F500
Y-43.39Z-0.4
Y43.39F1000
Y43.393Z-0.3
G0Z10
X-52Y-44.593
G1Z-0.3F500
Y-44.59Z-0.4
Y44.59F1000
Y44.593Z-0.3
G0Z10
X-51Y-45.793
G1Z-0.3F500
Y-45.79Z-0.4
Y45.79F1000
Y45.793Z-0.3
G0Z10
X-50Y-46.989
G1Z-0.3F500
Y-46.986Z-0.4
Y46.99F1000
Y46.993Z-0.3
G0Z10
X-49Y-47.989
G1Z-0.3F500
Y-47.986Z-0.4
Y47.99F1000
Y47.993Z-0.3
G0Z10
X-48Y-48.989
G1Z-0.3F500
Y-48.986Z-0.4
Y48.99F1000
Y48.993Z-0.3
G0Z10
X-47Y-49.989
G1Z-0.3F500
Y-49.986Z-0.4
Y49.99F1000
Y49.993Z-0.3
G0Z10
X-46Y-50.793
G1Z-0.3F500
Y-50.79Z-0.4
Y50.79F1000
Y50.793Z-0.3
G0Z10
X-45Y-51.789
G1Z-0.3F500
Y-51.786Z-0.4
Y51.79F1000
Y51.793Z-0.3
G0Z10
X-44Y-52.589
G1Z-0.3F500
Y-52.586Z-0.4
Y52.59F1000
Y52.593Z-0.3
G0Z10
X-43Y-53.393
G1Z-0.3F500
Y-53.39Z-0.4
Y53.39F1000
Y53.393Z-0.3
G0Z10
X-42Y-54.189
G1Z-0.3F500
Y-54.186Z-0.4
Y54.19F1000
Y54.193Z-0.3
G0Z10
X-41Y-54.989
G1Z-0.3F500
Y-54.986Z-0.4
Y54.99F1000
Y54.993Z-0.3
G0Z10
X-40Y-55.593
G1Z-0.3F500
Y-55.59Z-0.4
Y55.59F1000
Y55.593Z-0.3
G0Z10
X-39Y-56.389
G1Z-0.3F500
Y-56.386Z-0.4
Y56.39F1000
Y56.393Z-0.3
G0Z10
X-38Y-56.993
G1Z-0.3F500
Y-56.99Z-0.4
Y56.99F1000
Y56.993Z-0.3
G0Z10
X-37Y-57.788
G1Z-0.3F500
Y-57.786Z-0.4
Y57.79F1000
Y57.793Z-0.3
G0Z10
X-36Y-58.388
G1Z-0.3F500
Y-58.386Z-0.4
Y58.39F1000
Y58.393Z-0.3
G0Z10
X-35Y-58.988
G1Z-0.3F500
Y-58.986Z-0.4
Y58.99F1000
Y58.993Z-0.3
G0Z10
X-34Y-59.588
G1Z-0.3F500
Y-59.586Z-0.4
Y59.59F1000
Y59.593Z-0.3
G0Z10
X-33Y-60.188
G1Z-0.3F500
Y-60.186Z-0.4
Y60.19F1000
Y60.193Z-0.3
G0Z10
X-32Y-60.593
G1Z-0.3F500
Y-60.59Z-0.4
Y60.59F1000
Y60.593Z-0.3
G0Z10
X-31Y-61.188
G1Z-0.3F500
Y-61.186Z-0.4
Y61.19F1000
Y61.193Z-0.3
G0Z10
X-30Y-61.593
G1Z-0.3F500
Y-61.59Z-0.4
Y61.59F1000
Y61.593Z-0.3
G0Z10
X-29Y-62.188
G1Z-0.3F500
Y-62.186Z-0.4
Y62.19F1000
Y62.193Z-0.3
G0Z10
X-28Y-62.593
G1Z-0.3F500
Y-62.59Z-0.4
Y62.59F1000
Y62.593Z-0.3
G0Z10
X-27Y-62.993
G1Z-0.3F500
Y-62.99Z-0.4
Y62.99F1000
Y62.993Z-0.3
G0Z10
X-26Y-63.393
G1Z-0.3F500
Y-63.39Z-0.4
Y63.39F1000
Y63.393Z-0.3
G0Z10
X-25Y-63.793
G1Z-0.3F500
Y-63.79Z-0.4
Y63.79F1000
Y63.793Z-0.3
G0Z10
X-24Y-64.193
G1Z-0.3F500
Y-64.19Z-0.4
Y64.19F1000
Y64.193Z-0.3
G0Z10
X-23Y-64.593
G1Z-0.3F500
Y-64.59Z-0.4
Y64.59F1000
Y64.593Z-0.3
G0Z10
X-22Y-64.989
G1Z-0.3F500
Y-64.986Z-0.4
Y64.99F1000
Y64.993Z-0.3
G0Z10
X-21Y-65.193
G1Z-0.3F500
Y-65.19Z-0.4
Y65.19F1000
Y65.193Z-0.3
G0Z10
X-20Y-65.593
G1Z-0.3F500
Y-65.59Z-0.4
Y65.59F1000
Y65.593Z-0.3
G0Z10
X-19Y-65.989
G1Z-0.3F500
Y-65.986Z-0.4
Y65.99F1000
Y65.993Z-0.3
G0Z10
X-18Y-66.189
G1Z-0.3F500
Y-66.186Z-0.4
Y66.19F1000
Y66.193Z-0.3
G0Z10
X-17Y-66.393
G1Z-0.3F500
Y-66.39Z-0.4
Y66.39F1000
Y66.393Z-0.3
G0Z10
X-16Y-66.789
G1Z-0.3F500
Y-66.786Z-0.4
Y66.79F1000
Y66.793Z-0.3
G0Z10
X-15Y-66.989
G1Z-0.3F500
Y-66.986Z-0.4
Y66.99F1000
Y66.993Z-0.3
G0Z10
X-14Y-67.189
G1Z-0.3F500
Y-67.186Z-0.4
Y67.19F1000
Y67.193Z-0.3
G0Z10
X-13Y-67.389
G1Z-0.3F500
Y-67.386Z-0.4
Y67.39F1000
Y67.393Z-0.3
G0Z10
X-12Y-67.589
G1Z-0.3F500
Y-67.586Z-0.4
Y67.59F1000
Y67.593Z-0.3
G0Z10
X-11Y-67.789
G1Z-0.3F500
Y-67.786Z-0.4
Y67.79F1000
Y67.793Z-0.3
G0Z10
X-10Y-67.989
G1Z-0.3F500
Y-67.986Z-0.4
Y67.99F1000
Y67.993Z-0.3
G0Z10
X-9Y-67.993
G1Z-0.3F500
Y-67.99Z-0.4
Y67.99F1000
Y67.993Z-0.3
G0Z10
X-8Y-68.189
G1Z-0.3F500
Y-68.186Z-0.4
Y68.19F1000
Y68.193Z-0.3
G0Z10
X-7Y-68.193
G1Z-0.3F500
Y-68.19Z-0.4
Y68.19F1000
Y68.193Z-0.3
G0Z10
X-6Y-68.389
G1Z-0.3F500
Y-68.386Z-0.4
Y68.39F1000
Y68.393Z-0.3
G0Z10
X-5Y-68.393
G1Z-0.3F500
Y-68.39Z-0.4
Y68.39F1000
Y68.393Z-0.3
G0Z10
X-4Y-68.589
G1Z-0.3F500
Y-68.586Z-0.4
Y68.59F1000
Y68.593Z-0.3
G0Z10
X-3Y-68.593
G1Z-0.3F500
Y-68.59Z-0.4
Y68.59F1000
Y68.593Z-0.3
G0Z10
X-2Y-68.593
G1Z-0.3F500
Y-68.59Z-0.4
Y68.59F1000
Y68.593Z-0.3
G0Z10
X-1Y-68.593
G1Z-0.3F500
Y-68.59Z-0.4
Y68.59F1000
Y68.593Z-0.3
G0Z10
X0Y-68.593
G1Z-0.3F500
Y-68.59Z-0.4
Y68.59F1000
Y68.593Z-0.3
G0Z10
X1Y-68.593
G1Z-0.3F500
Y-68.59Z-0.4
Y68.59F1000
Y68.593Z-0.3
G0Z10
X2Y-68.593
G1Z-0.3F500
Y-68.59Z-0.4
Y68.59F1000
Y68.593Z-0.3
G0Z10
X3Y-68.593
G1Z-0.3F500
Y-68.59Z-0.4
Y68.59F1000
Y68.593Z-0.3
G0Z10
X4Y-68.589
G1Z-0.3F500
Y-68.586Z-0.4
Y68.59F1000
Y68.593Z-0.3
G0Z10
X5Y-68.393
G1Z-0.3F500
Y-68.39Z-0.4
Y68.39F1000
Y68.393Z-0.3
G0Z10
X6Y-68.389
G1Z-0.3F500
Y-68.386Z-0.4
Y68.39F1000
Y68.393Z-0.3
G0Z10
X7Y-68.193
G1Z-0.3F500
Y-68.19Z-0.4
Y68.19F1000
Y68.193Z-0.3
G0Z10
X8Y-68.189
G1Z-0.3F500
Y-68.186Z-0.4
Y68.19F1000
Y68.193Z-0.3
G0Z10
X9Y-67.993
G1Z-0.3F500
Y-67.99Z-0.4
Y67.99F1000
Y67.993Z-0.3
G0Z10
X10Y-67.989
G1Z-0.3F500
Y-67.986Z-0.4
Y67.99F1000
Y67.993Z-0.3
G0Z10
X11Y-67.789
G1Z-0.3F500
Y-67.786Z-0.4
Y67.79F1000
Y67.793Z-0.3
G0Z10
X12Y-67.589
G1Z-0.3F500
Y-67.586Z-0.4
Y67.59F1000
Y67.593Z-0.3
G0Z10
X13Y-67.389
G1Z-0.3F500
Y-67.386Z-0.4
Y67.39F1000
Y67.393Z-0.3
G0Z10
X14Y-67.189
G1Z-0.3F500
Y-67.186Z-0.4
Y67.19F1000
Y67.193Z-0.3
G0Z10
X15Y-66.989
G1Z-0.3F500
Y-66.986Z-0.4
Y66.99F1000
Y66.993Z-0.3
G0Z10
X16Y-66.789
G1Z-0.3F500
Y-66.786Z-0.4
Y66.79F1000
Y66.793Z-0.3
G0Z10
X17Y-66.393
G1Z-0.3F500
Y-66.39Z-0.4
Y66.39F1000
Y66.393Z-0.3
G0Z10
X18Y-66.189
G1Z-0.3F500
Y-66.186Z-0.4
Y66.19F1000
Y66.193Z-0.3
G0Z10
X19Y-65.989
G1Z-0.3F500
Y-65.986Z-0.4
Y65.99F1000
Y65.993Z-0.3
G0Z10
X20Y-65.593
G1Z-0.3F500
Y-65.59Z-0.4
Y65.59F1000
Y65.593Z-0.3
G0Z10
X21Y-65.193
G1Z-0.3F500
Y-65.19Z-0.4
Y65.19F1000
Y65.193Z-0.3
G0Z10
X22Y-64.989
G1Z-0.3F500
Y-64.986Z-0.4
Y64.99F1000
Y64.993Z-0.3
G0Z10
X23Y-64.593
G1Z-0.3F500
Y-64.59Z-0.4
Y64.59F1000
Y64.593Z-0.3
G0Z10
X24Y-64.193
G1Z-0.3F500
Y-64.19Z-0.4
Y64.19F1000
Y64.193Z-0.3
G0Z10
X25Y-63.793
G1Z-0.3F500
Y-63.79Z-0.4
Y63.79F1000
Y63.793Z-0.3
G0Z10
X26Y-63.393
G1Z-0.3F500
Y-63.39Z-0.4
Y63.39F1000
Y63.393Z-0.3
G0Z10
X27Y-62.993
G1Z-0.3F500
Y-62.99Z-0.4
Y62.99F1000
Y62.993Z-0.3
G0Z10
X28Y-62.593
G1Z-0.3F500
Y-62.59Z-0.4
Y62.59F1000
Y62.593Z-0.3
G0Z10
X29Y-62.188
G1Z-0.3F500
Y-62.186Z-0.4
Y62.19F1000
Y62.193Z-0.3
G0Z10
X30Y-61.593
G1Z-0.3F500
Y-61.59Z-0.4
Y61.59F1000
Y61.593Z-0.3
G0Z10
X31Y-61.188
G1Z-0.3F500
Y-61.186Z-0.4
Y61.19F1000
Y61.193Z-0.3
G0Z10
X32Y-60.593
G1Z-0.3F500
Y-60.59Z-0.4
Y60.59F1000
Y60.593Z-0.3
G0Z10
X33Y-60.188
G1Z-0.3F500
Y-60.186Z-0.4
Y60.19F1000
Y60.193Z-0.3
G0Z10
X34Y-59.588
G1Z-0.3F500
Y-59.586Z-0.4
Y59.59F1000
Y59.593Z-0.3
G0Z10
X35Y-58.988
G1Z-0.3F500
Y-58.986Z-0.4
Y58.99F1000
Y58.993Z-0.3
G0Z10
X36Y-58.388
G1Z-0.3F500
Y-58.386Z-0.4
Y58.39F1000
Y58.393Z-0.3
G0Z10
X37Y-57.788
G1Z-0.3F500
Y-57.786Z-0.4
Y57.79F1000
Y57.793Z-0.3
G0Z10
X38Y-56.993
G1Z-0.3F500
Y-56.99Z-0.4
Y56.99F1000
Y56.993Z-0.3
G0Z10
X39Y-56.389
G1Z-0.3F500
Y-56.386Z-0.4
Y56.39F1000
Y56.393Z-0.3
G0Z10
X40Y-55.593
G1Z-0.3F500
Y-55.59Z-0.4
Y55.59F1000
Y55.593Z-0.3
G0Z10
X41Y-54.989
G1Z-0.3F500
Y-54.986Z-0.4
Y54.99F1000
Y54.993Z-0.3
G0Z10
X42Y-54.189
G1Z-0.3F500
Y-54.186Z-0.4
Y54.19F1000
Y54.193Z-0.3
G0Z10
X43Y-53.393
G1Z-0.3F500
Y-53.39Z-0.4
Y53.39F1000
Y53.393Z-0.3
G0Z10
X44Y-52.589
G1Z-0.3F500
Y-52.586Z-0.4
Y52.59F1000
Y52.593Z-0.3
G0Z10
X45Y-51.789
G1Z-0.3F500
Y-51.786Z-0.4
Y51.79F1000
Y51.793Z-0.3
G0Z10
X46Y-50.793
G1Z-0.3F500
Y-50.79Z-0.4
Y50.79F1000
Y50.793Z-0.3
G0Z10
X47Y-49.989
G1Z-0.3F500
Y-49.986Z-0.4
Y49.99F1000
Y49.993Z-0.3
G0Z10
X48Y-48.989
G1Z-0.3F500
Y-48.986Z-0.4
Y48.99F1000
Y48.993Z-0.3
G0Z10
X49Y-47.989
G1Z-0.3F500
Y-47.986Z-0.4
Y47.99F1000
Y47.993Z-0.3
G0Z10
X50Y-46.989
G1Z-0.3F500
Y-46.986Z-0.4
Y46.99F1000
Y46.993Z-0.3
G0Z10
X51Y-45.793
G1Z-0.3F500
Y-45.79Z-0.4
Y45.79F1000
Y45.793Z-0.3
G0Z10
X52Y-44.593
G1Z-0.3F500
Y-44.59Z-0.4
Y44.59F1000
Y44.593Z-0.3
G0Z10
X53Y-43.393
G1Z-0.3F500
Y-43.39Z-0.4
Y43.39F1000
Y43.393Z-0.3
G0Z10
X54Y-42.193
G1Z-0.3F500
Y-42.19Z-0.4
Y42.19F1000
Y42.193Z-0.3
G0Z10
X55Y-40.989
G1Z-0.3F500
Y-40.986Z-0.4
Y40.99F1000
Y40.993Z-0.3
G0Z10
X56Y-39.589
G1Z-0.3F500
Y-39.586Z-0.4
Y39.59F1000
Y39.593Z-0.3
G0Z10
X57Y-37.993
G1Z-0.3F500
Y-37.99Z-0.4
Y37.99F1000
Y37.993Z-0.3
G0Z10
X58Y-36.589
G1Z-0.3F500
Y-36.586Z-0.4
Y36.59F1000
Y36.593Z-0.3
G0Z10
X59Y-34.989
G1Z-0.3F500
Y-34.986Z-0.4
Y34.99F1000
Y34.993Z-0.3
G0Z10
X60Y-33.189
G1Z-0.3F500
Y-33.186Z-0.4
Y33.19F1000
Y33.193Z-0.3
G0Z10
X61Y-31.193
G1Z-0.3F500
Y-31.19Z-0.4
Y31.19F1000
Y31.193Z-0.3
G0Z10
X62Y-29.193
G1Z-0.3F500
Y-29.19Z-0.4
Y29.19F1000
Y29.193Z-0.3
G0Z10
X63Y-26.993
G1Z-0.3F500
Y-26.99Z-0.4
Y26.99F1000
Y26.993Z-0.3
G0Z10
X64Y-24.393
G1Z-0.3F500
Y-24.39Z-0.4
Y24.39F1000
Y24.393Z-0.3
G0Z10
X65Y-21.593
G1Z-0.3F500
Y-21.59Z-0.4
Y21.59F1000
Y21.593Z-0.3
G0Z10
X66Y-18.393
G1Z-0.3F500
Y-18.39Z-0.4
Y18.39F1000
Y18.393Z-0.3
G0Z10
X67Y-14.389
G1Z-0.3F500
Y-14.386Z-0.4
Y14.39F1000
Y14.393Z-0.3
G0Z10
X68Y-8.589
G1Z-0.3F500
Y-8.586Z-0.4
Y8.59F1000
Y8.593Z-0.3
G0Z10
X-68Y-8.586
G1Z-0.4F500
Y-8.583Z-0.5
Y8.587F1000
Y8.59Z-0.4
G0Z10
X-67Y-14.386
G1Z-0.4F500
Y-14.383Z-0.5
Y14.387F1000
Y14.39Z-0.4
G0Z10
X-66Y-18.39
G1Z-0.4F500
Y-18.387Z-0.5
Y18.387F1000
Y18.39Z-0.4
G0Z10
X-65Y-21.59
G1Z-0.4F500
Y-21.587Z-0.5
Y21.587F1000
Y21.59Z-0.4
G0Z10
X-64Y-24.39
G1Z-0.4F500
Y-24.387Z-0.5
Y24.387F1000
Y24.39Z-0.4
G0Z10
X-63Y-26.99
G1Z-0.4F500
Y-26.987Z-0.5
Y26.987F1000
Y26.99Z-0.4
G0Z10
X-62Y-29.19
G1Z-0.4F500
Y-29.187Z-0.5
Y29.187F1000
Y29.19Z-0.4
G0Z10
X-61Y-31.19
G1Z-0.4F500
Y-31.187Z-0.5
Y31.187F1000
Y31.19Z-0.4
G0Z10
X-60Y-33.186
G1Z-0.4F500
Y-33.183Z-0.5
Y33.187F1000
Y33.19Z-0.4
G0Z10
X-59Y-34.986
G1Z-0.4F500
Y-34.983Z-0.5
Y34.987F1000
Y34.99Z-0.4
G0Z10
X-58Y-36.586
G1Z-0.4F500
Y-36.583Z-0.5
Y36.587F1000
Y36.59Z-0.4
G0Z10
X-57Y-37.99
G1Z-0.4F500
Y-37.987Z-0.5
Y37.987F1000
Y37.99Z-0.4
G0Z10
X-56Y-39.586
G1Z-0.4F500
Y-39.583Z-0.5
Y39.587F1000
Y39.59Z-0.4
G0Z10
X-55Y-40.986
G1Z-0.4F500
Y-40.983Z-0.5
Y40.987F1000
Y40.99Z-0.4
G0Z10
X-54Y-42.19
G1Z-0.4F500
Y-42.187Z-0.5
Y42.187F1000
Y42.19Z-0.4
G0Z10
X-53Y-43.39
G1Z-0.4F500
Y-43.387Z-0.5
Y43.387F1000
Y43.39Z-0.4
G0Z10
X-52Y-44.59
G1Z-0.4F500
Y-44.587Z-0.5
Y44.587F1000
Y44.59Z-0.4
G0Z10
X-51Y-45.79
G1Z-0.4F500
Y-45.787Z-0.5
Y45.787F1000
Y45.79Z-0.4
G0Z10
X-50Y-46.986
G1Z-0.4F500
Y-46.983Z-0.5
Y46.987F1000
Y46.99Z-0.4
G0Z10
X-49Y-47.986
G1Z-0.4F500
Y-47.983Z-0.5
Y47.987F1000
Y47.99Z-0.4
G0Z10
X-48Y-48.986
G1Z-0.4F500
Y-48.983Z-0.5
Y48.987F1000
Y48.99Z-0.4
G0Z10
X-47Y-49.986
G1Z-0.4F500
Y-49.983Z-0.5
Y49.987F1000
Y49.99Z-0.4
G0Z10
X-46Y-50.79
G1Z-0.4F500
Y-50.787Z-0.5
Y50.787F1000
Y50.79Z-0.4
G0Z10
X-45Y-51.786
G1Z-0.4F500
Y-51.783Z-0.5
Y51.787F1000
Y51.79Z-0.4
G0Z10
X-44Y-52.586
G1Z-0.4F500
Y-52.583Z-0.5
Y52.587F1000
Y52.59Z-0.4
G0Z10
X-43Y-53.39
G1Z-0.4F500
Y-53.387Z-0.5
Y53.387F1000
Y53.39Z-0.4
G0Z10
X-42Y-54.186
G1Z-0.4F500
Y-54.183Z-0.5
Y54.187F1000
Y54.19Z-0.4
G0Z10
X-41Y-54.986
G1Z-0.4F500
Y-54.983Z-0.5
Y54.987F1000
Y54.99Z-0.4
G0Z10
X-40Y-55.59
G1Z-0.4F500
Y-55.587Z-0.5
Y55.587F1000
Y55.59Z-0.4
G0Z10
X-39Y-56.386
G1Z-0.4F500
Y-56.383Z-0.5
Y56.387F1000
Y56.39Z-0.4
G0Z10
X-38Y-56.99
G1Z-0.4F500
Y-56.987Z-0.5
Y56.987F1000
Y56.99Z-0.4
G0Z10
X-37Y-57.786
G1Z-0.4F500
Y-57.783Z-0.5
Y57.787F1000
Y57.79Z-0.4
G0Z10
X-36Y-58.386
G1Z-0.4F500
Y-58.383Z-0.5
Y58.387F1000
Y58.39Z-0.4
G0Z10
X-35Y-58.986
G1Z-0.4F500
Y-58.983Z-0.5
Y58.987F1000
Y58.99Z-0.4
G0Z10
X-34Y-59.586
G1Z-0.4F500
Y-59.583Z-0.5
Y59.587F1000
Y59.59Z-0.4
G0Z10
X-33Y-60.186
G1Z-0.4F500
Y-60.183Z-0.5
Y60.187F1000
Y60.19Z-0.4
G0Z10
X-32Y-60.59
G1Z-0.4F500
Y-60.587Z-0.5
Y60.587F1000
Y60.59Z-0.4
G0Z10
X-31Y-61.186
G1Z-0.4F500
Y-61.183Z-0.5
Y61.187F1000
Y61.19Z-0.4
G0Z10
X-30Y-61.59
G1Z-0.4F500
Y-61.587Z-0.5
Y61.587F1000
Y61.59Z-0.4
G0Z10
X-29Y-62.186
G1Z-0.4F500
Y-62.183Z-0.5
Y62.187F1000
Y62.19Z-0.4
G0Z10
X-28Y-62.59
G1Z-0.4F500
Y-62.587Z-0.5
Y62.587F1000
Y62.59Z-0.4
G0Z10
X-27Y-62.99
G1Z-0.4F500
Y-62.987Z-0.5
Y62.987F1000
Y62.99Z-0.4
G0Z10
X-26Y-63.39
G1Z-0.4F500
Y-63.387Z-0.5
Y63.387F1000
Y63.39Z-0.4
G0Z10
X-25Y-63.79
G1Z-0.4F500
Y-63.787Z-0.5
Y63.787F1000
Y63.79Z-0.4
G0Z10
X-24Y-64.19
G1Z-0.4F500
Y-64.187Z-0.5
Y64.187F1000
Y64.19Z-0.4
G0Z10
X-23Y-64.59
G1Z-0.4F500
Y-64.587Z-0.5
Y64.587F1000
Y64.59Z-0.4
G0Z10
X-22Y-64.986
G1Z-0.4F500
Y-64.983Z-0.5
Y64.987F1000
Y64.99Z-0.4
G0Z10
X-21Y-65.19
G1Z-0.4F500
Y-65.187Z-0.5
Y65.187F1000
Y65.19Z-0.4
G0Z10
X-20Y-65.59
G1Z-0.4F500
Y-65.587Z-0.5
Y65.587F1000
Y65.59Z-0.4
G0Z10
X-19Y-65.986
G1Z-0.4F500
Y-65.983Z-0.5
Y65.987F1000
Y65.99Z-0.4
G0Z10
X-18Y-66.186
G1Z-0.4F500
Y-66.183Z-0.5
Y66.187F1000
Y66.19Z-0.4
G0Z10
X-17Y-66.39
G1Z-0.4F500
Y-66.387Z-0.5
Y66.387F1000
Y66.39Z-0.4
G0Z10
X-16Y-66.786
G1Z-0.4F500
Y-66.783Z-0.5
Y66.787F1000
Y66.79Z-0.4
G0Z10
X-15Y-66.986
G1Z-0.4F500
Y-66.983Z-0.5
Y66.987F1000
Y66.99Z-0.4
G0Z10
X-14Y-67.186
G1Z-0.4F500
Y-67.183Z-0.5
Y67.187F1000
Y67.19Z-0.4
G0Z10
X-13Y-67.386
G1Z-0.4F500
Y-67.383Z-0.5
Y67.387F1000
Y67.39Z-0.4
G0Z10
X-12Y-67.586
G1Z-0.4F500
Y-67.583Z-0.5
Y67.587F1000
Y67.59Z-0.4
G0Z10
X-11Y-67.786
G1Z-0.4F500
Y-67.783Z-0.5
Y67.787F1000
Y67.79Z-0.4
G0Z10
X-10Y-67.986
G1Z-0.4F500
Y-67.983Z-0.5
Y67.987F1000
Y67.99Z-0.4
G0Z10
X-9Y-67.99
G1Z-0.4F500
Y-67.987Z-0.5
Y67.987F1000
Y67.99Z-0.4
G0Z10
X-8Y-68.186
G1Z-0.4F500
Y-68.183Z-0.5
Y68.187F1000
Y68.19Z-0.4
G0Z10
X-7Y-68.19
G1Z-0.4F500
Y-68.187Z-0.5
Y68.187F1000
Y68.19Z-0.4
G0Z10
X-6Y-68.386
G1Z-0.4F500
Y-68.383Z-0.5
Y68.387F1000
Y68.39Z-0.4
G0Z10
X-5Y-68.39
G1Z-0.4F500
Y-68.387Z-0.5
Y68.387F1000
Y68.39Z-0.4
G0Z10
X-4Y-68.586
G1Z-0.4F500
Y-68.583Z-0.5
Y68.587F1000
Y68.59Z-0.4
G0Z10
X-3Y-68.59
G1Z-0.4F500
Y-68.587Z-0.5
Y68.587F1000
Y68.59Z-0.4
G0Z10
X-2Y-68.59
G1Z-0.4F500
Y-68.587Z-0.5
Y68.587F1000
Y68.59Z-0.4
G0Z10
X-1Y-68.59
G1Z-0.4F500
Y-68.587Z-0.5
Y68.587F1000
Y68.59Z-0.4
G0Z10
X0Y-68.59
G1Z-0.4F500
Y-68.587Z-0.5
Y68.587F1000
Y68.59Z-0.4
G0Z10
X1Y-68.59
G1Z-0.4F500
Y-68.587Z-0.5
Y68.587F1000
Y68.59Z-0.4
G0Z10
X2Y-68.59
G1Z-0.4F500
Y-68.587Z-0.5
Y68.587F1000
Y68.59Z-0.4
G0Z10
X3Y-68.59
G1Z-0.4F500
Y-68.587Z-0.5
Y68.587F1000
Y68.59Z-0.4
G0Z10
X4Y-68.586
G1Z-0.4F500
Y-68.583Z-0.5
Y68.587F1000
Y68.59Z-0.4
G0Z10
X5Y-68.39
G1Z-0.4F500
Y-68.387Z-0.5
Y68.387F1000
Y68.39Z-0.4
G0Z10
X6Y-68.386
G1Z-0.4F500
Y-68.383Z-0.5
Y68.387F1000
Y68.39Z-0.4
G0Z10
X7Y-68.19
G1Z-0.4F500
Y-68.187Z-0.5
Y68.187F1000
Y68.19Z-0.4
G0Z10
X8Y-68.186
G1Z-0.4F500
Y-68.183Z-0.5
Y68.187F1000
Y68.19Z-0.4
G0Z10
X9Y-67.99
G1Z-0.4F500
Y-67.987Z-0.5
Y67.987F1000
Y67.99Z-0.4
G0Z10
X10Y-67.986
G1Z-0.4F500
Y-67.983Z-0.5
Y67.987F1000
Y67.99Z-0.4
G0Z10
X11Y-67.786
G1Z-0.4F500
Y-67.783Z-0.5
Y67.787F1000
Y67.79Z-0.4
G0Z10
X12Y-67.586
G1Z-0.4F500
Y-67.583Z-0.5
Y67.587F1000
Y67.59Z-0.4
G0Z10
X13Y-67.386
G1Z-0.4F500
Y-67.383Z-0.5
Y67.387F1000
Y67.39Z-0.4
G0Z10
X14Y-67.186
G1Z-0.4F500
Y-67.183Z-0.5
Y67.187F1000
Y67.19Z-0.4
G0Z10
X15Y-66.986
G1Z-0.4F500
Y-66.983Z-0.5
Y66.987F1000
Y66.99Z-0.4
G0Z10
X16Y-66.786
G1Z-0.4F500
Y-66.783Z-0.5
Y66.787F1000
Y66.79Z-0.4
G0Z10
X17Y-66.39
G1Z-0.4F500
Y-66.387Z-0.5
Y66.387F1000
Y66.39Z-0.4
G0Z10
X18Y-66.186
G1Z-0.4F500
Y-66.183Z-0.5
Y66.187F1000
Y66.19Z-0.4
G0Z10
X19Y-65.986
G1Z-0.4F500
Y-65.983Z-0.5
Y65.987F1000
Y65.99Z-0.4
G0Z10
X20Y-65.59
G1Z-0.4F500
Y-65.587Z-0.5
Y65.587F1000
Y65.59Z-0.4
G0Z10
X21Y-65.19
G1Z-0.4F500
Y-65.187Z-0.5
Y65.187F1000
Y65.19Z-0.4
G0Z10
X22Y-64.986
G1Z-0.4F500
Y-64.983Z-0.5
Y64.987F1000
Y64.99Z-0.4
G0Z10
X23Y-64.59
G1Z-0.4F500
Y-64.587Z-0.5
Y64.587F1000
Y64.59Z-0.4
G0Z10
X24Y-64.19
G1Z-0.4F500
Y-64.187Z-0.5
Y64.187F1000
Y64.19Z-0.4
G0Z10
X25Y-63.79
G1Z-0.4F500
Y-63.787Z-0.5
Y63.787F1000
Y63.79Z-0.4
G0Z10
X26Y-63.39
G1Z-0.4F500
Y-63.387Z-0.5
Y63.387F1000
Y63.39Z-0.4
G0Z10
X27Y-62.99
G1Z-0.4F500
Y-62.987Z-0.5
Y62.987F1000
Y62.99Z-0.4
G0Z10
X28Y-62.59
G1Z-0.4F500
Y-62.587Z-0.5
Y62.587F1000
Y62.59Z-0.4
G0Z10
X29Y-62.186
G1Z-0.4F500
Y-62.183Z-0.5
Y62.187F1000
Y62.19Z-0.4
G0Z10
X30Y-61.59
G1Z-0.4F500
Y-61.587Z-0.5
Y61.587F1000
Y61.59Z-0.4
G0Z10
X31Y-61.186
G1Z-0.4F500
Y-61.183Z-0.5
Y61.187F1000
Y61.19Z-0.4
G0Z10
X32Y-60.59
G1Z-0.4F500
Y-60.587Z-0.5
Y60.587F1000
Y60.59Z-0.4
G0Z10
X33Y-60.186
G1Z-0.4F500
Y-60.183Z-0.5
Y60.187F1000
Y60.19Z-0.4
G0Z10
X34Y-59.586
G1Z-0.4F500
Y-59.583Z-0.5
Y59.587F1000
Y59.59Z-0.4
G0Z10
X35Y-58.986
G1Z-0.4F500
Y-58.983Z-0.5
Y58.987F1000
Y58.99Z-0.4
G0Z10
X36Y-58.386
G1Z-0.4F500
Y-58.383Z-0.5
Y58.387F1000
Y58.39Z-0.4
G0Z10
X37Y-57.786
G1Z-0.4F500
Y-57.783Z-0.5
Y57.787F1000
Y57.79Z-0.4
G0Z10
X38Y-56.99
G1Z-0.4F500
Y-56.987Z-0.5
Y56.987F1000
Y56.99Z-0.4
G0Z10
X39Y-56.386
G1Z-0.4F500
Y-56.383Z-0.5
Y56.387F1000
Y56.39Z-0.4
G0Z10
X40Y-55.59
G1Z-0.4F500
Y-55.587Z-0.5
Y55.587F1000
Y55.59Z-0.4
G0Z10
X41Y-54.986
G1Z-0.4F500
Y-54.983Z-0.5
Y54.987F1000
Y54.99Z-0.4
G0Z10
X42Y-54.186
G1Z-0.4F500
Y-54.183Z-0.5
Y54.187F1000
Y54.19Z-0.4
G0Z10
X43Y-53.39
G1Z-0.4F500
Y-53.387Z-0.5
Y53.387F1000
Y53.39Z-0.4
G0Z10
X44Y-52.586
G1Z-0.4F500
Y-52.583Z-0.5
Y52.587F1000
Y52.59Z-0.4
G0Z10
X45Y-51.786
G1Z-0.4F500
Y-51.783Z-0.5
Y51.787F1000
Y51.79Z-0.4
G0Z10
X46Y-50.79
G1Z-0.4F500
Y-50.787Z-0.5
Y50.787F1000
Y50.79Z-0.4
G0Z10
X47Y-49.986
G1Z-0.4F500
Y-49.983Z-0.5
Y49.987F1000
Y49.99Z-0.4
G0Z10
X48Y-48.986
G1Z-0.4F500
Y-48.983Z-0.5
Y48.987F1000
Y48.99Z-0.4
G0Z10
X49Y-47.986
G1Z-0.4F500
Y-47.983Z-0.5
Y47.987F1000
Y47.99Z-0.4
G0Z10
X50Y-46.986
G1Z-0.4F500
Y-46.983Z-0.5
Y46.987F1000
Y46.99Z-0.4
G0Z10
X51Y-45.79
G1Z-0.4F500
Y-45.787Z-0.5
Y45.787F1000
Y45.79Z-0.4
G0Z10
X52Y-44.59
G1Z-0.4F500
Y-44.587Z-0.5
Y44.587F1000
Y44.59Z-0.4
G0Z10
X53Y-43.39
G1Z-0.4F500
Y-43.387Z-0.5
Y43.387F1000
Y43.39Z-0.4
G0Z10
X54Y-42.19
G1Z-0.4F500
Y-42.187Z-0.5
Y42.187F1000
Y42.19Z-0.4
G0Z10
X55Y-40.986
G1Z-0.4F500
Y-40.983Z-0.5
Y40.987F1000
Y40.99Z-0.4
G0Z10
X56Y-39.586
G1Z-0.4F500
Y-39.583Z-0.5
Y39.587F1000
Y39.59Z-0.4
G0Z10
X57Y-37.99
G1Z-0.4F500
Y-37.987Z-0.5
Y37.987F1000
Y37.99Z-0.4
G0Z10
X58Y-36.586
G1Z-0.4F500
Y-36.583Z-0.5
Y36.587F1000
Y36.59Z-0.4
G0Z10
X59Y-34.986
G1Z-0.4F500
Y-34.983Z-0.5
Y34.987F1000
Y34.99Z-0.4
G0Z10
X60Y-33.186
G1Z-0.4F500
Y-33.183Z-0.5
Y33.187F1000
Y33.19Z-0.4
G0Z10
X61Y-31.19
G1Z-0.4F500
Y-31.187Z-0.5
Y31.187F1000
Y31.19Z-0.4
G0Z10
X62Y-29.19
G1Z-0.4F500
Y-29.187Z-0.5
Y29.187F1000
Y29.19Z-0.4
G0Z10
X63Y-26.99
G1Z-0.4F500
Y-26.987Z-0.5
Y26.987F1000
Y26.99Z-0.4
G0Z10
X64Y-24.39
G1Z-0.4F500
Y-24.387Z-0.5
Y24.387F1000
Y24.39Z-0.4
G0Z10
X65Y-21.59
G1Z-0.4F500
Y-21.587Z-0.5
Y21.587F1000
Y21.59Z-0.4
G0Z10
X66Y-18.39
G1Z-0.4F500
Y-18.387Z-0.5
Y18.387F1000
Y18.39Z-0.4
G0Z10
X67Y-14.386
G1Z-0.4F500
Y-14.383Z-0.5
Y14.387F1000
Y14.39Z-0.4
G0Z10
X68Y-8.586
G1Z-0.4F500
Y-8.583Z-0.5
Y8.587F1000
Y8.59Z-0.4
G0Z10
X-68Y-8.583
G1Z-0.5F500
Y-8.58Z-0.6
Y8.584F1000
Y8.587Z-0.5
G0Z10
X-67Y-14.383
G1Z-0.5F500
Y-14.38Z-0.6
Y14.384F1000
Y14.387Z-0.5
G0Z10
X-66Y-18.387
G1Z-0.5F500
Y-18.384Z-0.6
Y18.384F1000
Y18.387Z-0.5
G0Z10
X-65Y-21.587
G1Z-0.5F500
Y-21.584Z-0.6
Y21.584F1000
Y21.587Z-0.5
G0Z10
X-64Y-24.387
G1Z-0.5F500
Y-24.384Z-0.6
Y24.384F1000
Y24.387Z-0.5
G0Z10
X-63Y-26.987
G1Z-0.5F500
Y-26.984Z-0.6
Y26.984F1000
Y26.987Z-0.5
G0Z10
X-62Y-29.187
G1Z-0.5F500
Y-29.184Z-0.6
Y29.184F1000
Y29.187Z-0.5
G0Z10
X-61Y-31.187
G1Z-0.5F500
Y-31.184Z-0.6
Y31.184F1000
Y31.187Z-0.5
G0Z10
X-60Y-33.183
G1Z-0.5F500
Y-33.18Z-0.6
Y33.184F1000
Y33.187Z-0.5
G0Z10
X-59Y-34.983
G1Z-0.5F500
Y-34.98Z-0.6
Y34.984F1000
Y34.987Z-0.5
G0Z10
X-58Y-36.583
G1Z-0.5F500
Y-36.58Z-0.6
Y36.584F1000
Y36.587Z-0.5
G0Z10
X-57Y-37.987
G1Z-0.5F500
Y-37.984Z-0.6
Y37.984F1000
Y37.987Z-0.5
G0Z10
X-56Y-39.583
G1Z-0.5F500
Y-39.58Z-0.6
Y39.584F1000
Y39.587Z-0.5
G0Z10
X-55Y-40.983
G1Z-0.5F500
Y-40.98Z-0.6
Y40.984F1000
Y40.987Z-0.5
G0Z10
X-54Y-42.187
G1Z-0.5F500
Y-42.184Z-0.6
Y42.184F1000
Y42.187Z-0.5
G0Z10
X-53Y-43.387
G1Z-0.5F500
Y-43.384Z-0.6
Y43.384F1000
Y43.387Z-0.5
G0Z10
X-52Y-44.587
G1Z-0.5F500
Y-44.584Z-0.6
Y44.584F1000
Y44.587Z-0.5
G0Z10
X-51Y-45.787
G1Z-0.5F500
Y-45.784Z-0.6
Y45.784F1000
Y45.787Z-0.5
G0Z10
X-50Y-46.983
G1Z-0.5F500
Y-46.98Z-0.6
Y46.984F1000
Y46.987Z-0.5
G0Z10
X-49Y-47.983
G1Z-0.5F500
Y-47.98Z-0.6
Y47.984F1000
Y47.987Z-0.5
G0Z10
X-48Y-48.983
G1Z-0.5F500
Y-48.98Z-0.6
Y48.984F1000
Y48.987Z-0.5
G0Z10
X-47Y-49.983
G1Z-0.5F500
Y-49.98Z-0.6
Y49.984F1000
Y49.987Z-0.5
G0Z10
X-46Y-50.787
G1Z-0.5F500
Y-50.784Z-0.6
Y50.784F1000
Y50.787Z-0.5
G0Z10
X-45Y-51.783
G1Z-0.5F500
Y-51.78Z-0.6
Y51.784F1000
Y51.787Z-0.5
G0Z10
X-44Y-52.583
G1Z-0.5F500
Y-52.58Z-0.6
Y52.584F1000
Y52.587Z-0.5
G0Z10
X-43Y-53.387
G1Z-0.5F500
Y-53.384Z-0.6
Y53.384F1000
Y53.387Z-0.5
G0Z10
X-42Y-54.183
G1Z-0.5F500
Y-54.18Z-0.6
Y54.184F1000
Y54.187Z-0.5
G0Z10
X-41Y-54.983
G1Z-0.5F500
Y-54.98Z-0.6
Y54.984F1000
Y54.987Z-0.5
G0Z10
X-40Y-55.587
G1Z-0.5F500
Y-55.584Z-0.6
Y55.584Z-0.599F1000
Y55.587Z-0.5
G0Z10
X-39Y-56.383
G1Z-0.5F500
Y-56.38Z-0.6
Y56.384F1000
Y56.387Z-0.5
G0Z10
X-38Y-56.987
G1Z-0.5F500
Y-56.984Z-0.6
Y56.984F1000
Y56.987Z-0.5
G0Z10
X-37Y-57.783
G1Z-0.5F500
Y-57.78Z-0.6
Y57.784F1000
Y57.787Z-0.5
G0Z10
X-36Y-58.383
G1Z-0.5F500
Y-58.38Z-0.6
Y58.384F1000
Y58.387Z-0.5
G0Z10
X-35Y-58.983
G1Z-0.5F500
Y-58.98Z-0.6
Y58.984F1000
Y58.987Z-0.5
G0Z10
X-34Y-59.583
G1Z-0.5F500
Y-59.58Z-0.6
Y59.584F1000
Y59.587Z-0.5
G0Z10
X-33Y-60.183
G1Z-0.5F500
Y-60.18Z-0.6
Y60.184F1000
Y60.187Z-0.5
G0Z10
X-32Y-60.587
G1Z-0.5F500
Y-60.584Z-0.6
Y60.584F1000
Y60.587Z-0.5
G0Z10
X-31Y-61.183
G1Z-0.5F500
Y-61.18Z-0.6
Y61.184F1000
Y61.187Z-0.5
G0Z10
X-30Y-61.587
G1Z-0.5F500
Y-61.584Z-0.6
Y61.584F1000
Y61.587Z-0.5
G0Z10
X-29Y-62.183
G1Z-0.5F500
Y-62.18Z-0.6
Y62.184F1000
Y62.187Z-0.5
G0Z10
X-28Y-62.587
G1Z-0.5F500
Y-62.584Z-0.6
Y62.584F1000
Y62.587Z-0.5
G0Z10
X-27Y-62.987
G1Z-0.5F500
Y-62.984Z-0.6
Y62.984F1000
Y62.987Z-0.5
G0Z10
X-26Y-63.387
G1Z-0.5F500
Y-63.384Z-0.6
Y63.384F1000
Y63.387Z-0.5
G0Z10
X-25Y-63.787
G1Z-0.5F500
Y-63.784Z-0.6
Y63.784F1000
Y63.787Z-0.5
G0Z10
X-24Y-64.187
G1Z-0.5F500
Y-64.184Z-0.6
Y64.184F1000
Y64.187Z-0.5
G0Z10
X-23Y-64.587
G1Z-0.5F500
Y-64.584Z-0.6
Y64.584F1000
Y64.587Z-0.5
G0Z10
X-22Y-64.983
G1Z-0.5F500
Y-64.98Z-0.6
Y64.984F1000
Y64.987Z-0.5
G0Z10
X-21Y-65.187
G1Z-0.5F500
Y-65.184Z-0.6
Y65.184F1000
Y65.187Z-0.5
G0Z10
X-20Y-65.587
G1Z-0.5F500
Y-65.584Z-0.6
Y65.584F1000
Y65.587Z-0.5
G0Z10
X-19Y-65.983
G1Z-0.5F500
Y-65.98Z-0.6
Y65.984F1000
Y65.987Z-0.5
G0Z10
X-18Y-66.183
G1Z-0.5F500
Y-66.18Z-0.6
Y66.184F1000
Y66.187Z-0.5
G0Z10
X-17Y-66.387
G1Z-0.5F500
Y-66.384Z-0.6
Y66.384F1000
Y66.387Z-0.5
G0Z10
X-16Y-66.783
G1Z-0.5F500
Y-66.78Z-0.6
Y66.784F1000
Y66.787Z-0.5
G0Z10
X-15Y-66.983
G1Z-0.5F500
Y-66.98Z-0.6
Y66.984F1000
Y66.987Z-0.5
G0Z10
X-14Y-67.183
G1Z-0.5F500
Y-67.18Z-0.6
Y67.184F1000
Y67.187Z-0.5
G0Z10
X-13Y-67.383
G1Z-0.5F500
Y-67.38Z-0.6
Y67.384F1000
Y67.387Z-0.5
G0Z10
X-12Y-67.583
G1Z-0.5F500
Y-67.58Z-0.6
Y67.584F1000
Y67.587Z-0.5
G0Z10
X-11Y-67.783
G1Z-0.5F500
Y-67.78Z-0.6
Y67.784F1000
Y67.787Z-0.5
G0Z10
X-10Y-67.983
G1Z-0.5F500
Y-67.98Z-0.6
Y67.984F1000
Y67.987Z-0.5
G0Z10
X-9Y-67.987
G1Z-0.5F500
Y-67.984Z-0.6
Y67.984F1000
Y67.987Z-0.5
G0Z10
X-8Y-68.183
G1Z-0.5F500
Y-68.18Z-0.6
Y68.184F1000
Y68.187Z-0.5
G0Z10
X-7Y-68.187
G1Z-0.5F500
Y-68.184Z-0.6
Y68.184F1000
Y68.187Z-0.5
G0Z10
X-6Y-68.383
G1Z-0.5F500
Y-68.38Z-0.6
Y68.384F1000
Y68.387Z-0.5
G0Z10
X-5Y-68.387
G1Z-0.5F500
Y-68.384Z-0.6
Y68.384F1000
Y68.387Z-0.5
G0Z10
X-4Y-68.583
G1Z-0.5F500
Y-68.58Z-0.6
Y68.584F1000
Y68.587Z-0.5
G0Z10
X-3Y-68.587
G1Z-0.5F500
Y-68.584Z-0.6
Y68.584F1000
Y68.587Z-0.5
G0Z10
X-2Y-68.587
G1Z-0.5F500
Y-68.584Z-0.6
Y68.584F1000
Y68.587Z-0.5
G0Z10
X-1Y-68.587
G1Z-0.5F500
Y-68.584Z-0.6
Y68.584F1000
Y68.587Z-0.5
G0Z10
X0Y-68.587
G1Z-0.5F500
Y-68.584Z-0.6
Y68.584F1000
Y68.587Z-0.5
G0Z10
X1Y-68.587
G1Z-0.5F500
Y-68.584Z-0.6
Y68.584F1000
Y68.587Z-0.5
G0Z10
X2Y-68.587
G1Z-0.5F500
Y-68.584Z-0.6
Y68.584F1000
Y68.587Z-0.5
G0Z10
X3Y-68.587
G1Z-0.5F500
Y-68.584Z-0.6
Y68.584F1000
Y68.587Z-0.5
G0Z10
X4Y-68.583
G1Z-0.5F500
Y-68.58Z-0.6
Y68.584F1000
Y68.587Z-0.5
G0Z10
X5Y-68.387
G1Z-0.5F500
Y-68.384Z-0.6
Y68.384F1000
Y68.387Z-0.5
G0Z10
X6Y-68.383
G1Z-0.5F500
Y-68.38Z-0.6
Y68.384F1000
Y68.387Z-0.5
G0Z10
X7Y-68.187
G1Z-0.5F500
Y-68.184Z-0.6
Y68.184F1000
Y68.187Z-0.5
G0Z10
X8Y-68.183
G1Z-0.5F500
Y-68.18Z-0.6
Y68.184F1000
Y68.187Z-0.5
G0Z10
X9Y-67.987
G1Z-0.5F500
Y-67.984Z-0.6
Y67.984F1000
Y67.987Z-0.5
G0Z10
X10Y-67.983
G1Z-0.5F500
Y-67.98Z-0.6
Y67.984F1000
Y67.987Z-0.5
G0Z10
X11Y-67.783
G1Z-0.5F500
Y-67.78Z-0.6
Y67.784F1000
Y67.787Z-0.5
G0Z10
X12Y-67.583
G1Z-0.5F500
Y-67.58Z-0.6
Y67.584F1000
Y67.587Z-0.5
G0Z10
X13Y-67.383
G1Z-0.5F500
Y-67.38Z-0.6
Y67.384F1000
Y67.387Z-0.5
G0Z10
X14Y-67.183
G1Z-0.5F500
Y-67.18Z-0.6
Y67.184F1000
Y67.187Z-0.5
G0Z10
X15Y-66.983
G1Z-0.5F500
Y-66.98Z-0.6
Y66.984F1000
Y66.987Z-0.5
G0Z10
X16Y-66.783
G1Z-0.5F500
Y-66.78Z-0.6
Y66.784F1000
Y66.787Z-0.5
G0Z10
X17Y-66.387
G1Z-0.5F500
Y-66.384Z-0.6
Y66.384F1000
Y66.387Z-0.5
G0Z10
X18Y-66.183
G1Z-0.5F500
Y-66.18Z-0.6
Y66.184F1000
Y66.187Z-0.5
G0Z10
X19Y-65.983
G1Z-0.5F500
Y-65.98Z-0.6
Y65.984F1000
Y65.987Z-0.5
G0Z10
X20Y-65.587
G1Z-0.5F500
Y-65.584Z-0.6
Y65.584F1000
Y65.587Z-0.5
G0Z10
X21Y-65.187
G1Z-0.5F500
Y-65.184Z-0.6
Y65.184F1000
Y65.187Z-0.5
G0Z10
X22Y-64.983
G1Z-0.5F500
Y-64.98Z-0.6
Y64.984F1000
Y64.987Z-0.5
G0Z10
X23Y-64.587
G1Z-0.5F500
Y-64.584Z-0.6
Y64.584F1000
Y64.587Z-0.5
G0Z10
X24Y-64.187
G1Z-0.5F500
Y-64.184Z-0.6
Y64.184F1000
Y64.187Z-0.5
G0Z10
X25Y-63.787
G1Z-0.5F500
Y-63.784Z-0.6
Y63.784F1000
Y63.787Z-0.5
G0Z10
X26Y-63.387
G1Z-0.5F500
Y-63.384Z-0.6
Y63.384F1000
Y63.387Z-0.5
G0Z10
X27Y-62.987
G1Z-0.5F500
Y-62.984Z-0.6
Y62.984F1000
Y62.987Z-0.5
G0Z10
X28Y-62.587
G1Z-0.5F500
Y-62.584Z-0.6
Y62.584F1000
Y62.587Z-0.5
G0Z10
X29Y-62.183
G1Z-0.5F500
Y-62.18Z-0.6
Y62.184F1000
Y62.187Z-0.5
G0Z10
X30Y-61.587
G1Z-0.5F500
Y-61.584Z-0.6
Y61.584F1000
Y61.587Z-0.5
G0Z10
X31Y-61.183
G1Z-0.5F500
Y-61.18Z-0.6
Y61.184F1000
Y61.187Z-0.5
G0Z10
X32Y-60.587
G1Z-0.5F500
Y-60.584Z-0.6
Y60.584F1000
Y60.587Z-0.5
G0Z10
X33Y-60.183
G1Z-0.5F500
Y-60.18Z-0.6
Y60.184F1000
Y60.187Z-0.5
G0Z10
X34Y-59.583
G1Z-0.5F500
Y-59.58Z-0.6
Y59.584F1000
Y59.587Z-0.5
G0Z10
X35Y-58.983
G1Z-0.5F500
Y-58.98Z-0.6
Y58.984F1000
Y58.987Z-0.5
G0Z10
X36Y-58.383
G1Z-0.5F500
Y-58.38Z-0.6
Y58.384F1000
Y58.387Z-0.5
G0Z10
X37Y-57.783
G1Z-0.5F500
Y-57.78Z-0.6
Y57.784F1000
Y57.787Z-0.5
G0Z10
X38Y-56.987
G1Z-0.5F500
Y-56.984Z-0.6
Y56.984F1000
Y56.987Z-0.5
G0Z10
X39Y-56.383
G1Z-0.5F500
Y-56.38Z-0.6
Y56.384F1000
Y56.387Z-0.5
G0Z10
X40Y-55.587
G1Z-0.5F500
Y-55.584Z-0.6
Y55.584F1000
Y55.587Z-0.5
G0Z10
X41Y-54.983
G1Z-0.5F500
Y-54.98Z-0.6
Y54.984F1000
Y54.987Z-0.5
G0Z10
X42Y-54.183
G1Z-0.5F500
Y-54.18Z-0.6
Y54.184F1000
Y54.187Z-0.5
G0Z10
X43Y-53.387
G1Z-0.5F500
Y-53.384Z-0.6
Y53.384F1000
Y53.387Z-0.5
G0Z10
X44Y-52.583
G1Z-0.5F500
Y-52.58Z-0.6
Y52.584F1000
Y52.587Z-0.5
G0Z10
X45Y-51.783
G1Z-0.5F500
Y-51.78Z-0.6
Y51.784F1000
Y51.787Z-0.5
G0Z10
X46Y-50.787
G1Z-0.5F500
Y-50.784Z-0.6
Y50.784F1000
Y50.787Z-0.5
G0Z10
X47Y-49.983
G1Z-0.5F500
Y-49.98Z-0.6
Y49.984F1000
Y49.987Z-0.5
G0Z10
X48Y-48.983
G1Z-0.5F500
Y-48.98Z-0.6
Y48.984F1000
Y48.987Z-0.5
G0Z10
X49Y-47.983
G1Z-0.5F500
Y-47.98Z-0.6
Y47.984F1000
Y47.987Z-0.5
G0Z10
X50Y-46.983
G1Z-0.5F500
Y-46.98Z-0.6
Y46.984F1000
Y46.987Z-0.5
G0Z10
X51Y-45.787
G1Z-0.5F500
Y-45.784Z-0.6
Y45.784F1000
Y45.787Z-0.5
G0Z10
X52Y-44.587
G1Z-0.5F500
Y-44.584Z-0.6
Y44.584F1000
Y44.587Z-0.5
G0Z10
X53Y-43.387
G1Z-0.5F500
Y-43.384Z-0.6
Y43.384F1000
Y43.387Z-0.5
G0Z10
X54Y-42.187
G1Z-0.5F500
Y-42.184Z-0.6
Y42.184F1000
Y42.187Z-0.5
G0Z10
X55Y-40.983
G1Z-0.5F500
Y-40.98Z-0.6
Y40.984F1000
Y40.987Z-0.5
G0Z10
X56Y-39.583
G1Z-0.5F500
Y-39.58Z-0.6
Y39.584F1000
Y39.587Z-0.5
G0Z10
X57Y-37.987
G1Z-0.5F500
Y-37.984Z-0.6
Y37.984F1000
Y37.987Z-0.5
G0Z10
X58Y-36.583
G1Z-0.5F500
Y-36.58Z-0.6
Y36.584F1000
Y36.587Z-0.5
G0Z10
X59Y-34.983
G1Z-0.5F500
Y-34.98Z-0.6
Y34.984F1000
Y34.987Z-0.5
G0Z10
X60Y-33.183
G1Z-0.5F500
Y-33.18Z-0.6
Y33.184F1000
Y33.187Z-0.5
G0Z10
X61Y-31.187
G1Z-0.5F500
Y-31.184Z-0.6
Y31.184F1000
Y31.187Z-0.5
G0Z10
X62Y-29.187
G1Z-0.5F500
Y-29.184Z-0.6
Y29.184F1000
Y29.187Z-0.5
G0Z10
X63Y-26.987
G1Z-0.5F500
Y-26.984Z-0.6
Y26.984F1000
Y26.987Z-0.5
G0Z10
X64Y-24.387
G1Z-0.5F500
Y-24.384Z-0.6
Y24.384F1000
Y24.387Z-0.5
G0Z10
X65Y-21.587
G1Z-0.5F500
Y-21.584Z-0.6
Y21.584F1000
Y21.587Z-0.5
G0Z10
X66Y-18.387
G1Z-0.5F500
Y-18.384Z-0.6
Y18.384F1000
Y18.387Z-0.5
G0Z10
X67Y-14.383
G1Z-0.5F500
Y-14.38Z-0.6
Y14.384F1000
Y14.387Z-0.5
G0Z10
X68Y-8.583
G1Z-0.5F500
Y-8.58Z-0.6
Y8.584F1000
Y8.587Z-0.5
G0Z10
X-68Y-8.58
G1Z-0.6F500
Y-8.577Z-0.7
Y8.581F1000
Y8.584Z-0.6
G0Z10
X-67Y-14.38
G1Z-0.6F500
Y-14.377Z-0.7
Y14.381F1000
Y14.384Z-0.6
G0Z10
X-66Y-18.384
G1Z-0.6F500
Y-18.381Z-0.7
Y18.381F1000
Y18.384Z-0.6
G0Z10
X-65Y-21.584
G1Z-0.6F500
Y-21.581Z-0.7
Y21.581F1000
Y21.584Z-0.6
G0Z10
X-64Y-24.384
G1Z-0.6F500
Y-24.381Z-0.7
Y24.381F1000
Y24.384Z-0.6
G0Z10
X-63Y-26.984
G1Z-0.6F500
Y-26.981Z-0.7
Y26.981F1000
Y26.984Z-0.6
G0Z10
X-62Y-29.184
G1Z-0.6F500
Y-29.181Z-0.7
Y29.181F1000
Y29.184Z-0.6
G0Z10
X-61Y-31.184
G1Z-0.6F500
Y-31.181Z-0.7
Y31.181F1000
Y31.184Z-0.6
G0Z10
X-60Y-33.18
G1Z-0.6F500
Y-33.177Z-0.7
Y33.181F1000
Y33.184Z-0.6
G0Z10
X-59Y-34.98
G1Z-0.6F500
Y-34.977Z-0.7
Y34.981F1000
Y34.984Z-0.6
G0Z10
X-58Y-36.58
G1Z-0.6F500
Y-36.577Z-0.7
Y36.581F1000
Y36.584Z-0.6
G0Z10
X-57Y-37.984
G1Z-0.6F500
Y-37.981Z-0.7
Y37.981F1000
Y37.984Z-0.6
G0Z10
X-56Y-39.58
G1Z-0.6F500
Y-39.577Z-0.7
Y39.581F1000
Y39.584Z-0.6
G0Z10
X-55Y-40.98
G1Z-0.6F500
Y-40.977Z-0.7
Y40.981F1000
Y40.984Z-0.6
G0Z10
X-54Y-42.184
G1Z-0.6F500
Y-42.181Z-0.7
Y42.181F1000
Y42.184Z-0.6
G0Z10
X-53Y-43.384
G1Z-0.6F500
Y-43.381Z-0.7
Y43.381F1000
Y43.384Z-0.6
G0Z10
X-52Y-44.584
G1Z-0.6F500
Y-44.581Z-0.7
Y44.581F1000
Y44.584Z-0.6
G0Z10
X-51Y-45.784
G1Z-0.6F500
Y-45.781Z-0.7
Y45.781F1000
Y45.784Z-0.6
G0Z10
X-50Y-46.98
G1Z-0.6F500
Y-46.977Z-0.7
Y46.981F1000
Y46.984Z-0.6
G0Z10
X-49Y-47.98
G1Z-0.6F500
Y-47.977Z-0.7
Y47.981F1000
Y47.984Z-0.6
G0Z10
X-48Y-48.98
G1Z-0.6F500
Y-48.977Z-0.7
Y48.981F1000
Y48.984Z-0.6
G0Z10
X-47Y-49.98
G1Z-0.6F500
Y-49.977Z-0.7
Y49.981F1000
Y49.984Z-0.6
G0Z10
X-46Y-50.784
G1Z-0.6F500
Y-50.781Z-0.7
Y50.781F1000
Y50.784Z-0.6
G0Z10
X-45Y-51.78
G1Z-0.6F500
Y-51.777Z-0.7
Y51.781F1000
Y51.784Z-0.6
G0Z10
X-44Y-52.58
G1Z-0.6F500
Y-52.577Z-0.7
Y52.581F1000
Y52.584Z-0.6
G0Z10
X-43Y-53.384
G1Z-0.6F500
Y-53.381Z-0.7
Y53.381F1000
Y53.384Z-0.6
G0Z10
X-42Y-54.18
G1Z-0.6F500
Y-54.177Z-0.7
Y54.181F1000
Y54.184Z-0.6
G0Z10
X-41Y-54.98
G1Z-0.6F500
Y-54.977Z-0.7
Y54.981F1000
Y54.984Z-0.6
G0Z10
X-40Y-55.584
G1Z-0.6F500
Y-55.581Z-0.7
Y55.581F1000
Y55.584Z-0.599
G0Z10
X-39Y-56.38
G1Z-0.6F500
Y-56.377Z-0.7
Y56.381F1000
Y56.384Z-0.6
G0Z10
X-38Y-56.984
G1Z-0.6F500
Y-56.981Z-0.7
Y56.981F1000
Y56.984Z-0.6
G0Z10
X-37Y-57.78
G1Z-0.6F500
Y-57.777Z-0.7
Y57.781F1000
Y57.784Z-0.6
G0Z10
X-36Y-58.38
G1Z-0.6F500
Y-58.377Z-0.7
Y58.381F1000
Y58.384Z-0.6
G0Z10
X-35Y-58.98
G1Z-0.6F500
Y-58.977Z-0.7
Y58.981F1000
Y58.984Z-0.6
G0Z10
X-34Y-59.58
G1Z-0.6F500
Y-59.577Z-0.7
Y59.581F1000
Y59.584Z-0.6
G0Z10
X-33Y-60.18
G1Z-0.6F500
Y-60.177Z-0.7
Y60.181F1000
Y60.184Z-0.6
G0Z10
X-32Y-60.584
G1Z-0.6F500
Y-60.581Z-0.7
Y60.581F1000
Y60.584Z-0.6
G0Z10
X-31Y-61.18
G1Z-0.6F500
Y-61.177Z-0.7
Y61.181F1000
Y61.184Z-0.6
G0Z10
X-30Y-61.584
G1Z-0.6F500
Y-61.581Z-0.7
Y61.581F1000
Y61.584Z-0.6
G0Z10
X-29Y-62.18
G1Z-0.6F500
Y-62.177Z-0.7
Y62.181F1000
Y62.184Z-0.6
G0Z10
X-28Y-62.584
G1Z-0.6F500
Y-62.581Z-0.7
Y62.581F1000
Y62.584Z-0.6
G0Z10
X-27Y-62.984
G1Z-0.6F500
Y-62.981Z-0.7
Y62.981F1000
Y62.984Z-0.6
G0Z10
X-26Y-63.384
G1Z-0.6F500
Y-63.381Z-0.7
Y63.381F1000
Y63.384Z-0.6
G0Z10
X-25Y-63.784
G1Z-0.6F500
Y-63.781Z-0.7
Y63.781F1000
Y63.784Z-0.6
G0Z10
X-24Y-64.184
G1Z-0.6F500
Y-64.181Z-0.7
Y64.181F1000
Y64.184Z-0.6
G0Z10
X-23Y-64.584
G1Z-0.6F500
Y-64.581Z-0.7
Y64.581F1000
Y64.584Z-0.6
G0Z10
X-22Y-64.98
G1Z-0.6F500
Y-64.977Z-0.7
Y64.981F1000
Y64.984Z-0.6
G0Z10
X-21Y-65.184
G1Z-0.6F500
Y-65.181Z-0.7
Y65.181F1000
Y65.184Z-0.6
G0Z10
X-20Y-65.584
G1Z-0.6F500
Y-65.581Z-0.7
Y65.581F1000
Y65.584Z-0.6
G0Z10
X-19Y-65.98
G1Z-0.6F500
Y-65.977Z-0.7
Y65.981F1000
Y65.984Z-0.6
G0Z10
X-18Y-66.18
G1Z-0.6F500
Y-66.177Z-0.7
Y66.181F1000
Y66.184Z-0.6
G0Z10
X-17Y-66.384
G1Z-0.6F500
Y-66.381Z-0.7
Y66.381F1000
Y66.384Z-0.6
G0Z10
X-16Y-66.78
G1Z-0.6F500
Y-66.777Z-0.7
Y66.781F1000
Y66.784Z-0.6
G0Z10
X-15Y-66.98
G1Z-0.6F500
Y-66.977Z-0.7
Y66.981F1000
Y66.984Z-0.6
G0Z10
X-14Y-67.18
G1Z-0.6F500
Y-67.177Z-0.7
Y67.181F1000
Y67.184Z-0.6
G0Z10
X-13Y-67.38
G1Z-0.6F500
Y-67.377Z-0.7
Y67.381F1000
Y67.384Z-0.6
G0Z10
X-12Y-67.58
G1Z-0.6F500
Y-67.577Z-0.7
Y67.581F1000
Y67.584Z-0.6
G0Z10
X-11Y-67.78
G1Z-0.6F500
Y-67.777Z-0.7
Y67.781F1000
Y67.784Z-0.6
G0Z10
X-10Y-67.98
G1Z-0.6F500
Y-67.977Z-0.7
Y67.981F1000
Y67.984Z-0.6
G0Z10
X-9Y-67.984
G1Z-0.6F500
Y-67.981Z-0.7
Y67.981F1000
Y67.984Z-0.6
G0Z10
X-8Y-68.18
G1Z-0.6F500
Y-68.177Z-0.7
Y68.181F1000
Y68.184Z-0.6
G0Z10
X-7Y-68.184
G1Z-0.6F500
Y-68.181Z-0.7
Y68.181F1000
Y68.184Z-0.6
G0Z10
X-6Y-68.38
G1Z-0.6F500
Y-68.377Z-0.7
Y68.381F1000
Y68.384Z-0.6
G0Z10
X-5Y-68.384
G1Z-0.6F500
Y-68.381Z-0.7
Y68.382F1000
Y68.384Z-0.6
G0Z10
X-4Y-68.58
G1Z-0.6F500
Y-68.577Z-0.7
Y68.581F1000
Y68.584Z-0.6
G0Z10
X-3Y-68.584
G1Z-0.6F500
Y-68.581Z-0.7
Y68.582F1000
Y68.584Z-0.6
G0Z10
X-2Y-68.584
G1Z-0.6F500
Y-68.581Z-0.7
Y68.582F1000
Y68.584Z-0.6
G0Z10
X-1Y-68.584
G1Z-0.6F500
Y-68.581Z-0.7
Y68.582F1000
Y68.584Z-0.6
G0Z10
X0Y-68.584
G1Z-0.6F500
Y-68.581Z-0.7
Y68.582F1000
Y68.584Z-0.6
G0Z10
X1Y-68.584
G1Z-0.6F500
Y-68.581Z-0.7
Y68.582F1000
Y68.584Z-0.6
G0Z10
X2Y-68.584
G1Z-0.6F500
Y-68.581Z-0.7
Y68.582F1000
Y68.584Z-0.6
G0Z10
X3Y-68.584
G1Z-0.6F500
Y-68.581Z-0.7
Y68.582F1000
Y68.584Z-0.6
G0Z10
X4Y-68.58
G1Z-0.6F500
Y-68.577Z-0.7
Y68.581F1000
Y68.584Z-0.6
G0Z10
X5Y-68.384
G1Z-0.6F500
Y-68.381Z-0.7
Y68.382F1000
Y68.384Z-0.6
G0Z10
X6Y-68.38
G1Z-0.6F500
Y-68.377Z-0.7
Y68.381F1000
Y68.384Z-0.6
G0Z10
X7Y-68.184
G1Z-0.6F500
Y-68.181Z-0.7
Y68.181F1000
Y68.184Z-0.6
G0Z10
X8Y-68.18
G1Z-0.6F500
Y-68.177Z-0.7
Y68.181F1000
Y68.184Z-0.6
G0Z10
X9Y-67.984
G1Z-0.6F500
Y-67.981Z-0.7
Y67.981F1000
Y67.984Z-0.6
G0Z10
X10Y-67.98
G1Z-0.6F500
Y-67.977Z-0.7
Y67.981F1000
Y67.984Z-0.6
G0Z10
X11Y-67.78
G1Z-0.6F500
Y-67.777Z-0.7
Y67.781F1000
Y67.784Z-0.6
G0Z10
X12Y-67.58
G1Z-0.6F500
Y-67.577Z-0.7
Y67.581F1000
Y67.584Z-0.6
G0Z10
X13Y-67.38
G1Z-0.6F500
Y-67.377Z-0.7
Y67.381F1000
Y67.384Z-0.6
G0Z10
X14Y-67.18
G1Z-0.6F500
Y-67.177Z-0.7
Y67.181F1000
Y67.184Z-0.6
G0Z10
X15Y-66.98
G1Z-0.6F500
Y-66.977Z-0.7
Y66.981F1000
Y66.984Z-0.6
G0Z10
X16Y-66.78
G1Z-0.6F500
Y-66.777Z-0.7
Y66.781F1000
Y66.784Z-0.6
G0Z10
X17Y-66.384
G1Z-0.6F500
Y-66.381Z-0.7
Y66.381F1000
Y66.384Z-0.6
G0Z10
X18Y-66.18
G1Z-0.6F500
Y-66.177Z-0.7
Y66.181F1000
Y66.184Z-0.6
G0Z10
X19Y-65.98
G1Z-0.6F500
Y-65.977Z-0.7
Y65.981F1000
Y65.984Z-0.6
G0Z10
X20Y-65.584
G1Z-0.6F500
Y-65.581Z-0.7
Y65.581F1000
Y65.584Z-0.6
G0Z10
X21Y-65.184
G1Z-0.6F500
Y-65.181Z-0.7
Y65.181F1000
Y65.184Z-0.6
G0Z10
X22Y-64.98
G1Z-0.6F500
Y-64.977Z-0.7
Y64.981F1000
Y64.984Z-0.6
G0Z10
X23Y-64.584
G1Z-0.6F500
Y-64.581Z-0.7
Y64.581F1000
Y64.584Z-0.6
G0Z10
X24Y-64.184
G1Z-0.6F500
Y-64.181Z-0.7
Y64.181F1000
Y64.184Z-0.6
G0Z10
X25Y-63.784
G1Z-0.6F500
Y-63.781Z-0.7
Y63.781F1000
Y63.784Z-0.6
G0Z10
X26Y-63.384
G1Z-0.6F500
Y-63.381Z-0.7
Y63.381F1000
Y63.384Z-0.6
G0Z10
X27Y-62.984
G1Z-0.6F500
Y-62.981Z-0.7
Y62.981F1000
Y62.984Z-0.6
G0Z10
X28Y-62.584
G1Z-0.6F500
Y-62.581Z-0.7
Y62.581F1000
Y62.584Z-0.6
G0Z10
X29Y-62.18
G1Z-0.6F500
Y-62.177Z-0.7
Y62.181F1000
Y62.184Z-0.6
G0Z10
X30Y-61.584
G1Z-0.6F500
Y-61.581Z-0.7
Y61.581F1000
Y61.584Z-0.6
G0Z10
X31Y-61.18
G1Z-0.6F500
Y-61.177Z-0.7
Y61.181F1000
Y61.184Z-0.6
G0Z10
X32Y-60.584
G1Z-0.6F500
Y-60.581Z-0.7
Y60.581F1000
Y60.584Z-0.6
G0Z10
X33Y-60.18
G1Z-0.6F500
Y-60.177Z-0.7
Y60.181F1000
Y60.184Z-0.6
G0Z10
X34Y-59.58
G1Z-0.6F500
Y-59.577Z-0.7
Y59.581F1000
Y59.584Z-0.6
G0Z10
X35Y-58.98
G1Z-0.6F500
Y-58.977Z-0.7
Y58.981F1000
Y58.984Z-0.6
G0Z10
X36Y-58.38
G1Z-0.6F500
Y-58.377Z-0.7
Y58.381F1000
Y58.384Z-0.6
G0Z10
X37Y-57.78
G1Z-0.6F500
Y-57.777Z-0.7
Y57.781F1000
Y57.784Z-0.6
G0Z10
X38Y-56.984
G1Z-0.6F500
Y-56.981Z-0.7
Y56.981F1000
Y56.984Z-0.6
G0Z10
X39Y-56.38
G1Z-0.6F500
Y-56.377Z-0.7
Y56.381F1000
Y56.384Z-0.6
G0Z10
X40Y-55.584
G1Z-0.6F500
Y-55.581Z-0.7
Y55.581F1000
Y55.584Z-0.6
G0Z10
X41Y-54.98
G1Z-0.6F500
Y-54.977Z-0.7
Y54.981F1000
Y54.984Z-0.6
G0Z10
X42Y-54.18
G1Z-0.6F500
Y-54.177Z-0.7
Y54.181F1000
Y54.184Z-0.6
G0Z10
X43Y-53.384
G1Z-0.6F500
Y-53.381Z-0.7
Y53.381F1000
Y53.384Z-0.6
G0Z10
X44Y-52.58
G1Z-0.6F500
Y-52.577Z-0.7
Y52.581F1000
Y52.584Z-0.6
G0Z10
X45Y-51.78
G1Z-0.6F500
Y-51.777Z-0.7
Y51.781F1000
Y51.784Z-0.6
G0Z10
X46Y-50.784
G1Z-0.6F500
Y-50.781Z-0.7
Y50.781F1000
Y50.784Z-0.6
G0Z10
X47Y-49.98
G1Z-0.6F500
Y-49.977Z-0.7
Y49.981F1000
Y49.984Z-0.6
G0Z10
X48Y-48.98
G1Z-0.6F500
Y-48.977Z-0.7
Y48.981F1000
Y48.984Z-0.6
G0Z10
X49Y-47.98
G1Z-0.6F500
Y-47.977Z-0.7
Y47.981F1000
Y47.984Z-0.6
G0Z10
X50Y-46.98
G1Z-0.6F500
Y-46.977Z-0.7
Y46.981F1000
Y46.984Z-0.6
G0Z10
X51Y-45.784
G1Z-0.6F500
Y-45.781Z-0.7
Y45.781F1000
Y45.784Z-0.6
G0Z10
X52Y-44.584
G1Z-0.6F500
Y-44.581Z-0.7
Y44.581F1000
Y44.584Z-0.6
G0Z10
X53Y-43.384
G1Z-0.6F500
Y-43.381Z-0.7
Y43.381F1000
Y43.384Z-0.6
G0Z10
X54Y-42.184
G1Z-0.6F500
Y-42.181Z-0.7
Y42.181F1000
Y42.184Z-0.6
G0Z10
X55Y-40.98
G1Z-0.6F500
Y-40.977Z-0.7
Y40.981F1000
Y40.984Z-0.6
G0Z10
X56Y-39.58
G1Z-0.6F500
Y-39.577Z-0.7
Y39.581F1000
Y39.584Z-0.6
G0Z10
X57Y-37.984
G1Z-0.6F500
Y-37.981Z-0.7
Y37.981F1000
Y37.984Z-0.6
G0Z10
X58Y-36.58
G1Z-0.6F500
Y-36.577Z-0.7
Y36.581F1000
Y36.584Z-0.6
G0Z10
X59Y-34.98
G1Z-0.6F500
Y-34.977Z-0.7
Y34.981F1000
Y34.984Z-0.6
G0Z10
X60Y-33.18
G1Z-0.6F500
Y-33.177Z-0.7
Y33.181F1000
Y33.184Z-0.6
G0Z10
X61Y-31.184
G1Z-0.6F500
Y-31.181Z-0.7
Y31.181F1000
Y31.184Z-0.6
G0Z10
X62Y-29.184
G1Z-0.6F500
Y-29.181Z-0.7
Y29.181F1000
Y29.184Z-0.6
G0Z10
X63Y-26.984
G1Z-0.6F500
Y-26.981Z-0.7
Y26.981F1000
Y26.984Z-0.6
G0Z10
X64Y-24.384
G1Z-0.6F500
Y-24.381Z-0.7
Y24.381F1000
Y24.384Z-0.6
G0Z10
X65Y-21.584
G1Z-0.6F500
Y-21.581Z-0.7
Y21.581F1000
Y21.584Z-0.6
G0Z10
X66Y-18.384
G1Z-0.6F500
Y-18.381Z-0.7
Y18.381F1000
Y18.384Z-0.6
G0Z10
X67Y-14.38
G1Z-0.6F500
Y-14.377Z-0.7
Y14.381F1000
Y14.384Z-0.6
G0Z10
X68Y-8.58
G1Z-0.6F500
Y-8.577Z-0.7
Y8.581F1000
Y8.584Z-0.6
G0Z10
X-68Y-8.577
G1Z-0.7F500
Y-8.574Z-0.8
Y8.578F1000
Y8.581Z-0.7
G0Z10
X-67Y-14.377
G1Z-0.7F500
Y-14.374Z-0.8
Y14.378F1000
Y14.381Z-0.7
G0Z10
X-66Y-18.381
G1Z-0.7F500
Y-18.378Z-0.8
Y18.379F1000
Y18.381Z-0.7
G0Z10
X-65Y-21.581
G1Z-0.7F500
Y-21.578Z-0.8
Y21.579F1000
Y21.581Z-0.7
G0Z10
X-64Y-24.381
G1Z-0.7F500
Y-24.378Z-0.8
Y24.379F1000
Y24.381Z-0.7
G0Z10
X-63Y-26.981
G1Z-0.7F500
Y-26.978Z-0.8
Y26.979F1000
Y26.981Z-0.7
G0Z10
X-62Y-29.181
G1Z-0.7F500
Y-29.178Z-0.8
Y29.179F1000
Y29.181Z-0.7
G0Z10
X-61Y-31.181
G1Z-0.7F500
Y-31.178Z-0.8
Y31.179F1000
Y31.181Z-0.7
G0Z10
X-60Y-33.177
G1Z-0.7F500
Y-33.174Z-0.8
Y33.178F1000
Y33.181Z-0.7
G0Z10
X-59Y-34.977
G1Z-0.7F500
Y-34.974Z-0.8
Y34.978F1000
Y34.981Z-0.7
G0Z10
X-58Y-36.577
G1Z-0.7F500
Y-36.574Z-0.8
Y36.578F1000
Y36.581Z-0.7
G0Z10
X-57Y-37.981
G1Z-0.7F500
Y-37.978Z-0.8
Y37.979F1000
Y37.981Z-0.7
G0Z10
X-56Y-39.577
G1Z-0.7F500
Y-39.574Z-0.8
Y39.578F1000
Y39.581Z-0.7
G0Z10
X-55Y-40.977
G1Z-0.7F500
Y-40.974Z-0.8
Y40.978F1000
Y40.981Z-0.7
G0Z10
X-54Y-42.181
G1Z-0.7F500
Y-42.178Z-0.8
Y42.179F1000
Y42.181Z-0.7
G0Z10
X-53Y-43.381
G1Z-0.7F500
Y-43.378Z-0.8
Y43.379F1000
Y43.381Z-0.7
G0Z10
X-52Y-44.581
G1Z-0.7F500
Y-44.578Z-0.8
Y44.579F1000
Y44.581Z-0.7
G0Z10
X-51Y-45.781
G1Z-0.7F500
Y-45.778Z-0.8
Y45.779F1000
Y45.781Z-0.7
G0Z10
X-50Y-46.977
G1Z-0.7F500
Y-46.974Z-0.8
Y46.978F1000
Y46.981Z-0.7
G0Z10
X-49Y-47.977
G1Z-0.7F500
Y-47.974Z-0.8
Y47.978F1000
Y47.981Z-0.7
G0Z10
X-48Y-48.977
G1Z-0.7F500
Y-48.974Z-0.8
Y48.978F1000
Y48.981Z-0.7
G0Z10
X-47Y-49.977
G1Z-0.7F500
Y-49.974Z-0.8
Y49.978F1000
Y49.981Z-0.7
G0Z10
X-46Y-50.781
G1Z-0.7F500
Y-50.778Z-0.8
Y50.779F1000
Y50.781Z-0.7
G0Z10
X-45Y-51.777
G1Z-0.7F500
Y-51.774Z-0.8
Y51.778F1000
Y51.781Z-0.7
G0Z10
X-44Y-52.577
G1Z-0.7F500
Y-52.574Z-0.8
Y52.578F1000
Y52.581Z-0.7
G0Z10
X-43Y-53.381
G1Z-0.7F500
Y-53.378Z-0.8
Y53.379F1000
Y53.381Z-0.7
G0Z10
X-42Y-54.177
G1Z-0.7F500
Y-54.174Z-0.8
Y54.178F1000
Y54.181Z-0.7
G0Z10
X-41Y-54.977
G1Z-0.7F500
Y-54.974Z-0.8
Y54.978F1000
Y54.981Z-0.7
G0Z10
X-40Y-55.581
G1Z-0.7F500
Y-55.578Z-0.8
Y55.579F1000
Y55.581Z-0.7
G0Z10
X-39Y-56.377
G1Z-0.7F500
Y-56.374Z-0.8
Y56.378F1000
Y56.381Z-0.7
G0Z10
X-38Y-56.981
G1Z-0.7F500
Y-56.978Z-0.8
Y56.979F1000
Y56.981Z-0.7
G0Z10
X-37Y-57.777
G1Z-0.7F500
Y-57.774Z-0.8
Y57.778F1000
Y57.781Z-0.7
G0Z10
X-36Y-58.377
G1Z-0.7F500
Y-58.374Z-0.8
Y58.378F1000
Y58.381Z-0.7
G0Z10
X-35Y-58.977
G1Z-0.7F500
Y-58.974Z-0.8
Y58.978F1000
Y58.981Z-0.7
G0Z10
X-34Y-59.577
G1Z-0.7F500
Y-59.574Z-0.8
Y59.578F1000
Y59.581Z-0.7
G0Z10
X-33Y-60.177
G1Z-0.7F500
Y-60.174Z-0.8
Y60.178F1000
Y60.181Z-0.7
G0Z10
X-32Y-60.581
G1Z-0.7F500
Y-60.578Z-0.8
Y60.579F1000
Y60.581Z-0.7
G0Z10
X-31Y-61.177
G1Z-0.7F500
Y-61.174Z-0.8
Y61.178F1000
Y61.181Z-0.7
G0Z10
X-30Y-61.581
G1Z-0.7F500
Y-61.578Z-0.8
Y61.579F1000
Y61.581Z-0.7
G0Z10
X-29Y-62.177
G1Z-0.7F500
Y-62.174Z-0.8
Y62.178F1000
Y62.181Z-0.7
G0Z10
X-28Y-62.581
G1Z-0.7F500
Y-62.578Z-0.8
Y62.579F1000
Y62.581Z-0.7
G0Z10
X-27Y-62.981
G1Z-0.7F500
Y-62.978Z-0.8
Y62.979F1000
Y62.981Z-0.7
G0Z10
X-26Y-63.381
G1Z-0.7F500
Y-63.378Z-0.8
Y63.379F1000
Y63.381Z-0.7
G0Z10
X-25Y-63.781
G1Z-0.7F500
Y-63.778Z-0.8
Y63.779F1000
Y63.781Z-0.7
G0Z10
X-24Y-64.181
G1Z-0.7F500
Y-64.178Z-0.8
Y64.179F1000
Y64.181Z-0.7
G0Z10
X-23Y-64.581
G1Z-0.7F500
Y-64.578Z-0.8
Y64.579F1000
Y64.581Z-0.7
G0Z10
X-22Y-64.977
G1Z-0.7F500
Y-64.974Z-0.8
Y64.978F1000
Y64.981Z-0.7
G0Z10
X-21Y-65.181
G1Z-0.7F500
Y-65.178Z-0.8
Y65.179F1000
Y65.181Z-0.7
G0Z10
X-20Y-65.581
G1Z-0.7F500
Y-65.578Z-0.8
Y65.579F1000
Y65.581Z-0.7
G0Z10
X-19Y-65.977
G1Z-0.7F500
Y-65.974Z-0.8
Y65.978F1000
Y65.981Z-0.7
G0Z10
X-18Y-66.177
G1Z-0.7F500
Y-66.174Z-0.8
Y66.178F1000
Y66.181Z-0.7
G0Z10
X-17Y-66.381
G1Z-0.7F500
Y-66.378Z-0.8
Y66.379F1000
Y66.381Z-0.7
G0Z10
X-16Y-66.777
G1Z-0.7F500
Y-66.774Z-0.8
Y66.778F1000
Y66.781Z-0.7
G0Z10
X-15Y-66.977
G1Z-0.7F500
Y-66.974Z-0.8
Y66.978F1000
Y66.981Z-0.7
G0Z10
X-14Y-67.177
G1Z-0.7F500
Y-67.174Z-0.8
Y67.178F1000
Y67.181Z-0.7
G0Z10
X-13Y-67.377
G1Z-0.7F500
Y-67.374Z-0.8
Y67.378F1000
Y67.381Z-0.7
G0Z10
X-12Y-67.577
G1Z-0.7F500
Y-67.574Z-0.8
Y67.578F1000
Y67.581Z-0.7
G0Z10
X-11Y-67.777
G1Z-0.7F500
Y-67.774Z-0.8
Y67.778F1000
Y67.781Z-0.7
G0Z10
X-10Y-67.977
G1Z-0.7F500
Y-67.974Z-0.8
Y67.978F1000
Y67.981Z-0.7
G0Z10
X-9Y-67.981
G1Z-0.7F500
Y-67.978Z-0.8
Y67.979F1000
Y67.981Z-0.7
G0Z10
X-8Y-68.177
G1Z-0.7F500
Y-68.174Z-0.8
Y68.178F1000
Y68.181Z-0.7
G0Z10
X-7Y-68.181
G1Z-0.7F500
Y-68.178Z-0.8
Y68.179F1000
Y68.181Z-0.7
G0Z10
X-6Y-68.377
G1Z-0.7F500
Y-68.374Z-0.8
Y68.378F1000
Y68.381Z-0.7
G0Z10
X-5Y-68.381
G1Z-0.7F500
Y-68.378Z-0.8
Y68.379F1000
Y68.382Z-0.7
G0Z10
X-4Y-68.577
G1Z-0.7F500
Y-68.574Z-0.8
Y68.578F1000
Y68.581Z-0.7
G0Z10
X-3Y-68.581
G1Z-0.7F500
Y-68.578Z-0.8
Y68.579F1000
Y68.582Z-0.7
G0Z10
X-2Y-68.581
G1Z-0.7F500
Y-68.578Z-0.8
Y68.579F1000
Y68.582Z-0.7
G0Z10
X-1Y-68.581
G1Z-0.7F500
Y-68.578Z-0.8
Y68.579F1000
Y68.582Z-0.7
G0Z10
X0Y-68.581
G1Z-0.7F500
Y-68.578Z-0.8
Y68.579F1000
Y68.582Z-0.7
G0Z10
X1Y-68.581
G1Z-0.7F500
Y-68.578Z-0.8
Y68.579F1000
Y68.582Z-0.7
G0Z10
X2Y-68.581
G1Z-0.7F500
Y-68.578Z-0.8
Y68.579F1000
Y68.582Z-0.7
G0Z10
X3Y-68.581
G1Z-0.7F500
Y-68.578Z-0.8
Y68.579F1000
Y68.582Z-0.7
G0Z10
X4Y-68.577
G1Z-0.7F500
Y-68.574Z-0.8
Y68.578F1000
Y68.581Z-0.7
G0Z10
X5Y-68.381
G1Z-0.7F500
Y-68.378Z-0.8
Y68.379F1000
Y68.382Z-0.7
G0Z10
X6Y-68.377
G1Z-0.7F500
Y-68.374Z-0.8
Y68.378F1000
Y68.381Z-0.7
G0Z10
X7Y-68.181
G1Z-0.7F500
Y-68.178Z-0.8
Y68.179F1000
Y68.181Z-0.7
G0Z10
X8Y-68.177
G1Z-0.7F500
Y-68.174Z-0.8
Y68.178F1000
Y68.181Z-0.7
G0Z10
X9Y-67.981
G1Z-0.7F500
Y-67.978Z-0.8
Y67.979F1000
Y67.981Z-0.7
G0Z10
X10Y-67.977
G1Z-0.7F500
Y-67.974Z-0.8
Y67.978F1000
Y67.981Z-0.7
G0Z10
X11Y-67.777
G1Z-0.7F500
Y-67.774Z-0.8
Y67.778F1000
Y67.781Z-0.7
G0Z10
X12Y-67.577
G1Z-0.7F500
Y-67.574Z-0.8
Y67.578F1000
Y67.581Z-0.7
G0Z10
X13Y-67.377
G1Z-0.7F500
Y-67.374Z-0.8
Y67.378F1000
Y67.381Z-0.7
G0Z10
X14Y-67.177
G1Z-0.7F500
Y-67.174Z-0.8
Y67.178F1000
Y67.181Z-0.7
G0Z10
X15Y-66.977
G1Z-0.7F500
Y-66.974Z-0.8
Y66.978F1000
Y66.981Z-0.7
G0Z10
X16Y-66.777
G1Z-0.7F500
Y-66.774Z-0.8
Y66.778F1000
Y66.781Z-0.7
G0Z10
X17Y-66.381
G1Z-0.7F500
Y-66.378Z-0.8
Y66.379F1000
Y66.381Z-0.7
G0Z10
X18Y-66.177
G1Z-0.7F500
Y-66.174Z-0.8
Y66.178F1000
Y66.181Z-0.7
G0Z10
X19Y-65.977
G1Z-0.7F500
Y-65.974Z-0.8
Y65.978F1000
Y65.981Z-0.7
G0Z10
X20Y-65.581
G1Z-0.7F500
Y-65.578Z-0.8
Y65.579F1000
Y65.581Z-0.7
G0Z10
X21Y-65.181
G1Z-0.7F500
Y-65.178Z-0.8
Y65.179F1000
Y65.181Z-0.7
G0Z10
X22Y-64.977
G1Z-0.7F500
Y-64.974Z-0.8
Y64.978F1000
Y64.981Z-0.7
G0Z10
X23Y-64.581
G1Z-0.7F500
Y-64.578Z-0.8
Y64.579F1000
Y64.581Z-0.7
G0Z10
X24Y-64.181
G1Z-0.7F500
Y-64.178Z-0.8
Y64.179F1000
Y64.181Z-0.7
G0Z10
X25Y-63.781
G1Z-0.7F500
Y-63.778Z-0.8
Y63.779F1000
Y63.781Z-0.7
G0Z10
X26Y-63.381
G1Z-0.7F500
Y-63.378Z-0.8
Y63.379F1000
Y63.381Z-0.7
G0Z10
X27Y-62.981
G1Z-0.7F500
Y-62.978Z-0.8
Y62.979F1000
Y62.981Z-0.7
G0Z10
X28Y-62.581
G1Z-0.7F500
Y-62.578Z-0.8
Y62.579F1000
Y62.581Z-0.7
G0Z10
X29Y-62.177
G1Z-0.7F500
Y-62.174Z-0.8
Y62.178F1000
Y62.181Z-0.7
G0Z10
X30Y-61.581
G1Z-0.7F500
Y-61.578Z-0.8
Y61.579F1000
Y61.581Z-0.7
G0Z10
X31Y-61.177
G1Z-0.7F500
Y-61.174Z-0.8
Y61.178F1000
Y61.181Z-0.7
G0Z10
X32Y-60.581
G1Z-0.7F500
Y-60.578Z-0.8
Y60.579F1000
Y60.581Z-0.7
G0Z10
X33Y-60.177
G1Z-0.7F500
Y-60.174Z-0.8
Y60.178F1000
Y60.181Z-0.7
G0Z10
X34Y-59.577
G1Z-0.7F500
Y-59.574Z-0.8
Y59.578F1000
Y59.581Z-0.7
G0Z10
X35Y-58.977
G1Z-0.7F500
Y-58.974Z-0.8
Y58.978F1000
Y58.981Z-0.7
G0Z10
X36Y-58.377
G1Z-0.7F500
Y-58.374Z-0.8
Y58.378F1000
Y58.381Z-0.7
G0Z10
X37Y-57.777
G1Z-0.7F500
Y-57.774Z-0.8
Y57.778F1000
Y57.781Z-0.7
G0Z10
X38Y-56.981
G1Z-0.7F500
Y-56.978Z-0.8
Y56.979F1000
Y56.981Z-0.7
G0Z10
X39Y-56.377
G1Z-0.7F500
Y-56.374Z-0.8
Y56.378F1000
Y56.381Z-0.7
G0Z10
X40Y-55.581
G1Z-0.7F500
Y-55.578Z-0.8
Y55.579F1000
Y55.581Z-0.7
G0Z10
X41Y-54.977
G1Z-0.7F500
Y-54.974Z-0.8
Y54.978F1000
Y54.981Z-0.7
G0Z10
X42Y-54.177
G1Z-0.7F500
Y-54.174Z-0.8
Y54.178F1000
Y54.181Z-0.7
G0Z10
X43Y-53.381
G1Z-0.7F500
Y-53.378Z-0.8
Y53.379F1000
Y53.381Z-0.7
G0Z10
X44Y-52.577
G1Z-0.7F500
Y-52.574Z-0.8
Y52.578F1000
Y52.581Z-0.7
G0Z10
X45Y-51.777
G1Z-0.7F500
Y-51.774Z-0.8
Y51.778F1000
Y51.781Z-0.7
G0Z10
X46Y-50.781
G1Z-0.7F500
Y-50.778Z-0.8
Y50.779F1000
Y50.781Z-0.7
G0Z10
X47Y-49.977
G1Z-0.7F500
Y-49.974Z-0.8
Y49.978F1000
Y49.981Z-0.7
G0Z10
X48Y-48.977
G1Z-0.7F500
Y-48.974Z-0.8
Y48.978F1000
Y48.981Z-0.7
G0Z10
X49Y-47.977
G1Z-0.7F500
Y-47.974Z-0.8
Y47.978F1000
Y47.981Z-0.7
G0Z10
X50Y-46.977
G1Z-0.7F500
Y-46.974Z-0.8
Y46.978F1000
Y46.981Z-0.7
G0Z10
X51Y-45.781
G1Z-0.7F500
Y-45.778Z-0.8
Y45.779F1000
Y45.781Z-0.7
G0Z10
X52Y-44.581
G1Z-0.7F500
Y-44.578Z-0.8
Y44.579F1000
Y44.581Z-0.7
G0Z10
X53Y-43.381
G1Z-0.7F500
Y-43.378Z-0.8
Y43.379F1000
Y43.381Z-0.7
G0Z10
X54Y-42.181
G1Z-0.7F500
Y-42.178Z-0.8
Y42.179F1000
Y42.181Z-0.7
G0Z10
X55Y-40.977
G1Z-0.7F500
Y-40.974Z-0.8
Y40.978F1000
Y40.981Z-0.7
G0Z10
X56Y-39.577
G1Z-0.7F500
Y-39.574Z-0.8
Y39.578F1000
Y39.581Z-0.7
G0Z10
X57Y-37.981
G1Z-0.7F500
Y-37.978Z-0.8
Y37.979F1000
Y37.981Z-0.7
G0Z10
X58Y-36.577
G1Z-0.7F500
Y-36.574Z-0.8
Y36.578F1000
Y36.581Z-0.7
G0Z10
X59Y-34.977
G1Z-0.7F500
Y-34.974Z-0.8
Y34.978F1000
Y34.981Z-0.7
G0Z10
X60Y-33.177
G1Z-0.7F500
Y-33.174Z-0.8
Y33.178F1000
Y33.181Z-0.7
G0Z10
X61Y-31.181
G1Z-0.7F500
Y-31.178Z-0.8
Y31.179F1000
Y31.181Z-0.7
G0Z10
X62Y-29.181
G1Z-0.7F500
Y-29.178Z-0.8
Y29.179F1000
Y29.181Z-0.7
G0Z10
X63Y-26.981
G1Z-0.7F500
Y-26.978Z-0.8
Y26.979F1000
Y26.981Z-0.7
G0Z10
X64Y-24.381
G1Z-0.7F500
Y-24.378Z-0.8
Y24.379F1000
Y24.381Z-0.7
G0Z10
X65Y-21.581
G1Z-0.7F500
Y-21.578Z-0.8
Y21.579F1000
Y21.581Z-0.7
G0Z10
X66Y-18.381
G1Z-0.7F500
Y-18.378Z-0.8
Y18.379F1000
Y18.381Z-0.7
G0Z10
X67Y-14.377
G1Z-0.7F500
Y-14.374Z-0.8
Y14.378F1000
Y14.381Z-0.7
G0Z10
X68Y-8.577
G1Z-0.7F500
Y-8.574Z-0.8
Y8.578F1000
Y8.581Z-0.7
G0Z10
X-68Y-8.574
G1Z-0.8F500
Y-8.571Z-0.9
Y8.575F1000
Y8.578Z-0.8
G0Z10
X-67Y-14.374
G1Z-0.8F500
Y-14.371Z-0.9
Y14.375F1000
Y14.378Z-0.8
G0Z10
X-66Y-18.378
G1Z-0.8F500
Y-18.375Z-0.9
Y18.376F1000
Y18.379Z-0.8
G0Z10
X-65Y-21.578
G1Z-0.8F500
Y-21.575Z-0.9
Y21.576F1000
Y21.579Z-0.8
G0Z10
X-64Y-24.378
G1Z-0.8F500
Y-24.375Z-0.9
Y24.376F1000
Y24.379Z-0.8
G0Z10
X-63Y-26.978
G1Z-0.8F500
Y-26.975Z-0.9
Y26.976F1000
Y26.979Z-0.8
G0Z10
X-62Y-29.178
G1Z-0.8F500
Y-29.175Z-0.9
Y29.176F1000
Y29.179Z-0.8
G0Z10
X-61Y-31.178
G1Z-0.8F500
Y-31.175Z-0.9
Y31.176F1000
Y31.179Z-0.8
G0Z10
X-60Y-33.174
G1Z-0.8F500
Y-33.171Z-0.9
Y33.175F1000
Y33.178Z-0.8
G0Z10
X-59Y-34.974
G1Z-0.8F500
Y-34.971Z-0.9
Y34.975F1000
Y34.978Z-0.8
G0Z10
X-58Y-36.574
G1Z-0.8F500
Y-36.571Z-0.9
Y36.575F1000
Y36.578Z-0.8
G0Z10
X-57Y-37.978
G1Z-0.8F500
Y-37.975Z-0.9
Y37.976F1000
Y37.979Z-0.8
G0Z10
X-56Y-39.574
G1Z-0.8F500
Y-39.571Z-0.9
Y39.575F1000
Y39.578Z-0.8
G0Z10
X-55Y-40.974
G1Z-0.8F500
Y-40.971Z-0.9
Y40.975F1000
Y40.978Z-0.8
G0Z10
X-54Y-42.178
G1Z-0.8F500
Y-42.175Z-0.9
Y42.176F1000
Y42.179Z-0.8
G0Z10
X-53Y-43.378
G1Z-0.8F500
Y-43.375Z-0.9
Y43.376F1000
Y43.379Z-0.8
G0Z10
X-52Y-44.578
G1Z-0.8F500
Y-44.575Z-0.9
Y44.576F1000
Y44.579Z-0.8
G0Z10
X-51Y-45.778
G1Z-0.8F500
Y-45.775Z-0.9
Y45.776F1000
Y45.779Z-0.8
G0Z10
X-50Y-46.974
G1Z-0.8F500
Y-46.971Z-0.9
Y46.975F1000
Y46.978Z-0.8
G0Z10
X-49Y-47.974
G1Z-0.8F500
Y-47.971Z-0.9
Y47.975F1000
Y47.978Z-0.8
G0Z10
X-48Y-48.974
G1Z-0.8F500
Y-48.971Z-0.9
Y48.975F1000
Y48.978Z-0.8
G0Z10
X-47Y-49.974
G1Z-0.8F500
Y-49.971Z-0.9
Y49.975F1000
Y49.978Z-0.8
G0Z10
X-46Y-50.778
G1Z-0.8F500
Y-50.775Z-0.9
Y50.776F1000
Y50.779Z-0.8
G0Z10
X-45Y-51.774
G1Z-0.8F500
Y-51.771Z-0.9
Y51.775F1000
Y51.778Z-0.8
G0Z10
X-44Y-52.574
G1Z-0.8F500
Y-52.571Z-0.9
Y52.575F1000
Y52.578Z-0.8
G0Z10
X-43Y-53.378
G1Z-0.8F500
Y-53.375Z-0.9
Y53.376F1000
Y53.379Z-0.8
G0Z10
X-42Y-54.174
G1Z-0.8F500
Y-54.171Z-0.9
Y54.175F1000
Y54.178Z-0.8
G0Z10
X-41Y-54.974
G1Z-0.8F500
Y-54.971Z-0.9
Y54.975F1000
Y54.978Z-0.8
G0Z10
X-40Y-55.578
G1Z-0.8F500
Y-55.575Z-0.9
Y55.576F1000
Y55.579Z-0.8
G0Z10
X-39Y-56.374
G1Z-0.8F500
Y-56.371Z-0.9
Y56.375F1000
Y56.378Z-0.8
G0Z10
X-38Y-56.978
G1Z-0.8F500
Y-56.975Z-0.9
Y56.976F1000
Y56.979Z-0.8
G0Z10
X-37Y-57.774
G1Z-0.8F500
Y-57.771Z-0.9
Y57.775F1000
Y57.778Z-0.8
G0Z10
X-36Y-58.374
G1Z-0.8F500
Y-58.371Z-0.9
Y58.375F1000
Y58.378Z-0.8
G0Z10
X-35Y-58.974
G1Z-0.8F500
Y-58.971Z-0.9
Y58.975F1000
Y58.978Z-0.8
G0Z10
X-34Y-59.574
G1Z-0.8F500
Y-59.571Z-0.9
Y59.575F1000
Y59.578Z-0.8
G0Z10
X-33Y-60.174
G1Z-0.8F500
Y-60.171Z-0.9
Y60.175F1000
Y60.178Z-0.8
G0Z10
X-32Y-60.578
G1Z-0.8F500
Y-60.575Z-0.9
Y60.576F1000
Y60.579Z-0.8
G0Z10
X-31Y-61.174
G1Z-0.8F500
Y-61.171Z-0.9
Y61.175F1000
Y61.178Z-0.8
G0Z10
X-30Y-61.578
G1Z-0.8F500
Y-61.575Z-0.9
Y61.576F1000
Y61.579Z-0.8
G0Z10
X-29Y-62.174
G1Z-0.8F500
Y-62.171Z-0.9
Y62.175F1000
Y62.178Z-0.8
G0Z10
X-28Y-62.578
G1Z-0.8F500
Y-62.575Z-0.9
Y62.576F1000
Y62.579Z-0.8
G0Z10
X-27Y-62.978
G1Z-0.8F500
Y-62.975Z-0.9
Y62.976F1000
Y62.979Z-0.8
G0Z10
X-26Y-63.378
G1Z-0.8F500
Y-63.375Z-0.9
Y63.376F1000
Y63.379Z-0.8
G0Z10
X-25Y-63.778
G1Z-0.8F500
Y-63.775Z-0.9
Y63.776F1000
Y63.779Z-0.8
G0Z10
X-24Y-64.178
G1Z-0.8F500
Y-64.175Z-0.9
Y64.176F1000
Y64.179Z-0.8
G0Z10
X-23Y-64.578
G1Z-0.8F500
Y-64.575Z-0.9
Y64.576F1000
Y64.579Z-0.8
G0Z10
X-22Y-64.974
G1Z-0.8F500
Y-64.971Z-0.9
Y64.975F1000
Y64.978Z-0.8
G0Z10
X-21Y-65.178
G1Z-0.8F500
Y-65.175Z-0.9
Y65.176F1000
Y65.179Z-0.8
G0Z10
X-20Y-65.578
G1Z-0.8F500
Y-65.575Z-0.9
Y65.576F1000
Y65.579Z-0.8
G0Z10
X-19Y-65.974
G1Z-0.8F500
Y-65.971Z-0.9
Y65.975F1000
Y65.978Z-0.8
G0Z10
X-18Y-66.174
G1Z-0.8F500
Y-66.171Z-0.9
Y66.175F1000
Y66.178Z-0.8
G0Z10
X-17Y-66.378
G1Z-0.8F500
Y-66.375Z-0.9
Y66.376F1000
Y66.379Z-0.8
G0Z10
X-16Y-66.774
G1Z-0.8F500
Y-66.771Z-0.9
Y66.775F1000
Y66.778Z-0.8
G0Z10
X-15Y-66.974
G1Z-0.8F500
Y-66.971Z-0.9
Y66.975F1000
Y66.978Z-0.8
G0Z10
X-14Y-67.174
G1Z-0.8F500
Y-67.171Z-0.9
Y67.175F1000
Y67.178Z-0.8
G0Z10
X-13Y-67.374
G1Z-0.8F500
Y-67.371Z-0.9
Y67.375F1000
Y67.378Z-0.8
G0Z10
X-12Y-67.574
G1Z-0.8F500
Y-67.571Z-0.9
Y67.575F1000
Y67.578Z-0.8
G0Z10
X-11Y-67.774
G1Z-0.8F500
Y-67.771Z-0.9
Y67.775F1000
Y67.778Z-0.8
G0Z10
X-10Y-67.974
G1Z-0.8F500
Y-67.971Z-0.9
Y67.975F1000
Y67.978Z-0.8
G0Z10
X-9Y-67.978
G1Z-0.8F500
Y-67.975Z-0.9
Y67.976F1000
Y67.979Z-0.8
G0Z10
X-8Y-68.174
G1Z-0.8F500
Y-68.171Z-0.9
Y68.175F1000
Y68.178Z-0.8
G0Z10
X-7Y-68.178
G1Z-0.8F500
Y-68.175Z-0.9
Y68.176F1000
Y68.179Z-0.8
G0Z10
X-6Y-68.374
G1Z-0.8F500
Y-68.371Z-0.9
Y68.375F1000
Y68.378Z-0.8
G0Z10
X-5Y-68.378
G1Z-0.8F500
Y-68.375Z-0.9
Y68.376F1000
Y68.379Z-0.8
G0Z10
X-4Y-68.574
G1Z-0.8F500
Y-68.571Z-0.9
Y68.575F1000
Y68.578Z-0.8
G0Z10
X-3Y-68.578
G1Z-0.8F500
Y-68.575Z-0.9
Y68.576F1000
Y68.579Z-0.8
G0Z10
X-2Y-68.578
G1Z-0.8F500
Y-68.575Z-0.9
Y68.576F1000
Y68.579Z-0.8
G0Z10
X-1Y-68.578
G1Z-0.8F500
Y-68.575Z-0.9
Y68.576F1000
Y68.579Z-0.8
G0Z10
X0Y-68.578
G1Z-0.8F500
Y-68.575Z-0.9
Y68.576F1000
Y68.579Z-0.8
G0Z10
X1Y-68.578
G1Z-0.8F500
Y-68.575Z-0.9
Y68.576F1000
Y68.579Z-0.8
G0Z10
X2Y-68.578
G1Z-0.8F500
Y-68.575Z-0.9
Y68.576F1000
Y68.579Z-0.8
G0Z10
X3Y-68.578
G1Z-0.8F500
Y-68.575Z-0.9
Y68.576F1000
Y68.579Z-0.8
G0Z10
X4Y-68.574
G1Z-0.8F500
Y-68.571Z-0.9
Y68.575F1000
Y68.578Z-0.8
G0Z10
X5Y-68.378
G1Z-0.8F500
Y-68.375Z-0.9
Y68.376F1000
Y68.379Z-0.8
G0Z10
X6Y-68.374
G1Z-0.8F500
Y-68.371Z-0.9
Y68.375F1000
Y68.378Z-0.8
G0Z10
X7Y-68.178
G1Z-0.8F500
Y-68.175Z-0.9
Y68.176F1000
Y68.179Z-0.8
G0Z10
X8Y-68.174
G1Z-0.8F500
Y-68.171Z-0.9
Y68.175F1000
Y68.178Z-0.8
G0Z10
X9Y-67.978
G1Z-0.8F500
Y-67.975Z-0.9
Y67.976F1000
Y67.979Z-0.8
G0Z10
X10Y-67.974
G1Z-0.8F500
Y-67.971Z-0.9
Y67.975F1000
Y67.978Z-0.8
G0Z10
X11Y-67.774
G1Z-0.8F500
Y-67.771Z-0.9
Y67.775F1000
Y67.778Z-0.8
G0Z10
X12Y-67.574
G1Z-0.8F500
Y-67.571Z-0.9
Y67.575F1000
Y67.578Z-0.8
G0Z10
X13Y-67.374
G1Z-0.8F500
Y-67.371Z-0.9
Y67.375F1000
Y67.378Z-0.8
G0Z10
X14Y-67.174
G1Z-0.8F500
Y-67.171Z-0.9
Y67.175F1000
Y67.178Z-0.8
G0Z10
X15Y-66.974
G1Z-0.8F500
Y-66.971Z-0.9
Y66.975F1000
Y66.978Z-0.8
G0Z10
X16Y-66.774
G1Z-0.8F500
Y-66.771Z-0.9
Y66.775F1000
Y66.778Z-0.8
G0Z10
X17Y-66.378
G1Z-0.8F500
Y-66.375Z-0.9
Y66.376F1000
Y66.379Z-0.8
G0Z10
X18Y-66.174
G1Z-0.8F500
Y-66.171Z-0.9
Y66.175F1000
Y66.178Z-0.8
G0Z10
X19Y-65.974
G1Z-0.8F500
Y-65.971Z-0.9
Y65.975F1000
Y65.978Z-0.8
G0Z10
X20Y-65.578
G1Z-0.8F500
Y-65.575Z-0.9
Y65.576F1000
Y65.579Z-0.8
G0Z10
X21Y-65.178
G1Z-0.8F500
Y-65.175Z-0.9
Y65.176F1000
Y65.179Z-0.8
G0Z10
X22Y-64.974
G1Z-0.8F500
Y-64.971Z-0.9
Y64.975F1000
Y64.978Z-0.8
G0Z10
X23Y-64.578
G1Z-0.8F500
Y-64.575Z-0.9
Y64.576F1000
Y64.579Z-0.8
G0Z10
X24Y-64.178
G1Z-0.8F500
Y-64.175Z-0.9
Y64.176F1000
Y64.179Z-0.8
G0Z10
X25Y-63.778
G1Z-0.8F500
Y-63.775Z-0.9
Y63.776F1000
Y63.779Z-0.8
G0Z10
X26Y-63.378
G1Z-0.8F500
Y-63.375Z-0.9
Y63.376F1000
Y63.379Z-0.8
G0Z10
X27Y-62.978
G1Z-0.8F500
Y-62.975Z-0.9
Y62.976F1000
Y62.979Z-0.8
G0Z10
X28Y-62.578
G1Z-0.8F500
Y-62.575Z-0.9
Y62.576F1000
Y62.579Z-0.8
G0Z10
X29Y-62.174
G1Z-0.8F500
Y-62.171Z-0.9
Y62.175F1000
Y62.178Z-0.8
G0Z10
X30Y-61.578
G1Z-0.8F500
Y-61.575Z-0.9
Y61.576F1000
Y61.579Z-0.8
G0Z10
X31Y-61.174
G1Z-0.8F500
Y-61.171Z-0.9
Y61.175F1000
Y61.178Z-0.8
G0Z10
X32Y-60.578
G1Z-0.8F500
Y-60.575Z-0.9
Y60.576F1000
Y60.579Z-0.8
G0Z10
X33Y-60.174
G1Z-0.8F500
Y-60.171Z-0.9
Y60.175F1000
Y60.178Z-0.8
G0Z10
X34Y-59.574
G1Z-0.8F500
Y-59.571Z-0.9
Y59.575F1000
Y59.578Z-0.8
G0Z10
X35Y-58.974
G1Z-0.8F500
Y-58.971Z-0.9
Y58.975F1000
Y58.978Z-0.8
G0Z10
X36Y-58.374
G1Z-0.8F500
Y-58.371Z-0.9
Y58.375F1000
Y58.378Z-0.8
G0Z10
X37Y-57.774
G1Z-0.8F500
Y-57.771Z-0.9
Y57.775F1000
Y57.778Z-0.8
G0Z10
X38Y-56.978
G1Z-0.8F500
Y-56.975Z-0.9
Y56.976F1000
Y56.979Z-0.8
G0Z10
X39Y-56.374
G1Z-0.8F500
Y-56.371Z-0.9
Y56.375F1000
Y56.378Z-0.8
G0Z10
X40Y-55.578
G1Z-0.8F500
Y-55.575Z-0.9
Y55.576F1000
Y55.579Z-0.8
G0Z10
X41Y-54.974
G1Z-0.8F500
Y-54.971Z-0.9
Y54.975F1000
Y54.978Z-0.8
G0Z10
X42Y-54.174
G1Z-0.8F500
Y-54.171Z-0.9
Y54.175F1000
Y54.178Z-0.8
G0Z10
X43Y-53.378
G1Z-0.8F500
Y-53.375Z-0.9
Y53.376F1000
Y53.379Z-0.8
G0Z10
X44Y-52.574
G1Z-0.8F500
Y-52.571Z-0.9
Y52.575F1000
Y52.578Z-0.8
G0Z10
X45Y-51.774
G1Z-0.8F500
Y-51.771Z-0.9
Y51.775F1000
Y51.778Z-0.8
G0Z10
X46Y-50.778
G1Z-0.8F500
Y-50.775Z-0.9
Y50.776F1000
Y50.779Z-0.8
G0Z10
X47Y-49.974
G1Z-0.8F500
Y-49.971Z-0.9
Y49.975F1000
Y49.978Z-0.8
G0Z10
X48Y-48.974
G1Z-0.8F500
Y-48.971Z-0.9
Y48.975F1000
Y48.978Z-0.8
G0Z10
X49Y-47.974
G1Z-0.8F500
Y-47.971Z-0.9
Y47.975F1000
Y47.978Z-0.8
G0Z10
X50Y-46.974
G1Z-0.8F500
Y-46.971Z-0.9
Y46.975F1000
Y46.978Z-0.8
G0Z10
X51Y-45.778
G1Z-0.8F500
Y-45.775Z-0.9
Y45.776F1000
Y45.779Z-0.8
G0Z10
X52Y-44.578
G1Z-0.8F500
Y-44.575Z-0.9
Y44.576F1000
Y44.579Z-0.8
G0Z10
X53Y-43.378
G1Z-0.8F500
Y-43.375Z-0.9
Y43.376F1000
Y43.379Z-0.8
G0Z10
X54Y-42.178
G1Z-0.8F500
Y-42.175Z-0.9
Y42.176F1000
Y42.179Z-0.8
G0Z10
X55Y-40.974
G1Z-0.8F500
Y-40.971Z-0.9
Y40.975F1000
Y40.978Z-0.8
G0Z10
X56Y-39.574
G1Z-0.8F500
Y-39.571Z-0.9
Y39.575F1000
Y39.578Z-0.8
G0Z10
X57Y-37.978
G1Z-0.8F500
Y-37.975Z-0.9
Y37.976F1000
Y37.979Z-0.8
G0Z10
X58Y-36.574
G1Z-0.8F500
Y-36.571Z-0.9
Y36.575F1000
Y36.578Z-0.8
G0Z10
X59Y-34.974
G1Z-0.8F500
Y-34.971Z-0.9
Y34.975F1000
Y34.978Z-0.8
G0Z10
X60Y-33.174
G1Z-0.8F500
Y-33.171Z-0.9
Y33.175F1000
Y33.178Z-0.8
G0Z10
X61Y-31.178
G1Z-0.8F500
Y-31.175Z-0.9
Y31.176F1000
Y31.179Z-0.8
G0Z10
X62Y-29.178
G1Z-0.8F500
Y-29.175Z-0.9
Y29.176F1000
Y29.179Z-0.8
G0Z10
X63Y-26.978
G1Z-0.8F500
Y-26.975Z-0.9
Y26.976F1000
Y26.979Z-0.8
G0Z10
X64Y-24.378
G1Z-0.8F500
Y-24.375Z-0.9
Y24.376F1000
Y24.379Z-0.8
G0Z10
X65Y-21.578
G1Z-0.8F500
Y-21.575Z-0.9
Y21.576F1000
Y21.579Z-0.8
G0Z10
X66Y-18.378
G1Z-0.8F500
Y-18.375Z-0.9
Y18.376F1000
Y18.379Z-0.8
G0Z10
X67Y-14.374
G1Z-0.8F500
Y-14.371Z-0.9
Y14.375F1000
Y14.378Z-0.8
G0Z10
X68Y-8.574
G1Z-0.8F500
Y-8.571Z-0.9
Y8.575F1000
Y8.578Z-0.8
G0Z10
X-68Y-8.571
G1Z-0.9F500
Y-8.568Z-1
Y8.572F1000
Y8.575Z-0.9
G0Z10
X-67Y-14.371
G1Z-0.9F500
Y-14.368Z-1
Y14.372F1000
Y14.375Z-0.9
G0Z10
X-66Y-18.375
G1Z-0.9F500
Y-18.372Z-1
Y18.373F1000
Y18.376Z-0.9
G0Z10
X-65Y-21.575
G1Z-0.9F500
Y-21.572Z-1
Y21.573F1000
Y21.576Z-0.9
G0Z10
X-64Y-24.375
G1Z-0.9F500
Y-24.372Z-1
Y24.373F1000
Y24.376Z-0.9
G0Z10
X-63Y-26.975
G1Z-0.9F500
Y-26.972Z-1
Y26.973F1000
Y26.976Z-0.9
G0Z10
X-62Y-29.175
G1Z-0.9F500
Y-29.172Z-1
Y29.173F1000
Y29.176Z-0.9
G0Z10
X-61Y-31.175
G1Z-0.9F500
Y-31.172Z-1
Y31.173F1000
Y31.176Z-0.9
G0Z10
X-60Y-33.171
G1Z-0.9F500
Y-33.168Z-1
Y33.172F1000
Y33.175Z-0.9
G0Z10
X-59Y-34.971
G1Z-0.9F500
Y-34.968Z-1
Y34.972F1000
Y34.975Z-0.9
G0Z10
X-58Y-36.571
G1Z-0.9F500
Y-36.568Z-1
Y36.572F1000
Y36.575Z-0.9
G0Z10
X-57Y-37.975
G1Z-0.9F500
Y-37.972Z-1
Y37.973F1000
Y37.976Z-0.9
G0Z10
X-56Y-39.571
G1Z-0.9F500
Y-39.568Z-1
Y39.572F1000
Y39.575Z-0.9
G0Z10
X-55Y-40.971
G1Z-0.9F500
Y-40.968Z-1
Y40.972F1000
Y40.975Z-0.9
G0Z10
X-54Y-42.175
G1Z-0.9F500
Y-42.172Z-1
Y42.173F1000
Y42.176Z-0.9
G0Z10
X-53Y-43.375
G1Z-0.9F500
Y-43.372Z-1
Y43.373F1000
Y43.376Z-0.9
G0Z10
X-52Y-44.575
G1Z-0.9F500
Y-44.572Z-1
Y44.573F1000
Y44.576Z-0.9
G0Z10
X-51Y-45.775
G1Z-0.9F500
Y-45.772Z-1
Y45.773F1000
Y45.776Z-0.9
G0Z10
X-50Y-46.971
G1Z-0.9F500
Y-46.968Z-1
Y46.972F1000
Y46.975Z-0.9
G0Z10
X-49Y-47.971
G1Z-0.9F500
Y-47.968Z-1
Y47.972F1000
Y47.975Z-0.9
G0Z10
X-48Y-48.971
G1Z-0.9F500
Y-48.968Z-1
Y48.972F1000
Y48.975Z-0.9
G0Z10
X-47Y-49.971
G1Z-0.9F500
Y-49.968Z-1
Y49.972F1000
Y49.975Z-0.9
G0Z10
X-46Y-50.775
G1Z-0.9F500
Y-50.772Z-1
Y50.773F1000
Y50.776Z-0.9
G0Z10
X-45Y-51.771
G1Z-0.9F500
Y-51.768Z-1
Y51.772F1000
Y51.775Z-0.9
G0Z10
X-44Y-52.571
G1Z-0.9F500
Y-52.568Z-1
Y52.572F1000
Y52.575Z-0.9
G0Z10
X-43Y-53.375
G1Z-0.9F500
Y-53.372Z-1
Y53.373F1000
Y53.376Z-0.9
G0Z10
X-42Y-54.171
G1Z-0.9F500
Y-54.168Z-1
Y54.172F1000
Y54.175Z-0.9
G0Z10
X-41Y-54.971
G1Z-0.9F500
Y-54.968Z-1
Y54.972F1000
Y54.975Z-0.9
G0Z10
X-40Y-55.575
G1Z-0.9F500
Y-55.572Z-1
Y55.573F1000
Y55.576Z-0.9
G0Z10
X-39Y-56.371
G1Z-0.9F500
Y-56.368Z-1
Y56.372F1000
Y56.375Z-0.9
G0Z10
X-38Y-56.975
G1Z-0.9F500
Y-56.972Z-1
Y56.973F1000
Y56.976Z-0.9
G0Z10
X-37Y-57.771
G1Z-0.9F500
Y-57.768Z-1
Y57.772F1000
Y57.775Z-0.9
G0Z10
X-36Y-58.371
G1Z-0.9F500
Y-58.368Z-1
Y58.372F1000
Y58.375Z-0.9
G0Z10
X-35Y-58.971
G1Z-0.9F500
Y-58.968Z-1
Y58.972F1000
Y58.975Z-0.9
G0Z10
X-34Y-59.571
G1Z-0.9F500
Y-59.568Z-1
Y59.572F1000
Y59.575Z-0.9
G0Z10
X-33Y-60.171
G1Z-0.9F500
Y-60.168Z-1
Y60.172F1000
Y60.175Z-0.9
G0Z10
X-32Y-60.575
G1Z-0.9F500
Y-60.572Z-1
Y60.573F1000
Y60.576Z-0.9
G0Z10
X-31Y-61.171
G1Z-0.9F500
Y-61.168Z-1
Y61.172F1000
Y61.175Z-0.9
G0Z10
X-30Y-61.575
G1Z-0.9F500
Y-61.572Z-1
Y61.573F1000
Y61.576Z-0.9
G0Z10
X-29Y-62.171
G1Z-0.9F500
Y-62.168Z-1
Y62.172F1000
Y62.175Z-0.9
G0Z10
X-28Y-62.575
G1Z-0.9F500
Y-62.572Z-1
Y62.573F1000
Y62.576Z-0.9
G0Z10
X-27Y-62.975
G1Z-0.9F500
Y-62.972Z-1
Y62.973F1000
Y62.976Z-0.9
G0Z10
X-26Y-63.375
G1Z-0.9F500
Y-63.372Z-1
Y63.373F1000
Y63.376Z-0.9
G0Z10
X-25Y-63.775
G1Z-0.9F500
Y-63.772Z-1
Y63.773F1000
Y63.776Z-0.9
G0Z10
X-24Y-64.175
G1Z-0.9F500
Y-64.172Z-1
Y64.173F1000
Y64.176Z-0.9
G0Z10
X-23Y-64.575
G1Z-0.9F500
Y-64.572Z-1
Y64.573F1000
Y64.576Z-0.9
G0Z10
X-22Y-64.971
G1Z-0.9F500
Y-64.968Z-1
Y64.972F1000
Y64.975Z-0.9
G0Z10
X-21Y-65.175
G1Z-0.9F500
Y-65.172Z-1
Y65.173F1000
Y65.176Z-0.9
G0Z10
X-20Y-65.575
G1Z-0.9F500
Y-65.572Z-1
Y65.573F1000
Y65.576Z-0.9
G0Z10
X-19Y-65.971
G1Z-0.9F500
Y-65.968Z-1
Y65.972F1000
Y65.975Z-0.9
G0Z10
X-18Y-66.171
G1Z-0.9F500
Y-66.168Z-1
Y66.172F1000
Y66.175Z-0.9
G0Z10
X-17Y-66.375
G1Z-0.9F500
Y-66.372Z-1
Y66.373F1000
Y66.376Z-0.9
G0Z10
X-16Y-66.771
G1Z-0.9F500
Y-66.768Z-1
Y66.772F1000
Y66.775Z-0.9
G0Z10
X-15Y-66.971
G1Z-0.9F500
Y-66.968Z-1
Y66.972F1000
Y66.975Z-0.9
G0Z10
X-14Y-67.171
G1Z-0.9F500
Y-67.168Z-1
Y67.172F1000
Y67.175Z-0.9
G0Z10
X-13Y-67.371
G1Z-0.9F500
Y-67.368Z-1
Y67.372F1000
Y67.375Z-0.9
G0Z10
X-12Y-67.571
G1Z-0.9F500
Y-67.568Z-1
Y67.572F1000
Y67.575Z-0.9
G0Z10
X-11Y-67.771
G1Z-0.9F500
Y-67.768Z-1
Y67.772F1000
Y67.775Z-0.9
G0Z10
X-10Y-67.971
G1Z-0.9F500
Y-67.968Z-1
Y67.972F1000
Y67.975Z-0.9
G0Z10
X-9Y-67.975
G1Z-0.9F500
Y-67.972Z-1
Y67.973F1000
Y67.976Z-0.9
G0Z10
X-8Y-68.171
G1Z-0.9F500
Y-68.168Z-1
Y68.172F1000
Y68.175Z-0.9
G0Z10
X-7Y-68.175
G1Z-0.9F500
Y-68.172Z-1
Y68.173F1000
Y68.176Z-0.9
G0Z10
X-6Y-68.371
G1Z-0.9F500
Y-68.368Z-1
Y68.372F1000
Y68.375Z-0.9
G0Z10
X-5Y-68.375
G1Z-0.9F500
Y-68.372Z-1
Y68.373F1000
Y68.376Z-0.9
G0Z10
X-4Y-68.571
G1Z-0.9F500
Y-68.568Z-1
Y68.572F1000
Y68.575Z-0.9
G0Z10
X-3Y-68.575
G1Z-0.9F500
Y-68.572Z-1
Y68.573F1000
Y68.576Z-0.9
G0Z10
X-2Y-68.575
G1Z-0.9F500
Y-68.572Z-1
Y68.573F1000
Y68.576Z-0.9
G0Z10
X-1Y-68.575
G1Z-0.9F500
Y-68.572Z-1
Y68.573F1000
Y68.576Z-0.9
G0Z10
X0Y-68.575
G1Z-0.9F500
Y-68.572Z-1
Y68.573F1000
Y68.576Z-0.9
G0Z10
X1Y-68.575
G1Z-0.9F500
Y-68.572Z-1
Y68.573F1000
Y68.576Z-0.9
G0Z10
X2Y-68.575
G1Z-0.9F500
Y-68.572Z-1
Y68.573F1000
Y68.576Z-0.9
G0Z10
X3Y-68.575
G1Z-0.9F500
Y-68.572Z-1
Y68.573F1000
Y68.576Z-0.9
G0Z10
X4Y-68.571
G1Z-0.9F500
Y-68.568Z-1
Y68.572F1000
Y68.575Z-0.9
G0Z10
X5Y-68.375
G1Z-0.9F500
Y-68.372Z-1
Y68.373F1000
Y68.376Z-0.9
G0Z10
X6Y-68.371
G1Z-0.9F500
Y-68.368Z-1
Y68.372F1000
Y68.375Z-0.9
G0Z10
X7Y-68.175
G1Z-0.9F500
Y-68.172Z-1
Y68.173F1000
Y68.176Z-0.9
G0Z10
X8Y-68.171
G1Z-0.9F500
Y-68.168Z-1
Y68.172F1000
Y68.175Z-0.9
G0Z10
X9Y-67.975
G1Z-0.9F500
Y-67.972Z-1
Y67.973F1000
Y67.976Z-0.9
G0Z10
X10Y-67.971
G1Z-0.9F500
Y-67.968Z-1
Y67.972F1000
Y67.975Z-0.9
G0Z10
X11Y-67.771
G1Z-0.9F500
Y-67.768Z-1
Y67.772F1000
Y67.775Z-0.9
G0Z10
X12Y-67.571
G1Z-0.9F500
Y-67.568Z-1
Y67.572F1000
Y67.575Z-0.9
G0Z10
X13Y-67.371
G1Z-0.9F500
Y-67.368Z-1
Y67.372F1000
Y67.375Z-0.9
G0Z10
X14Y-67.171
G1Z-0.9F500
Y-67.168Z-1
Y67.172F1000
Y67.175Z-0.9
G0Z10
X15Y-66.971
G1Z-0.9F500
Y-66.968Z-1
Y66.972F1000
Y66.975Z-0.9
G0Z10
X16Y-66.771
G1Z-0.9F500
Y-66.768Z-1
Y66.772F1000
Y66.775Z-0.9
G0Z10
X17Y-66.375
G1Z-0.9F500
Y-66.372Z-1
Y66.373F1000
Y66.376Z-0.9
G0Z10
X18Y-66.171
G1Z-0.9F500
Y-66.168Z-1
Y66.172F1000
Y66.175Z-0.9
G0Z10
X19Y-65.971
G1Z-0.9F500
Y-65.968Z-1
Y65.972F1000
Y65.975Z-0.9
G0Z10
X20Y-65.575
G1Z-0.9F500
Y-65.572Z-1
Y65.573F1000
Y65.576Z-0.9
G0Z10
X21Y-65.175
G1Z-0.9F500
Y-65.172Z-1
Y65.173F1000
Y65.176Z-0.9
G0Z10
X22Y-64.971
G1Z-0.9F500
Y-64.968Z-1
Y64.972F1000
Y64.975Z-0.9
G0Z10
X23Y-64.575
G1Z-0.9F500
Y-64.572Z-1
Y64.573F1000
Y64.576Z-0.9
G0Z10
X24Y-64.175
G1Z-0.9F500
Y-64.172Z-1
Y64.173F1000
Y64.176Z-0.9
G0Z10
X25Y-63.775
G1Z-0.9F500
Y-63.772Z-1
Y63.773F1000
Y63.776Z-0.9
G0Z10
X26Y-63.375
G1Z-0.9F500
Y-63.372Z-1
Y63.373F1000
Y63.376Z-0.9
G0Z10
X27Y-62.975
G1Z-0.9F500
Y-62.972Z-1
Y62.973F1000
Y62.976Z-0.9
G0Z10
X28Y-62.575
G1Z-0.9F500
Y-62.572Z-1
Y62.573F1000
Y62.576Z-0.9
G0Z10
X29Y-62.171
G1Z-0.9F500
Y-62.168Z-1
Y62.172F1000
Y62.175Z-0.9
G0Z10
X30Y-61.575
G1Z-0.9F500
Y-61.572Z-1
Y61.573F1000
Y61.576Z-0.9
G0Z10
X31Y-61.171
G1Z-0.9F500
Y-61.168Z-1
Y61.172F1000
Y61.175Z-0.9
G0Z10
X32Y-60.575
G1Z-0.9F500
Y-60.572Z-1
Y60.573F1000
Y60.576Z-0.9
G0Z10
X33Y-60.171
G1Z-0.9F500
Y-60.168Z-1
Y60.172F1000
Y60.175Z-0.9
G0Z10
X34Y-59.571
G1Z-0.9F500
Y-59.568Z-1
Y59.572F1000
Y59.575Z-0.9
G0Z10
X35Y-58.971
G1Z-0.9F500
Y-58.968Z-1
Y58.972F1000
Y58.975Z-0.9
G0Z10
X36Y-58.371
G1Z-0.9F500
Y-58.368Z-1
Y58.372F1000
Y58.375Z-0.9
G0Z10
X37Y-57.771
G1Z-0.9F500
Y-57.768Z-1
Y57.772F1000
Y57.775Z-0.9
G0Z10
X38Y-56.975
G1Z-0.9F500
