(Created with grbl post processor 2024/11/05 16:29)
G21
(G-code Generated with Fabex and NC library)
G17G90
(Tool: D = 3.0 mm  type END flutes 2)
S12000M03
G00 Z10.0

G0X0Y0Z10
X0.75
G1Z-5.1F500
X0.839Y0.66F1000
X0.545Y1.17
X0.072Y1.474
X-0.467Y1.57
X-0.999Y1.477
X-1.472Y1.229
X-1.852Y0.86
X-2.12Y0.408
X-2.267Y-0.093
X-2.294Y-0.614
X-2.204Y-1.125
X-2.009Y-1.605
X-1.721Y-2.034
X-1.355Y-2.397
X-0.928Y-2.684
X-0.457Y-2.889
X0.041Y-3.006
X0.553Y-3.036
X1.061Y-2.979
X1.553Y-2.841
X2.016Y-2.627
X2.441Y-2.344
X2.817Y-2
X3.137Y-1.604
X3.397Y-1.167
X3.591Y-0.697
X3.718Y-0.204
X3.775Y0.299
X3.765Y0.807
X3.687Y1.308
X3.545Y1.795
X3.341Y2.26
X3.08Y2.694
X2.768Y3.093
X2.409Y3.45
X2.01Y3.762
X1.577Y4.023
X1.116Y4.232
X0.634Y4.385
X0.138Y4.483
X-0.365Y4.523
X-0.87Y4.507
X-1.371Y4.436
X-1.86Y4.31
X-2.332Y4.132
X-2.783Y3.905
X-3.208Y3.631
X-3.601Y3.315
X-3.959Y2.959
X-4.279Y2.569
X-4.558Y2.149
X-4.793Y1.702
X-4.983Y1.235
X-5.125Y0.752
X-5.22Y0.256
X-5.266Y-0.245
X-5.264Y-0.749
X-5.214Y-1.25
X-5.117Y-1.744
X-4.974Y-2.228
X-4.788Y-2.695
X-4.559Y-3.144
X-4.29Y-3.57
X-3.983Y-3.969
X-3.642Y-4.34
X-3.27Y-4.679
X-2.869Y-4.983
X-2.443Y-5.251
X-1.995Y-5.481
X-1.529Y-5.671
X-1.049Y-5.821
X-0.557Y-5.929
X-0.058Y-5.995
X0.443Y-6.018
X0.946Y-6
X1.445Y-5.94
X1.938Y-5.839
X2.421Y-5.698
X2.891Y-5.519
X3.344Y-5.301
X3.779Y-5.049
X4.192Y-4.762
X4.581Y-4.443
X4.943Y-4.095
X5.277Y-3.719
X5.581Y-3.319
X5.853Y-2.896
X6.091Y-2.453
X6.295Y-1.994
X6.463Y-1.52
X6.594Y-1.035
X6.689Y-0.542
X6.746Y-0.043
X6.766Y0.459
X6.749Y0.961
X6.695Y1.46
X6.604Y1.954
X6.477Y2.44
X6.315Y2.916
X6.12Y3.378
X5.891Y3.826
X5.631Y4.256
X5.341Y4.666
X5.023Y5.054
X4.678Y5.419
X4.309Y5.759
X3.916Y6.073
X3.503Y6.358
X3.071Y6.614
X2.622Y6.839
X2.159Y7.033
X1.684Y7.195
X1.199Y7.324
X0.706Y7.421
X0.208Y7.483
X-0.292Y7.512
X-0.794Y7.508
X-1.294Y7.47
X-1.791Y7.399
X-2.282Y7.295
X-2.766Y7.16
X-3.239Y6.993
X-3.7Y6.795
X-4.148Y6.568
X-4.58Y6.313
X-4.994Y6.03
X-5.39Y5.721
X-5.765Y5.388
X-6.118Y5.031
X-6.447Y4.653
X-6.752Y4.254
X-7.032Y3.837
X-7.285Y3.404
X-7.51Y2.956
X-7.706Y2.494
X-7.874Y2.021
X-8.012Y1.539
X-8.121Y1.049
X-8.199Y0.554
X-8.246Y0.054
X-8.263Y-0.446
X-8.25Y-0.948
X-8.206Y-1.447
X-8.132Y-1.943
X-8.029Y-2.434
X-7.896Y-2.918
X-7.735Y-3.393
X-7.546Y-3.858
X-7.33Y-4.31
X-7.087Y-4.749
X-6.819Y-5.173
X-6.527Y-5.58
X-6.211Y-5.97
X-5.873Y-6.34
X-5.514Y-6.691
X-5.136Y-7.02
X-4.739Y-7.326
X-4.325Y-7.609
X-3.895Y-7.868
X-3.452Y-8.102
X-2.996Y-8.311
X-2.529Y-8.493
X-2.052Y-8.648
X-1.567Y-8.776
X-1.076Y-8.877
X-0.58Y-8.95
X-0.081Y-8.995
X0.42Y-9.012
X0.921Y-9.001
X1.421Y-8.963
X1.918Y-8.896
X2.41Y-8.803
X2.897Y-8.683
X3.376Y-8.536
X3.847Y-8.363
X4.307Y-8.165
X4.756Y-7.942
X5.192Y-7.695
X5.615Y-7.424
X6.022Y-7.132
X6.412Y-6.818
X6.786Y-6.483
X7.141Y-6.129
X7.476Y-5.757
X7.792Y-5.367
X8.086Y-4.961
X8.358Y-4.541
X8.608Y-4.106
X8.834Y-3.659
X9.037Y-3.2
X9.215Y-2.732
X9.369Y-2.255
X9.498Y-1.771
X9.601Y-1.28
X9.679Y-0.785
X9.731Y-0.287
X9.758Y0.213
Y0.714
X9.733Y1.214
X9.683Y1.713
X9.607Y2.208
X9.506Y2.699
X9.38Y3.184
X9.23Y3.662
X9.055Y4.132
X8.858Y4.593
X8.637Y5.043
X8.394Y5.481
X8.13Y5.907
X7.845Y6.319
X7.539Y6.716
X7.214Y7.098
X6.871Y7.463
X6.51Y7.81
X6.132Y8.139
X5.739Y8.45
X5.331Y8.74
X4.909Y9.011
X4.474Y9.26
X4.028Y9.488
X3.571Y9.694
X3.105Y9.877
X2.631Y10.038
X2.149Y10.176
X1.661Y10.29
X1.168Y10.38
X0.672Y10.447
X0.172Y10.49
X-0.327Y10.509
X-0.828Y10.504
X-1.328Y10.476
X-1.827Y10.423
X-2.322Y10.348
X-2.813Y10.248
X-3.299Y10.126
X-3.778Y9.981
X-4.25Y9.814
X-4.714Y9.624
X-5.169Y9.413
X-5.613Y9.182
X-6.046Y8.929
X-6.466Y8.657
X-6.874Y8.366
X-7.267Y8.056
X-7.646Y7.728
X-8.01Y7.384
X-8.357Y7.022
X-8.687Y6.646
X-9Y6.254
X-9.294Y5.849
X-9.569Y5.431
X-9.825Y5
X-10.062Y4.558
X-10.278Y4.106
X-10.473Y3.645
X-10.647Y3.176
X-10.8Y2.699
X-10.932Y2.215
X-11.041Y1.726
X-11.129Y1.233
X-11.194Y0.737
X-11.237Y0.238
X-11.258Y-0.262
X-11.256Y-0.763
X-11.232Y-1.263
X-11.186Y-1.762
X-11.118Y-2.258
X-11.028Y-2.751
X-10.917Y-3.239
X-10.784Y-3.722
X-10.63Y-4.199
X-10.455Y-4.668
X-10.26Y-5.129
X-10.045Y-5.582
X-9.81Y-6.024
X-9.557Y-6.456
X-9.285Y-6.876
X-8.994Y-7.285
X-8.687Y-7.68
X-8.363Y-8.062
X-8.022Y-8.429
X-7.666Y-8.781
X-7.295Y-9.118
X-6.91Y-9.438
X-6.512Y-9.742
X-6.101Y-10.028
X-5.679Y-10.297
X-5.245Y-10.547
X-4.801Y-10.778
X-4.347Y-10.991
X-3.885Y-11.184
X-3.415Y-11.357
X-2.939Y-11.511
X-2.456Y-11.644
X-1.968Y-11.757
X-1.476Y-11.849
X-0.98Y-11.92
X-0.482Y-11.971
X0.017Y-12
X0.518Y-12.009
X1.018Y-11.997
X1.518Y-11.964
X2.016Y-11.91
X2.511Y-11.836
X3.003Y-11.741
X3.49Y-11.626
X3.973Y-11.491
X4.449Y-11.336
X4.918Y-11.162
X5.38Y-10.969
X5.834Y-10.756
X6.278Y-10.526
X6.713Y-10.277
X7.137Y-10.011
X7.55Y-9.728
X7.951Y-9.429
X8.34Y-9.113
X8.716Y-8.782
X9.077Y-8.435
X9.425Y-8.075
X9.758Y-7.701
X10.075Y-7.313
X10.376Y-6.914
X10.662Y-6.502
X10.93Y-6.079
X11.181Y-5.646
X11.415Y-5.204
X11.631Y-4.752
X11.829Y-4.292
X12.008Y-3.824
X12.168Y-3.35
X12.31Y-2.87
X12.432Y-2.384
X12.536Y-1.894
X12.619Y-1.401
X12.683Y-0.904
X12.728Y-0.405
X12.753Y0.094
X12.758Y0.594
X12.743Y1.095
X12.709Y1.594
X12.656Y2.092
X12.583Y2.588
X12.491Y3.08
X12.379Y3.568
X12.249Y4.051
X12.1Y4.529
X11.933Y5.001
X11.748Y5.466
X11.545Y5.924
X11.324Y6.373
X11.086Y6.814
X10.831Y7.245
X10.56Y7.666
X10.273Y8.076
X9.971Y8.475
X9.653Y8.862
X9.321Y9.236
X8.975Y9.598
X8.615Y9.946
X8.242Y10.281
X7.857Y10.6
X7.46Y10.905
X7.052Y11.195
X6.633Y11.469
X6.204Y11.727
X5.765Y11.969
X5.318Y12.194
X4.863Y12.402
X4.4Y12.592
X3.93Y12.766
X3.454Y12.921
X2.973Y13.058
X2.487Y13.178
X1.996Y13.279
X1.503Y13.362
X1.006Y13.426
X0.508Y13.472
X0.008Y13.499
X-0.492Y13.508
X-0.992Y13.498
X-1.492Y13.47
X-1.991Y13.423
X-2.487Y13.358
X-2.981Y13.274
X-3.471Y13.173
X-3.957Y13.053
X-4.438Y12.916
X-4.914Y12.761
X-5.384Y12.589
X-5.848Y12.4
X-6.304Y12.194
X-6.753Y11.971
X-7.193Y11.733
X-7.624Y11.478
X-8.045Y11.208
X-8.456Y10.923
X-8.857Y10.623
X-9.247Y10.309
X-9.625Y9.981
X-9.991Y9.639
X-10.344Y9.285
X-10.685Y8.918
X-11.012Y8.539
X-11.325Y8.148
X-11.624Y7.747
X-11.908Y7.335
X-12.178Y6.913
X-12.432Y6.481
X-12.67Y6.041
X-12.893Y5.593
X-13.1Y5.137
X-13.29Y4.674
X-13.464Y4.205
X-13.62Y3.729
X-13.76Y3.249
X-13.883Y2.764
X-13.989Y2.274
X-14.077Y1.782
X-14.148Y1.286
X-14.201Y0.788
X-14.237Y0.289
X-14.255Y-0.21
X-14.256Y-0.711
X-14.239Y-1.211
X-14.204Y-1.71
X-14.152Y-2.208
X-14.083Y-2.704
X-13.996Y-3.197
X-13.892Y-3.687
X-13.772Y-4.172
X-13.634Y-4.654
X-13.48Y-5.13
X-13.309Y-5.6
X-13.122Y-6.065
X-12.92Y-6.522
X-12.701Y-6.973
X-12.467Y-7.415
X-12.218Y-7.849
X-11.954Y-8.274
X-11.676Y-8.69
X-11.383Y-9.097
X-11.077Y-9.492
X-10.757Y-9.877
X-10.424Y-10.251
X-10.079Y-10.614
X-9.721Y-10.964
X-9.352Y-11.302
X-8.971Y-11.627
X-8.58Y-11.939
X-8.178Y-12.237
X-7.766Y-12.521
X-7.345Y-12.792
X-6.915Y-13.048
X-6.476Y-13.289
X-6.03Y-13.515
X-5.576Y-13.726
X-5.115Y-13.921
X-4.648Y-14.101
X-4.175Y-14.265
X-3.697Y-14.413
X-3.214Y-14.545
X-2.727Y-14.66
X-2.236Y-14.759
X-1.743Y-14.842
X-1.247Y-14.908
X-0.749Y-14.957
X-0.249Y-14.989
X0.25Y-15.005
X0.751
X1.251Y-14.987
X1.75Y-14.953
X2.248Y-14.902
X2.744Y-14.835
X3.237Y-14.751
X3.728Y-14.652
X4.215Y-14.535
X4.697Y-14.403
X5.176Y-14.255
X5.648Y-14.091
X6.116Y-13.912
X6.577Y-13.718
X7.031Y-13.508
X7.479Y-13.284
X7.918Y-13.045
X8.35Y-12.791
X8.773Y-12.524
X9.187Y-12.243
X9.592Y-11.948
X9.987Y-11.641
X10.371Y-11.321
X10.745Y-10.988
X11.108Y-10.644
X11.46Y-10.287
X11.8Y-9.92
X12.127Y-9.542
X12.443Y-9.153
X12.745Y-8.754
X13.034Y-8.346
X13.31Y-7.928
X13.573Y-7.502
X13.821Y-7.068
X14.056Y-6.626
X14.276Y-6.176
X14.481Y-5.72
X14.672Y-5.257
X14.847Y-4.788
X15.008Y-4.314
X15.153Y-3.835
X15.283Y-3.352
X15.397Y-2.865
X15.496Y-2.374
X15.579Y-1.881
X15.646Y-1.385
X15.697Y-0.887
X15.733Y-0.388
X15.752Y0.111
X15.756Y0.612
X15.744Y1.112
X15.716Y1.612
X15.672Y2.11
X15.612Y2.607
X15.537Y3.102
X15.446Y3.594
X15.34Y4.083
X15.218Y4.568
X15.081Y5.05
X14.929Y5.526
X14.762Y5.998
X14.58Y6.464
X14.383Y6.925
X14.173Y7.379
X13.948Y7.826
X13.709Y8.266
X13.457Y8.698
X13.191Y9.122
X12.913Y9.537
X12.621Y9.944
X12.317Y10.342
X12.001Y10.729
X11.672Y11.107
X11.333Y11.474
X10.981Y11.831
X10.619Y12.177
X10.247Y12.511
X9.864Y12.833
X9.472Y13.144
X9.07Y13.442
X8.659Y13.728
X8.24Y14.001
X7.812Y14.26
X7.377Y14.507
X6.934Y14.74
X6.484Y14.959
X6.028Y15.165
X5.565Y15.356
X5.097Y15.533
X4.624Y15.696
X4.146Y15.844
X3.664Y15.977
X3.177Y16.096
X2.688Y16.199
X2.195Y16.288
X1.7Y16.362
X1.203Y16.42
X0.705Y16.464
X0.205Y16.492
X-0.294Y16.505
X-0.794Y16.503
X-1.294Y16.486
X-1.794Y16.454
X-2.292Y16.406
X-2.788Y16.344
X-3.283Y16.267
X-3.775Y16.174
X-4.263Y16.067
X-4.749Y15.945
X-5.23Y15.809
X-5.708Y15.658
X-6.18Y15.494
X-6.647Y15.314
X-7.109Y15.121
X-7.565Y14.915
X-8.014Y14.694
X-8.456Y14.461
X-8.892Y14.214
X-9.32Y13.955
X-9.739Y13.682
X-10.151Y13.398
X-10.554Y13.101
X-10.948Y12.792
X-11.332Y12.472
X-11.707Y12.141
X-12.072Y11.798
X-12.426Y11.445
X-12.77Y11.081
X-13.103Y10.708
X-13.425Y10.325
X-13.736Y9.932
X-14.034Y9.531
X-14.321Y9.121
X-14.595Y8.702
X-14.857Y8.276
X-15.107Y7.842
X-15.343Y7.401
X-15.566Y6.953
X-15.777Y6.499
X-15.973Y6.039
X-16.156Y5.573
X-16.326Y5.103
X-16.482Y4.627
X-16.623Y4.147
X-16.751Y3.663
X-16.864Y3.176
X-16.963Y2.685
X-17.048Y2.192
X-17.118Y1.697
X-17.174Y1.2
X-17.216Y0.701
X-17.243Y0.201
X-17.255Y-0.298
X-17.253Y-0.798
X-17.237Y-1.298
X-17.205Y-1.798
X-17.16Y-2.296
X-17.1Y-2.793
X-17.026Y-3.288
X-16.938Y-3.78
X-16.835Y-4.27
X-16.718Y-4.756
X-16.588Y-5.24
X-16.443Y-5.719
X-16.285Y-6.193
X-16.113Y-6.663
X-15.928Y-7.128
X-15.73Y-7.587
X-15.518Y-8.041
X-15.294Y-8.488
X-15.057Y-8.929
X-14.807Y-9.362
X-14.545Y-9.789
X-14.271Y-10.207
X-13.985Y-10.618
X-13.688Y-11.02
X-13.379Y-11.414
X-13.059Y-11.799
X-12.729Y-12.175
X-12.388Y-12.541
X-12.036Y-12.897
X-11.675Y-13.243
X-11.304Y-13.579
X-10.923Y-13.904
X-10.534Y-14.218
X-10.136Y-14.521
X-9.729Y-14.812
X-9.314Y-15.092
X-8.892Y-15.361
X-8.462Y-15.617
X-8.025Y-15.861
X-7.582Y-16.092
X-7.132Y-16.311
X-6.676Y-16.518
X-6.215Y-16.711
X-5.748Y-16.892
X-5.276Y-17.059
X-4.8Y-17.213
X-4.32Y-17.353
X-3.836Y-17.48
X-3.349Y-17.594
X-2.859Y-17.693
X-2.366Y-17.78
X-1.871Y-17.852
X-1.374Y-17.91
X-0.875Y-17.955
X-0.376Y-17.986
X0.123Y-18.002
X0.623Y-18.005
X1.124Y-17.994
X1.623Y-17.969
X2.122Y-17.931
X2.62Y-17.878
X3.116Y-17.812
X3.61Y-17.732
X4.101Y-17.638
X4.59Y-17.531
X5.075Y-17.41
X5.557Y-17.276
X6.036Y-17.129
X6.51Y-16.968
X6.979Y-16.795
X7.443Y-16.609
X7.902Y-16.41
X8.356Y-16.199
X8.803Y-15.975
X9.245Y-15.739
X9.679Y-15.491
X10.107Y-15.231
X10.527Y-14.959
X10.94Y-14.677
X11.345Y-14.383
X11.741Y-14.078
X12.129Y-13.762
X12.509Y-13.436
X12.879Y-13.099
X13.24Y-12.753
X13.592Y-12.397
X13.933Y-12.032
X14.265Y-11.657
X14.586Y-11.273
X14.897Y-10.881
X15.197Y-10.481
X15.486Y-10.073
X15.764Y-9.657
X16.031Y-9.233
X16.286Y-8.803
X16.529Y-8.366
X16.761Y-7.922
X16.98Y-7.472
X17.187Y-7.017
X17.382Y-6.556
X17.564Y-6.09
X17.734Y-5.619
X17.891Y-5.144
X18.035Y-4.665
X18.166Y-4.182
X18.284Y-3.696
X18.389Y-3.207
X18.481Y-2.715
X18.56Y-2.221
X18.626Y-1.725
X18.678Y-1.228
X18.717Y-0.729
X18.742Y-0.229
X18.754Y0.27
X18.753Y0.77
X18.739Y1.27
X18.711Y1.77
X18.67Y2.269
X18.616Y2.766
X18.548Y3.262
X18.467Y3.755
X18.373Y4.247
X18.267Y4.736
X18.147Y5.221
X18.014Y5.704
X17.869Y6.183
X17.711Y6.657
X17.541Y7.128
X17.358Y7.594
X17.163Y8.054
X16.956Y8.51
X16.737Y8.959
X16.506Y9.403
X16.264Y9.841
X16.01Y10.272
X15.745Y10.696
X15.468Y11.114
X15.181Y11.523
X14.884Y11.925
X14.575Y12.32
X14.257Y12.705
X13.929Y13.083
X13.59Y13.452
X13.243Y13.811
X12.886Y14.162
X12.52Y14.503
X12.145Y14.834
X11.762Y15.156
X11.37Y15.467
X10.97Y15.768
X10.563Y16.059
X10.148Y16.339
X9.727Y16.608
X9.298Y16.866
X8.863Y17.112
X8.421Y17.348
X7.974Y17.571
X7.521Y17.783
X7.062Y17.984
X6.599Y18.172
X6.13Y18.348
X5.658Y18.512
X5.181Y18.664
X4.701Y18.804
X4.217Y18.931
X3.73Y19.045
X3.24Y19.147
X2.748Y19.236
X2.253Y19.313
X1.757Y19.377
X1.259Y19.428
X0.76Y19.466
X0.261Y19.491
X-0.238Y19.504
X-0.739
X-1.239Y19.49
X-1.738Y19.465
X-2.237Y19.426
X-2.735Y19.374
X-3.231Y19.31
X-3.725Y19.233
X-4.218Y19.144
X-4.707Y19.042
X-5.194Y18.927
X-5.678Y18.801
X-6.159Y18.662
X-6.636Y18.51
X-7.109Y18.347
X-7.577Y18.172
X-8.041Y17.984
X-8.5Y17.785
X-8.954Y17.575
X-9.402Y17.353
X-9.845Y17.12
X-10.281Y16.875
X-10.712Y16.62
X-11.135Y16.354
X-11.552Y16.077
X-11.962Y15.79
X-12.364Y15.492
X-12.758Y15.185
X-13.145Y14.867
X-13.524Y14.54
X-13.894Y14.204
X-14.255Y13.858
X-14.608Y13.503
X-14.952Y13.14
X-15.286Y12.768
X-15.612Y12.387
X-15.927Y11.999
X-16.232Y11.603
X-16.528Y11.199
X-16.813Y10.788
X-17.088Y10.37
X-17.353Y9.946
X-17.606Y9.515
X-17.849Y9.077
X-18.081Y8.634
X-18.302Y8.185
X-18.511Y7.73
X-18.709Y7.271
X-18.896Y6.807
X-19.07Y6.338
X-19.234Y5.865
X-19.385Y5.388
X-19.524Y4.908
X-19.652Y4.424
X-19.767Y3.937
X-19.87Y3.448
X-19.962Y2.956
X-20.04Y2.462
X-20.107Y1.966
X-20.161Y1.469
X-20.203Y0.97
X-20.233Y0.471
X-20.25Y-0.028
X-20.255Y-0.528
X-20.248Y-1.029
X-20.228Y-1.528
X-20.196Y-2.028
X-20.151Y-2.526
X-20.095Y-3.023
X-20.026Y-3.519
X-19.945Y-4.012
X-19.851Y-4.504
X-19.746Y-4.993
X-19.629Y-5.479
X-19.5Y-5.962
X-19.359Y-6.442
X-19.206Y-6.919
X-19.042Y-7.391
X-18.866Y-7.86
X-18.679Y-8.324
X-18.48Y-8.783
X-18.271Y-9.237
X-18.05Y-9.686
X-17.818Y-10.129
X-17.576Y-10.567
X-17.323Y-10.998
X-17.059Y-11.424
X-16.786Y-11.842
X-16.502Y-12.254
X-16.208Y-12.659
X-15.904Y-13.057
X-15.591Y-13.447
X-15.269Y-13.829
X-14.937Y-14.204
X-14.596Y-14.57
X-14.247Y-14.928
X-13.889Y-15.278
X-13.522Y-15.618
X-13.148Y-15.95
X-12.765Y-16.272
X-12.375Y-16.585
X-11.977Y-16.889
X-11.573Y-17.183
X-11.161Y-17.467
X-10.742Y-17.741
X-10.317Y-18.004
X-9.886Y-18.258
X-9.449Y-18.501
X-9.005Y-18.733
X-8.557Y-18.955
X-8.103Y-19.166
X-7.645Y-19.366
X-7.181Y-19.554
X-6.714Y-19.732
X-6.242Y-19.898
X-5.766Y-20.053
X-5.287Y-20.197
X-4.805Y-20.329
X-4.319Y-20.449
X-3.831Y-20.558
X-3.34Y-20.655
X-2.847Y-20.74
X-2.352Y-20.813
X-1.856Y-20.875
X-1.358Y-20.925
X-0.859Y-20.962
X-0.36Y-20.988
X0.14Y-21.002
X0.64Y-21.004
X1.14Y-20.994
X1.64Y-20.973
X2.139Y-20.939
X2.637Y-20.894
X3.134Y-20.836
X3.629Y-20.767
X4.123Y-20.686
X4.615Y-20.594
X5.104Y-20.49
X5.591Y-20.374
X6.075Y-20.247
X6.555Y-20.108
X7.032Y-19.958
X7.506Y-19.797
X7.976Y-19.625
X8.441Y-19.442
X8.902Y-19.247
X9.358Y-19.042
X9.81Y-18.826
X10.256Y-18.6
X10.696Y-18.363
X11.131Y-18.116
X11.56Y-17.859
X11.983Y-17.591
X12.399Y-17.314
X12.809Y-17.027
X13.212Y-16.731
X13.608Y-16.425
X13.997Y-16.11
X14.378Y-15.786
X14.751Y-15.453
X15.117Y-15.111
X15.474Y-14.761
X15.823Y-14.403
X16.164Y-14.037
X16.496Y-13.662
X16.819Y-13.281
X17.133Y-12.891
X17.438Y-12.495
X17.734Y-12.091
X18.02Y-11.681
X18.296Y-11.264
X18.563Y-10.841
X18.82Y-10.412
X19.067Y-9.977
X19.303Y-9.536
X19.53Y-9.09
X19.746Y-8.638
X19.951Y-8.182
X20.146Y-7.721
X20.33Y-7.256
X20.503Y-6.787
X20.665Y-6.314
X20.816Y-5.837
X20.956Y-5.357
X21.085Y-4.873
X21.203Y-4.387
X21.309Y-3.898
X21.405Y-3.407
X21.488Y-2.914
X21.561Y-2.419
X21.622Y-1.923
X21.671Y-1.425
X21.709Y-0.926
X21.736Y-0.426
X21.751Y0.073
X21.755Y0.573
X21.747Y1.073
X21.727Y1.573
X21.696Y2.072
X21.654Y2.57
X21.6Y3.068
X21.535Y3.564
X21.458Y4.058
X21.37Y4.551
X21.271Y5.041
X21.161Y5.529
X21.04Y6.014
X20.907Y6.496
X20.764Y6.976
X20.609Y7.451
X20.444Y7.924
X20.268Y8.392
X20.082Y8.856
X19.884Y9.316
X19.677Y9.771
X19.459Y10.221
X19.231Y10.667
X18.993Y11.106
X18.745Y11.541
X18.487Y11.97
X18.22Y12.392
X17.943Y12.809
X17.656Y13.219
X17.36Y13.622
X17.056Y14.019
X16.742Y14.409
X16.42Y14.791
X16.089Y15.166
X15.749Y15.534
X15.402Y15.893
X15.046Y16.245
X14.683Y16.589
X14.311Y16.924
X13.933Y17.251
X13.547Y17.569
X13.154Y17.879
X12.754Y18.179
X12.348Y18.471
X11.935Y18.753
X11.515Y19.026
X11.09Y19.289
X10.659Y19.543
X10.222Y19.787
X9.78Y20.021
X9.333Y20.245
X8.881Y20.459
X8.424Y20.663
X7.963Y20.857
X7.497Y21.04
X7.028Y21.213
X6.555Y21.375
X6.078Y21.526
X5.598Y21.667
X5.115Y21.797
X4.629Y21.916
X4.141Y22.025
X3.65Y22.122
X3.157Y22.209
X2.663Y22.284
X2.167Y22.348
X1.669Y22.402
X1.171Y22.444
X0.672Y22.475
X0.172Y22.495
X-0.327Y22.504
X-0.827Y22.502
X-1.327Y22.488
X-1.827Y22.464
X-2.326Y22.429
X-2.824Y22.382
X-3.321Y22.324
X-3.816Y22.256
X-4.31Y22.176
X-4.802Y22.086
X-5.292Y21.984
X-5.78Y21.872
X-6.264Y21.749
X-6.747Y21.615
X-7.225Y21.471
X-7.701Y21.316
X-8.173Y21.151
X-8.642Y20.976
X-9.106Y20.79
X-9.566Y20.594
X-10.022Y20.387
X-10.473Y20.171
X-10.919Y19.945
X-11.36Y19.709
X-11.796Y19.464
X-12.227Y19.209
X-12.651Y18.944
X-13.07Y18.671
X-13.483Y18.388
X-13.889Y18.096
X-14.289Y17.796
X-14.682Y17.486
X-15.068Y17.169
X-15.447Y16.842
X-15.819Y16.508
X-16.184Y16.166
X-16.541Y15.815
X-16.89Y15.457
X-17.232Y15.091
X-17.565Y14.718
X-17.89Y14.338
X-18.207Y13.951
X-18.515Y13.557
X-18.814Y13.156
X-19.105Y12.749
X-19.387Y12.336
X-19.659Y11.917
X-19.923Y11.491
X-20.177Y11.061
X-20.422Y10.624
X-20.657Y10.183
X-20.883Y9.737
X-21.099Y9.285
X-21.305Y8.829
X-21.501Y8.369
X-21.687Y7.905
X-21.863Y7.437
X-22.028Y6.965
X-22.184Y6.489
X-22.329Y6.011
X-22.464Y5.529
X-22.588Y5.044
X-22.702Y4.557
X-22.805Y4.068
X-22.898Y3.576
X-22.98Y3.083
X-23.051Y2.588
X-23.112Y2.091
X-23.162Y1.594
X-23.201Y1.095
X-23.23Y0.596
X-23.247Y0.096
X-23.254Y-0.403
X-23.25Y-0.904
X-23.236Y-1.404
X-23.211Y-1.903
X-23.175Y-2.402
X-23.128Y-2.9
X-23.07Y-3.397
X-23.002Y-3.893
X-22.924Y-4.387
X-22.835Y-4.879
X-22.735Y-5.369
X-22.625Y-5.857
X-22.504Y-6.342
X-22.373Y-6.825
X-22.232Y-7.305
X-22.08Y-7.782
X-21.918Y-8.255
X-21.747Y-8.725
X-21.565Y-9.191
X-21.373Y-9.653
X-21.172Y-10.111
X-20.961Y-10.564
X-20.74Y-11.013
X-20.51Y-11.457
X-20.27Y-11.896
X-20.021Y-12.33
X-19.763Y-12.758
X-19.495Y-13.181
X-19.219Y-13.598
X-18.934Y-14.009
X-18.641Y-14.414
X-18.339Y-14.813
X-18.028Y-15.205
X-17.709Y-15.59
X-17.382Y-15.969
X-17.047Y-16.341
X-16.705Y-16.705
X-16.355Y-17.062
X-15.997Y-17.412
X-15.632Y-17.754
X-15.26Y-18.088
X-14.88Y-18.414
X-14.494Y-18.732
X-14.102Y-19.042
X-13.703Y-19.343
X-13.297Y-19.636
X-12.886Y-19.921
X-12.468Y-20.197
X-12.045Y-20.463
X-11.617Y-20.721
X-11.183Y-20.97
X-10.744Y-21.21
X-10.3Y-21.44
X-9.851Y-21.661
X-9.398Y-21.872
X-8.94Y-22.074
X-8.478Y-22.266
X-8.012Y-22.449
X-7.543Y-22.621
X-7.07Y-22.784
X-6.594Y-22.937
X-6.114Y-23.08
X-5.632Y-23.212
X-5.147Y-23.335
X-4.66Y-23.447
X-4.17Y-23.549
X-3.678Y-23.641
X-3.185Y-23.723
X-2.69Y-23.794
X-2.193Y-23.855
X-1.696Y-23.906
X-1.197Y-23.946
X-0.698Y-23.975
X-0.198Y-23.995
X0.301Y-24.004
X0.801Y-24.002
X1.302Y-23.99
X1.801Y-23.968
X2.3Y-23.935
X2.799Y-23.892
X3.296Y-23.838
X3.792Y-23.774
X4.287Y-23.7
X4.78Y-23.616
X5.271Y-23.521
X5.76Y-23.417
X6.247Y-23.302
X6.731Y-23.177
X7.213Y-23.042
X7.692Y-22.897
X8.167Y-22.742
X8.64Y-22.577
X9.108Y-22.403
X9.573Y-22.219
X10.035Y-22.025
X10.492Y-21.822
X10.945Y-21.61
X11.393Y-21.388
X11.837Y-21.157
X12.275Y-20.917
X12.709Y-20.668
X13.138Y-20.41
X13.561Y-20.143
X13.978Y-19.867
X14.39Y-19.583
X14.796Y-19.291
X15.195Y-18.99
X15.589Y-18.682
X15.976Y-18.365
X16.356Y-18.04
X16.73Y-17.707
X17.097Y-17.367
X17.457Y-17.02
X17.809Y-16.665
X18.154Y-16.303
X18.492Y-15.934
X18.822Y-15.558
X19.144Y-15.175
X19.458Y-14.786
X19.765Y-14.391
X20.063Y-13.989
X20.353Y-13.582
X20.634Y-13.168
X20.907Y-12.749
X21.172Y-12.325
X21.427Y-11.895
X21.674Y-11.46
X21.912Y-11.02
X22.141Y-10.575
X22.361Y-10.126
X22.571Y-9.672
X22.772Y-9.214
X22.964Y-8.752
X23.147Y-8.286
X23.32Y-7.817
X23.483Y-7.344
X23.637Y-6.868
X23.781Y-6.389
X23.915Y-5.907
X24.039Y-5.423
X24.154Y-4.936
X24.259Y-4.447
X24.353Y-3.956
X24.438Y-3.463
X24.513Y-2.968
X24.578Y-2.472
X24.632Y-1.975
X24.677Y-1.477
X24.711Y-0.978
X24.736Y-0.478
X24.75Y0.021
X24.754Y0.521
X24.748Y1.021
X24.732Y1.521
X24.706Y2.02
X24.67Y2.519
X24.624Y3.017
X24.567Y3.514
X24.501Y4.01
X24.425Y4.504
X24.338Y4.997
X24.242Y5.488
X24.136Y5.977
X24.021Y6.463
X23.895Y6.948
X23.76Y7.429
X23.615Y7.908
X23.46Y8.384
X23.296Y8.856
X23.123Y9.325
X22.94Y9.791
X22.748Y10.253
X22.546Y10.71
X22.336Y11.164
X22.116Y11.614
X21.888Y12.059
X21.651Y12.499
X21.404Y12.934
X21.15Y13.365
X20.886Y13.79
X20.615Y14.21
X20.334Y14.624
X20.046Y15.033
X19.75Y15.436
X19.445Y15.833
X19.133Y16.223
X18.813Y16.608
X18.485Y16.986
X18.15Y17.357
X17.808Y17.722
X17.458Y18.079
X17.102Y18.43
X16.738Y18.774
X16.368Y19.11
X15.991Y19.439
X15.607Y19.76
X15.218Y20.073
X14.822Y20.379
X14.42Y20.677
X14.012Y20.967
X13.599Y21.248
X13.18Y21.522
X12.756Y21.787
X12.327Y22.043
X11.892Y22.291
X11.453Y22.531
X11.009Y22.762
X10.561Y22.983
X10.108Y23.196
X9.652Y23.4
X9.191Y23.595
X8.727Y23.781
X8.259Y23.957
X7.787Y24.125
X7.313Y24.283
X6.835Y24.431
X6.355Y24.57
X5.872Y24.7
X5.386Y24.82
X4.898Y24.93
X4.408Y25.031
X3.916Y25.122
X3.423Y25.204
X2.928Y25.275
X2.432Y25.337
X1.934Y25.39
X1.436Y25.432
X0.937Y25.465
X0.437Y25.488
X-0.062Y25.501
X-0.562Y25.504
X-1.062Y25.497
X-1.562Y25.481
X-2.062Y25.455
X-2.56Y25.419
X-3.059Y25.373
X-3.556Y25.318
X-4.052Y25.252
X-4.546Y25.178
X-5.039Y25.093
X-5.53Y24.999
X-6.02Y24.895
X-6.507Y24.782
X-6.992Y24.659
X-7.474Y24.527
X-7.954Y24.386
X-8.431Y24.235
X-8.904Y24.075
X-9.375Y23.905
X-9.842Y23.727
X-10.306Y23.539
X-10.766Y23.343
X-11.222Y23.137
X-11.674Y22.923
X-12.122Y22.7
X-12.565Y22.468
X-13.003Y22.228
X-13.437Y21.979
X-13.866Y21.722
X-14.29Y21.457
X-14.709Y21.183
X-15.122Y20.901
X-15.53Y20.612
X-15.932Y20.314
X-16.329Y20.009
X-16.719Y19.696
X-17.103Y19.376
X-17.481Y19.048
X-17.852Y18.713
X-18.217Y18.371
X-18.576Y18.022
X-18.927Y17.666
X-19.271Y17.304
X-19.609Y16.935
X-19.939Y16.559
X-20.262Y16.177
X-20.577Y15.789
X-20.885Y15.395
X-21.186Y14.995
X-21.478Y14.589
X-21.763Y14.178
X-22.04Y13.761
X-22.308Y13.339
X-22.569Y12.912
X-22.821Y12.48
X-23.065Y12.043
X-23.3Y11.602
X-23.527Y11.156
X-23.745Y10.706
X-23.955Y10.252
X-24.155Y9.794
X-24.347Y9.332
X-24.53Y8.867
X-24.705Y8.398
X-24.87Y7.926
X-25.026Y7.451
X-25.173Y6.972
X-25.31Y6.492
X-25.439Y6.008
X-25.558Y5.523
X-25.668Y5.035
X-25.768Y4.545
X-25.86Y4.053
X-25.941Y3.559
X-26.014Y3.065
X-26.076Y2.568
X-26.13Y2.071
X-26.174Y1.573
X-26.208Y1.074
X-26.233Y0.574
X-26.248Y0.074
X-26.254Y-0.425
X-26.25Y-0.925
X-26.237Y-1.425
X-26.214Y-1.925
X-26.182Y-2.424
X-26.14Y-2.922
X-26.089Y-3.42
X-26.028Y-3.916
X-25.958Y-4.411
X-25.878Y-4.905
X-25.789Y-5.397
X-25.691Y-5.888
X-25.583Y-6.376
X-25.467Y-6.863
X-25.341Y-7.347
X-25.206Y-7.828
X-25.061Y-8.307
X-24.908Y-8.783
X-24.746Y-9.256
X-24.575Y-9.726
X-24.395Y-10.193
X-24.206Y-10.656
X-24.008Y-11.115
X-23.802Y-11.571
X-23.587Y-12.023
X-23.364Y-12.47
X-23.132Y-12.914
X-22.892Y-13.352
X-22.644Y-13.787
X-22.387Y-14.216
X-22.123Y-14.64
X-21.85Y-15.06
X-21.57Y-15.474
X-21.282Y-15.883
X-20.986Y-16.286
X-20.683Y-16.684
X-20.372Y-17.076
X-20.054Y-17.462
X-19.729Y-17.842
X-19.397Y-18.216
X-19.058Y-18.583
X-18.711Y-18.945
X-18.359Y-19.299
X-17.999Y-19.647
X-17.633Y-19.988
X-17.261Y-20.322
X-16.883Y-20.649
X-16.498Y-20.969
X-16.108Y-21.281
X-15.712Y-21.587
X-15.31Y-21.884
X-14.902Y-22.175
X-14.49Y-22.457
X-14.072Y-22.732
X-13.649Y-22.999
X-13.221Y-23.258
X-12.788Y-23.508
X-12.351Y-23.751
X-11.909Y-23.986
X-11.463Y-24.212
X-11.013Y-24.43
X-10.558Y-24.639
X-10.1Y-24.84
X-9.639Y-25.032
X-9.173Y-25.216
X-8.705Y-25.391
X-8.233Y-25.557
X-7.758Y-25.715
X-7.281Y-25.863
X-6.801Y-26.003
X-6.318Y-26.133
X-5.833Y-26.255
X-5.345Y-26.368
X-4.856Y-26.471
X-4.365Y-26.566
X-3.872Y-26.651
X-3.378Y-26.727
X-2.882Y-26.794
X-2.385Y-26.851
X-1.887Y-26.9
X-1.389Y-26.939
X-0.889Y-26.969
X-0.39Y-26.99
X0.109Y-27.001
X0.609Y-27.003
X1.11Y-26.996
X1.609Y-26.98
X2.109Y-26.954
X2.608Y-26.92
X3.106Y-26.876
X3.603Y-26.822
X4.1Y-26.76
X4.595Y-26.688
X5.088Y-26.608
X5.58Y-26.518
X6.07Y-26.419
X6.559Y-26.311
X7.045Y-26.194
X7.529Y-26.068
X8.011Y-25.933
X8.49Y-25.79
X8.966Y-25.637
X9.44Y-25.476
X9.91Y-25.306
X10.377Y-25.128
X10.841Y-24.941
X11.302Y-24.745
X11.758Y-24.541
X12.211Y-24.329
X12.66Y-24.108
X13.105Y-23.879
X13.545Y-23.643
X13.981Y-23.398
X14.413Y-23.145
X14.839Y-22.884
X15.261Y-22.615
X15.678Y-22.339
X16.09Y-22.055
X16.496Y-21.763
X16.898Y-21.465
X17.293Y-21.159
X17.683Y-20.845
X18.067Y-20.525
X18.445Y-20.198
X18.817Y-19.863
X19.183Y-19.522
X19.543Y-19.175
X19.896Y-18.821
X20.243Y-18.46
X20.583Y-18.094
X20.916Y-17.721
X21.243Y-17.342
X21.562Y-16.957
X21.875Y-16.566
X22.18Y-16.17
X22.478Y-15.769
X22.768Y-15.362
X23.052Y-14.949
X23.327Y-14.532
X23.595Y-14.11
X23.855Y-13.682
X24.108Y-13.251
X24.352Y-12.814
X24.589Y-12.374
X24.817Y-11.929
X25.038Y-11.48
X25.25Y-11.027
X25.454Y-10.57
X25.65Y-10.11
X25.837Y-9.646
X26.016Y-9.179
X26.186Y-8.709
X26.348Y-8.236
X26.501Y-7.759
X26.645Y-7.281
X26.781Y-6.799
X26.908Y-6.316
X27.026Y-5.83
X27.136Y-5.342
X27.237Y-4.852
X27.328Y-4.36
X27.411Y-3.867
X27.485Y-3.372
X27.55Y-2.876
X27.606Y-2.379
X27.653Y-1.881
X27.691Y-1.383
X27.72Y-0.883
X27.74Y-0.384
X27.751Y0.115
X27.753Y0.616
X27.746Y1.116
X27.73Y1.616
X27.705Y2.115
X27.671Y2.614
X27.628Y3.112
X27.576Y3.61
X27.516Y4.106
X27.446Y4.602
X27.367Y5.095
X27.28Y5.588
X27.183Y6.079
X27.078Y6.568
X26.964Y7.055
X26.841Y7.539
X26.71Y8.022
X26.57Y8.502
X26.422Y8.98
X26.264Y9.455
X26.099Y9.927
X25.925Y10.395
X25.743Y10.861
X25.552Y11.324
X25.353Y11.782
X25.146Y12.238
X24.931Y12.689
X24.707Y13.137
X24.476Y13.58
X24.237Y14.02
X23.99Y14.454
X23.736Y14.885
X23.473Y15.311
X23.204Y15.732
X22.926Y16.148
X22.642Y16.559
X22.35Y16.965
X22.05Y17.366
X21.744Y17.762
X21.431Y18.152
X21.111Y18.536
X20.784Y18.914
X20.45Y19.287
X20.11Y19.653
X19.763Y20.014
X19.41Y20.368
X19.051Y20.716
X18.686Y21.058
X18.314Y21.393
X17.937Y21.721
X17.554Y22.043
X17.165Y22.357
X16.771Y22.665
X16.371Y22.966
X15.966Y23.259
X15.556Y23.546
X15.141Y23.825
X14.721Y24.096
X14.297Y24.361
X13.867Y24.617
X13.434Y24.866
X12.996Y25.107
X12.553Y25.341
X12.107Y25.567
X11.657Y25.784
X11.202Y25.994
X10.745Y26.196
X10.284Y26.389
X9.819Y26.574
X9.351Y26.751
X8.881Y26.92
X8.407Y27.081
X7.93Y27.233
X7.451Y27.377
X6.97Y27.512
X6.486Y27.639
X6Y27.757
X5.512Y27.866
X5.022Y27.967
X4.531Y28.06
X4.038Y28.143
X3.543Y28.218
X3.047Y28.285
X2.551Y28.342
X2.053Y28.391
X1.554Y28.431
X1.055Y28.462
X0.556Y28.485
X0.056Y28.499
X-0.444Y28.504
X-0.944Y28.5
X-1.444Y28.487
X-1.943Y28.466
X-2.443Y28.436
X-2.941Y28.397
X-3.439Y28.349
X-3.936Y28.293
X-4.432Y28.228
X-4.927Y28.154
X-5.42Y28.072
X-5.912Y27.981
X-6.402Y27.882
X-6.89Y27.774
X-7.377Y27.657
X-7.861Y27.532
X-8.343Y27.399
X-8.822Y27.257
X-9.299Y27.106
X-9.774Y26.948
X-10.245Y26.781
X-10.714Y26.606
X-11.179Y26.423
X-11.641Y26.232
X-12.1Y26.032
X-12.555Y25.825
X-13.007Y25.61
X-13.454Y25.387
X-13.898Y25.156
X-14.338Y24.918
X-14.773Y24.672
X-15.204Y24.419
X-15.631Y24.158
X-16.053Y23.889
X-16.47Y23.614
X-16.883Y23.331
X-17.29Y23.041
X-17.693Y22.744
X-18.09Y22.44
X-18.482Y22.129
X-18.868Y21.811
X-19.249Y21.487
X-19.624Y21.156
X-19.993Y20.819
X-20.357Y20.476
X-20.714Y20.126
X-21.066Y19.77
X-21.411Y19.408
X-21.749Y19.04
X-22.082Y18.666
X-22.408Y18.287
X-22.727Y17.902
X-23.04Y17.511
X-23.345Y17.116
X-23.644Y16.715
X-23.936Y16.308
X-24.221Y15.897
X-24.499Y15.481
X-24.769Y15.061
X-25.032Y14.635
X-25.288Y14.206
X-25.536Y13.772
X-25.777Y13.333
X-26.011Y12.891
X-26.236Y12.444
X-26.454Y11.994
X-26.664Y11.54
X-26.866Y11.083
X-27.061Y10.622
X-27.247Y10.158
X-27.425Y9.691
X-27.596Y9.221
X-27.758Y8.748
X-27.912Y8.272
X-28.058Y7.793
X-28.195Y7.312
X-28.325Y6.829
X-28.446Y6.344
X-28.559Y5.857
X-28.663Y5.368
X-28.759Y4.877
X-28.846Y4.384
X-28.925Y3.891
X-28.996Y3.395
X-29.058Y2.899
X-29.111Y2.402
X-29.156Y1.904
X-29.193Y1.405
X-29.221Y0.906
X-29.24Y0.406
X-29.251Y-0.093
X-29.253Y-0.593
X-29.247Y-1.093
X-29.232Y-1.593
X-29.209Y-2.093
X-29.177Y-2.592
X-29.137Y-3.09
X-29.088Y-3.588
X-29.03Y-4.085
X-28.964Y-4.581
X-28.89Y-5.075
X-28.807Y-5.569
X-28.716Y-6.06
X-28.617Y-6.55
X-28.509Y-7.039
X-28.393Y-7.525
X-28.268Y-8.01
X-28.136Y-8.492
X-27.995Y-8.972
X-27.846Y-9.449
X-27.689Y-9.924
X-27.524Y-10.396
X-27.351Y-10.865
X-27.17Y-11.332
X-26.981Y-11.795
X-26.784Y-12.254
X-26.579Y-12.711
X-26.367Y-13.164
X-26.147Y-13.613
X-25.92Y-14.058
X-25.685Y-14.5
X-25.442Y-14.937
X-25.192Y-15.37
X-24.935Y-15.799
X-24.671Y-16.224
X-24.399Y-16.644
X-24.12Y-17.059
X-23.835Y-17.47
X-23.542Y-17.875
X-23.243Y-18.276
X-22.937Y-18.671
X-22.624Y-19.062
X-22.305Y-19.447
X-21.979Y-19.826
X-21.647Y-20.2
X-21.308Y-20.568
X-20.964Y-20.931
X-20.613Y-21.287
X-20.257Y-21.638
X-19.894Y-21.983
X-19.526Y-22.321
X-19.152Y-22.653
X-18.773Y-22.979
X-18.388Y-23.298
X-17.997Y-23.611
X-17.602Y-23.917
X-17.202Y-24.217
X-16.796Y-24.51
X-16.386Y-24.796
X-15.971Y-25.074
X-15.551Y-25.346
X-15.127Y-25.611
X-14.698Y-25.869
X-14.265Y-26.119
X-13.828Y-26.362
X-13.387Y-26.598
X-12.942Y-26.826
X-12.493Y-27.047
X-12.041Y-27.26
X-11.585Y-27.466
X-11.125Y-27.664
X-10.663Y-27.854
X-10.197Y-28.036
X-9.728Y-28.211
X-9.257Y-28.377
X-8.783Y-28.536
X-8.306Y-28.687
X-7.826Y-28.829
X-7.345Y-28.964
X-6.861Y-29.091
X-6.375Y-29.209
X-5.887Y-29.32
X-5.398Y-29.422
X-4.906Y-29.516
X-4.414Y-29.602
X-3.92Y-29.679
X-3.424Y-29.748
X-2.928Y-29.809
X-2.431Y-29.862
X-1.932Y-29.906
X-1.434Y-29.942
X-0.934Y-29.97
X-0.434Y-29.989
X0.065Y-30.001
X0.565Y-30.003
X1.065Y-29.998
X1.565Y-29.984
X2.064Y-29.961
X2.563Y-29.931
X3.062Y-29.892
X3.56Y-29.845
X4.057Y-29.789
X4.553Y-29.725
X5.048Y-29.653
X5.542Y-29.573
X6.034Y-29.485
X6.525Y-29.388
X7.014Y-29.283
X7.501Y-29.171
X7.986Y-29.05
X8.469Y-28.921
X8.95Y-28.784
X9.429Y-28.639
X9.905Y-28.486
X10.379Y-28.325
X10.85Y-28.157
X11.318Y-27.981
X11.783Y-27.797
X12.245Y-27.605
X12.703Y-27.406
X13.159Y-27.199
X13.611Y-26.984
X14.059Y-26.762
X14.503Y-26.533
X14.944Y-26.297
X15.38Y-26.053
X15.813Y-25.802
X16.241Y-25.544
X16.665Y-25.278
X17.085Y-25.006
X17.5Y-24.727
X17.91Y-24.441
X18.316Y-24.149
X18.717Y-23.85
X19.113Y-23.544
X19.503Y-23.232
X19.889Y-22.913
X20.269Y-22.588
X20.643Y-22.257
X21.013Y-21.919
X21.376Y-21.576
X21.734Y-21.227
X22.086Y-20.871
X22.433Y-20.511
X22.773Y-20.144
X23.107Y-19.772
X23.435Y-19.394
X23.757Y-19.011
X24.072Y-18.623
X24.381Y-18.23
X24.683Y-17.832
X24.979Y-17.428
X25.269Y-17.02
X25.551Y-16.608
X25.827Y-16.191
X26.096Y-15.769
X26.357Y-15.343
X26.612Y-14.912
X26.86Y-14.478
X27.1Y-14.039
X27.334Y-13.597
X27.56Y-13.151
X27.779Y-12.701
X27.99Y-12.248
X28.194Y-11.791
X28.39Y-11.331
X28.579Y-10.868
X28.76Y-10.402
X28.934Y-9.933
X29.1Y-9.461
X29.258Y-8.987
X29.408Y-8.51
X29.551Y-8.031
X29.686Y-7.549
X29.813Y-7.065
X29.932Y-6.579
X30.043Y-6.092
X30.146Y-5.602
X30.241Y-5.111
X30.328Y-4.619
X30.407Y-4.125
X30.477Y-3.63
X30.54Y-3.134
X30.595Y-2.637
X30.642Y-2.139
X30.68Y-1.64
X30.711Y-1.141
X30.733Y-0.641
X30.747Y-0.141
X30.753Y0.358
X30.751Y0.858
X30.741Y1.358
X30.722Y1.858
X30.696Y2.357
X30.661Y2.856
X30.618Y3.354
X30.568Y3.852
X30.509Y4.348
X30.442Y4.844
X30.367Y5.339
X30.284Y5.832
X30.193Y6.323
X30.094Y6.814
X29.987Y7.302
X29.872Y7.789
X29.75Y8.274
X29.619Y8.757
X29.481Y9.237
X29.335Y9.716
X29.181Y10.192
X29.02Y10.665
X28.851Y11.136
X28.674Y11.603
X28.49Y12.068
X28.298Y12.53
X28.099Y12.989
X27.893Y13.445
X27.679Y13.897
X27.458Y14.345
X27.229Y14.79
X26.994Y15.231
X26.751Y15.669
X26.502Y16.102
X26.245Y16.531
X25.982Y16.957
X25.712Y17.377
X25.435Y17.794
X25.151Y18.206
X24.861Y18.613
X24.564Y19.015
X24.261Y19.413
X23.951Y19.806
X23.635Y20.194
X23.313Y20.576
X22.985Y20.954
X22.651Y21.326
X22.31Y21.692
X21.964Y22.053
X21.613Y22.409
X21.255Y22.759
X20.892Y23.103
X20.524Y23.441
X20.15Y23.773
X19.771Y24.099
X19.386Y24.419
X18.997Y24.733
X18.603Y25.04
X18.203Y25.342
X17.799Y25.636
X17.391Y25.925
X16.977Y26.206
X16.56Y26.481
X16.137Y26.749
X15.711Y27.011
X15.281Y27.265
X14.846Y27.513
X14.408Y27.754
X13.966Y27.987
X13.52Y28.214
X13.07Y28.433
X12.617Y28.646
X12.161Y28.851
X11.702Y29.048
X11.239Y29.238
X10.774Y29.421
X10.305Y29.597
X9.834Y29.764
X9.361Y29.925
X8.884Y30.078
X8.406Y30.223
X7.925Y30.36
X7.442Y30.49
X6.957Y30.612
X6.47Y30.727
X5.982Y30.833
X5.491Y30.932
X5Y31.023
X4.506Y31.106
X4.012Y31.181
X3.516Y31.249
X3.02Y31.308
X2.522Y31.36
X2.024Y31.404
X1.525Y31.439
X1.026Y31.467
X0.526Y31.487
X0.026Y31.499
X-0.473Y31.503
X-0.973Y31.499
X-1.473Y31.487
X-1.972Y31.468
X-2.472Y31.44
X-2.971Y31.404
X-3.469Y31.361
X-3.966Y31.309
X-4.463Y31.25
X-4.958Y31.183
X-5.453Y31.108
X-5.946Y31.025
X-6.438Y30.935
X-6.928Y30.836
X-7.417Y30.73
X-7.904Y30.616
X-8.389Y30.495
X-8.872Y30.366
X-9.353Y30.229
X-9.832Y30.084
X-10.309Y29.932
X-10.783Y29.773
X-11.254Y29.606
X-11.723Y29.432
X-12.189Y29.25
X-12.652Y29.061
X-13.112Y28.865
X-13.568Y28.661
X-14.022Y28.45
X-14.472Y28.232
X-14.919Y28.007
X-15.362Y27.775
X-15.801Y27.537
X-16.237Y27.291
X-16.668Y27.038
X-17.096Y26.779
X-17.519Y26.513
X-17.939Y26.24
X-18.354Y25.961
X-18.764Y25.675
X-19.17Y25.383
X-19.571Y25.084
X-19.968Y24.779
X-20.359Y24.468
X-20.746Y24.151
X-21.128Y23.828
X-21.504Y23.499
X-21.875Y23.164
X-22.241Y22.823
X-22.602Y22.477
X-22.957Y22.125
X-23.307Y21.767
X-23.651Y21.404
X-23.989Y21.036
X-24.321Y20.662
X-24.648Y20.283
X-24.968Y19.899
X-25.283Y19.51
X-25.591Y19.117
X-25.893Y18.718
X-26.189Y18.315
X-26.479Y17.907
X-26.762Y17.495
X-27.039Y17.078
X-27.309Y16.657
X-27.572Y16.232
X-27.829Y15.803
X-28.079Y15.37
X-28.322Y14.933
X-28.558Y14.492
X-28.788Y14.048
X-29.01Y13.6
X-29.226Y13.149
X-29.434Y12.694
X-29.636Y12.236
X-29.83Y11.775
X-30.017Y11.311
X-30.196Y10.845
X-30.369Y10.375
X-30.534Y9.903
X-30.691Y9.429
X-30.842Y8.952
X-30.985Y8.472
X-31.12Y7.991
X-31.248Y7.507
X-31.368Y7.022
X-31.481Y6.535
X-31.586Y6.046
X-31.683Y5.555
X-31.773Y5.063
X-31.855Y4.57
X-31.93Y4.075
X-31.997Y3.58
X-32.056Y3.083
X-32.107Y2.586
X-32.151Y2.088
X-32.187Y1.589
X-32.215Y1.089
X-32.235Y0.59
X-32.248Y0.09
X-32.253Y-0.409
X-32.25Y-0.909
X-32.24Y-1.409
X-32.221Y-1.909
X-32.195Y-2.409
X-32.161Y-2.908
X-32.12Y-3.406
X-32.071Y-3.904
X-32.014Y-4.4
X-31.949Y-4.896
X-31.877Y-5.391
X-31.797Y-5.885
X-31.709Y-6.377
X-31.614Y-6.868
X-31.511Y-7.358
X-31.401Y-7.845
X-31.283Y-8.332
X-31.158Y-8.816
X-31.025Y-9.298
X-30.885Y-9.778
X-30.737Y-10.256
X-30.582Y-10.731
X-30.42Y-11.204
X-30.251Y-11.675
X-30.074Y-12.143
X-29.89Y-12.608
X-29.699Y-13.07
X-29.5Y-13.529
X-29.295Y-13.985
X-29.083Y-14.438
X-28.864Y-14.887
X-28.638Y-15.333
X-28.405Y-15.776
X-28.165Y-16.215
X-27.918Y-16.65
X-27.665Y-17.081
X-27.405Y-17.508
X-27.139Y-17.932
X-26.866Y-18.351
X-26.587Y-18.766
X-26.302Y-19.176
X-26.01Y-19.583
X-25.712Y-19.984
X-25.408Y-20.381
X-25.097Y-20.774
X-24.781Y-21.161
X-24.459Y-21.544
X-24.131Y-21.921
X-23.798Y-22.294
X-23.458Y-22.661
X-23.113Y-23.023
X-22.763Y-23.38
X-22.407Y-23.731
X-22.046Y-24.077
X-21.679Y-24.417
X-21.308Y-24.752
X-20.931Y-25.081
X-20.549Y-25.404
X-20.163Y-25.721
X-19.771Y-26.032
X-19.375Y-26.338
X-18.974Y-26.637
X-18.569Y-26.93
X-18.159Y-27.217
X-17.745Y-27.497
X-17.327Y-27.771
X-16.904Y-28.039
X-16.478Y-28.3
X-16.047Y-28.555
X-15.613Y-28.803
X-15.175Y-29.044
X-14.734Y-29.279
X-14.288Y-29.507
X-13.84Y-29.728
X-13.388Y-29.942
X-12.933Y-30.149
X-12.475Y-30.35
X-12.013Y-30.543
X-11.549Y-30.729
X-11.082Y-30.908
X-10.613Y-31.08
X-10.141Y-31.245
X-9.666Y-31.403
X-9.189Y-31.553
X-8.71Y-31.696
X-8.229Y-31.832
X-7.745Y-31.961
X-7.26Y-32.082
X-6.773Y-32.196
X-6.284Y-32.302
X-5.794Y-32.401
X-5.302Y-32.492
X-4.809Y-32.576
X-4.315Y-32.653
X-3.82Y-32.722
X-3.324Y-32.783
X-2.826Y-32.837
X-2.328Y-32.883
X-1.83Y-32.922
X-1.331Y-32.953
X-0.831Y-32.977
X-0.331Y-32.993
X0.168Y-33.002
X0.668
X1.168Y-32.996
X1.668Y-32.982
X2.167Y-32.96
X2.667Y-32.93
X3.165Y-32.893
X3.663Y-32.849
X4.161Y-32.797
X4.657Y-32.737
X5.153Y-32.67
X5.648Y-32.596
X6.141Y-32.514
X6.633Y-32.424
X7.124Y-32.327
X7.613Y-32.223
X8.1Y-32.112
X8.586Y-31.993
X9.07Y-31.866
X9.552Y-31.733
X10.032Y-31.592
X10.509Y-31.444
X10.985Y-31.288
X11.458Y-31.126
X11.928Y-30.956
X12.396Y-30.78
X12.861Y-30.596
X13.323Y-30.406
X13.783Y-30.208
X14.239Y-30.004
X14.692Y-29.792
X15.143Y-29.574
X15.589Y-29.349
X16.032Y-29.118
X16.472Y-28.879
X16.908Y-28.635
X17.341Y-28.383
X17.769Y-28.125
X18.194Y-27.861
X18.614Y-27.591
X19.031Y-27.314
X19.443Y-27.031
X19.851Y-26.742
X20.255Y-26.446
X20.654Y-26.145
X21.048Y-25.837
X21.438Y-25.524
X21.823Y-25.205
X22.204Y-24.88
X22.579Y-24.55
X22.949Y-24.214
X23.315Y-23.873
X23.675Y-23.526
X24.03Y-23.173
X24.379Y-22.816
X24.724Y-22.453
X25.062Y-22.085
X25.395Y-21.712
X25.723Y-21.334
X26.045Y-20.951
X26.361Y-20.564
X26.671Y-20.172
X26.976Y-19.775
X27.274Y-19.373
X27.566Y-18.968
X27.853Y-18.558
X28.133Y-18.143
X28.407Y-17.725
X28.674Y-17.302
X28.936Y-16.876
X29.19Y-16.446
X29.439Y-16.012
X29.681Y-15.574
X29.916Y-15.133
X30.145Y-14.688
X30.367Y-14.24
X30.582Y-13.789
X30.791Y-13.334
X30.993Y-12.877
X31.188Y-12.416
X31.376Y-11.953
X31.557Y-11.487
X31.731Y-11.018
X31.899Y-10.547
X32.059Y-10.073
X32.212Y-9.597
X32.358Y-9.118
X32.497Y-8.638
X32.629Y-8.156
X32.753Y-7.671
X32.871Y-7.185
X32.981Y-6.697
X33.083Y-6.208
X33.179Y-5.717
X33.267Y-5.225
X33.348Y-4.731
X33.422Y-4.237
X33.488Y-3.741
X33.547Y-3.244
X33.598Y-2.747
X33.643Y-2.249
X33.679Y-1.75
X33.709Y-1.251
X33.731Y-0.751
X33.745Y-0.251
X33.752Y0.248
Y0.748
X33.744Y1.248
X33.729Y1.748
X33.706Y2.248
X33.677Y2.747
X33.639Y3.245
X33.595Y3.744
X33.543Y4.241
X33.483Y4.737
X33.416Y5.233
X33.342Y5.728
X33.261Y6.221
X33.172Y6.713
X33.076Y7.204
X32.973Y7.693
X32.863Y8.181
X32.745Y8.667
X32.621Y9.152
X32.489Y9.634
X32.35Y10.114
X32.204Y10.593
X32.051Y11.069
X31.891Y11.543
X31.724Y12.014
X31.55Y12.483
X31.369Y12.949
X31.181Y13.413
X30.986Y13.873
X30.785Y14.331
X30.577Y14.786
X30.362Y15.238
X30.141Y15.686
X29.913Y16.131
X29.679Y16.573
X29.438Y17.011
X29.191Y17.446
X28.937Y17.877
X28.677Y18.304
X28.411Y18.727
X28.138Y19.147
X27.86Y19.562
X27.575Y19.973
X27.284Y20.38
X26.988Y20.783
X26.685Y21.181
X26.377Y21.575
X26.063Y21.964
X25.743Y22.349
X25.418Y22.728
X25.087Y23.103
X24.751Y23.474
X24.409Y23.839
X24.062Y24.199
X23.71Y24.554
X23.352Y24.904
X22.99Y25.248
X22.622Y25.587
X22.25Y25.921
X21.873Y26.249
X21.491Y26.572
X21.104Y26.889
X20.712Y27.2
X20.317Y27.506
X19.916Y27.806
X19.512Y28.1
X19.103Y28.388
X18.69Y28.669
X18.273Y28.945
X17.852Y29.215
X17.427Y29.479
X16.998Y29.736
X16.565Y29.987
X16.129Y30.232
X15.689Y30.47
X15.246Y30.702
X14.8Y30.927
X14.35Y31.146
X13.898Y31.359
X13.442Y31.564
X12.983Y31.763
X12.521Y31.956
X12.057Y32.141
X11.59Y32.32
X11.12Y32.492
X10.648Y32.657
X10.174Y32.815
X9.697Y32.966
X9.218Y33.111
X8.737Y33.248
X8.254Y33.378
X7.77Y33.501
X7.283Y33.618
X6.795Y33.727
X6.306Y33.829
X5.815Y33.924
X5.322Y34.011
X4.829Y34.092
X4.334Y34.165
X3.839Y34.232
X3.342Y34.291
X2.845Y34.342
X2.346Y34.387
X1.848Y34.424
X1.349Y34.454
X0.849Y34.477
X0.349Y34.493
X-0.15Y34.501
X-0.65Y34.502
X-1.15Y34.496
X-1.65Y34.483
X-2.15Y34.462
X-2.649Y34.434
X-3.148Y34.399
X-3.646Y34.357
X-4.144Y34.308
X-4.641Y34.251
X-5.137Y34.187
X-5.632Y34.116
X-6.126Y34.038
X-6.618Y33.952
X-7.11Y33.86
X-7.6Y33.76
X-8.089Y33.654
X-8.576Y33.54
X-9.061Y33.419
X-9.544Y33.292
X-10.026Y33.157
X-10.506Y33.015
X-10.983Y32.867
X-11.458Y32.711
X-11.932Y32.549
X-12.402Y32.38
X-12.87Y32.204
X-13.336Y32.022
X-13.799Y31.833
X-14.259Y31.637
X-14.716Y31.434
X-15.171Y31.225
X-15.622Y31.01
X-16.07Y30.787
X-16.515Y30.559
X-16.956Y30.324
X-17.394Y30.083
X-17.829Y29.835
X-18.26Y29.582
X-18.687Y29.322
X-19.11Y29.056
X-19.53Y28.784
X-19.946Y28.506
X-20.357Y28.222
X-20.765Y27.932
X-21.168Y27.636
X-21.567Y27.334
X-21.962Y27.027
X-22.352Y26.714
X-22.738Y26.396
X-23.119Y26.072
X-23.495Y25.743
X-23.866Y25.408
X-24.233Y25.068
X-24.595Y24.723
X-24.952Y24.372
X-25.304Y24.017
X-25.65Y23.657
X-25.992Y23.291
X-26.328Y22.921
X-26.659Y22.546
X-26.984Y22.166
X-27.304Y21.782
X-27.618Y21.393
X-27.927Y21
X-28.23Y20.602
X-28.528Y20.2
X-28.819Y19.794
X-29.105Y19.383
X-29.385Y18.969
X-29.659Y18.55
X-29.927Y18.128
X-30.189Y17.702
X-30.445Y17.272
X-30.694Y16.839
X-30.938Y16.402
X-31.175Y15.962
X-31.406Y15.518
X-31.63Y15.071
X-31.848Y14.621
X-32.06Y14.168
X-32.265Y13.712
X-32.463Y13.253
X-32.655Y12.791
X-32.841Y12.327
X-33.019Y11.86
X-33.192Y11.39
X-33.357Y10.918
X-33.516Y10.444
X-33.668Y9.967
X-33.813Y9.489
X-33.951Y9.008
X-34.082Y8.526
X-34.207Y8.041
X-34.324Y7.555
X-34.435Y7.068
X-34.539Y6.578
X-34.635Y6.088
X-34.725Y5.596
X-34.808Y5.103
X-34.884Y4.608
X-34.952Y4.113
X-35.014Y3.617
X-35.069Y3.12
X-35.116Y2.622
X-35.157Y2.123
X-35.19Y1.624
X-35.216Y1.125
X-35.236Y0.625
X-35.248Y0.125
X-35.253Y-0.374
X-35.251Y-0.874
X-35.241Y-1.374
X-35.225Y-1.874
X-35.202Y-2.373
X-35.171Y-2.872
X-35.134Y-3.371
X-35.089Y-3.869
X-35.038Y-4.367
X-34.979Y-4.863
X-34.913Y-5.359
X-34.841Y-5.854
X-34.761Y-6.347
X-34.674Y-6.84
X-34.581Y-7.331
X-34.48Y-7.821
X-34.373Y-8.31
X-34.258Y-8.796
X-34.137Y-9.281
X-34.009Y-9.765
X-33.874Y-10.246
X-33.732Y-10.726
X-33.584Y-11.204
X-33.428Y-11.679
X-33.267Y-12.152
X-33.098Y-12.623
X-32.923Y-13.091
X-32.741Y-13.557
X-32.553Y-14.02
X-32.358Y-14.481
X-32.156Y-14.939
X-31.949Y-15.394
X-31.734Y-15.846
X-31.514Y-16.294
X-31.287Y-16.74
X-31.054Y-17.183
X-30.815Y-17.622
X-30.569Y-18.057
X-30.318Y-18.49
X-30.06Y-18.918
X-29.796Y-19.343
X-29.527Y-19.764
X-29.251Y-20.182
X-28.97Y-20.595
X-28.683Y-21.004
X-28.39Y-21.41
X-28.091Y-21.811
X-27.787Y-22.208
X-27.477Y-22.601
X-27.162Y-22.989
X-26.842Y-23.373
X-26.516Y-23.752
X-26.184Y-24.126
X-25.848Y-24.496
X-25.506Y-24.862
X-25.159Y-25.222
X-24.807Y-25.577
X-24.451Y-25.928
X-24.089Y-26.273
X-23.723Y-26.614
X-23.351Y-26.949
X-22.976Y-27.279
X-22.595Y-27.603
X-22.21Y-27.922
X-21.821Y-28.236
X-21.427Y-28.544
X-21.029Y-28.847
X-20.627Y-29.144
X-20.221Y-29.436
X-19.81Y-29.722
X-19.396Y-30.002
X-18.978Y-30.276
X-18.556Y-30.544
X-18.13Y-30.807
X-17.7Y-31.063
X-17.268Y-31.313
X-16.831Y-31.558
X-16.391Y-31.796
X-15.948Y-32.028
X-15.502Y-32.253
X-15.053Y-32.473
X-14.6Y-32.686
X-14.145Y-32.893
X-13.687Y-33.093
X-13.226Y-33.287
X-12.763Y-33.475
X-12.296Y-33.656
X-11.828Y-33.831
X-11.357Y-33.999
X-10.883Y-34.16
X-10.408Y-34.315
X-9.93Y-34.463
X-9.451Y-34.605
X-8.969Y-34.74
X-8.486Y-34.868
X-8.001Y-34.989
X-7.514Y-35.104
X-7.025Y-35.211
X-6.536Y-35.312
X-6.045Y-35.406
X-5.552Y-35.494
X-5.059Y-35.574
X-4.564Y-35.648
X-4.068Y-35.714
X-3.572Y-35.774
X-3.074Y-35.827
X-2.576Y-35.873
X-2.078Y-35.912
X-1.579Y-35.944
X-1.079Y-35.969
X-0.58Y-35.987
X-0.08Y-35.998
X0.419Y-36.003
X0.919Y-36
X1.419Y-35.99
X1.919Y-35.974
X2.419Y-35.95
X2.918Y-35.92
X3.417Y-35.883
X3.915Y-35.838
X4.412Y-35.787
X4.909Y-35.729
X5.405Y-35.664
X5.9Y-35.592
X6.394Y-35.514
X6.886Y-35.428
X7.378Y-35.336
X7.868Y-35.237
X8.357Y-35.131
X8.844Y-35.018
X9.33Y-34.899
X9.813Y-34.773
X10.296Y-34.64
X10.776Y-34.5
X11.254Y-34.354
X11.73Y-34.201
X12.204Y-34.042
X12.676Y-33.876
X13.146Y-33.704
X13.613Y-33.525
X14.077Y-33.34
X14.539Y-33.148
X14.998Y-32.95
X15.455Y-32.746
X15.908Y-32.536
X16.359Y-32.319
X16.806Y-32.096
X17.251Y-31.866
X17.692Y-31.631
X18.13Y-31.39
X18.565Y-31.142
X18.996Y-30.889
X19.424Y-30.63
X19.848Y-30.365
X20.268Y-30.094
X20.684Y-29.817
X21.097Y-29.534
X21.506Y-29.246
X21.911Y-28.952
X22.311Y-28.653
X22.708Y-28.348
X23.1Y-28.038
X23.488Y-27.723
X23.871Y-27.402
X24.251Y-27.076
X24.625Y-26.744
X24.995Y-26.408
X25.36Y-26.066
X25.721Y-25.72
X26.077Y-25.369
X26.428Y-25.012
X26.774Y-24.651
X27.115Y-24.285
X27.451Y-23.915
X27.782Y-23.54
X28.107Y-23.161
X28.428Y-22.777
X28.743Y-22.388
X29.053Y-21.996
X29.357Y-21.599
X29.656Y-21.198
X29.949Y-20.793
X30.237Y-20.384
X30.519Y-19.971
X30.795Y-19.554
X31.066Y-19.134
X31.331Y-18.71
X31.59Y-18.282
X31.843Y-17.851
X32.091Y-17.416
X32.332Y-16.978
X32.567Y-16.537
X32.796Y-16.092
X33.019Y-15.645
X33.236Y-15.194
X33.447Y-14.74
X33.652Y-14.284
X33.85Y-13.825
X34.042Y-13.363
X34.227Y-12.899
X34.407Y-12.432
X34.58Y-11.963
X34.746Y-11.491
X34.906Y-11.017
X35.059Y-10.541
X35.206Y-10.063
X35.347Y-9.584
X35.481Y-9.102
X35.608Y-8.618
X35.729Y-8.133
X35.843Y-7.646
X35.95Y-7.157
X36.051Y-6.668
X36.145Y-6.176
X36.232Y-5.684
X36.313Y-5.19
X36.386Y-4.696
X36.453Y-4.2
X36.514Y-3.704
X36.567Y-3.207
X36.614Y-2.709
X36.654Y-2.21
X36.687Y-1.711
X36.714Y-1.212
X36.733Y-0.712
X36.746Y-0.212
X36.752Y0.287
X36.751Y0.787
X36.744Y1.287
X36.729Y1.787
X36.708Y2.286
X36.68Y2.786
X36.645Y3.285
X36.604Y3.783
X36.555Y4.281
X36.5Y4.778
X36.438Y5.274
X36.37Y5.769
X36.295Y6.264
X36.213Y6.757
X36.124Y7.249
X36.028Y7.74
X35.926Y8.23
X35.818Y8.718
X35.702Y9.204
X35.581Y9.689
X35.452Y10.173
X35.317Y10.654
X35.176Y11.134
X35.028Y11.612
X34.873Y12.087
X34.713Y12.561
X34.545Y13.032
X34.372Y13.501
X34.192Y13.967
X34.005Y14.432
X33.813Y14.893
X33.614Y15.352
X33.409Y15.808
X33.198Y16.261
X32.981Y16.712
X32.758Y17.159
X32.528Y17.604
X32.293Y18.045
X32.052Y18.483
X31.804Y18.918
X31.551Y19.349
X31.293Y19.777
X31.028Y20.201
X30.758Y20.622
X30.482Y21.039
X30.2Y21.453
X29.913Y21.862
X29.621Y22.268
X29.323Y22.669
X29.019Y23.067
X28.71Y23.46
X28.396Y23.849
X28.077Y24.234
X27.753Y24.615
X27.423Y24.991
X27.089Y25.363
X26.749Y25.73
X26.405Y26.092
X26.055Y26.45
X25.701Y26.803
X25.342Y27.151
X24.979Y27.495
X24.611Y27.833
X24.238Y28.167
X23.861Y28.495
X23.48Y28.819
X23.094Y29.137
X22.704Y29.45
X22.31Y29.758
X21.911Y30.06
X21.509Y30.357
X21.103Y30.649
X20.693Y30.935
X20.279Y31.216
X19.861Y31.491
X19.44Y31.76
X19.015Y32.024
X18.586Y32.282
X18.155Y32.534
X17.719Y32.78
X17.281Y33.021
X16.839Y33.255
X16.395Y33.484
X15.947Y33.706
X15.496Y33.923
X15.042Y34.134
X14.586Y34.338
X14.127Y34.536
X13.665Y34.729
X13.201Y34.914
X12.734Y35.094
X12.265Y35.268
X11.794Y35.435
X11.321Y35.596
X10.845Y35.75
X10.367Y35.898
X9.888Y36.04
X9.406Y36.175
X8.923Y36.304
X8.438Y36.426
X7.952Y36.542
X7.464Y36.651
X6.974Y36.754
X6.483Y36.85
X5.992Y36.94
X5.498Y37.023
X5.004Y37.099
X4.509Y37.169
X4.013Y37.233
X3.516Y37.289
X3.018Y37.339
X2.52Y37.382
X2.022Y37.419
X1.522Y37.449
X1.023Y37.472
X0.523Y37.489
X0.023Y37.499
X-0.476Y37.503
X-0.976Y37.499
X-1.476Y37.489
X-1.976Y37.473
X-2.475Y37.449
X-2.975Y37.419
X-3.473Y37.383
X-3.972Y37.339
X-4.469Y37.29
X-4.966Y37.233
X-5.462Y37.17
X-5.957Y37.1
X-6.451Y37.024
X-6.945Y36.941
X-7.437Y36.852
X-7.927Y36.756
X-8.417Y36.653
X-8.905Y36.544
X-9.392Y36.429
X-9.877Y36.307
X-10.36Y36.178
X-10.841Y36.044
X-11.321Y35.903
X-11.799Y35.755
X-12.275Y35.601
X-12.749Y35.441
X-13.22Y35.275
X-13.689Y35.102
X-14.156Y34.923
X-14.621Y34.738
X-15.083Y34.547
X-15.543Y34.349
X-15.999Y34.146
X-16.454Y33.937
X-16.905Y33.721
X-17.353Y33.5
X-17.799Y33.272
X-18.241Y33.039
X-18.68Y32.8
X-19.116Y32.555
X-19.549Y32.305
X-19.978Y32.048
X-20.404Y31.786
X-20.827Y31.519
X-21.246Y31.246
X-21.661Y30.967
X-22.072Y30.683
X-22.48Y30.393
X-22.884Y30.098
X-23.284Y29.798
X-23.68Y29.492
X-24.072Y29.182
X-24.459Y28.866
X-24.843Y28.545
X-25.222Y28.219
X-25.597Y27.888
X-25.967Y27.552
X-26.333Y27.211
X-26.695Y26.865
X-27.051Y26.515
X-27.404Y26.16
X-27.751Y25.8
X-28.094Y25.436
X-28.432Y25.067
X-28.765Y24.694
X-29.093Y24.317
X-29.416Y23.935
X-29.734Y23.549
X-30.046Y23.159
X-30.354Y22.765
X-30.656Y22.366
X-30.954Y21.964
X-31.245Y21.558
X-31.532Y21.148
X-31.813Y20.735
X-32.089Y20.317
X-32.359Y19.896
X-32.623Y19.472
X-32.882Y19.044
X-33.135Y18.613
X-33.383Y18.178
X-33.624Y17.741
X-33.86Y17.3
X-34.091Y16.856
X-34.315Y16.409
X-34.533Y15.959
X-34.746Y15.506
X-34.952Y15.051
X-35.153Y14.593
X-35.347Y14.132
X-35.536Y13.669
X-35.718Y13.203
X-35.894Y12.735
X-36.064Y12.265
X-36.228Y11.792
X-36.386Y11.318
X-36.537Y10.841
X-36.682Y10.363
X-36.821Y9.882
X-36.954Y9.4
X-37.08Y8.916
X-37.2Y8.431
X-37.313Y7.944
X-37.42Y7.455
X-37.521Y6.965
X-37.615Y6.474
X-37.703Y5.982
X-37.784Y5.488
X-37.859Y4.994
X-37.927Y4.499
X-37.989Y4.002
X-38.044Y3.505
X-38.093Y3.008
X-38.136Y2.509
X-38.171Y2.011
X-38.201Y1.511
X-38.223Y1.012
X-38.24Y0.512
X-38.249Y0.012
X-38.252Y-0.487
X-38.249Y-0.987
X-38.239Y-1.487
X-38.223Y-1.987
X-38.2Y-2.486
X-38.17Y-2.986
X-38.134Y-3.484
X-38.092Y-3.983
X-38.043Y-4.48
X-37.987Y-4.977
X-37.925Y-5.474
X-37.856Y-5.969
X-37.781Y-6.463
X-37.7Y-6.957
X-37.612Y-7.449
X-37.518Y-7.94
X-37.417Y-8.43
X-37.31Y-8.918
X-37.197Y-9.406
X-37.077Y-9.891
X-36.951Y-10.375
X-36.819Y-10.857
X-36.68Y-11.338
X-36.535Y-11.816
X-36.384Y-12.293
X-36.227Y-12.768
X-36.064Y-13.24
X-35.894Y-13.711
X-35.718Y-14.179
X-35.537Y-14.645
X-35.349Y-15.108
X-35.155Y-15.569
X-34.955Y-16.028
X-34.749Y-16.484
X-34.538Y-16.937
X-34.32Y-17.387
X-34.097Y-17.834
X-33.868Y-18.279
X-33.633Y-18.72
X-33.392Y-19.159
X-33.146Y-19.594
X-32.894Y-20.026
X-32.637Y-20.455
X-32.373Y-20.88
X-32.105Y-21.302
X-31.831Y-21.72
X-31.551Y-22.135
X-31.267Y-22.546
X-30.977Y-22.953
X-30.681Y-23.357
X-30.381Y-23.756
X-30.075Y-24.152
X-29.764Y-24.544
X-29.448Y-24.932
X-29.127Y-25.315
X-28.802Y-25.694
X-28.471Y-26.07
X-28.135Y-26.44
X-27.795Y-26.807
X-27.45Y-27.169
X-27.1Y-27.526
X-26.746Y-27.879
X-26.387Y-28.228
X-26.024Y-28.571
X-25.656Y-28.91
X-25.284Y-29.244
X-24.908Y-29.573
X-24.527Y-29.898
X-24.142Y-30.217
X-23.754Y-30.532
X-23.361Y-30.841
X-22.964Y-31.145
X-22.563Y-31.445
X-22.159Y-31.738
X-21.75Y-32.027
X-21.338Y-32.311
X-20.923Y-32.589
X-20.503Y-32.861
X-20.081Y-33.128
X-19.655Y-33.39
X-19.225Y-33.646
X-18.792Y-33.897
X-18.356Y-34.142
X-17.917Y-34.381
X-17.475Y-34.615
X-17.03Y-34.843
X-16.582Y-35.065
X-16.131Y-35.282
X-15.678Y-35.492
X-15.222Y-35.697
X-14.763Y-35.896
X-14.301Y-36.089
X-13.838Y-36.276
X-13.371Y-36.457
X-12.903Y-36.632
X-12.432Y-36.801
X-11.959Y-36.963
X-11.484Y-37.12
X-11.008Y-37.271
X-10.529Y-37.415
X-10.048Y-37.554
X-9.566Y-37.686
X-9.082Y-37.811
X-8.596Y-37.931
X-8.109Y-38.044
X-7.621Y-38.152
X-7.131Y-38.252
X-6.64Y-38.347
X-6.148Y-38.435
X-5.655Y-38.517
X-5.16Y-38.593
X-4.665Y-38.662
X-4.169Y-38.725
X-3.672Y-38.781
X-3.174Y-38.831
X-2.676Y-38.875
X-2.178Y-38.912
X-1.678Y-38.943
X-1.179Y-38.967
X-0.679Y-38.985
X-0.179Y-38.997
X0.32Y-39.002
X0.82Y-39.001
X1.32Y-38.993
X1.82Y-38.979
X2.319Y-38.959
X2.819Y-38.932
X3.318Y-38.899
X3.816Y-38.859
X4.314Y-38.813
X4.812Y-38.761
X5.308Y-38.702
X5.804Y-38.637
X6.299Y-38.566
X6.793Y-38.488
X7.286Y-38.404
X7.778Y-38.314
X8.268Y-38.217
X8.758Y-38.114
X9.246Y-38.005
X9.732Y-37.89
X10.217Y-37.768
X10.701Y-37.64
X11.183Y-37.506
X11.663Y-37.366
X12.141Y-37.22
X12.617Y-37.068
X13.092Y-36.909
X13.564Y-36.745
X14.034Y-36.574
X14.502Y-36.398
X14.967Y-36.215
X15.431Y-36.027
X15.892Y-35.833
X16.35Y-35.633
X16.806Y-35.427
X17.259Y-35.215
X17.709Y-34.998
X18.156Y-34.775
X18.601Y-34.546
X19.043Y-34.311
X19.481Y-34.071
X19.917Y-33.825
X20.349Y-33.574
X20.778Y-33.317
X21.204Y-33.055
X21.627Y-32.788
X22.046Y-32.515
X22.461Y-32.236
X22.873Y-31.953
X23.282Y-31.664
X23.686Y-31.37
X24.087Y-31.071
X24.484Y-30.767
X24.877Y-30.458
X25.266Y-30.144
X25.651Y-29.825
X26.032Y-29.501
X26.409Y-29.172
X26.782Y-28.839
X27.15Y-28.501
X27.514Y-28.158
X27.874Y-27.811
X28.229Y-27.459
X28.58Y-27.102
X28.926Y-26.741
X29.268Y-26.376
X29.605Y-26.006
X29.937Y-25.633
X30.264Y-25.255
X30.587Y-24.873
X30.905Y-24.486
X31.217Y-24.096
X31.525Y-23.702
X31.828Y-23.304
X32.126Y-22.902
X32.418Y-22.497
X32.706Y-22.088
X32.988Y-21.675
X33.265Y-21.259
X33.537Y-20.839
X33.803Y-20.416
X34.064Y-19.989
X34.32Y-19.559
X34.57Y-19.126
X34.815Y-18.69
X35.054Y-18.251
X35.287Y-17.809
X35.515Y-17.363
X35.737Y-16.915
X35.954Y-16.465
X36.165Y-16.011
X36.37Y-15.555
X36.569Y-15.097
X36.762Y-14.635
X36.95Y-14.172
X37.132Y-13.706
X37.308Y-13.238
X37.478Y-12.768
X37.642Y-12.295
X37.8Y-11.821
X37.952Y-11.344
X38.097Y-10.866
X38.237Y-10.386
X38.371Y-9.904
X38.499Y-9.421
X38.621Y-8.936
X38.736Y-8.449
X38.846Y-7.961
X38.949Y-7.472
X39.046Y-6.981
X39.137Y-6.489
X39.221Y-5.997
X39.3Y-5.503
X39.372Y-5.008
X39.438Y-4.512
X39.498Y-4.016
X39.551Y-3.518
X39.598Y-3.021
X39.639Y-2.522
X39.674Y-2.023
X39.702Y-1.524
X39.724Y-1.024
X39.74Y-0.525
X39.749Y-0.025
X39.752Y0.474
X39.749Y0.974
X39.74Y1.474
X39.724Y1.974
X39.702Y2.474
X39.674Y2.973
X39.639Y3.472
X39.599Y3.97
X39.552Y4.468
X39.498Y4.966
X39.439Y5.462
X39.373Y5.958
X39.301Y6.453
X39.223Y6.947
X39.138Y7.439
X39.048Y7.931
X38.951Y8.422
X38.848Y8.911
X38.739Y9.399
X38.624Y9.886
X38.503Y10.371
X38.375Y10.855
X38.242Y11.337
X38.103Y11.817
X37.957Y12.295
X37.806Y12.772
X37.649Y13.247
X37.485Y13.719
X37.316Y14.19
X37.141Y14.658
X36.96Y15.124
X36.773Y15.588
X36.581Y16.05
X36.382Y16.509
X36.178Y16.965
X35.969Y17.419
X35.753Y17.871
X35.532Y18.319
X35.306Y18.765
X35.073Y19.208
X34.836Y19.648
X34.592Y20.085
X34.344Y20.519
X34.09Y20.949
X33.83Y21.377
X33.566Y21.801
X33.296Y22.222
X33.02Y22.64
X32.74Y23.054
X32.454Y23.464
X32.164Y23.871
X31.868Y24.274
X31.567Y24.674
X31.262Y25.07
X30.951Y25.462
X30.635Y25.849
X30.315Y26.234
X29.99Y26.613
X29.66Y26.989
X29.326Y27.361
X28.987Y27.729
X28.643Y28.092
X28.295Y28.451
X27.942Y28.806
X27.585Y29.156
X27.224Y29.502
X26.859Y29.843
X26.489Y30.179
X26.115Y30.511
X25.737Y30.839
X25.355Y31.161
X24.969Y31.479
X24.579Y31.792
X24.185Y32.1
X23.787Y32.403
X23.385Y32.702
X22.98Y32.995
X22.572Y33.283
X22.159Y33.566
X21.744Y33.844
X21.324Y34.116
X20.902Y34.384
X20.476Y34.646
X20.047Y34.903
X19.615Y35.154
X19.179Y35.401
X18.741Y35.641
X18.3Y35.876
X17.856Y36.106
X17.409Y36.33
X16.959Y36.549
X16.507Y36.762
X16.052Y36.97
X15.594Y37.171
X15.134Y37.367
X14.671Y37.558
X14.207Y37.742
X13.74Y37.921
X13.271Y38.094
X12.799Y38.261
X12.326Y38.423
X11.851Y38.578
X11.373Y38.728
X10.894Y38.871
X10.414Y39.009
X9.931Y39.14
X9.447Y39.266
X8.962Y39.386
X8.475Y39.5
X7.986Y39.607
X7.497Y39.709
X7.006Y39.804
X6.514Y39.894
X6.021Y39.977
X5.527Y40.055
X5.032Y40.126
X4.536Y40.191
X4.039Y40.25
X3.542Y40.302
X3.044Y40.349
X2.546Y40.389
X2.047Y40.424
X1.548Y40.452
X1.048Y40.474
X0.548Y40.489
X0.048Y40.499
X-0.451Y40.502
X-0.951Y40.5
X-1.451Y40.491
X-1.951Y40.476
X-2.45Y40.454
X-2.95Y40.427
X-3.449Y40.393
X-3.947Y40.353
X-4.445Y40.308
X-4.942Y40.256
X-5.439Y40.197
X-5.935Y40.133
X-6.43Y40.063
X-6.924Y39.986
X-7.417Y39.904
X-7.91Y39.815
X-8.401Y39.72
X-8.89Y39.62
X-9.379Y39.513
X-9.866Y39.4
X-10.352Y39.281
X-10.836Y39.157
X-11.319Y39.026
X-11.8Y38.889
X-12.279Y38.747
X-12.757Y38.598
X-13.232Y38.444
X-13.706Y38.284
X-14.178Y38.118
X-14.648Y37.946
X-15.115Y37.769
X-15.58Y37.586
X-16.043Y37.397
X-16.504Y37.202
X-16.962Y37.002
X-17.418Y36.796
X-17.871Y36.585
X-18.322Y36.368
X-18.77Y36.145
X-19.215Y35.917
X-19.657Y35.684
X-20.096Y35.445
X-20.533Y35.201
X-20.966Y34.951
X-21.396Y34.696
X-21.823Y34.436
X-22.247Y34.171
X-22.668Y33.9
X-23.085Y33.625
X-23.499Y33.344
X-23.909Y33.058
X-24.316Y32.767
X-24.719Y32.472
X-25.119Y32.171
X-25.515Y31.865
X-25.907Y31.555
X-26.295Y31.24
X-26.679Y30.92
X-27.06Y30.595
X-27.436Y30.266
X-27.809Y29.932
X-28.177Y29.594
X-28.541Y29.251
X-28.901Y28.904
X-29.256Y28.553
X-29.608Y28.197
X-29.955Y27.836
X-30.297Y27.472
X-30.635Y27.103
X-30.968Y26.731
X-31.297Y26.354
X-31.621Y25.973
X-31.941Y25.589
X-32.256Y25.2
X-32.566Y24.808
X-32.871Y24.412
X-33.172Y24.012
X-33.467Y23.608
X-33.757Y23.201
X-34.043Y22.791
X-34.324Y22.377
X-34.599Y21.959
X-34.869Y21.539
X-35.134Y21.115
X-35.394Y20.688
X-35.649Y20.257
X-35.899Y19.824
X-36.143Y19.387
X-36.382Y18.948
X-36.615Y18.506
X-36.843Y18.061
X-37.066Y17.613
X-37.283Y17.163
X-37.494Y16.71
X-37.7Y16.254
X-37.901Y15.796
X-38.096Y15.335
X-38.285Y14.872
X-38.469Y14.407
X-38.647Y13.94
X-38.819Y13.471
X-38.986Y12.999
X-39.147Y12.526
X-39.302Y12.05
X-39.451Y11.573
X-39.594Y11.094
X-39.732Y10.613
X-39.863Y10.131
X-39.989Y9.647
X-40.109Y9.161
X-40.223Y8.674
X-40.331Y8.186
X-40.434Y7.696
X-40.53Y7.206
X-40.62Y6.714
X-40.704Y6.221
X-40.783Y5.727
X-40.855Y5.232
X-40.921Y4.737
X-40.981Y4.24
X-41.036Y3.743
X-41.084Y3.245
X-41.126Y2.747
X-41.162Y2.248
X-41.192Y1.749
X-41.216Y1.25
X-41.234Y0.75
X-41.246Y0.25
X-41.252Y-0.249
X-41.251Y-0.749
X-41.245Y-1.249
X-41.233Y-1.749
X-41.214Y-2.249
X-41.19Y-2.748
X-41.159Y-3.247
X-41.123Y-3.746
X-41.08Y-4.244
X-41.031Y-4.742
X-40.977Y-5.239
X-40.916Y-5.735
X-40.849Y-6.231
X-40.777Y-6.726
X-40.698Y-7.22
X-40.613Y-7.713
X-40.523Y-8.204
X-40.426Y-8.695
X-40.324Y-9.184
X-40.215Y-9.673
X-40.101Y-10.159
X-39.981Y-10.645
X-39.855Y-11.129
X-39.723Y-11.611
X-39.585Y-12.092
X-39.442Y-12.571
X-39.293Y-13.048
X-39.138Y-13.524
X-38.977Y-13.997
X-38.81Y-14.469
X-38.638Y-14.938
X-38.461Y-15.406
X-38.277Y-15.871
X-38.088Y-16.334
X-37.894Y-16.795
X-37.694Y-17.253
X-37.488Y-17.709
X-37.277Y-18.162
X-37.06Y-18.613
X-36.838Y-19.061
X-36.611Y-19.506
X-36.378Y-19.949
X-36.14Y-20.389
X-35.897Y-20.825
X-35.648Y-21.259
X-35.394Y-21.69
X-35.136Y-22.118
X-34.871Y-22.543
X-34.602Y-22.964
X-34.328Y-23.382
X-34.049Y-23.797
X-33.765Y-24.209
X-33.475Y-24.617
X-33.181Y-25.021
X-32.882Y-25.422
X-32.579Y-25.819
X-32.27Y-26.213
X-31.957Y-26.603
X-31.639Y-26.989
X-31.317Y-27.371
X-30.99Y-27.749
X-30.658Y-28.124
X-30.322Y-28.494
X-29.982Y-28.86
X-29.637Y-29.222
X-29.288Y-29.58
X-28.934Y-29.934
X-28.577Y-30.284
X-28.215Y-30.629
X-27.849Y-30.97
X-27.479Y-31.306
X-27.105Y-31.638
X-26.727Y-31.965
X-26.345Y-32.288
X-25.959Y-32.607
X-25.57Y-32.92
X-25.177Y-33.229
X-24.78Y-33.533
X-24.379Y-33.833
X-23.975Y-34.127
X-23.568Y-34.417
X-23.156Y-34.702
X-22.742Y-34.981
X-22.324Y-35.256
X-21.903Y-35.526
X-21.479Y-35.791
X-21.052Y-36.05
X-20.621Y-36.305
X-20.188Y-36.554
X-19.751Y-36.798
X-19.312Y-37.037
X-18.87Y-37.271
X-18.425Y-37.499
X-17.977Y-37.722
X-17.527Y-37.94
X-17.074Y-38.152
X-16.619Y-38.359
X-16.161Y-38.56
X-15.701Y-38.756
X-15.239Y-38.946
X-14.774Y-39.131
X-14.307Y-39.31
X-13.838Y-39.484
X-13.367Y-39.652
X-12.894Y-39.814
X-12.419Y-39.971
X-11.942Y-40.122
X-11.464Y-40.267
X-10.984Y-40.406
X-10.502Y-40.54
X-10.019Y-40.668
X-9.534Y-40.79
X-9.047Y-40.907
X-8.56Y-41.018
X-8.071Y-41.122
X-7.581Y-41.221
X-7.089Y-41.314
X-6.597Y-41.402
X-6.103Y-41.483
X-5.609Y-41.559
X-5.114Y-41.628
X-4.618Y-41.692
X-4.121Y-41.75
X-3.624Y-41.801
X-3.126Y-41.847
X-2.627Y-41.887
X-2.129Y-41.921
X-1.629Y-41.949
X-1.13Y-41.971
X-0.63Y-41.988
X-0.13Y-41.998
X0.369Y-42.002
X0.869Y-42
X1.369Y-41.993
X1.869Y-41.979
X2.369Y-41.96
X2.868Y-41.934
X3.367Y-41.903
X3.866Y-41.865
X4.364Y-41.822
X4.862Y-41.773
X5.359Y-41.718
X5.855Y-41.657
X6.351Y-41.59
X6.845Y-41.517
X7.339Y-41.438
X7.832Y-41.354
X8.324Y-41.263
X8.815Y-41.167
X9.304Y-41.065
X9.792Y-40.957
X10.279Y-40.843
X10.765Y-40.724
X11.249Y-40.599
X11.732Y-40.468
X12.213Y-40.331
X12.692Y-40.189
X13.17Y-40.041
X13.646Y-39.887
X14.12Y-39.728
X14.592Y-39.563
X15.062Y-39.392
X15.53Y-39.216
X15.996Y-39.035
X16.46Y-38.848
X16.921Y-38.655
X17.38Y-38.457
X17.837Y-38.253
X18.291Y-38.045
X18.743Y-37.83
X19.192Y-37.611
X19.639Y-37.386
X20.083Y-37.156
X20.524Y-36.92
X20.963Y-36.68
X21.398Y-36.434
X21.831Y-36.183
X22.26Y-35.927
X22.687Y-35.666
X23.11Y-35.4
X23.53Y-35.129
X23.947Y-34.853
X24.361Y-34.572
X24.771Y-34.286
X25.178Y-33.995
X25.582Y-33.7
X25.981Y-33.399
X26.378Y-33.094
X26.771Y-32.785
X27.16Y-32.471
X27.545Y-32.152
X27.926Y-31.829
X28.304Y-31.501
X28.678Y-31.169
X29.048Y-30.832
X29.413Y-30.491
X29.775Y-30.146
X30.133Y-29.796
X30.486Y-29.443
X30.836Y-29.085
X31.181Y-28.723
X31.521Y-28.357
X31.858Y-27.987
X32.19Y-27.613
X32.518Y-27.235
X32.841Y-26.854
X33.159Y-26.468
X33.473Y-26.079
X33.783Y-25.686
X34.088Y-25.29
X34.388Y-24.89
X34.683Y-24.486
X34.974Y-24.079
X35.259Y-23.669
X35.54Y-23.255
X35.816Y-22.838
X36.087Y-22.418
X36.354Y-21.995
X36.615Y-21.568
X36.871Y-21.139
X37.122Y-20.706
X37.368Y-20.271
X37.609Y-19.833
X37.844Y-19.392
X38.075Y-18.948
X38.3Y-18.501
X38.52Y-18.052
X38.734Y-17.601
X38.944Y-17.146
X39.148Y-16.69
X39.346Y-16.231
X39.539Y-15.77
X39.727Y-15.306
X39.909Y-14.84
X40.086Y-14.373
X40.258Y-13.903
X40.423Y-13.431
X40.583Y-12.957
X40.738Y-12.482
X40.887Y-12.005
X41.031Y-11.525
X41.168Y-11.045
X41.301Y-10.563
X41.427Y-10.079
X41.548Y-9.593
X41.663Y-9.107
X41.772Y-8.619
X41.876Y-8.13
X41.974Y-7.639
X42.066Y-7.148
X42.153Y-6.655
X42.233Y-6.162
X42.308Y-5.667
X42.377Y-5.172
X42.44Y-4.676
X42.498Y-4.179
X42.549Y-3.682
X42.595Y-3.184
X42.635Y-2.685
X42.669Y-2.187
X42.697Y-1.687
X42.72Y-1.188
X42.736Y-0.688
X42.747Y-0.188
X42.752Y0.311
X42.751Y0.811
X42.744Y1.311
X42.731Y1.811
X42.713Y2.311
X42.688Y2.81
X42.658Y3.309
X42.622Y3.808
X42.58Y4.306
X42.533Y4.804
X42.479Y5.301
X42.42Y5.798
X42.355Y6.294
X42.284Y6.789
X42.207Y7.283
X42.125Y7.776
X42.037Y8.268
X41.943Y8.76
X41.843Y9.25
X41.738Y9.738
X41.627Y10.226
X41.51Y10.712
X41.388Y11.197
X41.26Y11.68
X41.126Y12.162
X40.987Y12.643
X40.842Y13.121
X40.691Y13.598
X40.535Y14.073
X40.374Y14.547
X40.207Y15.018
X40.034Y15.487
X39.856Y15.955
X39.673Y16.42
X39.484Y16.883
X39.29Y17.344
X39.091Y17.802
X38.886Y18.258
X38.676Y18.712
X38.46Y19.163
X38.24Y19.612
X38.014Y20.058
X37.783Y20.502
X37.547Y20.943
X37.305Y21.381
X37.059Y21.816
X36.807Y22.248
X36.551Y22.677
X36.29Y23.104
X36.023Y23.527
X35.752Y23.947
X35.476Y24.364
X35.195Y24.778
X34.909Y25.188
X34.619Y25.595
X34.324Y25.999
X34.024Y26.399
X33.72Y26.796
X33.411Y27.189
X33.097Y27.578
X32.779Y27.964
X32.456Y28.346
X32.129Y28.725
X31.798Y29.099
X31.462Y29.47
X31.122Y29.837
X30.778Y30.199
X30.43Y30.558
X30.078Y30.913
X29.721Y31.264
X29.36Y31.61
X28.996Y31.952
X28.627Y32.29
X28.255Y32.624
X27.879Y32.953
X27.498Y33.278
X27.115Y33.599
X26.727Y33.915
X26.336Y34.227
X25.941Y34.534
X25.543Y34.836
X25.141Y35.134
X24.736Y35.427
X24.328Y35.715
X23.916Y35.999
X23.501Y36.278
X23.083Y36.552
X22.661Y36.821
X22.237Y37.086
X21.809Y37.345
X21.379Y37.599
X20.945Y37.849
X20.509Y38.093
X20.07Y38.333
X19.628Y38.567
X19.184Y38.796
X18.737Y39.02
X18.287Y39.239
X17.835Y39.453
X17.38Y39.661
X16.923Y39.864
X16.464Y40.062
X16.003Y40.254
X15.539Y40.442
X15.073Y40.623
X14.605Y40.8
X14.135Y40.971
X13.663Y41.136
X13.19Y41.297
X12.714Y41.451
X12.237Y41.6
X11.758Y41.744
X11.277Y41.882
X10.795Y42.015
X10.311Y42.142
X9.826Y42.263
X9.34Y42.379
X8.852Y42.489
X8.363Y42.594
X7.873Y42.692
X7.382Y42.786
X6.889Y42.873
X6.396Y42.955
X5.902Y43.031
X5.407Y43.102
X4.911Y43.167
X4.414Y43.226
X3.917Y43.279
X3.419Y43.327
X2.921Y43.369
X2.422Y43.405
X1.923Y43.436
X1.424Y43.461
X0.924Y43.479
X0.424Y43.493
X-0.075Y43.5
X-0.575Y43.502
X-1.075Y43.498
X-1.575Y43.488
X-2.075Y43.473
X-2.574Y43.452
X-3.074Y43.425
X-3.573Y43.392
X-4.071Y43.353
X-4.569Y43.309
X-5.067Y43.259
X-5.564Y43.204
X-6.06Y43.143
X-6.556Y43.076
X-7.05Y43.003
X-7.544Y42.925
X-8.037Y42.841
X-8.529Y42.751
X-9.02Y42.656
X-9.51Y42.555
X-9.998Y42.448
X-10.486Y42.336
X-10.972Y42.218
X-11.456Y42.095
X-11.94Y41.966
X-12.421Y41.832
X-12.901Y41.692
X-13.38Y41.547
X-13.857Y41.396
X-14.332Y41.24
X-14.805Y41.078
X-15.276Y40.911
X-15.746Y40.738
X-16.213Y40.561
X-16.678Y40.377
X-17.141Y40.189
X-17.602Y39.995
X-18.061Y39.796
X-18.518Y39.592
X-18.972Y39.382
X-19.423Y39.168
X-19.872Y38.948
X-20.319Y38.723
X-20.763Y38.493
X-21.204Y38.258
X-21.643Y38.018
X-22.079Y37.772
X-22.512Y37.522
X-22.942Y37.267
X-23.369Y37.007
X-23.793Y36.743
X-24.214Y36.473
X-24.632Y36.198
X-25.047Y35.919
X-25.459Y35.635
X-25.867Y35.347
X-26.272Y35.054
X-26.674Y34.756
X-27.072Y34.453
X-27.467Y34.146
X-27.858Y33.835
X-28.246Y33.519
X-28.63Y33.199
X-29.011Y32.874
X-29.387Y32.545
X-29.76Y32.212
X-30.129Y31.875
X-30.494Y31.533
X-30.856Y31.187
X-31.213Y30.838
X-31.566Y30.484
X-31.915Y30.126
X-32.261Y29.764
X-32.602Y29.398
X-32.938Y29.029
X-33.271Y28.655
X-33.599Y28.278
X-33.923Y27.897
X-34.243Y27.512
X-34.558Y27.124
X-34.869Y26.732
X-35.175Y26.337
X-35.477Y25.938
X-35.774Y25.536
X-36.067Y25.131
X-36.355Y24.722
X-36.638Y24.31
X-36.917Y23.895
X-37.191Y23.476
X-37.46Y23.055
X-37.724Y22.63
X-37.983Y22.203
X-38.238Y21.773
X-38.488Y21.339
X-38.732Y20.903
X-38.972Y20.464
X-39.207Y20.023
X-39.437Y19.579
X-39.661Y19.132
X-39.881Y18.683
X-40.095Y18.231
X-40.305Y17.777
X-40.509Y17.32
X-40.708Y16.862
X-40.902Y16.401
X-41.09Y15.937
X-41.273Y15.472
X-41.451Y15.005
X-41.624Y14.535
X-41.791Y14.064
X-41.953Y13.591
X-42.11Y13.116
X-42.261Y12.64
X-42.407Y12.161
X-42.547Y11.681
X-42.682Y11.2
X-42.811Y10.717
X-42.935Y10.232
X-43.054Y9.746
X-43.167Y9.259
X-43.274Y8.771
X-43.376Y8.281
X-43.472Y7.791
X-43.563Y7.299
X-43.648Y6.806
X-43.728Y6.312
X-43.802Y5.818
X-43.87Y5.322
X-43.933Y4.826
X-43.99Y4.33
X-44.042Y3.832
X-44.087Y3.334
X-44.128Y2.836
X-44.162Y2.337
X-44.191Y1.838
X-44.215Y1.338
X-44.232Y0.839
X-44.245Y0.339
X-44.251Y-0.16
X-44.252Y-0.66
X-44.247Y-1.161
X-44.236Y-1.66
X-44.22Y-2.16
X-44.198Y-2.66
X-44.171Y-3.159
X-44.138Y-3.658
X-44.099Y-4.157
X-44.054Y-4.655
X-44.004Y-5.152
X-43.949Y-5.649
X-43.888Y-6.146
X-43.821Y-6.641
X-43.748Y-7.136
X-43.67Y-7.63
X-43.587Y-8.123
X-43.498Y-8.615
X-43.403Y-9.106
X-43.303Y-9.596
X-43.197Y-10.085
X-43.086Y-10.572
X-42.969Y-11.058
X-42.847Y-11.543
X-42.72Y-12.027
X-42.587Y-12.509
X-42.448Y-12.989
X-42.304Y-13.468
X-42.155Y-13.946
X-42Y-14.421
X-41.84Y-14.895
X-41.675Y-15.367
X-41.505Y-15.837
X-41.329Y-16.305
X-41.148Y-16.771
X-40.961Y-17.235
X-40.77Y-17.697
X-40.573Y-18.157
X-40.371Y-18.614
X-40.164Y-19.069
X-39.952Y-19.522
X-39.734Y-19.973
X-39.512Y-20.421
X-39.285Y-20.866
X-39.053Y-21.309
X-38.815Y-21.749
X-38.573Y-22.186
X-38.326Y-22.621
X-38.074Y-23.053
X-37.817Y-23.482
X-37.556Y-23.908
X-37.289Y-24.331
X-37.018Y-24.752
X-36.742Y-25.169
X-36.462Y-25.583
X-36.177Y-25.994
X-35.887Y-26.401
X-35.593Y-26.805
X-35.294Y-27.206
X-34.991Y-27.604
X-34.683Y-27.998
X-34.371Y-28.389
X-34.054Y-28.776
X-33.733Y-29.16
X-33.408Y-29.54
X-33.079Y-29.916
X-32.746Y-30.289
X-32.408Y-30.657
X-32.066Y-31.022
X-31.72Y-31.384
X-31.37Y-31.741
X-31.016Y-32.094
X-30.659Y-32.443
X-30.297Y-32.789
X-29.931Y-33.13
X-29.562Y-33.467
X-29.189Y-33.8
X-28.812Y-34.129
X-28.432Y-34.453
X-28.048Y-34.774
X-27.66Y-35.089
X-27.269Y-35.401
X-26.874Y-35.708
X-26.476Y-36.011
X-26.075Y-36.309
X-25.67Y-36.603
X-25.262Y-36.892
X-24.851Y-37.177
X-24.437Y-37.457
X-24.019Y-37.732
X-23.599Y-38.003
X-23.176Y-38.269
X-22.749Y-38.53
X-22.32Y-38.786
X-21.888Y-39.038
X-21.453Y-39.285
X-21.015Y-39.527
X-20.575Y-39.764
X-20.132Y-39.996
X-19.686Y-40.223
X-19.238Y-40.445
X-18.788Y-40.662
X-18.335Y-40.874
X-17.88Y-41.081
X-17.422Y-41.283
X-16.963Y-41.48
X-16.501Y-41.671
X-16.037Y-41.858
X-15.571Y-42.039
X-15.103Y-42.215
X-14.633Y-42.386
X-14.161Y-42.552
X-13.687Y-42.712
X-13.212Y-42.867
X-12.735Y-43.017
X-12.256Y-43.161
X-11.775Y-43.3
X-11.294Y-43.434
X-10.81Y-43.562
X-10.326Y-43.685
X-9.839Y-43.802
X-9.352Y-43.914
X-8.864Y-44.021
X-8.374Y-44.122
X-7.883Y-44.218
X-7.391Y-44.308
X-6.898Y-44.393
X-6.405Y-44.472
X-5.91Y-44.546
X-5.415Y-44.614
X-4.919Y-44.677
X-4.422Y-44.734
X-3.925Y-44.786
X-3.427Y-44.832
X-2.928Y-44.873
X-2.429Y-44.908
X-1.93Y-44.937
X-1.431Y-44.961
X-0.931Y-44.98
X-0.431Y-44.993
X0.068Y-45
X0.568Y-45.002
X1.068Y-44.998
X1.568Y-44.989
X2.068Y-44.974
X2.567Y-44.953
X3.067Y-44.927
X3.566Y-44.896
X4.065Y-44.859
X4.563Y-44.816
X5.061Y-44.768
X5.558Y-44.714
X6.054Y-44.655
X6.55Y-44.59
X7.045Y-44.52
X7.539Y-44.445
X8.033Y-44.363
X8.525Y-44.277
X9.017Y-44.185
X9.507Y-44.087
X9.997Y-43.984
X10.485Y-43.876
X10.972Y-43.762
X11.457Y-43.643
X11.942Y-43.518
X12.425Y-43.389
X12.906Y-43.253
X13.386Y-43.113
X13.864Y-42.967
X14.341Y-42.816
X14.816Y-42.659
X15.289Y-42.498
X15.76Y-42.331
X16.23Y-42.159
X16.698Y-41.981
X17.163Y-41.799
X17.627Y-41.611
X18.088Y-41.418
X18.547Y-41.221
X19.004Y-41.018
X19.459Y-40.81
X19.912Y-40.597
X20.362Y-40.379
X20.809Y-40.156
X21.254Y-39.928
X21.697Y-39.695
X22.137Y-39.458
X22.574Y-39.215
X23.009Y-38.968
X23.441Y-38.716
X23.87Y-38.459
X24.296Y-38.198
X24.719Y-37.931
X25.14Y-37.66
X25.557Y-37.385
X25.971Y-37.105
X26.382Y-36.82
X26.79Y-36.531
X27.195Y-36.237
X27.596Y-35.939
X27.994Y-35.636
X28.389Y-35.329
X28.781Y-35.018
X29.169Y-34.703
X29.553Y-34.383
X29.934Y-34.059
X30.311Y-33.731
X30.685Y-33.398
X31.055Y-33.062
X31.421Y-32.721
X31.783Y-32.377
X32.142Y-32.028
X32.497Y-31.676
X32.847Y-31.319
X33.194Y-30.959
X33.537Y-30.595
X33.876Y-30.227
X34.211Y-29.856
X34.541Y-29.481
X34.868Y-29.102
X35.19Y-28.72
X35.508Y-28.334
X35.822Y-27.945
X36.132Y-27.552
X36.437Y-27.156
X36.738Y-26.757
X37.034Y-26.354
X37.326Y-25.948
X37.614Y-25.539
X37.897Y-25.126
X38.175Y-24.711
X38.449Y-24.293
X38.718Y-23.871
X38.983Y-23.447
X39.243Y-23.02
X39.498Y-22.59
X39.748Y-22.157
X39.994Y-21.721
X40.235Y-21.283
X40.471Y-20.842
X40.702Y-20.399
X40.928Y-19.953
X41.15Y-19.504
X41.366Y-19.054
X41.577Y-18.6
X41.784Y-18.145
X41.985Y-17.687
X42.182Y-17.227
X42.373Y-16.766
X42.559Y-16.301
X42.741Y-15.835
X42.917Y-15.367
X43.088Y-14.897
X43.253Y-14.426
X43.414Y-13.952
X43.569Y-13.477
X43.72Y-13
X43.864Y-12.521
X44.004Y-12.041
X44.138Y-11.559
X44.268Y-11.076
X44.391Y-10.592
X44.51Y-10.106
X44.623Y-9.619
X44.731Y-9.131
X44.833Y-8.641
X44.93Y-8.151
X45.022Y-7.659
X45.108Y-7.166
X45.189Y-6.673
X45.265Y-6.179
X45.335Y-5.684
X45.4Y-5.188
X45.459Y-4.691
X45.513Y-4.194
X45.561Y-3.696
X45.604Y-3.198
X45.641Y-2.699
X45.673Y-2.2
X45.7Y-1.701
X45.721Y-1.202
X45.737Y-0.702
X45.747Y-0.202
X45.752Y0.297
X45.751Y0.797
X45.745Y1.297
X45.733Y1.797
X45.716Y2.297
X45.693Y2.797
X45.665Y3.296
X45.632Y3.795
X45.593Y4.293
X45.548Y4.791
X45.498Y5.289
X45.443Y5.786
X45.382Y6.282
X45.316Y6.778
X45.245Y7.273
X45.168Y7.767
X45.085Y8.26
X44.998Y8.752
X44.905Y9.244
X44.806Y9.734
X44.703Y10.223
X44.594Y10.711
X44.479Y11.198
X44.359Y11.684
X44.234Y12.168
X44.104Y12.651
X43.969Y13.132
X43.828Y13.612
X43.682Y14.09
X43.531Y14.567
X43.375Y15.042
X43.213Y15.515
X43.046Y15.986
X42.875Y16.456
X42.698Y16.924
X42.516Y17.39
X42.329Y17.853
X42.137Y18.315
X41.94Y18.775
X41.738Y19.232
X41.531Y19.687
X41.319Y20.14
X41.102Y20.591
X40.88Y21.039
X40.653Y21.485
X40.422Y21.928
X40.186Y22.369
X39.945Y22.807
X39.699Y23.242
X39.448Y23.675
X39.193Y24.105
X38.933Y24.532
X38.669Y24.957
X38.4Y25.378
X38.126Y25.797
X37.848Y26.212
X37.565Y26.625
X37.278Y27.034
X36.987Y27.44
X36.691Y27.843
X36.39Y28.243
X36.086Y28.64
X35.777Y29.033
X35.463Y29.423
X35.146Y29.809
X34.825Y30.192
X34.499Y30.572
X34.169Y30.947
X33.835Y31.32
X33.497Y31.688
X33.155Y32.053
X32.81Y32.415
X32.46Y32.772
X32.106Y33.126
X31.749Y33.475
X31.388Y33.821
X31.023Y34.163
X30.655Y34.501
X30.282Y34.835
X29.907Y35.165
X29.527Y35.491
X29.144Y35.813
X28.758Y36.13
X28.368Y36.444
X27.975Y36.753
X27.579Y37.058
X27.179Y37.358
X26.776Y37.654
X26.37Y37.946
X25.961Y38.233
X25.549Y38.516
X25.133Y38.795
X24.715Y39.069
X24.294Y39.338
X23.87Y39.603
X23.443Y39.863
X23.013Y40.119
X22.58Y40.37
X22.145Y40.616
X21.707Y40.858
X21.267Y41.094
X20.824Y41.326
X20.378Y41.554
X19.931Y41.776
X19.48Y41.994
X19.028Y42.206
X18.573Y42.414
X18.116Y42.617
X17.657Y42.815
X17.195Y43.008
X16.732Y43.195
X16.266Y43.378
X15.799Y43.556
X15.33Y43.729
X14.859Y43.897
X14.386Y44.059
X13.911Y44.217
X13.435Y44.369
X12.957Y44.517
X12.478Y44.659
X11.997Y44.796
X11.514Y44.927
X11.031Y45.054
X10.546Y45.175
X10.059Y45.291
X9.572Y45.402
X9.083Y45.508
X8.593Y45.608
X8.102Y45.703
X7.61Y45.793
X7.117Y45.877
X6.623Y45.956
X6.129Y46.03
X5.633Y46.098
X5.137Y46.161
X4.641Y46.219
X4.143Y46.272
X3.646Y46.319
X3.147Y46.36
X2.648Y46.397
X2.149Y46.428
X1.65Y46.453
X1.15Y46.473
X0.651Y46.488
X0.151Y46.498
X-0.348Y46.502
X-0.849Y46.5
X-1.349Y46.494
X-1.848Y46.482
X-2.348Y46.464
X-2.848Y46.441
X-3.347Y46.413
X-3.846Y46.38
X-4.344Y46.341
X-4.843Y46.297
X-5.34Y46.247
X-5.837Y46.192
X-6.334Y46.132
X-6.829Y46.066
X-7.324Y45.995
X-7.818Y45.919
X-8.312Y45.837
X-8.804Y45.751
X-9.296Y45.659
X-9.786Y45.561
X-10.276Y45.459
X-10.764Y45.351
X-11.251Y45.238
X-11.737Y45.119
X-12.221Y44.996
X-12.705Y44.867
X-13.186Y44.733
X-13.667Y44.594
X-14.146Y44.45
X-14.623Y44.301
X-15.098Y44.146
X-15.572Y43.987
X-16.045Y43.822
X-16.515Y43.652
X-16.983Y43.478
X-17.45Y43.298
X-17.915Y43.113
X-18.378Y42.924
X-18.838Y42.729
X-19.297Y42.53
X-19.753Y42.325
X-20.207Y42.116
X-20.659Y41.902
X-21.109Y41.683
X-21.556Y41.459
X-22.001Y41.231
X-22.443Y40.997
X-22.883Y40.759
X-23.32Y40.517
X-23.755Y40.269
X-24.187Y40.017
X-24.616Y39.761
X-25.042Y39.5
X-25.466Y39.234
X-25.887Y38.964
X-26.304Y38.689
X-26.719Y38.41
X-27.131Y38.126
X-27.54Y37.838
X-27.946Y37.546
X-28.348Y37.25
X-28.748Y36.949
X-29.144Y36.644
X-29.537Y36.334
X-29.926Y36.021
X-30.312Y35.703
X-30.695Y35.381
X-31.075Y35.055
X-31.45Y34.725
X-31.823Y34.392
X-32.191Y34.054
X-32.556Y33.712
X-32.918Y33.366
X-33.275Y33.017
X-33.629Y32.664
X-33.979Y32.307
X-34.326Y31.946
X-34.668Y31.582
X-35.007Y31.214
X-35.341Y30.842
X-35.672Y30.467
X-35.999Y30.088
X-36.321Y29.706
X-36.64Y29.32
X-36.954Y28.932
X-37.264Y28.539
X-37.57Y28.144
X-37.872Y27.745
X-38.169Y27.343
X-38.462Y26.938
X-38.751Y26.53
X-39.036Y26.119
X-39.316Y25.704
X-39.591Y25.287
X-39.863Y24.867
X-40.129Y24.444
X-40.392Y24.018
X-40.649Y23.59
X-40.902Y23.158
X-41.151Y22.724
X-41.395Y22.288
X-41.634Y21.849
X-41.868Y21.407
X-42.098Y20.963
X-42.323Y20.516
X-42.543Y20.067
X-42.759Y19.616
X-42.97Y19.163
X-43.176Y18.707
X-43.377Y18.249
X-43.573Y17.789
X-43.764Y17.327
X-43.95Y16.863
X-44.132Y16.397
X-44.308Y15.929
X-44.48Y15.46
X-44.646Y14.988
X-44.807Y14.515
X-44.964Y14.04
X-45.115Y13.563
X-45.261Y13.085
X-45.403Y12.605
X-45.539Y12.124
X-45.67Y11.642
X-45.796Y11.158
X-45.916Y10.672
X-46.032Y10.186
X-46.142Y9.698
X-46.248Y9.209
X-46.348Y8.719
X-46.442Y8.228
X-46.532Y7.736
X-46.616Y7.243
X-46.696Y6.75
X-46.769Y6.255
X-46.838Y5.76
X-46.902Y5.264
X-46.96Y4.767
X-47.013Y4.27
X-47.06Y3.772
X-47.103Y3.274
X-47.14Y2.775
X-47.171Y2.276
X-47.198Y1.777
X-47.219Y1.277
X-47.235Y0.777
X-47.246Y0.278
X-47.251Y-0.221
Y-0.722
X-47.246Y-1.222
X-47.235Y-1.722
X-47.22Y-2.221
X-47.199Y-2.721
X-47.172Y-3.22
X-47.14Y-3.719
X-47.104Y-4.218
X-47.061Y-4.716
X-47.014Y-5.214
X-46.961Y-5.711
X-46.903Y-6.208
X-46.84Y-6.704
X-46.771Y-7.199
X-46.698Y-7.694
X-46.619Y-8.188
X-46.535Y-8.681
X-46.445Y-9.173
X-46.351Y-9.664
X-46.251Y-10.154
X-46.146Y-10.643
X-46.036Y-11.13
X-45.921Y-11.617
X-45.801Y-12.102
X-45.675Y-12.586
X-45.545Y-13.069
X-45.409Y-13.55
X-45.268Y-14.03
X-45.123Y-14.509
X-44.972Y-14.985
X-44.816Y-15.461
X-44.655Y-15.934
X-44.489Y-16.406
X-44.319Y-16.876
X-44.143Y-17.344
X-43.962Y-17.81
X-43.777Y-18.275
X-43.586Y-18.737
X-43.391Y-19.197
X-43.191Y-19.656
X-42.986Y-20.112
X-42.776Y-20.566
X-42.562Y-21.017
X-42.343Y-21.467
X-42.119Y-21.914
X-41.89Y-22.359
X-41.657Y-22.801
X-41.419Y-23.241
X-41.176Y-23.678
X-40.929Y-24.113
X-40.677Y-24.545
X-40.421Y-24.974
X-40.16Y-25.401
X-39.895Y-25.825
X-39.625Y-26.246
X-39.351Y-26.664
X-39.072Y-27.079
X-38.789Y-27.491
X-38.502Y-27.901
X-38.211Y-28.307
X-37.915Y-28.71
X-37.615Y-29.11
X-37.311Y-29.507
X-37.003Y-29.901
X-36.69Y-30.291
X-36.374Y-30.679
X-36.053Y-31.062
X-35.728Y-31.443
X-35.4Y-31.82
X-35.067Y-32.193
X-34.731Y-32.563
X-34.391Y-32.93
X-34.047Y-33.292
X-33.699Y-33.652
X-33.347Y-34.007
X-32.992Y-34.359
X-32.633Y-34.707
X-32.27Y-35.051
X-31.904Y-35.392
X-31.534Y-35.728
X-31.161Y-36.061
X-30.784Y-36.39
X-30.404Y-36.714
X-30.02Y-37.035
X-29.633Y-37.352
X-29.243Y-37.665
X-28.849Y-37.973
X-28.453Y-38.278
X-28.053Y-38.578
X-27.65Y-38.874
X-27.244Y-39.166
X-26.834Y-39.453
X-26.422Y-39.736
X-26.007Y-40.015
X-25.589Y-40.29
X-25.168Y-40.56
X-24.745Y-40.825
X-24.318Y-41.087
X-23.889Y-41.343
X-23.458Y-41.596
X-23.023Y-41.843
X-22.586Y-42.087
X-22.147Y-42.325
X-21.705Y-42.559
X-21.26Y-42.788
X-20.814Y-43.013
X-20.365Y-43.233
X-19.913Y-43.448
X-19.46Y-43.659
X-19.004Y-43.864
X-18.546Y-44.065
X-18.086Y-44.262
X-17.624Y-44.453
X-17.16Y-44.639
X-16.694Y-44.821
X-16.226Y-44.998
X-15.757Y-45.17
X-15.285Y-45.337
X-14.812Y-45.499
X-14.338Y-45.656
X-13.861Y-45.808
X-13.383Y-45.955
X-12.904Y-46.097
X-12.423Y-46.234
X-11.941Y-46.366
X-11.457Y-46.493
X-10.972Y-46.615
X-10.486Y-46.732
X-9.999Y-46.844
X-9.51Y-46.95
X-9.02Y-47.052
X-8.53Y-47.149
X-8.038Y-47.24
X-7.546Y-47.326
X-7.052Y-47.407
X-6.558Y-47.483
X-6.063Y-47.554
X-5.567Y-47.619
X-5.071Y-47.68
X-4.574Y-47.735
X-4.076Y-47.785
X-3.578Y-47.83
X-3.08Y-47.87
X-2.581Y-47.904
X-2.082Y-47.933
X-1.582Y-47.958
X-1.083Y-47.976
X-0.583Y-47.99
X-0.083Y-47.999
X0.416Y-48.002
X0.916Y-48
X1.416Y-47.993
X1.916Y-47.98
X2.416Y-47.963
X2.916Y-47.94
X3.415Y-47.912
X3.914Y-47.879
X4.412Y-47.84
X4.911Y-47.797
X5.408Y-47.748
X5.905Y-47.694
X6.402Y-47.635
X6.898Y-47.571
X7.393Y-47.501
X7.887Y-47.427
X8.381Y-47.347
X8.874Y-47.262
X9.366Y-47.172
X9.857Y-47.077
X10.347Y-46.977
X10.835Y-46.872
X11.323Y-46.761
X11.81Y-46.646
X12.295Y-46.526
X12.779Y-46.4
X13.262Y-46.27
X13.743Y-46.134
X14.223Y-45.994
X14.701Y-45.848
X15.178Y-45.698
X15.654Y-45.542
X16.127Y-45.382
X16.599Y-45.217
X17.07Y-45.047
X17.538Y-44.872
X18.005Y-44.692
X18.469Y-44.507
X18.932Y-44.318
X19.393Y-44.123
X19.851Y-43.924
X20.308Y-43.721
X20.763Y-43.512
X21.215Y-43.299
X21.665Y-43.081
X22.113Y-42.858
X22.558Y-42.631
X23.001Y-42.399
X23.442Y-42.163
X23.88Y-41.922
X24.316Y-41.677
X24.749Y-41.427
X25.179Y-41.172
X25.607Y-40.913
X26.032Y-40.65
X26.455Y-40.382
X26.874Y-40.11
X27.291Y-39.834
X27.705Y-39.553
X28.116Y-39.268
X28.524Y-38.979
X28.929Y-38.686
X29.33Y-38.388
X29.729Y-38.086
X30.125Y-37.781
X30.517Y-37.471
X30.907Y-37.157
X31.292Y-36.839
X31.675Y-36.517
X32.054Y-36.191
X32.43Y-35.861
X32.803Y-35.528
X33.172Y-35.19
X33.537Y-34.849
X33.899Y-34.504
X34.257Y-34.155
X34.612Y-33.802
X34.963Y-33.446
X35.311Y-33.087
X35.654Y-32.723
X35.994Y-32.357
X36.33Y-31.986
X36.662Y-31.613
X36.991Y-31.235
X37.315Y-30.855
X37.635Y-30.471
X37.952Y-30.084
X38.264Y-29.693
X38.573Y-29.3
X38.877Y-28.903
X39.177Y-28.503
X39.473Y-28.1
X39.765Y-27.694
X40.053Y-27.285
X40.337Y-26.873
X40.616Y-26.458
X40.891Y-26.041
X41.161Y-25.62
X41.427Y-25.197
X41.689Y-24.771
X41.947Y-24.342
X42.2Y-23.911
X42.448Y-23.477
X42.692Y-23.041
X42.932Y-22.602
X43.167Y-22.16
X43.397Y-21.716
X43.623Y-21.27
X43.845Y-20.822
X44.061Y-20.371
X44.273Y-19.918
X44.48Y-19.463
X44.683Y-19.006
X44.881Y-18.547
X45.074Y-18.086
X45.262Y-17.622
X45.446Y-17.157
X45.625Y-16.69
X45.799Y-16.221
X45.968Y-15.751
X46.132Y-15.279
X46.292Y-14.805
X46.446Y-14.329
X46.596Y-13.852
X46.741Y-13.373
X46.88Y-12.893
X47.015Y-12.412
X47.145Y-11.929
X47.27Y-11.445
X47.39Y-10.959
X47.505Y-10.473
X47.615Y-9.985
X47.72Y-9.496
X47.82Y-9.006
X47.915Y-8.515
X48.004Y-8.023
X48.089Y-7.53
X48.169Y-7.036
X48.243Y-6.542
X48.313Y-6.047
X48.377Y-5.551
X48.437Y-5.054
X48.491Y-4.557
X48.54Y-4.06
X48.584Y-3.562
X48.623Y-3.063
X48.657Y-2.564
X48.685Y-2.065
X48.709Y-1.565
X48.727Y-1.066
X48.741Y-0.566
X48.749Y-0.066
X48.752Y0.433
X48.75Y0.933
X48.742Y1.433
X48.73Y1.933
X48.713Y2.433
X48.69Y2.932
X48.662Y3.432
X48.629Y3.931
X48.591Y4.429
X48.548Y4.927
X48.5Y5.425
X48.447Y5.922
X48.388Y6.419
X48.325Y6.915
X48.256Y7.41
X48.183Y7.905
X48.104Y8.399
X48.02Y8.892
X47.932Y9.384
X47.838Y9.875
X47.739Y10.365
X47.635Y10.854
X47.526Y11.342
X47.413Y11.829
X47.294Y12.315
X47.17Y12.799
X47.041Y13.283
X46.908Y13.765
X46.769Y14.245
X46.626Y14.724
X46.477Y15.202
X46.324Y15.678
X46.166Y16.152
X46.003Y16.625
X45.835Y17.096
X45.663Y17.565
X45.485Y18.033
X45.303Y18.498
X45.116Y18.962
X44.925Y19.424
X44.728Y19.884
X44.527Y20.342
X44.322Y20.798
X44.111Y21.251
X43.897Y21.703
X43.677Y22.152
X43.453Y22.599
X43.224Y23.044
X42.991Y23.486
X42.753Y23.926
X42.511Y24.363
X42.265Y24.798
X42.013Y25.231
X41.758Y25.661
X41.498Y26.088
X41.234Y26.513
X40.966Y26.934
X40.693Y27.354
X40.416Y27.77
X40.134Y28.183
X39.849Y28.594
X39.559Y29.001
X39.266Y29.406
X38.968Y29.808
X38.666Y30.206
X38.36Y30.602
X38.05Y30.994
X37.736Y31.383
X37.418Y31.769
X37.096Y32.152
X36.77Y32.531
X36.44Y32.907
X36.107Y33.28
X35.77Y33.649
X35.429Y34.015
X35.084Y34.377
X34.736Y34.736
X34.384Y35.091
X34.028Y35.443
X33.669Y35.791
X33.307Y36.135
X32.941Y36.476
X32.571Y36.813
X32.198Y37.146
X31.822Y37.475
X31.442Y37.801
X31.059Y38.122
X30.673Y38.44
X30.284Y38.753
X29.891Y39.063
X29.495Y39.369
X29.096Y39.671
X28.695Y39.968
X28.29Y40.262
X27.882Y40.551
X27.471Y40.836
X27.058Y41.117
X26.641Y41.394
X26.222Y41.667
X25.8Y41.935
X25.375Y42.199
X24.948Y42.459
X24.518Y42.714
X24.085Y42.965
X23.65Y43.211
X23.213Y43.453
X22.773Y43.691
X22.331Y43.924
X21.886Y44.153
X21.439Y44.377
X20.99Y44.597
X20.538Y44.812
X20.085Y45.022
X19.629Y45.228
X19.171Y45.429
X18.711Y45.626
X18.249Y45.818
X17.786Y46.005
X17.32Y46.187
X16.853Y46.365
X16.384Y46.538
X15.913Y46.706
X15.44Y46.87
X14.966Y47.028
X14.49Y47.182
X14.013Y47.331
X13.534Y47.475
X13.054Y47.615
X12.572Y47.749
X12.089Y47.879
X11.605Y48.003
X11.119Y48.123
X10.633Y48.238
X10.145Y48.348
X9.656Y48.453
X9.166Y48.553
X8.675Y48.648
X8.183Y48.738
X7.69Y48.823
X7.197Y48.903
X6.702Y48.978
X6.207Y49.048
X5.712Y49.113
X5.215Y49.173
X4.718Y49.228
X4.221Y49.278
X3.723Y49.323
X3.224Y49.363
X2.725Y49.398
X2.226Y49.428
X1.727Y49.453
X1.227Y49.472
X0.727Y49.487
X0.227Y49.497
X-0.272Y49.501
X-0.772
X-1.272Y49.495
X-1.772Y49.485
X-2.272Y49.469
X-2.771Y49.449
X-3.271Y49.423
X-3.77Y49.392
X-4.268Y49.356
X-4.767Y49.316
X-5.265Y49.27
X-5.762Y49.219
X-6.259Y49.163
X-6.755Y49.102
X-7.251Y49.036
X-7.746Y48.965
X-8.24Y48.889
X-8.734Y48.809
X-9.226Y48.723
X-9.718Y48.632
X-10.209Y48.536
X-10.699Y48.436
X-11.188Y48.33
X-11.675Y48.219
X-12.162Y48.104
X-12.647Y47.984
X-13.131Y47.858
X-13.614Y47.728
X-14.096Y47.593
X-14.576Y47.454
X-15.054Y47.309
X-15.531Y47.159
X-16.007Y47.005
X-16.481Y46.846
X-16.954Y46.682
X-17.424Y46.514
X-17.894Y46.341
X-18.361Y46.163
X-18.826Y45.98
X-19.29Y45.793
X-19.752Y45.601
X-20.211Y45.404
X-20.669Y45.203
X-21.125Y44.997
X-21.578Y44.786
X-22.03Y44.571
X-22.479Y44.352
X-22.926Y44.128
X-23.371Y43.899
X-23.814Y43.666
X-24.254Y43.429
X-24.691Y43.187
X-25.127Y42.941
X-25.559Y42.69
X-25.989Y42.435
X-26.417Y42.176
X-26.842Y41.913
X-27.264Y41.645
X-27.684Y41.373
X-28.101Y41.097
X-28.515Y40.816
X-28.926Y40.532
X-29.334Y40.243
X-29.74Y39.951
X-30.142Y39.654
X-30.542Y39.353
X-30.938Y39.048
X-31.332Y38.74
X-31.722Y38.427
X-32.109Y38.11
X-32.493Y37.79
X-32.873Y37.466
X-33.251Y37.138
X-33.625Y36.806
X-33.996Y36.47
X-34.363Y36.131
X-34.727Y35.788
X-35.087Y35.441
X-35.444Y35.091
X-35.798Y34.737
X-36.148Y34.38
X-36.494Y34.019
X-36.836Y33.655
X-37.175Y33.287
X-37.511Y32.916
X-37.842Y32.542
X-38.17Y32.164
X-38.494Y31.784
X-38.814Y31.399
X-39.13Y31.012
X-39.443Y30.622
X-39.751Y30.228
X-40.056Y29.831
X-40.356Y29.432
X-40.653Y29.029
X-40.945Y28.623
X-41.233Y28.215
X-41.518Y27.804
X-41.798Y27.389
X-42.074Y26.972
X-42.346Y26.553
X-42.613Y26.13
X-42.876Y25.705
X-43.136Y25.277
X-43.39Y24.847
X-43.641Y24.414
X-43.887Y23.979
X-44.129Y23.541
X-44.366Y23.101
X-44.599Y22.659
X-44.827Y22.214
X-45.052Y21.767
X-45.271Y21.318
X-45.486Y20.866
X-45.697Y20.413
X-45.903Y19.957
X-46.104Y19.499
X-46.301Y19.04
X-46.493Y18.578
X-46.681Y18.115
X-46.864Y17.649
X-47.042Y17.182
X-47.216Y16.713
X-47.385Y16.243
X-47.549Y15.77
X-47.709Y15.296
X-47.864Y14.821
X-48.014Y14.344
X-48.159Y13.866
X-48.3Y13.386
X-48.435Y12.904
X-48.566Y12.422
X-48.693Y11.938
X-48.814Y11.453
X-48.93Y10.966
X-49.042Y10.479
X-49.148Y9.99
X-49.25Y9.501
X-49.347Y9.01
X-49.439Y8.519
X-49.526Y8.026
X-49.609Y7.533
X-49.686Y7.039
X-49.758Y6.544
X-49.826Y6.049
X-49.888Y5.553
X-49.946Y5.056
X-49.999Y4.559
X-50.046Y4.061
X-50.089Y3.563
X-50.127Y3.064
X-50.159Y2.565
X-50.187Y2.066
X-50.21Y1.566
X-50.228Y1.067
X-50.241Y0.567
X-50.249Y0.067
X-50.252Y-0.432
X-50.25Y-0.932
X-50.243Y-1.432
X-50.231Y-1.932
X-50.214Y-2.432
X-50.192Y-2.931
X-50.165Y-3.431
X-50.133Y-3.93
X-50.096Y-4.428
X-50.054Y-4.927
X-50.008Y-5.425
X-49.956Y-5.922
X-49.899Y-6.419
X-49.838Y-6.915
X-49.771Y-7.411
X-49.7Y-7.906
X-49.624Y-8.4
X-49.542Y-8.893
X-49.456Y-9.386
X-49.365Y-9.877
X-49.269Y-10.368
X-49.169Y-10.858
X-49.063Y-11.347
X-48.952Y-11.834
X-48.837Y-12.321
X-48.717Y-12.806
X-48.592Y-13.291
X-48.462Y-13.773
X-48.328Y-14.255
X-48.188Y-14.735
X-48.044Y-15.214
X-47.896Y-15.692
X-47.742Y-16.167
X-47.584Y-16.642
X-47.421Y-17.115
X-47.253Y-17.586
X-47.081Y-18.055
X-46.904Y-18.523
X-46.722Y-18.989
X-46.536Y-19.453
X-46.345Y-19.915
X-46.15Y-20.375
X-45.95Y-20.834
X-45.746Y-21.29
X-45.537Y-21.744
X-45.323Y-22.196
X-45.105Y-22.647
X-44.883Y-23.094
X-44.656Y-23.54
X-44.425Y-23.983
X-44.19Y-24.425
X-43.95Y-24.863
X-43.705Y-25.3
X-43.457Y-25.733
X-43.204Y-26.165
X-42.947Y-26.594
X-42.686Y-27.02
X-42.42Y-27.444
X-42.15Y-27.865
X-41.876Y-28.283
X-41.598Y-28.699
X-41.316Y-29.112
X-41.03Y-29.522
X-40.74Y-29.929
X-40.446Y-30.333
X-40.147Y-30.735
X-39.845Y-31.133
X-39.539Y-31.529
X-39.229Y-31.921
X-38.915Y-32.31
X-38.598Y-32.696
X-38.276Y-33.079
X-37.951Y-33.459
X-37.622Y-33.836
X-37.289Y-34.209
X-36.953Y-34.579
X-36.613Y-34.946
X-36.269Y-35.309
X-35.922Y-35.669
X-35.571Y-36.025
X-35.217Y-36.378
X-34.859Y-36.728
X-34.498Y-37.073
X-34.134Y-37.416
X-33.766Y-37.754
X-33.394Y-38.089
X-33.02Y-38.421
X-32.642Y-38.748
X-32.261Y-39.072
X-31.877Y-39.392
X-31.49Y-39.709
X-31.099Y-40.021
X-30.706Y-40.33
X-30.309Y-40.634
X-29.91Y-40.935
X-29.507Y-41.232
X-29.102Y-41.525
X-28.694Y-41.814
X-28.283Y-42.098
X-27.869Y-42.379
X-27.453Y-42.656
X-27.033Y-42.928
X-26.611Y-43.197
X-26.187Y-43.461
X-25.76Y-43.721
X-25.33Y-43.976
X-24.898Y-44.228
X-24.463Y-44.475
X-24.026Y-44.718
X-23.587Y-44.957
X-23.145Y-45.191
X-22.701Y-45.421
X-22.255Y-45.647
X-21.806Y-45.868
X-21.355Y-46.084
X-20.903Y-46.297
X-20.448Y-46.505
X-19.991Y-46.708
X-19.532Y-46.907
X-19.071Y-47.101
X-18.609Y-47.291
X-18.144Y-47.476
X-17.678Y-47.657
X-17.21Y-47.833
X-16.74Y-48.004
X-16.269Y-48.171
X-15.796Y-48.333
X-15.321Y-48.49
X-14.845Y-48.643
X-14.367Y-48.791
X-13.888Y-48.935
X-13.408Y-49.073
X-12.926Y-49.207
X-12.443Y-49.336
X-11.959Y-49.461
X-11.473Y-49.581
X-10.987Y-49.695
X-10.499Y-49.806
X-10.01Y-49.911
X-9.52Y-50.011
X-9.029Y-50.107
X-8.538Y-50.198
X-8.045Y-50.284
X-7.552Y-50.365
X-7.058Y-50.442
X-6.563Y-50.513
X-6.067Y-50.58
X-5.571Y-50.642
X-5.074Y-50.698
X-4.577Y-50.751
X-4.079Y-50.798
X-3.581Y-50.84
X-3.082Y-50.877
X-2.583Y-50.91
X-2.084Y-50.937
X-1.584Y-50.96
X-1.085Y-50.978
X-0.585Y-50.991
X-0.085Y-50.999
X0.414Y-51.002
X0.914Y-51
X1.414Y-50.993
X1.914Y-50.981
X2.414Y-50.965
X2.914Y-50.943
X3.413Y-50.917
X3.912Y-50.886
X4.411Y-50.85
X4.909Y-50.809
X5.407Y-50.763
X5.905Y-50.712
X6.402Y-50.657
X6.898Y-50.596
X7.394Y-50.531
X7.889Y-50.461
X8.383Y-50.385
X8.877Y-50.306
X9.37Y-50.221
X9.862Y-50.131
X10.353Y-50.037
X10.843Y-49.938
X11.332Y-49.834
X11.82Y-49.725
X12.307Y-49.612
X12.793Y-49.494
X13.277Y-49.371
X13.761Y-49.243
X14.243Y-49.11
X14.724Y-48.973
X15.203Y-48.831
X15.682Y-48.685
X16.158Y-48.534
X16.633Y-48.378
X17.107Y-48.217
X17.579Y-48.052
X18.049Y-47.883
X18.518Y-47.708
X18.985Y-47.529
X19.45Y-47.346
X19.913Y-47.158
X20.375Y-46.966
X20.835Y-46.769
X21.292Y-46.567
X21.748Y-46.361
X22.202Y-46.151
X22.653Y-45.936
X23.103Y-45.717
X23.55Y-45.493
X23.995Y-45.265
X24.438Y-45.033
X24.878Y-44.797
X25.317Y-44.556
X25.752Y-44.311
X26.186Y-44.061
X26.617Y-43.808
X27.045Y-43.55
X27.471Y-43.288
X27.895Y-43.022
X28.315Y-42.752
X28.734Y-42.478
X29.149Y-42.199
X29.562Y-41.917
X29.972Y-41.631
X30.379Y-41.34
X30.783Y-41.046
X31.184Y-40.748
X31.583Y-40.445
X31.978Y-40.139
X32.371Y-39.83
X32.76Y-39.516
X33.147Y-39.199
X33.53Y-38.877
X33.91Y-38.552
X34.287Y-38.224
X34.661Y-37.892
X35.031Y-37.556
X35.398Y-37.216
X35.762Y-36.873
X36.122Y-36.527
X36.48Y-36.177
X36.833Y-35.823
X37.183Y-35.466
X37.53Y-35.106
X37.873Y-34.742
X38.213Y-34.375
X38.549Y-34.005
X38.882Y-33.632
X39.21Y-33.255
X39.535Y-32.875
X39.857Y-32.492
X40.175Y-32.106
X40.488Y-31.716
X40.799Y-31.324
X41.105Y-30.929
X41.407Y-30.531
X41.706Y-30.129
X42Y-29.725
X42.291Y-29.319
X42.578Y-28.909
X42.86Y-28.496
X43.139Y-28.081
X43.414Y-27.663
X43.684Y-27.243
X43.951Y-26.82
X44.213Y-26.394
X44.471Y-25.966
X44.725Y-25.535
X44.975Y-25.102
X45.221Y-24.666
X45.462Y-24.229
X45.699Y-23.788
X45.932Y-23.346
X46.161Y-22.901
X46.385Y-22.454
X46.605Y-22.005
X46.82Y-21.554
X47.031Y-21.1
X47.238Y-20.645
X47.44Y-20.188
X47.638Y-19.729
X47.832Y-19.267
X48.021Y-18.804
X48.205Y-18.34
X48.385Y-17.873
X48.56Y-17.405
X48.731Y-16.935
X48.897Y-16.463
X49.059Y-15.99
X49.216Y-15.515
X49.368Y-15.039
X49.516Y-14.561
X49.659Y-14.082
X49.798Y-13.602
X49.932Y-13.12
X50.061Y-12.637
X50.185Y-12.153
X50.305Y-11.667
X50.42Y-11.18
X50.531Y-10.693
X50.636Y-10.204
X50.737Y-9.714
X50.834Y-9.224
X50.925Y-8.732
X51.012Y-8.24
X51.094Y-7.746
X51.171Y-7.252
X51.243Y-6.757
X51.311Y-6.262
X51.373Y-5.766
X51.431Y-5.269
X51.485Y-4.772
X51.533Y-4.274
X51.576Y-3.776
X51.615Y-3.278
X51.649Y-2.779
X51.678Y-2.279
X51.702Y-1.78
X51.722Y-1.28
X51.736Y-0.781
X51.746Y-0.281
X51.751Y0.218
Y0.718
X51.746Y1.218
X51.737Y1.718
X51.722Y2.218
X51.703Y2.718
X51.679Y3.217
X51.65Y3.717
X51.616Y4.216
X51.578Y4.714
X51.535Y5.212
X51.486Y5.71
X51.434Y6.207
X51.376Y6.704
X51.313Y7.2
X51.246Y7.695
X51.174Y8.19
X51.097Y8.684
X51.015Y9.178
X50.929Y9.67
X50.838Y10.162
X50.742Y10.653
X50.641Y11.143
X50.536Y11.631
X50.426Y12.119
X50.311Y12.606
X50.192Y13.091
X50.068Y13.576
X49.939Y14.059
X49.806Y14.541
X49.668Y15.022
X49.525Y15.501
X49.378Y15.979
X49.226Y16.455
X49.069Y16.93
X48.908Y17.403
X48.743Y17.875
X48.573Y18.345
X48.398Y18.814
X48.219Y19.281
X48.035Y19.746
X47.847Y20.209
X47.655Y20.671
X47.458Y21.13
X47.256Y21.588
X47.051Y22.044
X46.84Y22.498
X46.626Y22.949
X46.407Y23.399
X46.184Y23.846
X45.956Y24.292
X45.725Y24.735
X45.489Y25.176
X45.248Y25.614
X45.004Y26.05
X44.755Y26.484
X44.503Y26.916
X44.246Y27.345
X43.985Y27.771
X43.72Y28.195
X43.45Y28.617
X43.177Y29.035
X42.9Y29.452
X42.619Y29.865
X42.334Y30.276
X42.044Y30.684
X41.751Y31.089
X41.455Y31.491
X41.154Y31.891
X40.849Y32.287
X40.541Y32.681
X40.229Y33.072
X39.913Y33.459
X39.593Y33.844
X39.27Y34.225
X38.943Y34.604
X38.613Y34.979
X38.279Y35.351
X37.941Y35.72
X37.6Y36.086
X37.255Y36.448
X36.907Y36.807
X36.555Y37.162
X36.201Y37.515
X35.842Y37.863
X35.481Y38.209
X35.116Y38.551
X34.747Y38.889
X34.376Y39.224
X34.001Y39.555
X33.624Y39.883
X33.243Y40.207
X32.859Y40.527
X32.472Y40.843
X32.082Y41.156
X31.689Y41.465
X31.293Y41.771
X30.894Y42.072
X30.492Y42.37
X30.087Y42.664
X29.68Y42.954
X29.27Y43.24
X28.857Y43.522
X28.441Y43.8
X28.023Y44.074
X27.602Y44.344
X27.179Y44.611
X26.753Y44.873
X26.325Y45.131
X25.894Y45.384
X25.461Y45.634
X25.025Y45.88
X24.587Y46.121
X24.147Y46.358
X23.705Y46.591
X23.26Y46.82
X22.813Y47.044
X22.364Y47.264
X21.913Y47.48
X21.46Y47.692
X21.005Y47.899
X20.548Y48.102
X20.089Y48.3
X19.628Y48.494
X19.165Y48.684
X18.701Y48.869
X18.234Y49.05
X17.767Y49.226
X17.297Y49.398
X16.826Y49.565
X16.353Y49.728
X15.879Y49.886
X15.403Y50.04
X14.925Y50.189
X14.447Y50.334
X13.967Y50.474
X13.485Y50.609
X13.003Y50.74
X12.519Y50.866
X12.034Y50.988
X11.548Y51.105
X11.061Y51.217
X10.572Y51.325
X10.083Y51.428
X9.593Y51.526
X9.101Y51.62
X8.609Y51.709
X8.116Y51.793
X7.623Y51.873
X7.128Y51.947
X6.633Y52.018
X6.138Y52.083
X5.641Y52.144
X5.144Y52.2
X4.647Y52.251
X4.149Y52.297
X3.651Y52.339
X3.152Y52.376
X2.653Y52.408
X2.154Y52.436
X1.654Y52.458
X1.155Y52.476
X0.655Y52.489
X0.155Y52.498
X-0.344Y52.501
X-0.844Y52.5
X-1.344Y52.494
X-1.844Y52.484
X-2.344Y52.468
X-2.844Y52.448
X-3.343Y52.423
X-3.842Y52.394
X-4.341Y52.359
X-4.84Y52.32
X-5.338Y52.276
X-5.835Y52.228
X-6.333Y52.174
X-6.829Y52.116
X-7.325Y52.053
X-7.821Y51.986
X-8.316Y51.913
X-8.81Y51.836
X-9.303Y51.755
X-9.796Y51.668
X-10.287Y51.577
X-10.778Y51.482
X-11.268Y51.381
X-11.757Y51.276
X-12.245Y51.167
X-12.731Y51.052
X-13.217Y50.934
X-13.702Y50.81
X-14.185Y50.682
X-14.667Y50.549
X-15.148Y50.412
X-15.628Y50.27
X-16.106Y50.124
X-16.582Y49.973
X-17.058Y49.817
X-17.531Y49.657
X-18.004Y49.493
X-18.474Y49.324
X-18.943Y49.151
X-19.411Y48.973
X-19.876Y48.791
X-20.34Y48.604
X-20.802Y48.413
X-21.263Y48.218
X-21.721Y48.018
X-22.177Y47.814
X-22.632Y47.605
X-23.085Y47.392
X-23.535Y47.175
X-23.983Y46.954
X-24.43Y46.729
X-24.874Y46.499
X-25.316Y46.265
X-25.755Y46.027
X-26.193Y45.784
X-26.628Y45.538
X-27.061Y45.287
X-27.491Y45.033
X-27.919Y44.774
X-28.344Y44.511
X-28.767Y44.245
X-29.188Y43.974
X-29.606Y43.699
X-30.021Y43.42
X-30.433Y43.138
X-30.843Y42.851
X-31.25Y42.561
X-31.655Y42.267
X-32.056Y41.969
X-32.455Y41.667
X-32.851Y41.361
X-33.243Y41.052
X-33.633Y40.739
X-34.02Y40.422
X-34.404Y40.102
X-34.785Y39.778
X-35.163Y39.451
X-35.538Y39.119
X-35.909Y38.785
X-36.278Y38.447
X-36.643Y38.105
X-37.005Y37.76
X-37.363Y37.412
X-37.719Y37.06
X-38.071Y36.705
X-38.419Y36.346
X-38.765Y35.984
X-39.106Y35.619
X-39.445Y35.251
X-39.779Y34.88
X-40.111Y34.505
X-40.438Y34.127
X-40.763Y33.747
X-41.083Y33.363
X-41.4Y32.976
X-41.713Y32.586
X-42.023Y32.194
X-42.329Y31.798
X-42.631Y31.399
X-42.929Y30.998
X-43.223Y30.594
X-43.514Y30.187
X-43.801Y29.777
X-44.084Y29.365
X-44.363Y28.95
X-44.638Y28.533
X-44.909Y28.112
X-45.176Y27.69
X-45.439Y27.264
X-45.698Y26.837
X-45.953Y26.407
X-46.204Y25.974
X-46.451Y25.539
X-46.694Y25.102
X-46.933Y24.663
X-47.167Y24.221
X-47.398Y23.777
X-47.624Y23.331
X-47.846Y22.883
X-48.063Y22.433
X-48.277Y21.981
X-48.486Y21.527
X-48.691Y21.071
X-48.891Y20.612
X-49.088Y20.153
X-49.279Y19.691
X-49.467Y19.227
X-49.65Y18.762
X-49.829Y18.295
X-50.003Y17.826
X-50.173Y17.356
X-50.339Y16.884
X-50.5Y16.411
X-50.656Y15.936
X-50.808Y15.46
X-50.956Y14.982
X-51.099Y14.503
X-51.238Y14.022
X-51.372Y13.54
X-51.501Y13.058
X-51.626Y12.573
X-51.747Y12.088
X-51.862Y11.602
X-51.974Y11.114
X-52.08Y10.626
X-52.182Y10.136
X-52.28Y9.646
X-52.373Y9.154
X-52.461Y8.662
X-52.544Y8.169
X-52.623Y7.675
X-52.698Y7.181
X-52.767Y6.686
X-52.832Y6.19
X-52.893Y5.693
X-52.948Y5.196
X-52.999Y4.699
X-53.046Y4.201
X-53.087Y3.703
X-53.124Y3.204
X-53.156Y2.705
X-53.184Y2.206
X-53.207Y1.706
X-53.225Y1.207
X-53.238Y0.707
X-53.247Y0.207
X-53.251Y-0.292
Y-0.792
X-53.245Y-1.292
X-53.235Y-1.792
X-53.221Y-2.292
X-53.201Y-2.792
X-53.177Y-3.291
X-53.148Y-3.79
X-53.115Y-4.289
X-53.077Y-4.788
X-53.034Y-5.286
X-52.987Y-5.784
X-52.934Y-6.281
X-52.878Y-6.778
X-52.816Y-7.274
X-52.75Y-7.77
X-52.679Y-8.265
X-52.604Y-8.759
X-52.524Y-9.253
X-52.439Y-9.746
X-52.35Y-10.238
X-52.256Y-10.729
X-52.158Y-11.219
X-52.054Y-11.708
X-51.947Y-12.197
X-51.835Y-12.684
X-51.718Y-13.17
X-51.596Y-13.655
X-51.471Y-14.139
X-51.34Y-14.622
X-51.205Y-15.103
X-51.066Y-15.584
X-50.922Y-16.062
X-50.774Y-16.54
X-50.621Y-17.016
X-50.463Y-17.491
X-50.302Y-17.964
X-50.135Y-18.435
X-49.965Y-18.906
X-49.79Y-19.374
X-49.611Y-19.841
X-49.427Y-20.306
X-49.239Y-20.769
X-49.046Y-21.231
X-48.85Y-21.69
X-48.649Y-22.148
X-48.444Y-22.604
X-48.234Y-23.058
X-48.02Y-23.51
X-47.802Y-23.96
X-47.58Y-24.408
X-47.354Y-24.854
X-47.123Y-25.298
X-46.889Y-25.74
X-46.65Y-26.179
X-46.407Y-26.616
X-46.16Y-27.051
X-45.909Y-27.483
X-45.654Y-27.913
X-45.395Y-28.341
X-45.132Y-28.766
X-44.865Y-29.189
X-44.594Y-29.609
X-44.319Y-30.027
X-44.041Y-30.442
X-43.758Y-30.855
X-43.472Y-31.265
X-43.181Y-31.672
X-42.887Y-32.076
X-42.59Y-32.478
X-42.288Y-32.877
X-41.983Y-33.273
X-41.674Y-33.666
X-41.361Y-34.057
X-41.045Y-34.444
X-40.725Y-34.828
X-40.402Y-35.21
X-40.075Y-35.588
X-39.745Y-35.963
X-39.411Y-36.336
X-39.073Y-36.705
X-38.732Y-37.071
X-38.388Y-37.433
X-38.041Y-37.793
X-37.69Y-38.149
X-37.335Y-38.502
X-36.978Y-38.852
X-36.617Y-39.198
X-36.253Y-39.541
X-35.886Y-39.88
X-35.516Y-40.216
X-35.142Y-40.549
X-34.766Y-40.878
X-34.386Y-41.204
X-34.004Y-41.526
X-33.618Y-41.844
X-33.23Y-42.159
X-32.839Y-42.47
X-32.444Y-42.778
X-32.047Y-43.081
X-31.647Y-43.382
X-31.244Y-43.678
X-30.839Y-43.971
X-30.431Y-44.259
X-30.02Y-44.545
X-29.607Y-44.826
X-29.19Y-45.103
X-28.772Y-45.377
X-28.351Y-45.646
X-27.927Y-45.912
X-27.501Y-46.173
X-27.072Y-46.431
X-26.641Y-46.685
X-26.208Y-46.934
X-25.773Y-47.18
X-25.335Y-47.422
X-24.895Y-47.659
X-24.453Y-47.893
X-24.008Y-48.122
X-23.562Y-48.347
X-23.113Y-48.568
X-22.663Y-48.785
X-22.21Y-48.997
X-21.755Y-49.206
X-21.299Y-49.41
X-20.841Y-49.61
X-20.38Y-49.805
X-19.918Y-49.997
X-19.455Y-50.184
X-18.989Y-50.366
X-18.522Y-50.545
X-18.053Y-50.719
X-17.583Y-50.888
X-17.111Y-51.054
X-16.637Y-51.215
X-16.163Y-51.371
X-15.686Y-51.523
X-15.208Y-51.671
X-14.729Y-51.814
X-14.249Y-51.953
X-13.767Y-52.087
X-13.284Y-52.217
X-12.8Y-52.342
X-12.315Y-52.463
X-11.829Y-52.579
X-11.341Y-52.691
X-10.853Y-52.799
X-10.364Y-52.901
X-9.873Y-53
X-9.382Y-53.093
X-8.89Y-53.182
X-8.397Y-53.267
X-7.904Y-53.347
X-7.409Y-53.422
X-6.914Y-53.493
X-6.419Y-53.559
X-5.923Y-53.621
X-5.426Y-53.678
X-4.928Y-53.73
X-4.431Y-53.778
X-3.933Y-53.821
X-3.434Y-53.86
X-2.935Y-53.894
X-2.436Y-53.923
X-1.936Y-53.948
X-1.437Y-53.968
X-0.937Y-53.983
X-0.437Y-53.994
X0.062Y-54
X0.562Y-54.001
X1.062Y-53.998
X1.562Y-53.991
X2.062Y-53.978
X2.562Y-53.961
X3.061Y-53.94
X3.56Y-53.913
X4.06Y-53.883
X4.558Y-53.847
X5.057Y-53.807
X5.555Y-53.762
X6.052Y-53.713
X6.55Y-53.659
X7.046Y-53.601
X7.542Y-53.538
X8.038Y-53.47
X8.532Y-53.398
X9.026Y-53.321
X9.52Y-53.239
X10.012Y-53.153
X10.504Y-53.063
X10.995Y-52.968
X11.485Y-52.868
X11.974Y-52.764
X12.462Y-52.656
X12.949Y-52.542
X13.435Y-52.425
X13.92Y-52.303
X14.404Y-52.176
X14.887Y-52.045
X15.368Y-51.91
X15.848Y-51.77
X16.327Y-51.625
X16.804Y-51.477
X17.28Y-51.323
X17.755Y-51.166
X18.228Y-51.004
X18.699Y-50.838
X19.169Y-50.667
X19.638Y-50.492
X20.105Y-50.313
X20.57Y-50.129
X21.033Y-49.941
X21.495Y-49.749
X21.955Y-49.553
X22.413Y-49.352
X22.869Y-49.147
X23.323Y-48.938
X23.775Y-48.725
X24.226Y-48.507
X24.674Y-48.286
X25.12Y-48.06
X25.564Y-47.83
X26.006Y-47.597
X26.446Y-47.359
X26.884Y-47.117
X27.319Y-46.871
X27.752Y-46.621
X28.183Y-46.367
X28.611Y-46.109
X29.037Y-45.847
X29.461Y-45.581
X29.882Y-45.311
X30.3Y-45.038
X30.716Y-44.761
X31.13Y-44.479
X31.541Y-44.194
X31.949Y-43.906
X32.355Y-43.613
X32.757Y-43.317
X33.158Y-43.017
X33.555Y-42.713
X33.949Y-42.406
X34.341Y-42.095
X34.73Y-41.781
X35.116Y-41.463
X35.499Y-41.141
X35.879Y-40.816
X36.255Y-40.487
X36.629Y-40.155
X37Y-39.82
X37.368Y-39.481
X37.733Y-39.139
X38.094Y-38.793
X38.452Y-38.445
X38.807Y-38.092
X39.159Y-37.737
X39.508Y-37.378
X39.853Y-37.017
X40.195Y-36.652
X40.533Y-36.284
X40.868Y-35.912
X41.2Y-35.538
X41.528Y-35.161
X41.853Y-34.781
X42.174Y-34.397
X42.491Y-34.011
X42.806Y-33.622
X43.116Y-33.23
X43.423Y-32.836
X43.726Y-32.438
X44.026Y-32.038
X44.322Y-31.635
X44.614Y-31.229
X44.902Y-30.82
X45.187Y-30.409
X45.468Y-29.996
X45.745Y-29.579
X46.018Y-29.161
X46.288Y-28.739
X46.553Y-28.316
X46.815Y-27.889
X47.073Y-27.461
X47.326Y-27.03
X47.576Y-26.597
X47.822Y-26.161
X48.064Y-25.724
X48.302Y-25.284
X48.535Y-24.842
X48.765Y-24.398
X48.991Y-23.951
X49.212Y-23.503
X49.43Y-23.053
X49.643Y-22.601
X49.852Y-22.146
X50.057Y-21.69
X50.257Y-21.232
X50.454Y-20.772
X50.646Y-20.311
X50.834Y-19.847
X51.018Y-19.382
X51.198Y-18.916
X51.373Y-18.447
X51.544Y-17.978
X51.711Y-17.506
X51.873Y-17.033
X52.031Y-16.559
X52.184Y-16.083
X52.334Y-15.606
X52.479Y-15.127
X52.619Y-14.647
X52.755Y-14.166
X52.887Y-13.684
X53.014Y-13.2
X53.137Y-12.715
X53.255Y-12.229
X53.369Y-11.743
X53.479Y-11.255
X53.584Y-10.766
X53.684Y-10.276
X53.78Y-9.785
X53.872Y-9.294
X53.959Y-8.801
X54.042Y-8.308
X54.12Y-7.814
X54.193Y-7.32
X54.262Y-6.824
X54.327Y-6.328
X54.387Y-5.832
X54.442Y-5.335
X54.493Y-4.838
X54.539Y-4.34
X54.581Y-3.841
X54.618Y-3.343
X54.651Y-2.844
X54.679Y-2.345
X54.702Y-1.845
X54.721Y-1.345
X54.736Y-0.846
X54.745Y-0.346
X54.751Y0.153
Y0.653
X54.747Y1.153
X54.739Y1.653
X54.726Y2.153
X54.708Y2.653
X54.686Y3.153
X54.659Y3.652
X54.628Y4.151
X54.592Y4.65
X54.552Y5.148
X54.507Y5.646
X54.458Y6.144
X54.404Y6.641
X54.345Y7.137
X54.282Y7.633
X54.214Y8.129
X54.142Y8.624
X54.066Y9.118
X53.985Y9.611
X53.899Y10.104
X53.809Y10.596
X53.714Y11.087
X53.615Y11.577
X53.512Y12.066
X53.404Y12.554
X53.291Y13.042
X53.174Y13.528
X53.053Y14.013
X52.928Y14.497
X52.797Y14.98
X52.663Y15.461
X52.524Y15.942
X52.381Y16.421
X52.233Y16.899
X52.081Y17.375
X51.925Y17.85
X51.764Y18.323
X51.599Y18.795
X51.43Y19.266
X51.257Y19.735
X51.079Y20.202
X50.897Y20.668
X50.711Y21.132
X50.52Y21.595
X50.326Y22.055
X50.127Y22.514
X49.924Y22.971
X49.717Y23.426
X49.506Y23.879
X49.29Y24.331
X49.071Y24.78
X48.847Y25.227
X48.62Y25.672
X48.388Y26.116
X48.152Y26.557
X47.913Y26.995
X47.669Y27.432
X47.421Y27.866
X47.17Y28.299
X46.914Y28.728
X46.655Y29.156
X46.392Y29.581
X46.125Y30.004
X45.854Y30.424
X45.579Y30.842
X45.3Y31.257
X45.018Y31.67
X44.732Y32.08
X44.442Y32.488
X44.149Y32.893
X43.852Y33.295
X43.551Y33.694
X43.247Y34.091
X42.939Y34.485
X42.627Y34.876
X42.312Y35.264
X41.994Y35.65
X41.672Y36.032
X41.346Y36.412
X41.017Y36.789
X40.685Y37.162
X40.349Y37.533
X40.01Y37.9
X39.668Y38.265
X39.322Y38.626
X38.973Y38.984
X38.621Y39.339
X38.266Y39.691
X37.907Y40.04
X37.545Y40.385
X37.181Y40.727
X36.813Y41.066
X36.442Y41.401
X36.068Y41.733
X35.691Y42.061
X35.311Y42.386
X34.928Y42.708
X34.542Y43.026
X34.154Y43.341
X33.762Y43.652
X33.368Y43.959
X32.971Y44.263
X32.571Y44.564
X32.169Y44.861
X31.763Y45.154
X31.356Y45.443
X30.945Y45.729
X30.532Y46.011
X30.117Y46.289
X29.699Y46.563
X29.278Y46.834
X28.855Y47.101
X28.43Y47.364
X28.002Y47.623
X27.572Y47.878
X27.14Y48.129
X26.706Y48.377
X26.269Y48.62
X25.83Y48.86
X25.389Y49.095
X24.946Y49.327
X24.5Y49.554
X24.053Y49.778
X23.604Y49.997
X23.152Y50.212
X22.699Y50.424
X22.244Y50.631
X21.787Y50.834
X21.328Y51.033
X20.868Y51.227
X20.405Y51.418
X19.941Y51.604
X19.476Y51.786
X19.008Y51.964
X18.539Y52.138
X18.069Y52.308
X17.597Y52.473
X17.124Y52.634
X16.649Y52.79
X16.173Y52.943
X15.695Y53.091
X15.216Y53.234
X14.736Y53.374
X14.254Y53.509
X13.772Y53.64
X13.288Y53.766
X12.803Y53.888
X12.317Y54.006
X11.83Y54.119
X11.342Y54.228
X10.853Y54.332
X10.363Y54.432
X9.872Y54.527
X9.38Y54.618
X8.888Y54.705
X8.395Y54.787
X7.901Y54.865
X7.406Y54.938
X6.911Y55.007
X6.415Y55.072
X5.918Y55.132
X5.421Y55.187
X4.924Y55.238
X4.426Y55.284
X3.928Y55.326
X3.429Y55.364
X2.93Y55.397
X2.431Y55.425
X1.932Y55.449
X1.432Y55.469
X0.932Y55.484
X0.432Y55.494
X-0.067Y55.5
X-0.567Y55.501
X-1.067Y55.498
X-1.567Y55.491
X-2.067Y55.479
X-2.566Y55.462
X-3.066Y55.441
X-3.565Y55.416
X-4.065Y55.385
X-4.563Y55.351
X-5.062Y55.312
X-5.56Y55.268
X-6.058Y55.22
X-6.555Y55.168
X-7.052Y55.111
X-7.548Y55.049
X-8.044Y54.983
X-8.539Y54.913
X-9.033Y54.838
X-9.527Y54.759
X-10.02Y54.675
X-10.512Y54.587
X-11.004Y54.495
X-11.494Y54.398
X-11.984Y54.296
X-12.472Y54.191
X-12.96Y54.08
X-13.447Y53.966
X-13.933Y53.847
X-14.417Y53.724
X-14.901Y53.596
X-15.383Y53.464
X-15.864Y53.328
X-16.344Y53.187
X-16.823Y53.042
X-17.3Y52.893
X-17.776Y52.739
X-18.25Y52.582
X-18.723Y52.42
X-19.195Y52.253
X-19.665Y52.083
X-20.133Y51.908
X-20.6Y51.729
X-21.066Y51.546
X-21.529Y51.359
X-21.991Y51.167
X-22.451Y50.972
X-22.91Y50.772
X-23.366Y50.568
X-23.821Y50.36
X-24.274Y50.149
X-24.725Y49.932
X-25.174Y49.712
X-25.621Y49.488
X-26.066Y49.26
X-26.509Y49.028
X-26.95Y48.792
X-27.389Y48.552
X-27.825Y48.308
X-28.259Y48.06
X-28.691Y47.809
X-29.121Y47.553
X-29.549Y47.294
X-29.974Y47.031
X-30.397Y46.764
X-30.817Y46.493
X-31.235Y46.218
X-31.65Y45.94
X-32.063Y45.658
X-32.474Y45.372
X-32.881Y45.083
X-33.287Y44.79
X-33.689Y44.493
X-34.089Y44.193
X-34.486Y43.889
