(Created with grbl post processor 2024/12/13 12:46)
G21
(G-code Generated with Fabex and NC library)
G17G90
(Tool: D = 3.0 mm  type END flutes 2)
S12000M03
G00 Z10.0

G0X0Y0Z10
X0.25
G1Z-5F500
X0.262Y0.27F1000
X0.11Y0.448
X-0.101Y0.52
X-0.318Y0.497
X-0.508Y0.396
X-0.651Y0.239
X-0.738Y0.047
X-0.766Y-0.16
X-0.737Y-0.366
X-0.656Y-0.558
X-0.532Y-0.724
X-0.374Y-0.856
X-0.19Y-0.949
X0.008Y-1.001
X0.213Y-1.01
X0.416Y-0.979
X0.608Y-0.909
X0.783Y-0.804
X0.937Y-0.668
X1.063Y-0.508
X1.16Y-0.329
X1.224Y-0.136
X1.256Y0.064
X1.255Y0.268
X1.221Y0.468
X1.157Y0.661
X1.063Y0.841
X0.944Y1.005
X0.802Y1.15
X0.641Y1.273
X0.464Y1.371
X0.275Y1.444
X0.077Y1.489
X-0.123Y1.507
X-0.325Y1.499
X-0.525Y1.463
X-0.717Y1.402
X-0.9Y1.316
X-1.071Y1.208
X-1.227Y1.08
X-1.366Y0.933
X-1.485Y0.77
X-1.585Y0.594
X-1.662Y0.408
X-1.717Y0.213
X-1.748Y0.014
X-1.756Y-0.186
X-1.742Y-0.388
X-1.704Y-0.586
X-1.645Y-0.779
X-1.564Y-0.963
X-1.464Y-1.138
X-1.345Y-1.301
X-1.21Y-1.45
X-1.059Y-1.584
X-0.895Y-1.701
X-0.72Y-1.8
X-0.535Y-1.881
X-0.343Y-1.941
X-0.146Y-1.982
X0.053Y-2.003
X0.255
X0.455Y-1.984
X0.652Y-1.944
X0.845Y-1.886
X1.031Y-1.809
X1.208Y-1.714
X1.376Y-1.602
X1.532Y-1.476
X1.676Y-1.335
X1.805Y-1.181
X1.92Y-1.015
X2.019Y-0.84
X2.101Y-0.657
X2.166Y-0.466
X2.213Y-0.271
X2.243Y-0.072
X2.255Y0.128
X2.249Y0.329
X2.225Y0.528
X2.183Y0.725
X2.125Y0.917
X2.05Y1.104
X1.959Y1.283
X1.853Y1.454
X1.733Y1.615
X1.6Y1.765
X1.454Y1.904
X1.297Y2.03
X1.131Y2.142
X0.955Y2.24
X0.772Y2.323
X0.583Y2.391
X0.389Y2.443
X0.192Y2.48
X-0.007Y2.5
X-0.208Y2.504
X-0.408Y2.492
X-0.607Y2.464
X-0.803Y2.421
X-0.995Y2.362
X-1.182Y2.288
X-1.362Y2.2
X-1.535Y2.098
X-1.7Y1.983
X-1.855Y1.856
X-2.001Y1.717
X-2.135Y1.568
X-2.257Y1.409
X-2.367Y1.241
X-2.464Y1.065
X-2.548Y0.882
X-2.618Y0.694
X-2.673Y0.501
X-2.715Y0.305
X-2.741Y0.106
X-2.753Y-0.093
X-2.751Y-0.294
X-2.734Y-0.494
X-2.702Y-0.692
X-2.656Y-0.888
X-2.597Y-1.079
X-2.524Y-1.266
X-2.437Y-1.447
X-2.338Y-1.622
X-2.227Y-1.789
X-2.105Y-1.948
X-1.972Y-2.098
X-1.828Y-2.239
X-1.676Y-2.369
X-1.514Y-2.488
X-1.345Y-2.595
X-1.169Y-2.691
X-0.986Y-2.775
X-0.799Y-2.846
X-0.607Y-2.904
X-0.411Y-2.949
X-0.213Y-2.98
X-0.013Y-2.999
X0.186Y-3.004
X0.387Y-2.995
X0.586Y-2.973
X0.784Y-2.938
X0.978Y-2.89
X1.17Y-2.83
X1.356Y-2.756
X1.538Y-2.671
X1.714Y-2.575
X1.883Y-2.467
X2.044Y-2.348
X2.198Y-2.219
X2.343Y-2.081
X2.479Y-1.933
X2.605Y-1.777
X2.722Y-1.614
X2.827Y-1.443
X2.922Y-1.267
X3.005Y-1.084
X3.076Y-0.897
X3.136Y-0.705
X3.183Y-0.51
X3.219Y-0.313
X3.242Y-0.114
X3.253Y0.085
X3.251Y0.286
X3.237Y0.486
X3.211Y0.685
X3.172Y0.881
X3.122Y1.075
X3.06Y1.266
X2.987Y1.453
X2.902Y1.635
X2.807Y1.811
X2.701Y1.981
X2.586Y2.145
X2.46Y2.302
X2.326Y2.45
X2.183Y2.591
X2.032Y2.723
X1.873Y2.845
X1.708Y2.958
X1.536Y3.062
X1.358Y3.155
X1.176Y3.237
X0.988Y3.309
X0.797Y3.369
X0.603Y3.419
X0.406Y3.457
X0.208Y3.484
X0.008Y3.499
X-0.191Y3.503
X-0.392Y3.495
X-0.591Y3.476
X-0.789Y3.446
X-0.986Y3.404
X-1.179Y3.352
X-1.369Y3.289
X-1.555Y3.215
X-1.737Y3.13
X-1.914Y3.036
X-2.085Y2.932
X-2.25Y2.818
X-2.409Y2.696
X-2.561Y2.565
X-2.705Y2.425
X-2.841Y2.278
X-2.969Y2.124
X-3.088Y1.963
X-3.198Y1.796
X-3.299Y1.623
X-3.391Y1.444
X-3.472Y1.261
X-3.543Y1.074
X-3.605Y0.883
X-3.655Y0.689
X-3.696Y0.493
X-3.725Y0.295
X-3.744Y0.095
X-3.752Y-0.104
X-3.75Y-0.304
X-3.737Y-0.504
X-3.713Y-0.703
X-3.679Y-0.901
X-3.634Y-1.096
X-3.579Y-1.289
X-3.514Y-1.478
X-3.44Y-1.664
X-3.355Y-1.846
X-3.261Y-2.023
X-3.158Y-2.195
X-3.046Y-2.361
X-2.926Y-2.521
X-2.798Y-2.675
X-2.661Y-2.822
X-2.518Y-2.962
X-2.367Y-3.094
X-2.21Y-3.218
X-2.046Y-3.334
X-1.877Y-3.441
X-1.703Y-3.54
X-1.524Y-3.629
X-1.34Y-3.71
X-1.153Y-3.78
X-0.962Y-3.842
X-0.768Y-3.893
X-0.572Y-3.935
X-0.375Y-3.967
X-0.175Y-3.989
X0.024Y-4
X0.224Y-4.002
X0.424Y-3.994
X0.624Y-3.976
X0.822Y-3.947
X1.019Y-3.909
X1.213Y-3.862
X1.405Y-3.805
X1.594Y-3.738
X1.779Y-3.662
X1.961Y-3.577
X2.138Y-3.483
X2.31Y-3.381
X2.477Y-3.27
X2.638Y-3.152
X2.794Y-3.025
X2.943Y-2.891
X3.085Y-2.751
X3.221Y-2.603
X3.349Y-2.449
X3.469Y-2.289
X3.582Y-2.123
X3.687Y-1.953
X3.783Y-1.777
X3.871Y-1.597
X3.95Y-1.413
X4.02Y-1.225
X4.081Y-1.034
X4.133Y-0.841
X4.175Y-0.645
X4.209Y-0.448
X4.233Y-0.249
X4.247Y-0.049
X4.252Y0.15
X4.248Y0.35
X4.234Y0.55
X4.211Y0.749
X4.179Y0.947
X4.137Y1.143
X4.087Y1.337
X4.027Y1.528
X3.959Y1.716
X3.881Y1.901
X3.796Y2.082
X3.702Y2.259
X3.6Y2.431
X3.49Y2.599
X3.373Y2.761
X3.248Y2.918
X3.116Y3.068
X2.977Y3.213
X2.832Y3.351
X2.681Y3.482
X2.524Y3.607
X2.361Y3.724
X2.194Y3.833
X2.021Y3.935
X1.844Y4.029
X1.663Y4.115
X1.479Y4.192
X1.291Y4.261
X1.1Y4.322
X0.907Y4.374
X0.711Y4.417
X0.514Y4.452
X0.315Y4.477
X0.116Y4.494
X-0.084Y4.502
X-0.284Y4.501
X-0.484Y4.491
X-0.683Y4.472
X-0.882Y4.444
X-1.079Y4.408
X-1.274Y4.362
X-1.467Y4.309
X-1.657Y4.247
X-1.844Y4.176
X-2.029Y4.098
X-2.209Y4.011
X-2.386Y3.917
X-2.558Y3.815
X-2.726Y3.706
X-2.889Y3.589
X-3.046Y3.465
X-3.198Y3.335
X-3.345Y3.198
X-3.485Y3.055
X-3.619Y2.907
X-3.746Y2.752
X-3.867Y2.592
X-3.98Y2.427
X-4.087Y2.258
X-4.186Y2.084
X-4.277Y1.905
X-4.361Y1.724
X-4.437Y1.538
X-4.505Y1.35
X-4.565Y1.159
X-4.617Y0.965
X-4.66Y0.77
X-4.695Y0.573
X-4.722Y0.374
X-4.74Y0.175
X-4.75Y-0.024
X-4.752Y-0.224
X-4.745Y-0.424
X-4.729Y-0.624
X-4.706Y-0.823
X-4.674Y-1.02
X-4.633Y-1.217
X-4.585Y-1.411
X-4.528Y-1.603
X-4.464Y-1.793
X-4.391Y-1.979
X-4.311Y-2.163
X-4.224Y-2.343
X-4.129Y-2.519
X-4.026Y-2.691
X-3.917Y-2.859
X-3.801Y-3.022
X-3.678Y-3.18
X-3.549Y-3.333
X-3.414Y-3.481
X-3.273Y-3.623
X-3.126Y-3.759
X-2.973Y-3.889
X-2.816Y-4.012
X-2.653Y-4.129
X-2.486Y-4.24
X-2.315Y-4.343
X-2.139Y-4.439
X-1.96Y-4.528
X-1.777Y-4.61
X-1.591Y-4.684
X-1.402Y-4.751
X-1.211Y-4.81
X-1.018Y-4.861
X-0.822Y-4.905
X-0.625Y-4.94
X-0.427Y-4.968
X-0.227Y-4.987
X-0.028Y-4.999
X0.172Y-5.002
X0.372Y-4.997
X0.572Y-4.985
X0.771Y-4.964
X0.969Y-4.936
X1.166Y-4.9
X1.361Y-4.856
X1.555Y-4.804
X1.746Y-4.744
X1.934Y-4.678
X2.12Y-4.603
X2.303Y-4.522
X2.483Y-4.433
X2.658Y-4.337
X2.83Y-4.234
X2.998Y-4.125
X3.161Y-4.009
X3.32Y-3.887
X3.474Y-3.759
X3.622Y-3.625
X3.765Y-3.485
X3.903Y-3.339
X4.035Y-3.189
X4.161Y-3.033
X4.281Y-2.873
X4.394Y-2.708
X4.501Y-2.538
X4.601Y-2.365
X4.695Y-2.188
X4.782Y-2.008
X4.861Y-1.824
X4.934Y-1.637
X4.999Y-1.448
X5.057Y-1.256
X5.107Y-1.063
X5.15Y-0.867
X5.186Y-0.67
X5.214Y-0.472
X5.234Y-0.273
X5.247Y-0.073
X5.252Y0.126
X5.249Y0.326
X5.239Y0.526
X5.221Y0.726
X5.196Y0.924
X5.163Y1.122
X5.123Y1.318
X5.075Y1.512
X5.02Y1.705
X4.958Y1.895
X4.888Y2.083
X4.812Y2.268
X4.728Y2.45
X4.638Y2.629
X4.542Y2.804
X4.438Y2.975
X4.329Y3.143
X4.213Y3.306
X4.091Y3.465
X3.963Y3.619
X3.83Y3.768
X3.691Y3.913
X3.547Y4.052
X3.398Y4.185
X3.244Y4.313
X3.085Y4.435
X2.922Y4.551
X2.755Y4.661
X2.584Y4.765
X2.409Y4.862
X2.23Y4.953
X2.049Y5.037
X1.864Y5.115
X1.677Y5.185
X1.487Y5.249
X1.295Y5.306
X1.101Y5.355
X0.905Y5.398
X0.708Y5.433
X0.51Y5.461
X0.311Y5.482
X0.111Y5.495
X-0.088Y5.501
X-0.288Y5.5
X-0.488Y5.492
X-0.687Y5.476
X-0.886Y5.454
X-1.084Y5.423
X-1.281Y5.386
X-1.476Y5.342
X-1.67Y5.291
X-1.861Y5.233
X-2.051Y5.168
X-2.237Y5.096
X-2.421Y5.017
X-2.603Y4.932
X-2.781Y4.84
X-2.955Y4.743
X-3.126Y4.639
X-3.293Y4.528
X-3.457Y4.412
X-3.615Y4.291
X-3.77Y4.163
X-3.92Y4.03
X-4.065Y3.892
X-4.205Y3.749
X-4.339Y3.601
X-4.469Y3.449
X-4.593Y3.291
X-4.711Y3.13
X-4.823Y2.964
X-4.93Y2.795
X-5.031Y2.622
X-5.125Y2.445
X-5.213Y2.266
X-5.295Y2.083
X-5.37Y1.897
X-5.439Y1.709
X-5.501Y1.519
X-5.556Y1.327
X-5.604Y1.132
X-5.646Y0.937
X-5.681Y0.74
X-5.709Y0.541
X-5.73Y0.342
X-5.744Y0.143
X-5.751Y-0.056
Y-0.257
X-5.744Y-0.457
X-5.73Y-0.656
X-5.709Y-0.855
X-5.682Y-1.054
X-5.647Y-1.251
X-5.606Y-1.447
X-5.558Y-1.641
X-5.503Y-1.834
X-5.442Y-2.024
X-5.374Y-2.212
X-5.3Y-2.398
X-5.219Y-2.581
X-5.132Y-2.762
X-5.039Y-2.939
X-4.94Y-3.113
X-4.835Y-3.283
X-4.724Y-3.45
X-4.608Y-3.613
X-4.486Y-3.771
X-4.359Y-3.926
X-4.226Y-4.076
X-4.089Y-4.221
X-3.946Y-4.362
X-3.799Y-4.498
X-3.648Y-4.629
X-3.492Y-4.754
X-3.331Y-4.874
X-3.167Y-4.989
X-2.999Y-5.098
X-2.828Y-5.201
X-2.653Y-5.298
X-2.475Y-5.39
X-2.294Y-5.475
X-2.11Y-5.554
X-1.924Y-5.627
X-1.735Y-5.694
X-1.544Y-5.754
X-1.351Y-5.808
X-1.157Y-5.855
X-0.961Y-5.896
X-0.764Y-5.93
X-0.565Y-5.958
X-0.366Y-5.978
X-0.167Y-5.993
X0.032Y-6
X0.232Y-6.001
X0.432Y-5.995
X0.632Y-5.983
X0.831Y-5.964
X1.03Y-5.938
X1.227Y-5.906
X1.424Y-5.867
X1.619Y-5.822
X1.812Y-5.77
X2.004Y-5.712
X2.193Y-5.647
X2.38Y-5.577
X2.565Y-5.5
X2.747Y-5.417
X2.927Y-5.328
X3.103Y-5.234
X3.276Y-5.133
X3.446Y-5.027
X3.612Y-4.916
X3.775Y-4.799
X3.933Y-4.677
X4.088Y-4.549
X4.238Y-4.417
X4.383Y-4.28
X4.525Y-4.138
X4.661Y-3.991
X4.793Y-3.841
X4.919Y-3.686
X5.041Y-3.527
X5.157Y-3.364
X5.268Y-3.197
X5.374Y-3.027
X5.474Y-2.854
X5.568Y-2.677
X5.656Y-2.498
X5.739Y-2.315
X5.816Y-2.13
X5.886Y-1.943
X5.951Y-1.754
X6.009Y-1.562
X6.061Y-1.369
X6.107Y-1.174
X6.147Y-0.978
X6.18Y-0.781
X6.207Y-0.582
X6.228Y-0.383
X6.242Y-0.184
X6.25Y0.015
X6.251Y0.215
X6.246Y0.415
X6.235Y0.615
X6.217Y0.815
X6.193Y1.013
X6.162Y1.211
X6.126Y1.408
X6.083Y1.603
X6.033Y1.797
X5.978Y1.99
X5.917Y2.18
X5.849Y2.368
X5.776Y2.555
X5.697Y2.738
X5.612Y2.92
X5.521Y3.098
X5.425Y3.273
X5.323Y3.446
X5.216Y3.615
X5.103Y3.78
X4.985Y3.942
X4.863Y4.1
X4.735Y4.255
X4.603Y4.405
X4.466Y4.551
X4.324Y4.692
X4.178Y4.829
X4.028Y4.961
X3.874Y5.089
X3.716Y5.212
X3.554Y5.329
X3.389Y5.442
X3.22Y5.549
X3.048Y5.651
X2.872Y5.748
X2.694Y5.839
X2.513Y5.924
X2.33Y6.004
X2.144Y6.078
X1.956Y6.147
X1.765Y6.209
X1.573Y6.266
X1.38Y6.316
X1.185Y6.361
X0.988Y6.399
X0.791Y6.432
X0.592Y6.458
X0.393Y6.478
X0.194Y6.492
X-0.005Y6.5
X-0.205Y6.501
X-0.406Y6.497
X-0.605Y6.486
X-0.805Y6.469
X-1.004Y6.446
X-1.202Y6.417
X-1.399Y6.382
X-1.594Y6.341
X-1.789Y6.294
X-1.982Y6.241
X-2.173Y6.182
X-2.363Y6.118
X-2.55Y6.047
X-2.735Y5.971
X-2.918Y5.889
X-3.098Y5.802
X-3.275Y5.71
X-3.45Y5.611
X-3.621Y5.508
X-3.789Y5.4
X-3.954Y5.286
X-4.115Y5.168
X-4.273Y5.045
X-4.427Y4.917
X-4.577Y4.784
X-4.723Y4.647
X-4.864Y4.506
X-5.002Y4.36
X-5.134Y4.21
X-5.263Y4.057
X-5.386Y3.899
X-5.505Y3.738
X-5.619Y3.574
X-5.728Y3.406
X-5.832Y3.235
X-5.93Y3.061
X-6.024Y2.884
X-6.112Y2.704
X-6.194Y2.522
X-6.271Y2.337
X-6.343Y2.15
X-6.409Y1.961
X-6.469Y1.77
X-6.524Y1.578
X-6.572Y1.384
X-6.615Y1.188
X-6.652Y0.991
X-6.684Y0.794
X-6.709Y0.595
X-6.728Y0.396
X-6.742Y0.196
X-6.75Y-0.003
X-6.751Y-0.203
X-6.747Y-0.403
X-6.737Y-0.603
X-6.721Y-0.802
X-6.699Y-1.001
X-6.671Y-1.199
X-6.637Y-1.396
X-6.598Y-1.593
X-6.552Y-1.788
X-6.501Y-1.981
X-6.445Y-2.173
X-6.382Y-2.363
X-6.315Y-2.551
X-6.241Y-2.738
X-6.162Y-2.922
X-6.078Y-3.103
X-5.989Y-3.282
X-5.894Y-3.458
X-5.794Y-3.632
X-5.689Y-3.802
X-5.58Y-3.97
X-5.465Y-4.134
X-5.346Y-4.294
X-5.222Y-4.451
X-5.093Y-4.605
X-4.96Y-4.754
X-4.823Y-4.9
X-4.682Y-5.042
X-4.536Y-5.179
X-4.387Y-5.312
X-4.234Y-5.441
X-4.077Y-5.565
X-3.916Y-5.685
X-3.753Y-5.8
X-3.586Y-5.91
X-3.415Y-6.015
X-3.242Y-6.115
X-3.066Y-6.211
X-2.887Y-6.301
X-2.706Y-6.386
X-2.523Y-6.465
X-2.337Y-6.54
X-2.149Y-6.609
X-1.959Y-6.672
X-1.768Y-6.73
X-1.575Y-6.783
X-1.38Y-6.83
X-1.184Y-6.871
X-0.987Y-6.907
X-0.79Y-6.937
X-0.591Y-6.961
X-0.392Y-6.98
X-0.192Y-6.992
X0.007Y-7
X0.207Y-7.001
X0.407Y-6.997
X0.607Y-6.987
X0.806Y-6.971
X1.005Y-6.95
X1.204Y-6.923
X1.401Y-6.89
X1.598Y-6.852
X1.793Y-6.808
X1.987Y-6.759
X2.179Y-6.704
X2.37Y-6.644
X2.559Y-6.578
X2.746Y-6.507
X2.931Y-6.431
X3.114Y-6.349
X3.294Y-6.263
X3.472Y-6.171
X3.647Y-6.074
X3.82Y-5.973
X3.989Y-5.866
X4.156Y-5.755
X4.319Y-5.64
X4.479Y-5.519
X4.635Y-5.394
X4.788Y-5.265
X4.937Y-5.132
X5.083Y-4.994
X5.224Y-4.853
X5.361Y-4.707
X5.495Y-4.558
X5.624Y-4.405
X5.748Y-4.249
X5.869Y-4.089
X5.984Y-3.925
X6.096Y-3.759
X6.202Y-3.59
X6.304Y-3.417
X6.4Y-3.242
X6.492Y-3.064
X6.579Y-2.884
X6.661Y-2.701
X6.738Y-2.517
X6.809Y-2.33
X6.876Y-2.141
X6.937Y-1.95
X6.993Y-1.758
X7.043Y-1.565
X7.088Y-1.37
X7.127Y-1.173
X7.162Y-0.976
X7.19Y-0.778
X7.213Y-0.58
X7.231Y-0.38
X7.243Y-0.18
X7.25Y0.019
X7.251Y0.219
X7.247Y0.419
X7.237Y0.619
X7.221Y0.818
X7.2Y1.017
X7.174Y1.215
X7.142Y1.413
X7.105Y1.61
X7.062Y1.805
X7.014Y1.999
X6.961Y2.192
X6.902Y2.384
X6.839Y2.573
X6.77Y2.761
X6.696Y2.947
X6.616Y3.131
X6.532Y3.312
X6.443Y3.491
X6.349Y3.668
X6.251Y3.842
X6.147Y4.014
X6.039Y4.182
X5.927Y4.347
X5.809Y4.51
X5.688Y4.669
X5.562Y4.824
X5.432Y4.977
X5.298Y5.125
X5.16Y5.27
X5.019Y5.411
X4.873Y5.549
X4.724Y5.682
X4.571Y5.811
X4.415Y5.936
X4.255Y6.057
X4.092Y6.173
X3.926Y6.285
X3.757Y6.392
X3.586Y6.495
X3.411Y6.593
X3.234Y6.686
X3.055Y6.775
X2.873Y6.859
X2.689Y6.937
X2.503Y7.011
X2.315Y7.08
X2.126Y7.144
X1.934Y7.202
X1.742Y7.256
X1.547Y7.304
X1.352Y7.347
X1.155Y7.385
X0.958Y7.417
X0.76Y7.445
X0.561Y7.466
X0.361Y7.483
X0.162Y7.494
X-0.037Y7.5
X-0.237Y7.501
X-0.437Y7.496
X-0.637Y7.486
X-0.837Y7.471
X-1.036Y7.45
X-1.234Y7.424
X-1.432Y7.392
X-1.629Y7.356
X-1.824Y7.314
X-2.019Y7.267
X-2.212Y7.215
X-2.404Y7.158
X-2.594Y7.096
X-2.782Y7.029
X-2.969Y6.956
X-3.154Y6.879
X-3.336Y6.797
X-3.516Y6.711
X-3.694Y6.619
X-3.87Y6.523
X-4.043Y6.422
X-4.213Y6.317
X-4.38Y6.207
X-4.545Y6.093
X-4.706Y5.975
X-4.864Y5.852
X-5.019Y5.725
X-5.17Y5.595
X-5.318Y5.46
X-5.463Y5.322
X-5.604Y5.179
X-5.741Y5.033
X-5.874Y4.884
X-6.003Y4.731
X-6.128Y4.575
X-6.249Y4.416
X-6.365Y4.253
X-6.478Y4.088
X-6.586Y3.919
X-6.69Y3.748
X-6.789Y3.574
X-6.883Y3.398
X-6.973Y3.219
X-7.059Y3.038
X-7.139Y2.855
X-7.215Y2.67
X-7.286Y2.483
X-7.352Y2.294
X-7.413Y2.103
X-7.469Y1.911
X-7.52Y1.718
X-7.566Y1.523
X-7.607Y1.327
X-7.643Y1.13
X-7.674Y0.933
X-7.699Y0.734
X-7.72Y0.535
X-7.735Y0.336
X-7.746Y0.136
X-7.751Y-0.063
X-7.75Y-0.263
X-7.745Y-0.463
X-7.735Y-0.663
X-7.719Y-0.863
X-7.698Y-1.062
X-7.673Y-1.26
X-7.642Y-1.458
X-7.606Y-1.655
X-7.565Y-1.85
X-7.518Y-2.045
X-7.467Y-2.239
X-7.411Y-2.431
X-7.35Y-2.621
X-7.285Y-2.81
X-7.214Y-2.997
X-7.139Y-3.183
X-7.059Y-3.366
X-6.974Y-3.547
X-6.884Y-3.726
X-6.791Y-3.903
X-6.692Y-4.077
X-6.589Y-4.249
X-6.482Y-4.418
X-6.371Y-4.584
X-6.255Y-4.747
X-6.135Y-4.908
X-6.012Y-5.065
X-5.884Y-5.219
X-5.752Y-5.37
X-5.617Y-5.517
X-5.478Y-5.661
X-5.335Y-5.801
X-5.189Y-5.937
X-5.039Y-6.07
X-4.886Y-6.199
X-4.73Y-6.324
X-4.57Y-6.445
X-4.408Y-6.562
X-4.243Y-6.675
X-4.075Y-6.784
X-3.904Y-6.888
X-3.731Y-6.988
X-3.555Y-7.083
X-3.377Y-7.174
X-3.196Y-7.261
X-3.014Y-7.343
X-2.829Y-7.42
X-2.643Y-7.493
X-2.455Y-7.561
X-2.265Y-7.624
X-2.073Y-7.683
X-1.881Y-7.736
X-1.687Y-7.785
X-1.491Y-7.829
X-1.295Y-7.868
X-1.098Y-7.902
X-0.9Y-7.931
X-0.701Y-7.955
X-0.502Y-7.974
X-0.303Y-7.988
X-0.103Y-7.997
X0.096Y-8.001
X0.296Y-8
X0.496Y-7.994
X0.696Y-7.983
X0.896Y-7.967
X1.095Y-7.946
X1.293Y-7.92
X1.491Y-7.89
X1.688Y-7.854
X1.884Y-7.813
X2.078Y-7.768
X2.272Y-7.717
X2.464Y-7.662
X2.655Y-7.602
X2.845Y-7.538
X3.032Y-7.469
X3.218Y-7.395
X3.402Y-7.316
X3.584Y-7.233
X3.764Y-7.146
X3.942Y-7.054
X4.117Y-6.957
X4.29Y-6.857
X4.461Y-6.752
X4.628Y-6.643
X4.793Y-6.53
X4.956Y-6.412
X5.115Y-6.291
X5.271Y-6.166
X5.424Y-6.037
X5.574Y-5.904
X5.72Y-5.768
X5.863Y-5.628
X6.003Y-5.485
X6.139Y-5.338
X6.271Y-5.188
X6.4Y-5.035
X6.525Y-4.879
X6.646Y-4.719
X6.763Y-4.557
X6.876Y-4.392
X6.985Y-4.224
X7.09Y-4.054
X7.19Y-3.881
X7.286Y-3.705
X7.378Y-3.528
X7.466Y-3.348
X7.549Y-3.166
X7.628Y-2.982
X7.702Y-2.796
X7.772Y-2.608
X7.837Y-2.419
X7.897Y-2.228
X7.953Y-2.036
X8.004Y-1.843
X8.05Y-1.648
X8.092Y-1.452
X8.129Y-1.256
X8.161Y-1.058
X8.188Y-0.86
X8.21Y-0.661
X8.228Y-0.462
X8.24Y-0.262
X8.248Y-0.062
X8.251Y0.137
X8.249Y0.337
X8.242Y0.537
X8.231Y0.737
X8.214Y0.936
X8.193Y1.135
X8.167Y1.333
X8.136Y1.531
X8.101Y1.728
X8.06Y1.924
X8.015Y2.119
X7.965Y2.313
X7.911Y2.505
X7.852Y2.696
X7.788Y2.886
X7.72Y3.074
X7.647Y3.26
X7.57Y3.445
X7.489Y3.628
X7.403Y3.808
X7.313Y3.987
X7.218Y4.163
X7.119Y4.337
X7.016Y4.509
X6.909Y4.678
X6.798Y4.844
X6.683Y5.008
X6.565Y5.169
X6.442Y5.327
X6.316Y5.482
X6.185Y5.634
X6.052Y5.783
X5.915Y5.929
X5.774Y6.071
X5.63Y6.21
X5.483Y6.345
X5.332Y6.477
X5.179Y6.606
X5.022Y6.73
X4.862Y6.851
X4.7Y6.968
X4.535Y7.081
X4.367Y7.19
X4.197Y7.295
X4.024Y7.396
X3.849Y7.493
X3.672Y7.586
X3.493Y7.674
X3.311Y7.758
X3.128Y7.838
X2.942Y7.913
X2.755Y7.984
X2.567Y8.051
X2.376Y8.113
X2.185Y8.171
X1.992Y8.224
X1.798Y8.272
X1.602Y8.316
X1.406Y8.355
X1.209Y8.39
X1.011Y8.42
X0.813Y8.445
X0.614Y8.466
X0.414Y8.482
X0.215Y8.493
X0.015Y8.499
X-0.184Y8.501
X-0.384Y8.498
X-0.584Y8.49
X-0.784Y8.478
X-0.983Y8.461
X-1.182Y8.439
X-1.381Y8.413
X-1.578Y8.382
X-1.775Y8.346
X-1.971Y8.306
X-2.166Y8.261
X-2.36Y8.212
X-2.553Y8.158
X-2.744Y8.099
X-2.934Y8.036
X-3.122Y7.969
X-3.309Y7.897
X-3.494Y7.821
X-3.677Y7.741
X-3.859Y7.656
X-4.038Y7.567
X-4.215Y7.474
X-4.39Y7.377
X-4.563Y7.276
X-4.733Y7.171
X-4.901Y7.062
X-5.066Y6.949
X-5.228Y6.832
X-5.388Y6.712
X-5.545Y6.588
X-5.699Y6.46
X-5.85Y6.329
X-5.998Y6.194
X-6.142Y6.056
X-6.284Y5.914
X-6.422Y5.769
X-6.557Y5.621
X-6.688Y5.47
X-6.816Y5.316
X-6.94Y5.16
X-7.06Y5
X-7.177Y4.837
X-7.29Y4.672
X-7.399Y4.505
X-7.504Y4.334
X-7.605Y4.162
X-7.703Y3.987
X-7.796Y3.81
X-7.885Y3.631
X-7.97Y3.45
X-8.051Y3.267
X-8.127Y3.082
X-8.199Y2.895
X-8.267Y2.707
X-8.331Y2.517
X-8.39Y2.326
X-8.445Y2.134
X-8.495Y1.94
X-8.541Y1.745
X-8.582Y1.55
X-8.619Y1.353
X-8.652Y1.155
X-8.679Y0.957
X-8.703Y0.759
X-8.721Y0.559
X-8.736Y0.36
X-8.745Y0.16
X-8.75Y-0.039
X-8.751Y-0.239
X-8.746Y-0.439
X-8.738Y-0.639
X-8.725Y-0.839
X-8.707Y-1.038
X-8.684Y-1.237
X-8.657Y-1.435
X-8.626Y-1.633
X-8.59Y-1.829
X-8.55Y-2.025
X-8.505Y-2.22
X-8.456Y-2.414
X-8.402Y-2.607
X-8.344Y-2.798
X-8.282Y-2.989
X-8.215Y-3.177
X-8.144Y-3.364
X-8.069Y-3.55
X-7.99Y-3.733
X-7.906Y-3.915
X-7.819Y-4.095
X-7.727Y-4.273
X-7.631Y-4.449
X-7.532Y-4.622
X-7.428Y-4.793
X-7.321Y-4.962
X-7.21Y-5.129
X-7.095Y-5.292
X-6.976Y-5.454
X-6.854Y-5.612
X-6.728Y-5.768
X-6.599Y-5.92
X-6.467Y-6.07
X-6.331Y-6.217
X-6.191Y-6.361
X-6.049Y-6.501
X-5.903Y-6.638
X-5.755Y-6.772
X-5.603Y-6.903
X-5.449Y-7.03
X-5.291Y-7.154
X-5.131Y-7.274
X-4.969Y-7.39
X-4.803Y-7.503
X-4.636Y-7.612
X-4.465Y-7.717
X-4.293Y-7.818
X-4.118Y-7.916
X-3.941Y-8.009
X-3.762Y-8.099
X-3.582Y-8.184
X-3.399Y-8.266
X-3.214Y-8.343
X-3.028Y-8.416
X-2.84Y-8.485
X-2.651Y-8.55
X-2.46Y-8.611
X-2.268Y-8.667
X-2.075Y-8.719
X-1.881Y-8.766
X-1.685Y-8.81
X-1.489Y-8.848
X-1.292Y-8.883
X-1.094Y-8.913
X-0.896Y-8.939
X-0.697Y-8.96
X-0.498Y-8.977
X-0.298Y-8.989
X-0.098Y-8.997
X0.101Y-9.001
X0.301Y-9
X0.501Y-8.994
X0.701Y-8.985
X0.9Y-8.97
X1.1Y-8.952
X1.298Y-8.929
X1.497Y-8.901
X1.694Y-8.869
X1.891Y-8.833
X2.087Y-8.792
X2.282Y-8.747
X2.476Y-8.698
X2.668Y-8.645
X2.86Y-8.587
X3.05Y-8.525
X3.239Y-8.459
X3.426Y-8.388
X3.612Y-8.314
X3.796Y-8.235
X3.978Y-8.153
X4.159Y-8.066
X4.337Y-7.976
X4.513Y-7.881
X4.688Y-7.783
X4.86Y-7.681
X5.029Y-7.575
X5.197Y-7.465
X5.362Y-7.352
X5.524Y-7.235
X5.684Y-7.115
X5.841Y-6.991
X5.995Y-6.864
X6.147Y-6.733
X6.296Y-6.599
X6.441Y-6.462
X6.584Y-6.322
X6.723Y-6.178
X6.86Y-6.032
X6.993Y-5.883
X7.122Y-5.73
X7.249Y-5.575
X7.372Y-5.418
X7.491Y-5.257
X7.607Y-5.094
X7.72Y-4.929
X7.829Y-4.761
X7.934Y-4.59
X8.035Y-4.418
X8.132Y-4.243
X8.226Y-4.066
X8.316Y-3.888
X8.402Y-3.707
X8.484Y-3.524
X8.562Y-3.34
X8.636Y-3.154
X8.705Y-2.967
X8.771Y-2.778
X8.833Y-2.587
X8.89Y-2.396
X8.944Y-2.203
X8.993Y-2.009
X9.038Y-1.814
X9.078Y-1.618
X9.115Y-1.421
X9.147Y-1.224
X9.175Y-1.026
X9.198Y-0.827
X9.217Y-0.628
X9.232Y-0.429
X9.243Y-0.229
X9.249Y-0.029
X9.251Y0.17
X9.248Y0.37
X9.242Y0.57
X9.231Y0.77
X9.215Y0.969
X9.196Y1.169
X9.172Y1.367
X9.143Y1.565
X9.111Y1.763
X9.074Y1.959
X9.033Y2.155
X8.988Y2.35
X8.939Y2.544
X8.885Y2.737
X8.827Y2.928
X8.766Y3.118
X8.7Y3.307
X8.63Y3.495
X8.556Y3.681
X8.478Y3.865
X8.396Y4.048
X8.31Y4.228
X8.221Y4.407
X8.127Y4.584
X8.03Y4.759
X7.929Y4.932
X7.825Y5.102
X7.717Y5.271
X7.605Y5.436
X7.489Y5.6
X7.371Y5.761
X7.248Y5.919
X7.123Y6.075
X6.994Y6.228
X6.862Y6.378
X6.727Y6.526
X6.588Y6.67
X6.447Y6.812
X6.302Y6.95
X6.155Y7.085
X6.005Y7.218
X5.852Y7.347
X5.696Y7.472
X5.538Y7.594
X5.377Y7.713
X5.213Y7.829
X5.048Y7.941
X4.879Y8.049
X4.709Y8.154
X4.536Y8.255
X4.362Y8.352
X4.185Y8.446
X4.006Y8.536
X3.826Y8.622
X3.643Y8.705
X3.459Y8.783
X3.274Y8.857
X3.086Y8.928
X2.898Y8.995
X2.708Y9.057
X2.516Y9.116
X2.324Y9.17
X2.13Y9.22
X1.936Y9.267
X1.74Y9.309
X1.544Y9.347
X1.346Y9.381
X1.149Y9.41
X0.95Y9.436
X0.751Y9.457
X0.552Y9.474
X0.352Y9.487
X0.152Y9.496
X-0.047Y9.5
X-0.247
X-0.447Y9.496
X-0.647Y9.488
X-0.846Y9.476
X-1.046Y9.459
X-1.245Y9.439
X-1.443Y9.414
X-1.641Y9.385
X-1.838Y9.351
X-2.035Y9.314
X-2.231Y9.272
X-2.425Y9.227
X-2.619Y9.177
X-2.812Y9.123
X-3.003Y9.066
X-3.194Y9.004
X-3.383Y8.938
X-3.57Y8.869
X-3.756Y8.795
X-3.941Y8.718
X-4.124Y8.636
X-4.305Y8.551
X-4.484Y8.462
X-4.661Y8.37
X-4.837Y8.274
X-5.01Y8.174
X-5.181Y8.07
X-5.35Y7.963
X-5.517Y7.853
X-5.681Y7.739
X-5.843Y7.621
X-6.003Y7.5
X-6.16Y7.376
X-6.314Y7.249
X-6.466Y7.119
X-6.615Y6.985
X-6.761Y6.848
X-6.904Y6.709
X-7.044Y6.566
X-7.182Y6.421
X-7.316Y6.272
X-7.447Y6.121
X-7.575Y5.967
X-7.7Y5.811
X-7.821Y5.652
X-7.939Y5.491
X-8.054Y5.327
X-8.166Y5.161
X-8.273Y4.992
X-8.378Y4.822
X-8.479Y4.649
X-8.576Y4.474
X-8.67Y4.297
X-8.76Y4.118
X-8.846Y3.938
X-8.928Y3.756
X-9.007Y3.572
X-9.082Y3.386
X-9.153Y3.199
X-9.22Y3.011
X-9.283Y2.821
X-9.343Y2.63
X-9.398Y2.438
X-9.449Y2.244
X-9.497Y2.05
X-9.54Y1.855
X-9.58Y1.659
X-9.615Y1.462
X-9.646Y1.264
X-9.673Y1.066
X-9.697Y0.867
X-9.716Y0.668
X-9.731Y0.468
X-9.741Y0.269
X-9.748Y0.069
X-9.751Y-0.13
X-9.749Y-0.33
X-9.744Y-0.53
X-9.734Y-0.73
X-9.72Y-0.93
X-9.702Y-1.129
X-9.681Y-1.328
X-9.655Y-1.526
X-9.624Y-1.724
X-9.59Y-1.921
X-9.552Y-2.118
X-9.51Y-2.313
X-9.464Y-2.508
X-9.414Y-2.701
X-9.36Y-2.894
X-9.302Y-3.086
X-9.24Y-3.276
X-9.174Y-3.465
X-9.105Y-3.652
X-9.031Y-3.838
X-8.954Y-4.023
X-8.873Y-4.206
X-8.789Y-4.387
X-8.701Y-4.567
X-8.609Y-4.745
X-8.513Y-4.92
X-8.414Y-5.094
X-8.311Y-5.266
X-8.205Y-5.435
X-8.096Y-5.603
X-7.983Y-5.768
X-7.867Y-5.931
X-7.747Y-6.091
X-7.625Y-6.249
X-7.499Y-6.405
X-7.37Y-6.558
X-7.238Y-6.708
X-7.103Y-6.856
X-6.965Y-7
X-6.824Y-7.142
X-6.68Y-7.281
X-6.533Y-7.417
X-6.384Y-7.551
X-6.232Y-7.681
X-6.077Y-7.808
X-5.92Y-7.931
X-5.76Y-8.052
X-5.598Y-8.169
X-5.434Y-8.284
X-5.268Y-8.394
X-5.099Y-8.502
X-4.928Y-8.606
X-4.755Y-8.706
X-4.58Y-8.803
X-4.403Y-8.896
X-4.224Y-8.986
X-4.044Y-9.072
X-3.861Y-9.155
X-3.677Y-9.234
X-3.492Y-9.309
X-3.305Y-9.38
X-3.117Y-9.448
X-2.927Y-9.512
X-2.736Y-9.572
X-2.544Y-9.628
X-2.351Y-9.68
X-2.157Y-9.728
X-1.962Y-9.773
X-1.766Y-9.813
X-1.57Y-9.85
X-1.372Y-9.883
X-1.174Y-9.911
X-0.976Y-9.936
X-0.777Y-9.957
X-0.577Y-9.974
X-0.378Y-9.986
X-0.178Y-9.995
X0.021Y-10
X0.221Y-10.001
X0.421Y-9.997
X0.621Y-9.99
X0.821Y-9.979
X1.02Y-9.964
X1.22Y-9.944
X1.418Y-9.921
X1.616Y-9.894
X1.814Y-9.863
X2.011Y-9.828
X2.207Y-9.789
X2.403Y-9.746
X2.597Y-9.699
X2.791Y-9.649
X2.983Y-9.594
X3.175Y-9.536
X3.365Y-9.474
X3.554Y-9.408
X3.741Y-9.338
X3.927Y-9.265
X4.112Y-9.188
X4.295Y-9.107
X4.477Y-9.023
X4.656Y-8.935
X4.834Y-8.844
X5.01Y-8.749
X5.184Y-8.651
X5.357Y-8.549
X5.527Y-8.444
X5.695Y-8.335
X5.861Y-8.223
X6.024Y-8.108
X6.186Y-7.99
X6.344Y-7.868
X6.501Y-7.743
X6.655Y-7.616
X6.806Y-7.485
X6.955Y-7.351
X7.101Y-7.215
X7.245Y-7.075
X7.385Y-6.933
X7.523Y-6.788
X7.658Y-6.64
X7.79Y-6.49
X7.919Y-6.337
X8.045Y-6.181
X8.167Y-6.023
X8.287Y-5.863
X8.404Y-5.7
X8.517Y-5.535
X8.627Y-5.368
X8.734Y-5.199
X8.837Y-5.028
X8.937Y-4.854
X9.033Y-4.679
X9.126Y-4.502
X9.216Y-4.323
X9.302Y-4.143
X9.384Y-3.96
X9.463Y-3.776
X9.538Y-3.591
X9.61Y-3.404
X9.678Y-3.216
X9.742Y-3.027
X9.803Y-2.836
X9.859Y-2.644
X9.912Y-2.451
X9.961Y-2.257
X10.007Y-2.062
X10.048Y-1.867
X10.086Y-1.67
X10.12Y-1.473
X10.15Y-1.275
X10.176Y-1.077
X10.198Y-0.878
X10.216Y-0.679
X10.231Y-0.479
X10.241Y-0.28
X10.248Y-0.08
X10.251Y0.119
X10.249Y0.319
X10.244Y0.519
X10.235Y0.719
X10.223Y0.919
X10.206Y1.118
X10.185Y1.317
X10.161Y1.516
X10.132Y1.714
X10.1Y1.911
X10.064Y2.108
X10.024Y2.304
X9.98Y2.499
X9.933Y2.694
X9.882Y2.887
X9.827Y3.079
X9.768Y3.271
X9.705Y3.461
X9.639Y3.649
X9.569Y3.837
X9.496Y4.023
X9.419Y4.208
X9.339Y4.391
X9.254Y4.572
X9.167Y4.752
X9.076Y4.93
X8.981Y5.107
X8.883Y5.281
X8.782Y5.454
X8.678Y5.624
X8.57Y5.793
X8.459Y5.959
X8.344Y6.123
X8.227Y6.285
X8.106Y6.445
X7.983Y6.602
X7.856Y6.757
X7.727Y6.909
X7.594Y7.059
X7.459Y7.207
X7.321Y7.351
X7.18Y7.493
X7.036Y7.632
X6.89Y7.769
X6.741Y7.902
X6.589Y8.033
X6.435Y8.161
X6.279Y8.286
X6.12Y8.407
X5.959Y8.526
X5.796Y8.642
X5.63Y8.754
X5.463Y8.863
X5.293Y8.969
X5.121Y9.072
X4.948Y9.171
X4.772Y9.267
X4.595Y9.36
X4.416Y9.449
X4.235Y9.535
X4.053Y9.617
X3.869Y9.696
X3.683Y9.771
X3.497Y9.842
X3.308Y9.91
X3.119Y9.975
X2.928Y10.036
X2.737Y10.093
X2.544Y10.146
X2.35Y10.196
X2.156Y10.242
X1.96Y10.284
X1.764Y10.323
X1.567Y10.358
X1.369Y10.389
X1.171Y10.416
X0.972Y10.439
X0.773Y10.459
X0.574Y10.475
X0.374Y10.487
X0.174Y10.495
X-0.025Y10.5
X-0.225
X-0.425Y10.497
X-0.625Y10.49
X-0.825Y10.48
X-1.024Y10.465
X-1.223Y10.447
X-1.422Y10.424
X-1.62Y10.399
X-1.818Y10.369
X-2.016Y10.335
X-2.212Y10.298
X-2.408Y10.257
X-2.603Y10.213
X-2.797Y10.164
X-2.99Y10.112
X-3.182Y10.057
X-3.373Y9.997
X-3.563Y9.934
X-3.752Y9.868
X-3.939Y9.798
X-4.125Y9.724
X-4.31Y9.647
X-4.493Y9.567
X-4.675Y9.483
X-4.855Y9.395
X-5.033Y9.304
X-5.209Y9.21
X-5.384Y9.113
X-5.557Y9.012
X-5.728Y8.908
X-5.896Y8.8
X-6.063Y8.69
X-6.228Y8.577
X-6.39Y8.46
X-6.551Y8.34
X-6.709Y8.217
X-6.864Y8.092
X-7.018Y7.963
X-7.169Y7.832
X-7.317Y7.698
X-7.463Y7.561
X-7.606Y7.421
X-7.746Y7.278
X-7.884Y7.133
X-8.019Y6.986
X-8.151Y6.836
X-8.281Y6.683
X-8.407Y6.528
X-8.531Y6.371
X-8.651Y6.211
X-8.769Y6.049
X-8.883Y5.885
X-8.995Y5.719
X-9.103Y5.551
X-9.208Y5.381
X-9.31Y5.209
X-9.409Y5.035
X-9.504Y4.859
X-9.596Y4.681
X-9.685Y4.502
X-9.77Y4.321
X-9.852Y4.138
X-9.931Y3.954
X-10.006Y3.769
X-10.077Y3.582
X-10.145Y3.394
X-10.21Y3.205
X-10.271Y3.014
X-10.328Y2.823
X-10.382Y2.63
X-10.432Y2.436
X-10.479Y2.242
X-10.522Y2.046
X-10.561Y1.85
X-10.597Y1.653
X-10.629Y1.456
X-10.657Y1.258
X-10.681Y1.059
X-10.702Y0.86
X-10.719Y0.661
X-10.733Y0.461
X-10.742Y0.262
X-10.748Y0.062
X-10.751Y-0.137
X-10.749Y-0.338
X-10.744Y-0.538
X-10.735Y-0.737
X-10.722Y-0.937
X-10.706Y-1.136
X-10.686Y-1.335
X-10.662Y-1.534
X-10.635Y-1.732
X-10.604Y-1.93
X-10.569Y-2.127
X-10.531Y-2.323
X-10.489Y-2.519
X-10.443Y-2.714
X-10.394Y-2.907
X-10.341Y-3.1
X-10.285Y-3.292
X-10.225Y-3.483
X-10.161Y-3.673
X-10.094Y-3.861
X-10.024Y-4.049
X-9.95Y-4.234
X-9.872Y-4.419
X-9.792Y-4.602
X-9.708Y-4.783
X-9.62Y-4.963
X-9.529Y-5.142
X-9.435Y-5.318
X-9.338Y-5.493
X-9.238Y-5.666
X-9.134Y-5.837
X-9.027Y-6.006
X-8.917Y-6.173
X-8.804Y-6.339
X-8.688Y-6.501
X-8.569Y-6.662
X-8.447Y-6.821
X-8.323Y-6.977
X-8.195Y-7.131
X-8.064Y-7.283
X-7.931Y-7.432
X-7.795Y-7.579
X-7.656Y-7.723
X-7.515Y-7.865
X-7.371Y-8.004
X-7.225Y-8.14
X-7.076Y-8.273
X-6.925Y-8.404
X-6.771Y-8.532
X-6.615Y-8.658
X-6.457Y-8.78
X-6.296Y-8.899
X-6.133Y-9.016
X-5.969Y-9.129
X-5.802Y-9.239
X-5.633Y-9.347
X-5.462Y-9.451
X-5.29Y-9.552
X-5.115Y-9.65
X-4.939Y-9.745
X-4.761Y-9.836
X-4.581Y-9.924
X-4.4Y-10.009
X-4.217Y-10.09
X-4.033Y-10.169
X-3.848Y-10.243
X-3.661Y-10.315
X-3.473Y-10.383
X-3.283Y-10.447
X-3.093Y-10.508
X-2.901Y-10.566
X-2.709Y-10.62
X-2.515Y-10.67
X-2.321Y-10.717
X-2.125Y-10.76
X-1.929Y-10.8
X-1.733Y-10.837
X-1.535Y-10.869
X-1.337Y-10.898
X-1.139Y-10.924
X-0.94Y-10.946
X-0.741Y-10.964
X-0.541Y-10.978
X-0.342Y-10.989
X-0.142Y-10.997
X0.057Y-11
X0.257
X0.457Y-10.997
X0.657Y-10.989
X0.857Y-10.978
X1.057Y-10.964
X1.256Y-10.946
X1.455Y-10.924
X1.653Y-10.899
X1.851Y-10.87
X2.048Y-10.837
X2.245Y-10.801
X2.441Y-10.761
X2.637Y-10.718
X2.831Y-10.671
X3.025Y-10.621
X3.217Y-10.567
X3.409Y-10.51
X3.6Y-10.45
X3.789Y-10.385
X3.977Y-10.318
X4.165Y-10.247
X4.35Y-10.173
X4.535Y-10.095
X4.717Y-10.014
X4.899Y-9.93
X5.079Y-9.842
X5.257Y-9.751
X5.434Y-9.657
X5.608Y-9.56
X5.782Y-9.46
X5.953Y-9.356
X6.122Y-9.25
X6.29Y-9.14
X6.455Y-9.028
X6.618Y-8.912
X6.78Y-8.794
X6.939Y-8.673
X7.095Y-8.548
X7.25Y-8.422
X7.402Y-8.292
X7.552Y-8.159
X7.7Y-8.024
X7.845Y-7.887
X7.987Y-7.746
X8.128Y-7.603
X8.265Y-7.458
X8.4Y-7.31
X8.532Y-7.16
X8.661Y-7.007
X8.788Y-6.853
X8.912Y-6.696
X9.033Y-6.536
X9.151Y-6.375
X9.266Y-6.211
X9.378Y-6.046
X9.488Y-5.878
X9.594Y-5.709
X9.697Y-5.537
X9.797Y-5.364
X9.894Y-5.189
X9.988Y-5.012
X10.079Y-4.834
X10.166Y-4.654
X10.25Y-4.473
X10.331Y-4.29
X10.409Y-4.106
X10.484Y-3.92
X10.555Y-3.733
X10.622Y-3.545
X10.687Y-3.355
X10.748Y-3.165
X10.805Y-2.973
X10.859Y-2.78
X10.91Y-2.587
X10.957Y-2.393
X11.001Y-2.197
X11.041Y-2.001
X11.078Y-1.805
X11.111Y-1.607
X11.141Y-1.41
X11.167Y-1.211
X11.189Y-1.013
X11.208Y-0.813
X11.224Y-0.614
X11.236Y-0.414
X11.244Y-0.214
X11.249Y-0.014
X11.251Y0.185
X11.248Y0.385
X11.243Y0.585
X11.233Y0.784
X11.22Y0.984
X11.204Y1.183
X11.184Y1.382
X11.16Y1.581
X11.133Y1.779
X11.103Y1.977
X11.069Y2.174
X11.031Y2.371
X10.99Y2.566
X10.946Y2.761
X10.898Y2.956
X10.846Y3.149
X10.792Y3.341
X10.734Y3.533
X10.672Y3.723
X10.607Y3.912
X10.539Y4.1
X10.467Y4.287
X10.392Y4.473
X10.314Y4.657
X10.233Y4.84
X10.148Y5.021
X10.061Y5.201
X9.97Y5.379
X9.876Y5.555
X9.778Y5.73
X9.678Y5.903
X9.575Y6.075
X9.469Y6.244
X9.359Y6.412
X9.247Y6.577
X9.132Y6.741
X9.014Y6.902
X8.893Y7.062
X8.77Y7.219
X8.643Y7.374
X8.514Y7.527
X8.383Y7.678
X8.248Y7.826
X8.111Y7.972
X7.972Y8.115
X7.83Y8.256
X7.685Y8.395
X7.539Y8.53
X7.389Y8.664
X7.238Y8.794
X7.084Y8.922
X6.928Y9.047
X6.77Y9.17
X6.61Y9.289
X6.447Y9.406
X6.283Y9.52
X6.116Y9.631
X5.948Y9.739
X5.778Y9.845
X5.606Y9.947
X5.432Y10.046
X5.257Y10.142
X5.08Y10.235
X4.901Y10.325
X4.721Y10.411
X4.539Y10.495
X4.356Y10.575
X4.171Y10.652
X3.985Y10.726
X3.798Y10.797
X3.61Y10.864
X3.42Y10.928
X3.23Y10.989
X3.038Y11.047
X2.845Y11.101
X2.652Y11.151
X2.457Y11.199
X2.262Y11.242
X2.066Y11.283
X1.87Y11.32
X1.673Y11.354
X1.475Y11.384
X1.277Y11.41
X1.078Y11.434
X0.879Y11.454
X0.679Y11.47
X0.48Y11.483
X0.28Y11.492
X0.08Y11.498
X-0.119Y11.5
X-0.319Y11.499
X-0.519Y11.495
X-0.719Y11.487
X-0.919Y11.475
X-1.118Y11.46
X-1.317Y11.442
X-1.516Y11.42
X-1.715Y11.395
X-1.913Y11.366
X-2.11Y11.334
X-2.307Y11.298
X-2.503Y11.259
X-2.698Y11.217
X-2.893Y11.171
X-3.087Y11.122
X-3.28Y11.069
X-3.472Y11.014
X-3.663Y10.954
X-3.853Y10.892
X-4.042Y10.826
X-4.23Y10.757
X-4.417Y10.685
X-4.602Y10.609
X-4.786Y10.531
X-4.968Y10.449
X-5.149Y10.364
X-5.329Y10.276
X-5.507Y10.185
X-5.683Y10.09
X-5.858Y9.993
X-6.031Y9.893
X-6.203Y9.79
X-6.372Y9.683
X-6.54Y9.574
X-6.706Y9.462
X-6.869Y9.347
X-7.031Y9.23
X-7.191Y9.109
X-7.349Y8.986
X-7.504Y8.86
X-7.657Y8.732
X-7.808Y8.601
X-7.957Y8.467
X-8.104Y8.331
X-8.248Y8.192
X-8.389Y8.051
X-8.529Y7.907
X-8.665Y7.761
X-8.8Y7.613
X-8.931Y7.462
X-9.06Y7.309
X-9.187Y7.154
X-9.31Y6.997
X-9.431Y6.838
X-9.55Y6.677
X-9.665Y6.513
X-9.778Y6.348
X-9.888Y6.181
X-9.994Y6.012
X-10.098Y5.841
X-10.199Y5.668
X-10.298Y5.494
X-10.393Y5.318
X-10.485Y5.14
X-10.574Y4.961
X-10.659Y4.78
X-10.742Y4.598
X-10.822Y4.415
X-10.898Y4.23
X-10.972Y4.044
X-11.042Y3.856
X-11.109Y3.668
X-11.172Y3.478
X-11.233Y3.287
X-11.29Y3.096
X-11.344Y2.903
X-11.394Y2.71
X-11.442Y2.515
X-11.486Y2.32
X-11.526Y2.124
X-11.564Y1.928
X-11.597Y1.73
X-11.628Y1.533
X-11.655Y1.335
X-11.679Y1.136
X-11.699Y0.937
X-11.716Y0.738
X-11.73Y0.538
X-11.74Y0.338
X-11.747Y0.138
X-11.75Y-0.061
Y-0.261
X-11.747Y-0.461
X-11.74Y-0.661
X-11.73Y-0.86
X-11.716Y-1.06
X-11.699Y-1.259
X-11.678Y-1.458
X-11.655Y-1.657
X-11.628Y-1.855
X-11.597Y-2.053
X-11.563Y-2.25
X-11.526Y-2.446
X-11.485Y-2.642
X-11.441Y-2.838
X-11.394Y-3.032
X-11.344Y-3.226
X-11.29Y-3.418
X-11.233Y-3.61
X-11.173Y-3.801
X-11.109Y-3.99
X-11.043Y-4.179
X-10.973Y-4.366
X-10.9Y-4.553
X-10.824Y-4.738
X-10.744Y-4.921
X-10.662Y-5.104
X-10.576Y-5.284
X-10.488Y-5.464
X-10.396Y-5.642
X-10.302Y-5.818
X-10.204Y-5.993
X-10.104Y-6.166
X-10Y-6.337
X-9.894Y-6.506
X-9.785Y-6.674
X-9.673Y-6.84
X-9.559Y-7.004
X-9.441Y-7.166
X-9.321Y-7.326
X-9.198Y-7.484
X-9.073Y-7.639
X-8.945Y-7.793
X-8.814Y-7.945
X-8.681Y-8.094
X-8.545Y-8.241
X-8.407Y-8.385
X-8.266Y-8.528
X-8.124Y-8.668
X-7.978Y-8.805
X-7.831Y-8.94
X-7.681Y-9.073
X-7.529Y-9.203
X-7.375Y-9.33
X-7.218Y-9.455
X-7.06Y-9.577
X-6.899Y-9.697
X-6.737Y-9.814
X-6.573Y-9.928
X-6.406Y-10.039
X-6.238Y-10.147
X-6.069Y-10.253
X-5.897Y-10.356
X-5.724Y-10.455
X-5.549Y-10.552
X-5.372Y-10.646
X-5.194Y-10.737
X-5.014Y-10.825
X-4.833Y-10.91
X-4.651Y-10.992
X-4.467Y-11.071
X-4.282Y-11.147
X-4.095Y-11.22
X-3.908Y-11.289
X-3.719Y-11.355
X-3.529Y-11.419
X-3.338Y-11.479
X-3.147Y-11.536
X-2.954Y-11.589
X-2.76Y-11.639
X-2.566Y-11.687
X-2.371Y-11.73
X-2.175Y-11.771
X-1.978Y-11.808
X-1.781Y-11.842
X-1.583Y-11.873
X-1.385Y-11.901
X-1.187Y-11.925
X-0.988Y-11.946
X-0.789Y-11.963
X-0.589Y-11.977
X-0.389Y-11.988
X-0.189Y-11.995
X0.01Y-12
X0.21
X0.41Y-11.998
X0.61Y-11.992
X0.809Y-11.983
X1.009Y-11.97
X1.209Y-11.955
X1.408Y-11.935
X1.606Y-11.913
X1.805Y-11.887
X2.003Y-11.858
X2.2Y-11.826
X2.397Y-11.79
X2.593Y-11.751
X2.789Y-11.709
X2.984Y-11.664
X3.178Y-11.615
X3.371Y-11.563
X3.563Y-11.508
X3.754Y-11.45
X3.945Y-11.389
X4.134Y-11.324
X4.322Y-11.256
X4.509Y-11.185
X4.695Y-11.112
X4.88Y-11.035
X5.063Y-10.955
X5.245Y-10.872
X5.426Y-10.786
X5.605Y-10.697
X5.783Y-10.605
X5.959Y-10.51
X6.133Y-10.412
X6.306Y-10.311
X6.477Y-10.208
X6.647Y-10.101
X6.814Y-9.992
X6.98Y-9.88
X7.144Y-9.766
X7.306Y-9.648
X7.466Y-9.528
X7.624Y-9.406
X7.78Y-9.28
X7.934Y-9.153
X8.086Y-9.022
X8.236Y-8.89
X8.383Y-8.754
X8.528Y-8.617
X8.671Y-8.477
X8.812Y-8.334
X8.95Y-8.19
X9.085Y-8.043
X9.219Y-7.894
X9.35Y-7.742
X9.478Y-7.589
X9.604Y-7.433
X9.727Y-7.276
X9.848Y-7.116
X9.965Y-6.955
X10.081Y-6.791
X10.193Y-6.626
X10.303Y-6.459
X10.41Y-6.29
X10.515Y-6.119
X10.616Y-5.947
X10.715Y-5.773
X10.81Y-5.597
X10.903Y-5.42
X10.993Y-5.241
X11.08Y-5.061
X11.164Y-4.879
X11.245Y-4.696
X11.323Y-4.512
X11.398Y-4.327
X11.47Y-4.14
X11.539Y-3.952
X11.604Y-3.763
X11.667Y-3.573
X11.727Y-3.382
X11.783Y-3.19
X11.836Y-2.998
X11.886Y-2.804
X11.933Y-2.609
X11.977Y-2.414
X12.017Y-2.218
X12.055Y-2.022
X12.089Y-1.825
X12.119Y-1.627
X12.147Y-1.429
X12.171Y-1.23
X12.192Y-1.031
X12.21Y-0.832
X12.225Y-0.633
X12.236Y-0.433
X12.244Y-0.233
X12.249Y-0.033
X12.25Y0.166
X12.249Y0.366
X12.244Y0.566
X12.235Y0.766
X12.224Y0.965
X12.209Y1.165
X12.191Y1.364
X12.17Y1.563
X12.145Y1.762
X12.117Y1.96
X12.086Y2.157
X12.052Y2.354
X12.015Y2.551
X11.974Y2.747
X11.93Y2.942
X11.883Y3.136
X11.833Y3.33
X11.78Y3.523
X11.724Y3.715
X11.664Y3.906
X11.602Y4.096
X11.536Y4.285
X11.467Y4.473
X11.395Y4.659
X11.321Y4.845
X11.243Y5.029
X11.162Y5.212
X11.078Y5.394
X10.991Y5.574
X10.902Y5.753
X10.809Y5.93
X10.714Y6.106
X10.616Y6.28
X10.515Y6.453
X10.411Y6.624
X10.304Y6.793
X10.195Y6.961
X10.083Y7.126
X9.968Y7.29
X9.851Y7.452
X9.731Y7.612
X9.609Y7.771
X9.484Y7.927
X9.356Y8.081
X9.226Y8.233
X9.093Y8.383
X8.959Y8.53
X8.821Y8.676
X8.682Y8.819
X8.54Y8.96
X8.396Y9.099
X8.249Y9.235
X8.101Y9.369
X7.95Y9.501
X7.797Y9.63
X7.643Y9.757
X7.486Y9.881
X7.327Y10.002
X7.166Y10.121
X7.003Y10.238
X6.839Y10.351
X6.672Y10.462
X6.504Y10.571
X6.334Y10.676
X6.163Y10.779
X5.99Y10.879
X5.815Y10.977
X5.639Y11.071
X5.461Y11.163
X5.281Y11.252
X5.101Y11.337
X4.919Y11.42
X4.735Y11.5
X4.551Y11.577
X4.365Y11.651
X4.178Y11.723
X3.99Y11.791
X3.801Y11.856
X3.611Y11.918
X3.419Y11.977
X3.227Y12.032
X3.034Y12.085
X2.841Y12.135
X2.646Y12.181
X2.451Y12.225
X2.255Y12.265
X2.058Y12.302
X1.861Y12.336
X1.663Y12.367
X1.465Y12.394
X1.267Y12.419
X1.068Y12.44
X0.869Y12.458
X0.669Y12.473
X0.469Y12.485
X0.27Y12.493
X0.07Y12.498
X-0.129Y12.5
X-0.329Y12.499
X-0.529Y12.495
X-0.729Y12.487
X-0.929Y12.477
X-1.129Y12.463
X-1.328Y12.446
X-1.527Y12.425
X-1.726Y12.402
X-1.924Y12.375
X-2.122Y12.345
X-2.319Y12.313
X-2.516Y12.276
X-2.712Y12.237
X-2.907Y12.195
X-3.102Y12.149
X-3.296Y12.101
X-3.489Y12.049
X-3.682Y11.994
X-3.873Y11.937
X-4.064Y11.876
X-4.253Y11.812
X-4.442Y11.745
X-4.629Y11.675
X-4.816Y11.602
X-5.001Y11.526
X-5.185Y11.448
X-5.367Y11.366
X-5.549Y11.281
X-5.728Y11.194
X-5.907Y11.104
X-6.084Y11.011
X-6.259Y10.915
X-6.433Y10.816
X-6.606Y10.714
X-6.777Y10.61
X-6.946Y10.503
X-7.113Y10.394
X-7.279Y10.282
X-7.442Y10.167
X-7.604Y10.049
X-7.765Y9.93
X-7.923Y9.807
X-8.079Y9.682
X-8.233Y9.555
X-8.385Y9.425
X-8.535Y9.292
X-8.683Y9.158
X-8.829Y9.021
X-8.973Y8.882
X-9.114Y8.74
X-9.253Y8.596
X-9.39Y8.451
X-9.524Y8.302
X-9.657Y8.152
X-9.786Y8
X-9.914Y7.846
X-10.039Y7.69
X-10.161Y7.531
X-10.281Y7.371
X-10.398Y7.209
X-10.513Y7.045
X-10.625Y6.88
X-10.735Y6.712
X-10.841Y6.543
X-10.946Y6.372
X-11.047Y6.2
X-11.146Y6.026
X-11.242Y5.85
X-11.335Y5.673
X-11.425Y5.495
X-11.513Y5.315
X-11.597Y5.134
X-11.679Y4.951
X-11.758Y4.768
X-11.834Y4.583
X-11.907Y4.396
X-11.978Y4.209
X-12.045Y4.021
X-12.109Y3.831
X-12.17Y3.641
X-12.228Y3.449
X-12.284Y3.257
X-12.336Y3.064
X-12.385Y2.87
X-12.431Y2.675
X-12.474Y2.48
X-12.514Y2.284
X-12.551Y2.087
X-12.584Y1.89
X-12.615Y1.693
X-12.643Y1.494
X-12.667Y1.296
X-12.688Y1.097
X-12.707Y0.898
X-12.722Y0.698
X-12.733Y0.499
X-12.742Y0.299
X-12.748Y0.099
X-12.75Y-0.1
Y-0.3
X-12.746Y-0.5
X-12.739Y-0.7
X-12.729Y-0.9
X-12.716Y-1.099
X-12.699Y-1.299
X-12.68Y-1.498
X-12.657Y-1.697
X-12.632Y-1.895
X-12.603Y-2.093
X-12.571Y-2.29
X-12.536Y-2.487
X-12.498Y-2.684
X-12.457Y-2.88
X-12.413Y-3.075
X-12.366Y-3.269
X-12.315Y-3.463
X-12.262Y-3.655
X-12.206Y-3.847
X-12.147Y-4.038
X-12.084Y-4.229
X-12.019Y-4.418
X-11.951Y-4.606
X-11.88Y-4.793
X-11.806Y-4.979
X-11.729Y-5.163
X-11.649Y-5.347
X-11.567Y-5.529
X-11.481Y-5.71
X-11.393Y-5.889
X-11.302Y-6.067
X-11.208Y-6.244
X-11.112Y-6.419
X-11.012Y-6.593
X-10.91Y-6.765
X-10.806Y-6.936
X-10.699Y-7.104
X-10.589Y-7.271
X-10.476Y-7.437
X-10.361Y-7.601
X-10.244Y-7.762
X-10.124Y-7.922
X-10.001Y-8.08
X-9.876Y-8.237
X-9.749Y-8.391
X-9.619Y-8.543
X-9.487Y-8.693
X-9.352Y-8.841
X-9.215Y-8.987
X-9.076Y-9.131
X-8.935Y-9.273
X-8.792Y-9.412
X-8.646Y-9.549
X-8.499Y-9.684
X-8.349Y-9.817
X-8.197Y-9.947
X-8.043Y-10.075
X-7.888Y-10.201
X-7.73Y-10.324
X-7.57Y-10.444
X-7.409Y-10.563
X-7.246Y-10.678
X-7.081Y-10.791
X-6.914Y-10.902
X-6.745Y-11.01
X-6.575Y-11.115
X-6.404Y-11.218
X-6.23Y-11.318
X-6.056Y-11.415
X-5.879Y-11.509
X-5.702Y-11.601
X-5.522Y-11.69
X-5.342Y-11.777
X-5.16Y-11.86
X-4.977Y-11.941
X-4.793Y-12.018
X-4.607Y-12.093
X-4.421Y-12.165
X-4.233Y-12.235
X-4.044Y-12.301
X-3.855Y-12.364
X-3.664Y-12.425
X-3.472Y-12.482
X-3.28Y-12.537
X-3.087Y-12.588
X-2.893Y-12.637
X-2.698Y-12.682
X-2.502Y-12.725
X-2.306Y-12.764
X-2.11Y-12.801
X-1.912Y-12.834
X-1.715Y-12.865
X-1.516Y-12.892
X-1.318Y-12.916
X-1.119Y-12.937
X-0.92Y-12.956
X-0.72Y-12.971
X-0.521Y-12.983
X-0.321Y-12.992
X-0.121Y-12.997
X0.078Y-13
X0.278
X0.478Y-12.997
X0.678Y-12.99
X0.878Y-12.981
X1.078Y-12.968
X1.277Y-12.952
X1.476Y-12.934
X1.675Y-12.912
X1.873Y-12.887
X2.071Y-12.859
X2.269Y-12.828
X2.466Y-12.794
X2.663Y-12.757
X2.859Y-12.717
X3.054Y-12.674
X3.249Y-12.628
X3.443Y-12.579
X3.636Y-12.527
X3.828Y-12.472
X4.02Y-12.415
X4.21Y-12.354
X4.4Y-12.29
X4.589Y-12.224
X4.776Y-12.154
X4.963Y-12.082
X5.148Y-12.007
X5.332Y-11.929
X5.515Y-11.848
X5.697Y-11.764
X5.877Y-11.678
X6.057Y-11.589
X6.234Y-11.497
X6.41Y-11.402
X6.585Y-11.305
X6.759Y-11.205
X6.93Y-11.103
X7.1Y-10.997
X7.269Y-10.89
X7.436Y-10.779
X7.601Y-10.667
X7.764Y-10.551
X7.926Y-10.433
X8.086Y-10.313
X8.244Y-10.19
X8.4Y-10.065
X8.554Y-9.938
X8.706Y-9.808
X8.857Y-9.676
X9.005Y-9.542
X9.151Y-9.405
X9.295Y-9.266
X9.437Y-9.125
X9.576Y-8.982
X9.714Y-8.837
X9.849Y-8.689
X9.982Y-8.54
X10.113Y-8.388
X10.241Y-8.235
X10.367Y-8.08
X10.491Y-7.922
X10.612Y-7.763
X10.731Y-7.602
X10.847Y-7.44
X10.961Y-7.275
X11.073Y-7.109
X11.181Y-6.941
X11.288Y-6.772
X11.391Y-6.601
X11.493Y-6.428
X11.591Y-6.254
X11.687Y-6.078
X11.78Y-5.901
X11.87Y-5.723
X11.958Y-5.543
X12.043Y-5.362
X12.125Y-5.18
X12.204Y-4.996
X12.281Y-4.811
X12.355Y-4.625
X12.426Y-4.438
X12.494Y-4.25
X12.559Y-4.061
X12.622Y-3.871
X12.681Y-3.68
X12.738Y-3.488
X12.791Y-3.296
X12.842Y-3.102
X12.89Y-2.908
X12.935Y-2.713
X12.977Y-2.517
X13.016Y-2.321
X13.052Y-2.124
X13.085Y-1.927
X13.115Y-1.729
X13.142Y-1.531
X13.166Y-1.333
X13.187Y-1.134
X13.205Y-0.935
X13.22Y-0.735
X13.232Y-0.535
X13.241Y-0.336
X13.247Y-0.136
X13.25Y0.063
Y0.263
X13.247Y0.463
X13.241Y0.663
X13.232Y0.863
X13.22Y1.063
X13.204Y1.262
X13.186Y1.462
X13.165Y1.66
X13.141Y1.859
X13.114Y2.057
X13.084Y2.255
X13.051Y2.452
X13.014Y2.649
X12.975Y2.845
X12.933Y3.041
X12.889Y3.236
X12.841Y3.43
X12.79Y3.623
X12.736Y3.816
X12.68Y4.008
X12.62Y4.199
X12.558Y4.389
X12.493Y4.578
X12.425Y4.766
X12.354Y4.953
X12.28Y5.139
X12.204Y5.324
X12.125Y5.508
X12.043Y5.69
X11.958Y5.872
X11.871Y6.051
X11.781Y6.23
X11.688Y6.407
X11.593Y6.583
X11.495Y6.758
X11.394Y6.93
X11.291Y7.102
X11.185Y7.272
X11.077Y7.44
X10.966Y7.606
X10.853Y7.771
X10.737Y7.934
X10.619Y8.096
X10.498Y8.255
X10.375Y8.413
X10.25Y8.569
X10.122Y8.723
X9.993Y8.875
X9.86Y9.025
X9.726Y9.173
X9.589Y9.32
X9.451Y9.464
X9.31Y9.606
X9.167Y9.745
X9.022Y9.883
X8.874Y10.019
X8.725Y10.152
X8.574Y10.283
X8.421Y10.412
X8.266Y10.538
X8.109Y10.662
X7.951Y10.784
X7.79Y10.904
X7.628Y11.021
X7.464Y11.135
X7.298Y11.247
X7.131Y11.357
X6.962Y11.464
X6.791Y11.569
X6.619Y11.671
X6.446Y11.77
X6.271Y11.867
X6.094Y11.961
X5.917Y12.053
X5.737Y12.142
X5.557Y12.228
X5.375Y12.312
X5.192Y12.392
X5.008Y12.47
X4.823Y12.546
X4.636Y12.618
X4.449Y12.688
X4.26Y12.755
X4.071Y12.819
X3.881Y12.881
X3.689Y12.939
X3.497Y12.995
X3.304Y13.048
X3.111Y13.098
X2.916Y13.145
X2.721Y13.189
X2.525Y13.23
X2.329Y13.269
X2.132Y13.304
X1.935Y13.337
X1.737Y13.366
X1.539Y13.393
X1.34Y13.417
X1.141Y13.438
X0.942Y13.455
X0.743Y13.47
X0.543Y13.482
X0.343Y13.491
X0.143Y13.497
X-0.056Y13.5
X-0.256
X-0.456Y13.497
X-0.656Y13.491
X-0.856Y13.482
X-1.055Y13.471
X-1.255Y13.456
X-1.454Y13.438
X-1.653Y13.417
X-1.852Y13.394
X-2.05Y13.367
X-2.248Y13.338
X-2.445Y13.305
X-2.642Y13.27
X-2.838Y13.232
X-3.034Y13.191
X-3.229Y13.147
X-3.424Y13.1
X-3.618Y13.05
X-3.811Y12.998
X-4.003Y12.942
X-4.194Y12.884
X-4.385Y12.823
X-4.574Y12.759
X-4.763Y12.692
X-4.95Y12.623
X-5.137Y12.551
X-5.322Y12.476
X-5.507Y12.398
X-5.69Y12.318
X-5.872Y12.234
X-6.052Y12.149
X-6.232Y12.06
X-6.41Y11.969
X-6.587Y11.876
X-6.762Y11.779
X-6.936Y11.68
X-7.108Y11.579
X-7.279Y11.475
X-7.449Y11.369
X-7.616Y11.26
X-7.783Y11.148
X-7.947Y11.035
X-8.11Y10.918
X-8.271Y10.8
X-8.43Y10.679
X-8.588Y10.556
X-8.744Y10.43
X-8.897Y10.302
X-9.049Y10.172
X-9.199Y10.04
X-9.348Y9.905
X-9.494Y9.769
X-9.638Y9.63
X-9.78Y9.489
X-9.92Y9.346
X-10.057Y9.201
X-10.193Y9.054
X-10.327Y8.905
X-10.458Y8.754
X-10.587Y8.601
X-10.714Y8.447
X-10.838Y8.29
X-10.96Y8.132
X-11.08Y7.972
X-11.198Y7.81
X-11.313Y7.646
X-11.426Y7.481
X-11.536Y7.314
X-11.644Y7.146
X-11.749Y6.976
X-11.852Y6.804
X-11.952Y6.631
X-12.05Y6.457
X-12.145Y6.281
X-12.238Y6.103
X-12.328Y5.925
X-12.416Y5.745
X-12.5Y5.564
X-12.582Y5.381
X-12.662Y5.198
X-12.739Y5.013
X-12.813Y4.827
X-12.884Y4.64
X-12.953Y4.453
X-13.019Y4.264
X-13.082Y4.074
X-13.142Y3.883
X-13.199Y3.692
X-13.254Y3.499
X-13.306Y3.306
X-13.355Y3.112
X-13.401Y2.917
X-13.445Y2.722
X-13.485Y2.526
X-13.523Y2.33
X-13.558Y2.133
X-13.59Y1.935
X-13.619Y1.737
X-13.645Y1.539
X-13.668Y1.34
X-13.689Y1.141
X-13.706Y0.942
X-13.721Y0.743
X-13.732Y0.543
X-13.741Y0.343
X-13.747Y0.143
X-13.75Y-0.056
Y-0.256
X-13.747Y-0.456
X-13.741Y-0.656
X-13.733Y-0.856
X-13.721Y-1.055
X-13.707Y-1.255
X-13.689Y-1.454
X-13.669Y-1.653
X-13.646Y-1.852
X-13.62Y-2.05
X-13.591Y-2.248
X-13.559Y-2.445
X-13.524Y-2.642
X-13.487Y-2.839
X-13.446Y-3.035
X-13.403Y-3.23
X-13.357Y-3.425
X-13.308Y-3.619
X-13.257Y-3.812
X-13.202Y-4.004
X-13.145Y-4.196
X-13.085Y-4.387
X-13.022Y-4.577
X-12.957Y-4.766
X-12.888Y-4.954
X-12.817Y-5.141
X-12.744Y-5.327
X-12.667Y-5.512
X-12.588Y-5.696
X-12.507Y-5.878
X-12.422Y-6.059
X-12.336Y-6.24
X-12.246Y-6.419
X-12.154Y-6.596
X-12.059Y-6.772
X-11.962Y-6.947
X-11.862Y-7.121
X-11.76Y-7.292
X-11.655Y-7.463
X-11.548Y-7.632
X-11.439Y-7.799
X-11.327Y-7.965
X-11.212Y-8.129
X-11.096Y-8.291
X-10.977Y-8.452
X-10.855Y-8.611
X-10.732Y-8.768
X-10.606Y-8.924
X-10.478Y-9.077
X-10.347Y-9.229
X-10.215Y-9.379
X-10.08Y-9.527
X-9.943Y-9.673
X-9.804Y-9.817
X-9.663Y-9.959
X-9.52Y-10.099
X-9.376Y-10.237
X-9.229Y-10.372
X-9.08Y-10.506
X-8.929Y-10.637
X-8.776Y-10.767
X-8.622Y-10.894
X-8.465Y-11.018
X-8.307Y-11.141
X-8.148Y-11.261
X-7.986Y-11.379
X-7.823Y-11.495
X-7.658Y-11.608
X-7.491Y-11.719
X-7.323Y-11.827
X-7.154Y-11.933
X-6.983Y-12.037
X-6.81Y-12.138
X-6.636Y-12.237
X-6.46Y-12.333
X-6.284Y-12.426
X-6.106Y-12.517
X-5.926Y-12.606
X-5.746Y-12.692
X-5.564Y-12.775
X-5.381Y-12.856
X-5.196Y-12.934
X-5.011Y-13.009
X-4.825Y-13.082
X-4.637Y-13.152
X-4.449Y-13.219
X-4.26Y-13.284
X-4.07Y-13.346
X-3.878Y-13.405
X-3.687Y-13.461
X-3.494Y-13.515
X-3.3Y-13.566
X-3.106Y-13.614
X-2.911Y-13.659
X-2.716Y-13.702
X-2.52Y-13.741
X-2.323Y-13.778
X-2.126Y-13.812
X-1.929Y-13.844
X-1.731Y-13.872
X-1.532Y-13.898
X-1.334Y-13.92
X-1.135Y-13.94
X-0.935Y-13.957
X-0.736Y-13.972
X-0.536Y-13.983
X-0.336Y-13.992
X-0.136Y-13.997
X0.063Y-14
X0.263
X0.463Y-13.997
X0.663Y-13.991
X0.863Y-13.983
X1.062Y-13.971
X1.262Y-13.957
X1.461Y-13.94
X1.66Y-13.92
X1.859Y-13.897
X2.057Y-13.871
X2.255Y-13.843
X2.453Y-13.811
X2.65Y-13.777
X2.846Y-13.74
X3.042Y-13.7
X3.238Y-13.658
X3.433Y-13.613
X3.627Y-13.564
X3.82Y-13.514
X4.013Y-13.46
X4.205Y-13.404
X4.396Y-13.345
X4.586Y-13.283
X4.776Y-13.218
X4.964Y-13.151
X5.152Y-13.081
X5.338Y-13.009
X5.523Y-12.934
X5.708Y-12.856
X5.891Y-12.775
X6.073Y-12.692
X6.254Y-12.607
X6.433Y-12.519
X6.611Y-12.428
X6.788Y-12.335
X6.964Y-12.239
X7.138Y-12.141
X7.311Y-12.04
X7.483Y-11.937
X7.653Y-11.832
X7.821Y-11.724
X7.988Y-11.613
X8.153Y-11.501
X8.317Y-11.386
X8.479Y-11.268
X8.639Y-11.149
X8.798Y-11.027
X8.955Y-10.903
X9.11Y-10.776
X9.263Y-10.648
X9.414Y-10.517
X9.564Y-10.385
X9.712Y-10.25
X9.858Y-10.113
X10.001Y-9.974
X10.143Y-9.833
X10.283Y-9.69
X10.421Y-9.545
X10.557Y-9.398
X10.69Y-9.249
X10.822Y-9.098
X10.951Y-8.946
X11.078Y-8.791
X11.203Y-8.635
X11.326Y-8.477
X11.446Y-8.317
X11.565Y-8.156
X11.681Y-7.993
X11.794Y-7.829
X11.906Y-7.662
X12.015Y-7.495
X12.121Y-7.325
X12.225Y-7.155
X12.327Y-6.982
X12.426Y-6.809
X12.523Y-6.634
X12.618Y-6.457
X12.71Y-6.28
X12.799Y-6.101
X12.886Y-5.92
X12.97Y-5.739
X13.052Y-5.556
X13.131Y-5.373
X13.207Y-5.188
X13.281Y-5.002
X13.353Y-4.815
X13.421Y-4.627
X13.487Y-4.438
X13.55Y-4.249
X13.611Y-4.058
X13.669Y-3.867
X13.724Y-3.674
X13.777Y-3.481
X13.827Y-3.288
X13.874Y-3.093
X13.918Y-2.898
X13.96Y-2.703
X13.999Y-2.506
X14.035Y-2.31
X14.068Y-2.112
X14.098Y-1.915
X14.126Y-1.717
X14.151Y-1.518
X14.173Y-1.319
X14.193Y-1.12
X14.209Y-0.921
X14.223Y-0.721
X14.234Y-0.522
X14.242Y-0.322
X14.248Y-0.122
X14.25Y0.077
Y0.277
X14.247Y0.477
X14.241Y0.677
X14.232Y0.877
X14.221Y1.077
X14.206Y1.276
X14.189Y1.475
X14.17Y1.674
X14.147Y1.873
X14.121Y2.072
X14.093Y2.27
X14.062Y2.467
X14.028Y2.664
X13.992Y2.861
X13.953Y3.057
X13.911Y3.253
X13.866Y3.448
X13.818Y3.642
X13.768Y3.836
X13.715Y4.029
X13.66Y4.221
X13.602Y4.412
X13.541Y4.603
X13.477Y4.792
X13.411Y4.981
X13.342Y5.169
X13.27Y5.356
X13.196Y5.541
X13.12Y5.726
X13.04Y5.91
X12.959Y6.092
X12.874Y6.274
X12.787Y6.454
X12.698Y6.633
X12.606Y6.81
X12.512Y6.987
X12.415Y7.162
X12.316Y7.336
X12.214Y7.508
X12.11Y7.679
X12.004Y7.848
X11.895Y8.016
X11.784Y8.182
X11.67Y8.347
X11.555Y8.51
X11.437Y8.672
X11.316Y8.832
X11.194Y8.99
X11.069Y9.146
X10.943Y9.301
X10.814Y9.454
X10.683Y9.605
X10.55Y9.754
X10.414Y9.902
X10.277Y10.047
X10.138Y10.191
X9.997Y10.333
X9.853Y10.472
X9.708Y10.61
X9.561Y10.746
X9.412Y10.879
X9.262Y11.011
X9.109Y11.14
X8.955Y11.267
X8.799Y11.392
X8.641Y11.515
X8.481Y11.636
X8.32Y11.754
X8.158Y11.871
X7.993Y11.985
X7.827Y12.096
X7.66Y12.206
X7.491Y12.313
X7.32Y12.417
X7.148Y12.52
X6.975Y12.62
X6.8Y12.717
X6.624Y12.812
X6.447Y12.905
X6.269Y12.995
X6.089Y13.082
X5.908Y13.168
X5.726Y13.25
X5.542Y13.33
X5.358Y13.408
X5.172Y13.483
X4.986Y13.555
X4.799Y13.625
X4.61Y13.692
X4.421Y13.757
X4.231Y13.819
X4.04Y13.878
X3.848Y13.935
X3.655Y13.989
X3.462Y14.04
X3.268Y14.089
X3.073Y14.135
X2.878Y14.178
X2.682Y14.219
X2.486Y14.257
X2.289Y14.292
X2.091Y14.324
X1.894Y14.354
X1.695Y14.381
X1.497Y14.405
X1.298Y14.427
X1.099Y14.446
X0.899Y14.462
X0.7Y14.475
X0.5Y14.485
X0.3Y14.493
X0.1Y14.498
X-0.099Y14.5
X-0.299
X-0.499Y14.496
X-0.699Y14.49
X-0.899Y14.481
X-1.098Y14.47
X-1.298Y14.456
X-1.497Y14.438
X-1.696Y14.419
X-1.895Y14.396
X-2.093Y14.371
X-2.291Y14.343
X-2.489Y14.312
X-2.686Y14.279
X-2.883Y14.242
X-3.079Y14.203
X-3.275Y14.162
X-3.47Y14.118
X-3.664Y14.071
X-3.858Y14.021
X-4.051Y13.969
X-4.243Y13.914
X-4.435Y13.856
X-4.626Y13.796
X-4.816Y13.733
X-5.005Y13.668
X-5.193Y13.6
X-5.38Y13.529
X-5.566Y13.456
X-5.751Y13.38
X-5.935Y13.302
X-6.118Y13.221
X-6.3Y13.138
X-6.481Y13.052
X-6.66Y12.964
X-6.839Y12.873
X-7.016Y12.78
X-7.191Y12.685
X-7.366Y12.587
X-7.539Y12.486
X-7.711Y12.384
X-7.881Y12.279
X-8.05Y12.171
X-8.217Y12.062
X-8.383Y11.95
X-8.547Y11.835
X-8.709Y11.719
X-8.87Y11.6
X-9.03Y11.479
X-9.188Y11.356
X-9.344Y11.231
X-9.498Y11.104
X-9.65Y10.975
X-9.801Y10.843
X-9.95Y10.71
X-10.097Y10.574
X-10.242Y10.436
X-10.386Y10.297
X-10.527Y10.155
X-10.667Y10.012
X-10.804Y9.867
X-10.94Y9.72
X-11.073Y9.571
X-11.204Y9.42
X-11.334Y9.267
X-11.461Y9.113
X-11.586Y8.957
X-11.709Y8.799
X-11.83Y8.64
X-11.948Y8.479
X-12.065Y8.316
X-12.179Y8.152
X-12.291Y7.986
X-12.401Y7.819
X-12.508Y7.65
X-12.613Y7.48
X-12.716Y7.308
X-12.816Y7.135
X-12.914Y6.961
X-13.01Y6.785
X-13.103Y6.608
X-13.194Y6.43
X-13.282Y6.25
X-13.368Y6.07
X-13.451Y5.888
X-13.532Y5.705
X-13.611Y5.521
X-13.687Y5.336
X-13.76Y5.15
X-13.831Y4.963
X-13.899Y4.775
X-13.965Y4.586
X-14.028Y4.396
X-14.089Y4.205
X-14.147Y4.014
X-14.202Y3.822
X-14.255Y3.629
X-14.305Y3.435
X-14.353Y3.241
X-14.398Y3.046
X-14.44Y2.85
X-14.479Y2.654
X-14.516Y2.458
X-14.55Y2.261
X-14.582Y2.063
X-14.611Y1.865
X-14.637Y1.667
X-14.66Y1.468
X-14.681Y1.269
X-14.699Y1.07
X-14.714Y0.871
X-14.727Y0.671
X-14.737Y0.471
X-14.744Y0.271
X-14.749Y0.071
X-14.75Y-0.128
X-14.749Y-0.328
X-14.746Y-0.528
X-14.739Y-0.728
X-14.73Y-0.927
X-14.718Y-1.127
X-14.704Y-1.327
X-14.687Y-1.526
X-14.667Y-1.725
X-14.644Y-1.924
X-14.619Y-2.122
X-14.591Y-2.32
X-14.561Y-2.518
X-14.527Y-2.715
X-14.491Y-2.912
X-14.453Y-3.108
X-14.411Y-3.304
X-14.367Y-3.499
X-14.321Y-3.693
X-14.272Y-3.887
X-14.22Y-4.081
X-14.166Y-4.273
X-14.109Y-4.465
X-14.049Y-4.656
X-13.987Y-4.846
X-13.922Y-5.035
X-13.855Y-5.223
X-13.785Y-5.411
X-13.713Y-5.597
X-13.638Y-5.783
X-13.56Y-5.967
X-13.481Y-6.151
X-13.398Y-6.333
X-13.313Y-6.514
X-13.226Y-6.694
X-13.137Y-6.873
X-13.045Y-7.051
X-12.95Y-7.227
X-12.853Y-7.402
X-12.754Y-7.576
X-12.653Y-7.748
X-12.549Y-7.919
X-12.443Y-8.089
X-12.335Y-8.257
X-12.224Y-8.424
X-12.111Y-8.589
X-11.996Y-8.752
X-11.879Y-8.914
X-11.759Y-9.075
X-11.638Y-9.234
X-11.514Y-9.391
X-11.388Y-9.546
X-11.26Y-9.7
X-11.131Y-9.852
X-10.999Y-10.003
X-10.865Y-10.151
X-10.729Y-10.298
X-10.591Y-10.443
X-10.451Y-10.586
X-10.309Y-10.727
X-10.165Y-10.866
X-10.02Y-11.003
X-9.872Y-11.138
X-9.723Y-11.272
X-9.572Y-11.403
X-9.42Y-11.532
X-9.265Y-11.659
X-9.109Y-11.784
X-8.951Y-11.907
X-8.792Y-12.028
X-8.631Y-12.147
X-8.468Y-12.263
X-8.304Y-12.378
X-8.139Y-12.49
X-7.971Y-12.6
X-7.803Y-12.707
X-7.633Y-12.813
X-7.461Y-12.916
X-7.289Y-13.016
X-7.114Y-13.115
X-6.939Y-13.211
X-6.762Y-13.305
X-6.584Y-13.396
X-6.405Y-13.485
X-6.225Y-13.571
X-6.043Y-13.655
X-5.861Y-13.737
X-5.677Y-13.816
X-5.492Y-13.893
X-5.307Y-13.967
X-5.12Y-14.039
X-4.932Y-14.108
X-4.744Y-14.175
X-4.554Y-14.239
X-4.364Y-14.301
X-4.173Y-14.36
X-3.981Y-14.417
X-3.789Y-14.471
X-3.595Y-14.522
X-3.401Y-14.571
X-3.207Y-14.617
X-3.011Y-14.661
X-2.816Y-14.702
X-2.619Y-14.74
X-2.423Y-14.776
X-2.225Y-14.809
X-2.028Y-14.84
X-1.83Y-14.868
X-1.631Y-14.893
X-1.432Y-14.916
X-1.233Y-14.935
X-1.034Y-14.953
X-0.835Y-14.967
X-0.635Y-14.979
X-0.435Y-14.989
X-0.235Y-14.995
X-0.035Y-14.999
X0.164Y-15
X0.364Y-14.999
X0.564Y-14.995
X0.764Y-14.988
X0.964Y-14.979
X1.163Y-14.967
X1.363Y-14.952
X1.562Y-14.935
X1.761Y-14.915
X1.96Y-14.892
X2.158Y-14.867
X2.356Y-14.839
X2.554Y-14.808
X2.751Y-14.775
X2.948Y-14.739
X3.144Y-14.7
X3.34Y-14.659
X3.535Y-14.616
X3.73Y-14.569
X3.924Y-14.521
X4.117Y-14.469
X4.31Y-14.415
X4.501Y-14.359
X4.693Y-14.3
X4.883Y-14.238
X5.072Y-14.174
X5.261Y-14.107
X5.449Y-14.038
X5.635Y-13.966
X5.821Y-13.892
X6.006Y-13.816
X6.19Y-13.737
X6.372Y-13.655
X6.554Y-13.571
X6.734Y-13.485
X6.914Y-13.396
X7.092Y-13.305
X7.269Y-13.212
X7.444Y-13.116
X7.619Y-13.018
X7.792Y-12.918
X7.963Y-12.815
X8.134Y-12.71
X8.303Y-12.603
X8.47Y-12.494
X8.636Y-12.382
X8.8Y-12.268
X8.963Y-12.152
X9.125Y-12.034
X9.285Y-11.914
X9.443Y-11.792
X9.6Y-11.667
X9.755Y-11.541
X9.908Y-11.412
X10.059Y-11.282
X10.209Y-11.149
X10.357Y-11.015
X10.504Y-10.878
X10.648Y-10.74
X10.791Y-10.6
X10.931Y-10.457
X11.07Y-10.313
X11.207Y-10.168
X11.342Y-10.02
X11.475Y-9.871
X11.606Y-9.719
X11.735Y-9.567
X11.862Y-9.412
X11.987Y-9.256
X12.11Y-9.098
X12.231Y-8.939
X12.349Y-8.778
X12.466Y-8.615
X12.58Y-8.451
X12.692Y-8.285
X12.802Y-8.118
X12.91Y-7.95
X13.016Y-7.78
X13.119Y-7.608
X13.22Y-7.436
X13.319Y-7.262
X13.415Y-7.087
X13.509Y-6.91
X13.601Y-6.732
X13.691Y-6.553
X13.778Y-6.373
X13.862Y-6.192
X13.945Y-6.01
X14.024Y-5.827
X14.102Y-5.642
X14.177Y-5.457
X14.25Y-5.27
X14.32Y-5.083
X14.387Y-4.895
X14.452Y-4.706
X14.515Y-4.516
X14.575Y-4.325
X14.633Y-4.133
X14.688Y-3.941
X14.741Y-3.748
X14.791Y-3.554
X14.838Y-3.36
X14.883Y-3.165
X14.926Y-2.97
X14.965Y-2.774
X15.003Y-2.577
X15.037Y-2.38
X15.069Y-2.183
X15.099Y-1.985
X15.126Y-1.787
X15.15Y-1.588
X15.171Y-1.389
X15.19Y-1.19
X15.207Y-0.991
X15.221Y-0.791
X15.232Y-0.592
X15.24Y-0.392
X15.246Y-0.192
X15.25Y0.007
Y0.207
X15.248Y0.407
X15.244Y0.607
X15.237Y0.807
X15.227Y1.007
X15.214Y1.207
X15.199Y1.406
X15.182Y1.605
X15.161Y1.804
X15.138Y2.003
X15.113Y2.201
X15.085Y2.399
X15.054Y2.597
X15.021Y2.794
X14.985Y2.991
X14.947Y3.187
X14.906Y3.383
X14.862Y3.578
X14.816Y3.773
X14.768Y3.967
X14.716Y4.16
X14.663Y4.353
X14.607Y4.545
X14.548Y4.736
X14.487Y4.927
X14.423Y5.116
X14.357Y5.305
X14.288Y5.493
X14.217Y5.68
X14.144Y5.866
X14.068Y6.051
X13.989Y6.235
X13.909Y6.418
X13.826Y6.6
X13.74Y6.781
X13.652Y6.961
X13.562Y7.139
X13.47Y7.317
X13.375Y7.493
X13.278Y7.668
X13.178Y7.841
X13.077Y8.013
X12.973Y8.184
X12.867Y8.354
X12.759Y8.522
X12.648Y8.689
X12.535Y8.854
X12.421Y9.018
X12.304Y9.18
X12.185Y9.341
X12.064Y9.5
X11.941Y9.658
X11.815Y9.814
X11.688Y9.968
X11.559Y10.121
X11.428Y10.272
X11.295Y10.421
X11.16Y10.569
X11.023Y10.715
X10.884Y10.858
X10.743Y11.001
X10.6Y11.141
X10.456Y11.279
X10.31Y11.416
X10.162Y11.551
X10.012Y11.683
X9.861Y11.814
X9.708Y11.943
X9.553Y12.07
X9.397Y12.194
X9.239Y12.317
X9.079Y12.438
X8.918Y12.556
X8.756Y12.673
X8.591Y12.787
X8.426Y12.899
X8.259Y13.009
X8.09Y13.117
X7.92Y13.223
X7.749Y13.326
X7.577Y13.427
X7.403Y13.526
X7.228Y13.623
X7.052Y13.717
X6.874Y13.81
X6.695Y13.899
X6.515Y13.987
X6.334Y14.072
X6.152Y14.155
X5.969Y14.235
X5.785Y14.313
X5.6Y14.389
X5.414Y14.462
X5.227Y14.533
X5.039Y14.602
X4.85Y14.667
X4.66Y14.731
X4.47Y14.792
X4.278Y14.851
X4.086Y14.907
X3.894Y14.96
X3.7Y15.012
X3.506Y15.06
X3.312Y15.106
X3.117Y15.15
X2.921Y15.191
X2.725Y15.229
X2.528Y15.265
X2.331Y15.299
X2.133Y15.33
X1.935Y15.358
X1.737Y15.384
X1.538Y15.407
X1.339Y15.428
X1.14Y15.446
X0.94Y15.461
X0.741Y15.474
X0.541Y15.484
X0.341Y15.492
X0.141Y15.497
X-0.058Y15.5
X-0.258
X-0.458Y15.497
X-0.658Y15.492
X-0.858Y15.485
X-1.058Y15.474
X-1.257Y15.461
X-1.457Y15.446
X-1.656Y15.428
X-1.855Y15.407
X-2.053Y15.384
X-2.252Y15.358
X-2.45Y15.33
X-2.647Y15.299
X-2.845Y15.266
X-3.041Y15.23
X-3.238Y15.192
X-3.433Y15.151
X-3.629Y15.107
X-3.823Y15.061
X-4.017Y15.013
X-4.211Y14.962
X-4.404Y14.908
X-4.596Y14.852
X-4.787Y14.794
X-4.977Y14.733
X-5.167Y14.67
X-5.356Y14.604
X-5.544Y14.536
X-5.731Y14.465
X-5.918Y14.392
X-6.103Y14.317
X-6.287Y14.239
X-6.47Y14.159
X-6.653Y14.077
X-6.834Y13.992
X-7.014Y13.905
X-7.193Y13.815
X-7.371Y13.724
X-7.547Y13.63
X-7.723Y13.533
X-7.897Y13.435
X-8.069Y13.334
X-8.241Y13.231
X-8.411Y13.126
X-8.58Y13.019
X-8.747Y12.91
X-8.913Y12.798
X-9.078Y12.684
X-9.241Y12.569
X-9.403Y12.451
X-9.563Y12.331
X-9.721Y12.209
X-9.878Y12.085
X-10.034Y11.959
X-10.187Y11.831
X-10.339Y11.701
X-10.49Y11.569
X-10.638Y11.435
X-10.785Y11.299
X-10.931Y11.162
X-11.074Y11.022
X-11.216Y10.881
X-11.356Y10.738
X-11.493Y10.593
X-11.63Y10.447
X-11.764Y10.299
X-11.896Y10.149
X-12.027Y9.997
X-12.155Y9.844
X-12.281Y9.689
X-12.406Y9.532
X-12.528Y9.374
X-12.649Y9.214
X-12.767Y9.053
X-12.884Y8.89
X-12.998Y8.726
X-13.11Y8.56
X-13.22Y8.393
X-13.328Y8.225
X-13.433Y8.055
X-13.537Y7.884
X-13.638Y7.711
X-13.737Y7.538
X-13.834Y7.363
X-13.929Y7.186
X-14.021Y7.009
X-14.111Y6.83
X-14.199Y6.651
X-14.285Y6.47
X-14.368Y6.288
X-14.449Y6.105
X-14.527Y5.921
X-14.604Y5.736
X-14.677Y5.55
X-14.749Y5.363
X-14.818Y5.176
X-14.885Y4.987
X-14.949Y4.798
X-15.011Y4.608
X-15.07Y4.417
X-15.127Y4.225
X-15.182Y4.032
X-15.234Y3.839
X-15.283Y3.645
X-15.33Y3.451
X-15.375Y3.256
X-15.417Y3.061
X-15.457Y2.865
X-15.494Y2.668
X-15.529Y2.471
X-15.561Y2.274
X-15.591Y2.076
X-15.618Y1.878
X-15.643Y1.679
X-15.665Y1.48
X-15.684Y1.281
X-15.701Y1.082
X-15.716Y0.882
X-15.728Y0.683
X-15.737Y0.483
X-15.744Y0.283
X-15.748Y0.083
X-15.75Y-0.116
X-15.749Y-0.316
X-15.746Y-0.516
X-15.74Y-0.716
X-15.732Y-0.916
X-15.721Y-1.115
X-15.708Y-1.315
X-15.692Y-1.514
X-15.673Y-1.714
X-15.652Y-1.912
X-15.629Y-2.111
X-15.603Y-2.309
X-15.574Y-2.507
X-15.543Y-2.705
X-15.51Y-2.902
X-15.474Y-3.099
X-15.435Y-3.295
X-15.394Y-3.491
X-15.351Y-3.686
X-15.305Y-3.881
X-15.256Y-4.075
X-15.205Y-4.268
X-15.152Y-4.461
X-15.096Y-4.653
X-15.038Y-4.845
X-14.977Y-5.035
X-14.914Y-5.225
X-14.849Y-5.414
X-14.781Y-5.602
X-14.711Y-5.789
X-14.638Y-5.976
X-14.563Y-6.161
X-14.486Y-6.346
X-14.406Y-6.529
X-14.325Y-6.712
X-14.24Y-6.893
X-14.154Y-7.074
X-14.065Y-7.253
X-13.974Y-7.431
X-13.881Y-7.608
X-13.785Y-7.784
X-13.688Y-7.958
X-13.588Y-8.132
X-13.486Y-8.304
X-13.382Y-8.474
X-13.275Y-8.644
X-13.167Y-8.812
X-13.056Y-8.978
X-12.943Y-9.144
X-12.828Y-9.307
X-12.712Y-9.47
X-12.593Y-9.631
X-12.472Y-9.79
X-12.349Y-9.948
X-12.224Y-10.104
X-12.097Y-10.259
X-11.968Y-10.412
X-11.838Y-10.563
X-11.705Y-10.713
X-11.57Y-10.861
X-11.434Y-11.007
X-11.296Y-11.152
X-11.156Y-11.295
X-11.014Y-11.436
X-10.871Y-11.575
X-10.725Y-11.712
X-10.578Y-11.848
X-10.43Y-11.982
X-10.279Y-12.114
X-10.127Y-12.244
X-9.974Y-12.372
X-9.818Y-12.498
X-9.661Y-12.622
X-9.503Y-12.744
X-9.343Y-12.864
X-9.182Y-12.983
X-9.019Y-13.099
X-8.855Y-13.213
X-8.689Y-13.325
X-8.522Y-13.435
X-8.353Y-13.542
X-8.183Y-13.648
X-8.012Y-13.751
X-7.84Y-13.853
X-7.666Y-13.952
X-7.491Y-14.049
X-7.315Y-14.144
X-7.138Y-14.236
X-6.959Y-14.327
X-6.78Y-14.415
X-6.599Y-14.5
X-6.417Y-14.584
X-6.234Y-14.665
X-6.051Y-14.744
X-5.866Y-14.821
X-5.68Y-14.895
X-5.493Y-14.967
X-5.306Y-15.037
X-5.118Y-15.104
X-4.928Y-15.169
X-4.738Y-15.231
X-4.548Y-15.291
X-4.356Y-15.349
X-4.164Y-15.405
X-3.971Y-15.457
X-3.777Y-15.508
X-3.583Y-15.556
X-3.389Y-15.602
X-3.193Y-15.645
X-2.997Y-15.686
X-2.801Y-15.724
X-2.604Y-15.76
X-2.407Y-15.793
X-2.209Y-15.824
X-2.011Y-15.852
X-1.813Y-15.878
X-1.614Y-15.902
X-1.416Y-15.923
X-1.216Y-15.941
X-1.017Y-15.957
X-0.817Y-15.97
X-0.618Y-15.981
X-0.418Y-15.99
X-0.218Y-15.996
X-0.018Y-15.999
X0.181Y-16
X0.381Y-15.999
X0.581Y-15.995
X0.781Y-15.988
X0.981Y-15.979
X1.18Y-15.968
X1.38Y-15.954
X1.579Y-15.937
X1.778Y-15.918
X1.977Y-15.897
X2.176Y-15.873
X2.374Y-15.846
X2.572Y-15.817
X2.77Y-15.786
X2.967Y-15.752
X3.163Y-15.716
X3.36Y-15.677
X3.555Y-15.636
X3.751Y-15.592
X3.945Y-15.546
X4.139Y-15.498
X4.333Y-15.447
X4.526Y-15.393
X4.718Y-15.338
X4.909Y-15.28
X5.1Y-15.219
X5.29Y-15.156
X5.479Y-15.091
X5.667Y-15.023
X5.854Y-14.954
X6.041Y-14.881
X6.227Y-14.807
X6.411Y-14.73
X6.595Y-14.651
X6.778Y-14.569
X6.959Y-14.486
X7.14Y-14.4
X7.319Y-14.311
X7.498Y-14.221
X7.675Y-14.128
X7.851Y-14.034
X8.026Y-13.937
X8.2Y-13.837
X8.372Y-13.736
X8.543Y-13.633
X8.713Y-13.527
X8.882Y-13.419
X9.049Y-13.309
X9.215Y-13.198
X9.379Y-13.084
X9.542Y-12.968
X9.704Y-12.85
X9.864Y-12.73
X10.022Y-12.608
X10.179Y-12.484
X10.335Y-12.358
X10.489Y-12.23
X10.641Y-12.101
X10.792Y-11.969
X10.941Y-11.836
X11.088Y-11.701
X11.234Y-11.564
X11.378Y-11.425
X11.52Y-11.284
X11.661Y-11.142
X11.799Y-10.998
X11.936Y-10.852
X12.071Y-10.704
X12.205Y-10.555
X12.336Y-10.404
X12.466Y-10.252
X12.593Y-10.098
X12.719Y-9.942
X12.843Y-9.785
X12.964Y-9.627
X13.084Y-9.466
X13.202Y-9.305
X13.318Y-9.142
X13.432Y-8.977
X13.543Y-8.811
X13.653Y-8.644
X13.761Y-8.475
X13.866Y-8.305
X13.97Y-8.134
X14.071Y-7.962
X14.17Y-7.788
X14.267Y-7.613
X14.362Y-7.437
X14.455Y-7.26
X14.545Y-7.081
X14.633Y-6.902
X14.719Y-6.721
X14.803Y-6.54
X14.884Y-6.357
X14.964Y-6.173
X15.041Y-5.989
X15.115Y-5.803
X15.188Y-5.617
X15.258Y-5.429
X15.325Y-5.241
X15.391Y-5.052
X15.454Y-4.862
X15.515Y-4.672
X15.573Y-4.48
X15.629Y-4.288
X15.683Y-4.096
X15.734Y-3.902
X15.783Y-3.708
X15.829Y-3.514
X15.873Y-3.319
X15.915Y-3.123
X15.954Y-2.927
X15.991Y-2.73
X16.025Y-2.533
X16.057Y-2.336
X16.087Y-2.138
X16.114Y-1.94
X16.139Y-1.741
X16.161Y-1.542
X16.181Y-1.343
X16.198Y-1.144
X16.213Y-0.945
X16.225Y-0.745
X16.235Y-0.545
X16.242Y-0.345
X16.247Y-0.145
X16.25Y0.054
Y0.254
X16.248Y0.454
X16.243Y0.654
X16.235Y0.853
X16.226Y1.053
X16.213Y1.253
X16.199Y1.452
X16.182Y1.652
X16.162Y1.851
X16.14Y2.049
X16.115Y2.248
X16.089Y2.446
X16.059Y2.644
X16.027Y2.842
X15.993Y3.039
X15.957Y3.235
X15.918Y3.431
X15.876Y3.627
X15.832Y3.822
X15.786Y4.017
X15.737Y4.211
X15.686Y4.404
X15.633Y4.597
X15.577Y4.789
X15.519Y4.981
X15.459Y5.171
X15.396Y5.361
X15.331Y5.55
X15.263Y5.739
X15.194Y5.926
X15.122Y6.113
X15.047Y6.298
X14.971Y6.483
X14.892Y6.667
X14.811Y6.85
X14.728Y7.032
X14.642Y7.213
X14.554Y7.392
X14.464Y7.571
X14.372Y7.748
X14.278Y7.925
X14.182Y8.1
X14.083Y8.274
X13.982Y8.447
X13.88Y8.619
X13.775Y8.789
X13.668Y8.958
X13.559Y9.126
X13.448Y9.292
X13.334Y9.457
X13.219Y9.62
X13.102Y9.783
X12.983Y9.943
X12.862Y10.103
X12.739Y10.26
X12.614Y10.416
X12.487Y10.571
X12.359Y10.724
X12.228Y10.876
X12.096Y11.026
X11.962Y11.174
X11.826Y11.321
X11.688Y11.466
X11.548Y11.609
X11.407Y11.751
X11.264Y11.89
X11.119Y12.029
X10.973Y12.165
X10.825Y12.299
X10.675Y12.432
X10.524Y12.563
X10.371Y12.692
X10.217Y12.819
X10.061Y12.944
X9.903Y13.068
X9.744Y13.189
X9.584Y13.308
X9.422Y13.426
X9.258Y13.541
X9.094Y13.655
X8.928Y13.766
X8.76Y13.876
X8.591Y13.983
X8.421Y14.088
X8.25Y14.192
X8.078Y14.293
X7.904Y14.392
X7.729Y14.489
X7.553Y14.584
X7.375Y14.676
X7.197Y14.767
X7.017Y14.855
X6.837Y14.941
X6.655Y15.025
X6.473Y15.107
X6.289Y15.186
X6.105Y15.263
X5.919Y15.338
X5.733Y15.411
X5.546Y15.481
X5.358Y15.549
X5.169Y15.615
X4.979Y15.679
X4.789Y15.74
X4.598Y15.799
X4.406Y15.856
X4.213Y15.91
X4.02Y15.962
X3.826Y16.011
X3.632Y16.058
X3.437Y16.103
X3.241Y16.146
X3.045Y16.186
X2.849Y16.223
X2.652Y16.259
X2.455Y16.292
X2.257Y16.322
X2.059Y16.35
X1.861Y16.376
X1.662Y16.399
X1.463Y16.42
X1.264Y16.439
X1.065Y16.455
X0.865Y16.468
X0.665Y16.48
X0.466Y16.488
X0.266Y16.495
X0.066Y16.499
X-0.133Y16.5
X-0.333Y16.499
X-0.533Y16.496
X-0.733Y16.49
X-0.933Y16.482
X-1.133Y16.471
X-1.332Y16.458
X-1.532Y16.443
X-1.731Y16.425
X-1.93Y16.405
X-2.129Y16.382
X-2.327Y16.357
X-2.525Y16.33
X-2.723Y16.3
X-2.921Y16.268
X-3.118Y16.233
X-3.314Y16.196
X-3.51Y16.157
X-3.706Y16.115
X-3.901Y16.071
X-4.095Y16.024
X-4.289Y15.975
X-4.483Y15.924
X-4.676Y15.871
X-4.868Y15.815
X-5.059Y15.757
X-5.25Y15.696
X-5.44Y15.633
X-5.629Y15.568
X-5.817Y15.501
X-6.005Y15.431
X-6.191Y15.359
X-6.377Y15.285
X-6.562Y15.209
X-6.746Y15.13
X-6.929Y15.05
X-7.111Y14.967
X-7.292Y14.881
X-7.472Y14.794
X-7.651Y14.704
X-7.828Y14.613
X-8.005Y14.519
X-8.18Y14.423
X-8.355Y14.325
X-8.528Y14.225
X-8.7Y14.123
X-8.87Y14.018
X-9.04Y13.912
X-9.208Y13.804
X-9.375Y13.693
X-9.54Y13.581
X-9.704Y13.466
X-9.867Y13.35
X-10.028Y13.232
X-10.188Y13.111
X-10.346Y12.989
X-10.503Y12.865
X-10.659Y12.739
X-10.813Y12.611
X-10.965Y12.482
X-11.116Y12.35
X-11.265Y12.217
X-11.412Y12.082
X-11.558Y11.945
X-11.702Y11.807
X-11.845Y11.666
X-11.986Y11.524
X-12.125Y11.381
X-12.262Y11.235
X-12.398Y11.088
X-12.532Y10.94
X-12.664Y10.789
X-12.794Y10.638
X-12.923Y10.484
X-13.049Y10.329
X-13.174Y10.173
X-13.297Y10.015
X-13.418Y9.856
X-13.537Y9.695
X-13.654Y9.533
X-13.769Y9.369
X-13.882Y9.204
X-13.993Y9.038
X-14.102Y8.87
X-14.209Y8.701
X-14.314Y8.531
X-14.417Y8.36
X-14.518Y8.187
X-14.617Y8.013
X-14.714Y7.838
X-14.809Y7.662
X-14.901Y7.485
X-14.992Y7.306
X-15.08Y7.127
X-15.166Y6.946
X-15.25Y6.765
X-15.332Y6.582
X-15.411Y6.398
X-15.489Y6.214
X-15.564Y6.029
X-15.637Y5.842
X-15.707Y5.655
X-15.776Y5.467
X-15.842Y5.279
X-15.906Y5.089
X-15.967Y4.899
X-16.027Y4.708
X-16.084Y4.516
X-16.139Y4.324
X-16.191Y4.131
X-16.241Y3.937
X-16.289Y3.743
X-16.334Y3.548
X-16.378Y3.353
X-16.418Y3.157
X-16.457Y2.961
X-16.493Y2.764
X-16.527Y2.567
X-16.558Y2.369
X-16.587Y2.171
X-16.614Y1.973
X-16.638Y1.775
X-16.66Y1.576
X-16.68Y1.377
X-16.697Y1.177
X-16.712Y0.978
X-16.724Y0.778
X-16.734Y0.578
X-16.742Y0.379
X-16.747Y0.179
X-16.75Y-0.02
Y-0.22
X-16.748Y-0.42
X-16.744Y-0.62
X-16.737Y-0.82
X-16.728Y-1.02
X-16.717Y-1.22
X-16.703Y-1.419
X-16.687Y-1.619
X-16.668Y-1.818
X-16.647Y-2.017
X-16.624Y-2.215
X-16.598Y-2.414
X-16.57Y-2.612
X-16.539Y-2.809
X-16.506Y-3.007
X-16.471Y-3.204
X-16.434Y-3.4
X-16.394Y-3.596
X-16.352Y-3.792
X-16.307Y-3.987
X-16.26Y-4.181
X-16.211Y-4.375
X-16.16Y-4.568
X-16.106Y-4.761
X-16.05Y-4.953
X-15.992Y-5.144
X-15.931Y-5.335
X-15.868Y-5.525
X-15.803Y-5.714
X-15.736Y-5.902
X-15.666Y-6.09
X-15.595Y-6.277
X-15.52Y-6.462
X-15.444Y-6.647
X-15.366Y-6.831
X-15.285Y-7.014
X-15.202Y-7.196
X-15.117Y-7.377
X-15.03Y-7.558
X-14.941Y-7.737
X-14.85Y-7.914
X-14.756Y-8.091
X-14.661Y-8.267
X-14.563Y-8.442
X-14.463Y-8.615
X-14.362Y-8.787
X-14.258Y-8.958
X-14.152Y-9.128
X-14.044Y-9.296
X-13.934Y-9.464
X-13.823Y-9.629
X-13.709Y-9.794
X-13.593Y-9.957
X-13.476Y-10.119
X-13.356Y-10.279
X-13.235Y-10.438
X-13.111Y-10.596
X-12.986Y-10.752
X-12.859Y-10.906
X-12.73Y-11.059
X-12.6Y-11.211
X-12.467Y-11.361
X-12.333Y-11.509
X-12.197Y-11.656
X-12.059Y-11.801
X-11.92Y-11.944
X-11.779Y-12.086
X-11.636Y-12.226
X-11.492Y-12.364
X-11.346Y-12.501
X-11.198Y-12.636
X-11.049Y-12.769
X-10.898Y-12.901
X-10.746Y-13.03
X-10.592Y-13.158
X-10.436Y-13.284
X-10.28Y-13.408
X-10.121Y-13.53
X-9.962Y-13.651
X-9.8Y-13.769
X-9.638Y-13.886
X-9.474Y-14
X-9.309Y-14.113
X-9.142Y-14.224
X-8.974Y-14.333
X-8.805Y-14.439
X-8.635Y-14.544
X-8.463Y-14.647
X-8.29Y-14.747
X-8.116Y-14.846
X-7.941Y-14.943
X-7.765Y-15.037
X-7.587Y-15.129
X-7.409Y-15.22
X-7.229Y-15.308
X-7.049Y-15.394
X-6.867Y-15.478
X-6.685Y-15.56
X-6.501Y-15.639
X-6.317Y-15.717
X-6.131Y-15.792
X-5.945Y-15.865
X-5.758Y-15.936
X-5.57Y-16.004
X-5.381Y-16.071
X-5.192Y-16.135
X-5.002Y-16.197
X-4.811Y-16.257
X-4.619Y-16.314
X-4.427Y-16.369
X-4.234Y-16.422
X-4.041Y-16.473
X-3.847Y-16.521
X-3.652Y-16.567
X-3.457Y-16.611
X-3.261Y-16.652
X-3.065Y-16.691
X-2.868Y-16.728
X-2.671Y-16.763
X-2.474Y-16.795
X-2.276Y-16.825
X-2.078Y-16.852
X-1.88Y-16.877
X-1.681Y-16.9
X-1.482Y-16.921
X-1.283Y-16.939
X-1.083Y-16.955
X-0.884Y-16.968
X-0.684Y-16.979
X-0.484Y-16.988
X-0.284Y-16.994
X-0.084Y-16.998
X0.115Y-17
X0.315
X0.515Y-16.996
X0.715Y-16.991
X0.915Y-16.983
X1.114Y-16.973
X1.314Y-16.961
X1.513Y-16.946
X1.713Y-16.929
X1.912Y-16.91
X2.111Y-16.888
X2.309Y-16.864
X2.507Y-16.837
X2.705Y-16.808
X2.903Y-16.777
X3.1Y-16.744
X3.297Y-16.708
X3.493Y-16.67
X3.689Y-16.63
X3.885Y-16.587
X4.08Y-16.542
X4.274Y-16.495
X4.468Y-16.446
X4.661Y-16.394
X4.853Y-16.34
X5.045Y-16.283
X5.237Y-16.225
X5.427Y-16.164
X5.617Y-16.101
X5.806Y-16.036
X5.994Y-15.968
X6.182Y-15.899
X6.369Y-15.827
X6.554Y-15.753
X6.739Y-15.677
X6.923Y-15.598
X7.106Y-15.518
X7.289Y-15.435
X7.47Y-15.35
X7.65Y-15.263
X7.829Y-15.174
X8.007Y-15.083
X8.184Y-14.99
X8.36Y-14.895
X8.535Y-14.798
X8.708Y-14.698
X8.881Y-14.597
X9.052Y-14.494
X9.222Y-14.388
X9.391Y-14.281
X9.558Y-14.172
X9.725Y-14.06
X9.889Y-13.947
X10.053Y-13.832
X10.215Y-13.715
X10.376Y-13.596
X10.535Y-13.475
X10.693Y-13.353
X10.85Y-13.228
X11.005Y-13.102
X11.159Y-12.974
X11.311Y-12.844
X11.461Y-12.712
X11.61Y-12.579
X11.758Y-12.443
X11.904Y-12.307
X12.048Y-12.168
X12.191Y-12.028
X12.332Y-11.886
X12.471Y-11.742
X12.608Y-11.597
X12.744Y-11.45
X12.879Y-11.302
X13.011Y-11.152
X13.142Y-11.001
X13.271Y-10.848
X13.398Y-10.694
X13.523Y-10.538
X13.647Y-10.38
X13.768Y-10.221
X13.888Y-10.061
X14.006Y-9.9
X14.122Y-9.737
X14.236Y-9.573
X14.348Y-9.407
X14.458Y-9.24
X14.567Y-9.072
X14.673Y-8.902
X14.777Y-8.732
X14.88Y-8.56
X14.98Y-8.387
X15.078Y-8.213
X15.175Y-8.037
X15.269Y-7.861
X15.361Y-7.683
X15.451Y-7.505
X15.539Y-7.325
X15.625Y-7.145
X15.709Y-6.963
X15.791Y-6.78
X15.87Y-6.597
X15.948Y-6.412
X16.023Y-6.227
X16.096Y-6.041
X16.167Y-5.854
X16.236Y-5.666
X16.302Y-5.478
X16.366Y-5.288
X16.429Y-5.098
X16.489Y-4.907
X16.546Y-4.716
X16.602Y-4.524
X16.655Y-4.331
X16.706Y-4.137
X16.755Y-3.943
X16.801Y-3.749
X16.846Y-3.554
X16.887Y-3.358
X16.927Y-3.162
X16.965Y-2.966
X17Y-2.769
X17.033Y-2.571
X17.063Y-2.374
X17.091Y-2.176
X17.117Y-1.977
X17.141Y-1.779
X17.162Y-1.58
X17.181Y-1.381
X17.198Y-1.181
X17.212Y-0.982
X17.224Y-0.782
X17.234Y-0.583
X17.242Y-0.383
X17.247Y-0.183
X17.25Y0.016
Y0.216
X17.248Y0.416
X17.244Y0.616
X17.238Y0.816
X17.229Y1.016
X17.218Y1.216
X17.204Y1.415
X17.189Y1.615
X17.171Y1.814
X17.15Y2.013
X17.128Y2.212
X17.103Y2.41
X17.075Y2.608
X17.046Y2.806
X17.014Y3.004
X16.98Y3.201
X16.944Y3.397
X16.905Y3.594
X16.864Y3.789
X16.821Y3.985
X16.775Y4.179
X16.728Y4.374
X16.678Y4.567
X16.626Y4.76
X16.571Y4.953
X16.515Y5.145
X16.456Y5.336
X16.395Y5.526
X16.331Y5.716
X16.266Y5.905
X16.198Y6.093
X16.129Y6.281
X16.057Y6.467
X15.983Y6.653
X15.906Y6.838
X15.828Y7.022
X15.747Y7.205
X15.665Y7.387
X15.58Y7.569
X15.493Y7.749
X15.405Y7.928
X15.314Y8.106
X15.221Y8.283
X15.126Y8.459
X15.029Y8.634
X14.93Y8.808
X14.828Y8.981
X14.725Y9.152
X14.62Y9.322
X14.513Y9.491
X14.405Y9.659
X14.294Y9.826
X14.181Y9.991
X14.066Y10.155
X13.95Y10.317
X13.831Y10.479
X13.711Y10.638
X13.589Y10.797
X13.465Y10.954
X13.34Y11.109
X13.212Y11.264
X13.083Y11.416
X12.952Y11.567
X12.819Y11.717
X12.685Y11.865
X12.549Y12.012
X12.411Y12.157
X12.271Y12.3
X12.13Y12.442
X11.987Y12.582
X11.843Y12.72
X11.697Y12.857
X11.55Y12.992
X11.401Y13.126
X11.25Y13.257
X11.098Y13.387
X10.944Y13.515
X10.789Y13.642
X10.633Y13.766
X10.475Y13.889
X10.316Y14.01
X10.155Y14.129
X9.993Y14.247
X9.83Y14.362
X9.665Y14.476
X9.499Y14.587
X9.332Y14.697
X9.163Y14.805
X8.994Y14.911
X8.823Y15.014
X8.651Y15.116
X8.477Y15.216
X8.303Y15.314
X8.127Y15.41
X7.951Y15.504
X7.773Y15.596
X7.594Y15.686
X7.415Y15.774
X7.234Y15.859
X7.052Y15.943
X6.87Y16.024
X6.686Y16.104
X6.502Y16.181
X6.316Y16.256
X6.13Y16.329
X5.943Y16.4
X5.755Y16.469
X5.567Y16.536
X5.377Y16.6
X5.187Y16.663
X4.996Y16.723
X4.805Y16.781
X4.613Y16.836
X4.42Y16.89
X4.227Y16.941
X4.033Y16.99
X3.839Y17.037
X3.644Y17.082
X3.448Y17.124
X3.252Y17.164
X3.056Y17.202
X2.859Y17.238
X2.662Y17.271
X2.464Y17.302
X2.266Y17.331
X2.068Y17.358
X1.869Y17.382
X1.671Y17.404
X1.472Y17.424
X1.272Y17.441
X1.073Y17.457
X0.873Y17.47
X0.674Y17.48
X0.474Y17.489
X0.274Y17.495
X0.074Y17.499
X-0.125Y17.5
X-0.325Y17.499
X-0.525Y17.496
X-0.725Y17.491
X-0.925Y17.483
X-1.125Y17.474
X-1.324Y17.461
X-1.524Y17.447
X-1.723Y17.43
X-1.922Y17.411
X-2.121Y17.39
X-2.32Y17.366
X-2.518Y17.34
X-2.716Y17.312
X-2.914Y17.282
X-3.111Y17.249
X-3.308Y17.215
X-3.505Y17.178
X-3.701Y17.138
X-3.897Y17.097
X-4.092Y17.053
X-4.286Y17.007
X-4.481Y16.959
X-4.674Y16.908
X-4.867Y16.855
X-5.059Y16.801
X-5.251Y16.744
X-5.442Y16.684
X-5.633Y16.623
X-5.822Y16.559
X-6.011Y16.494
X-6.199Y16.426
X-6.387Y16.356
X-6.573Y16.284
X-6.759Y16.21
X-6.944Y16.133
X-7.128Y16.055
X-7.311Y15.974
X-7.493Y15.892
X-7.674Y15.807
X-7.854Y15.72
X-8.034Y15.631
X-8.212Y15.54
X-8.389Y15.448
X-8.565Y15.353
X-8.74Y15.256
X-8.914Y15.157
X-9.087Y15.056
X-9.258Y14.953
X-9.429Y14.849
X-9.598Y14.742
X-9.766Y14.633
X-9.933Y14.523
X-10.098Y14.411
X-10.262Y14.296
X-10.425Y14.18
X-10.587Y14.062
X-10.747Y13.943
X-10.906Y13.821
X-11.063Y13.698
X-11.219Y13.573
X-11.374Y13.446
X-11.527Y13.317
X-11.679Y13.187
X-11.829Y13.054
X-11.977Y12.921
X-12.125Y12.785
X-12.27Y12.648
X-12.414Y12.509
X-12.557Y12.369
X-12.698Y12.227
X-12.837Y12.083
X-12.974Y11.938
X-13.11Y11.791
X-13.245Y11.643
X-13.377Y11.493
X-13.508Y11.342
X-13.637Y11.189
X-13.764Y11.035
X-13.89Y10.879
X-14.014Y10.722
X-14.136Y10.564
X-14.256Y10.404
X-14.375Y10.243
X-14.491Y10.08
X-14.606Y9.916
X-14.719Y9.751
X-14.83Y9.585
X-14.939Y9.417
X-15.046Y9.249
X-15.152Y9.079
X-15.255Y8.907
X-15.357Y8.735
X-15.456Y8.561
X-15.554Y8.387
X-15.649Y8.211
X-15.743Y8.034
X-15.834Y7.856
X-15.924Y7.677
X-16.011Y7.498
X-16.096Y7.317
X-16.18Y7.135
X-16.261Y6.952
X-16.34Y6.769
X-16.418Y6.584
X-16.493Y6.399
X-16.566Y6.212
X-16.637Y6.025
X-16.705Y5.837
X-16.772Y5.649
X-16.836Y5.46
X-16.899Y5.27
X-16.959Y5.079
X-17.017Y4.887
X-17.073Y4.695
X-17.126Y4.503
X-17.178Y4.309
X-17.227Y4.115
X-17.274Y3.921
X-17.319Y3.726
X-17.362Y3.531
X-17.403Y3.335
X-17.441Y3.139
X-17.477Y2.942
X-17.511Y2.745
X-17.542Y2.547
X-17.572Y2.349
X-17.599Y2.151
X-17.624Y1.953
X-17.647Y1.754
X-17.667Y1.555
X-17.685Y1.356
X-17.701Y1.157
X-17.715Y0.957
X-17.726Y0.757
X-17.736Y0.557
X-17.743Y0.358
X-17.747Y0.158
X-17.75Y-0.041
Y-0.241
X-17.748Y-0.441
X-17.744Y-0.641
X-17.737Y-0.841
X-17.728Y-1.041
X-17.717Y-1.241
X-17.704Y-1.44
X-17.688Y-1.64
X-17.67Y-1.839
X-17.65Y-2.038
X-17.628Y-2.237
X-17.604Y-2.435
X-17.577Y-2.634
X-17.548Y-2.831
X-17.517Y-3.029
X-17.483Y-3.226
X-17.448Y-3.423
X-17.41Y-3.619
X-17.37Y-3.815
X-17.327Y-4.011
X-17.283Y-4.206
X-17.236Y-4.4
X-17.187Y-4.594
X-17.136Y-4.788
X-17.083Y-4.981
X-17.028Y-5.173
X-16.97Y-5.364
X-16.911Y-5.555
X-16.849Y-5.746
X-16.785Y-5.935
X-16.719Y-6.124
X-16.651Y-6.312
X-16.581Y-6.499
X-16.508Y-6.686
X-16.434Y-6.871
X-16.357Y-7.056
X-16.279Y-7.24
X-16.198Y-7.423
X-16.115Y-7.605
X-16.03Y-7.786
X-15.944Y-7.966
X-15.855Y-8.146
X-15.764Y-8.324
X-15.671Y-8.501
X-15.576Y-8.677
X-15.48Y-8.852
X-15.381Y-9.026
X-15.28Y-9.199
X-15.178Y-9.371
X-15.073Y-9.541
X-14.967Y-9.711
X-14.858Y-9.879
X-14.748Y-10.046
X-14.636Y-10.211
X-14.522Y-10.376
X-14.406Y-10.539
X-14.289Y-10.701
X-14.17Y-10.861
X-14.048Y-11.02
X-13.925Y-11.178
X-13.801Y-11.335
X-13.674Y-11.49
X-13.546Y-11.643
X-13.416Y-11.795
X-13.285Y-11.946
X-13.151Y-12.095
X-13.017Y-12.243
X-12.88Y-12.389
X-12.742Y-12.533
X-12.602Y-12.677
X-12.461Y-12.818
X-12.318Y-12.958
X-12.173Y-13.096
X-12.027Y-13.233
X-11.88Y-13.368
X-11.73Y-13.501
X-11.58Y-13.633
X-11.428Y-13.763
X-11.274Y-13.891
X-11.12Y-14.018
X-10.963Y-14.143
X-10.806Y-14.266
X-10.647Y-14.387
X-10.486Y-14.506
X-10.324Y-14.624
X-10.161Y-14.74
X-9.997Y-14.854
X-9.832Y-14.966
X-9.665Y-15.077
X-9.497Y-15.185
X-9.328Y-15.292
X-9.157Y-15.397
X-8.986Y-15.499
X-8.813Y-15.6
X-8.639Y-15.699
X-8.464Y-15.796
X-8.288Y-15.891
X-8.111Y-15.984
X-7.933Y-16.075
X-7.754Y-16.165
X-7.574Y-16.252
X-7.393Y-16.337
X-7.211Y-16.42
X-7.028Y-16.501
X-6.844Y-16.58
X-6.66Y-16.657
X-6.474Y-16.732
X-6.288Y-16.804
X-6.101Y-16.875
X-5.913Y-16.944
X-5.724Y-17.01
X-5.535Y-17.075
X-5.345Y-17.137
X-5.154Y-17.197
X-4.963Y-17.255
X-4.771Y-17.311
X-4.578Y-17.365
X-4.385Y-17.417
X-4.191Y-17.466
X-3.997Y-17.513
X-3.802Y-17.559
X-3.606Y-17.602
X-3.411Y-17.642
X-3.214Y-17.681
X-3.018Y-17.717
X-2.821Y-17.752
X-2.623Y-17.784
X-2.425Y-17.814
X-2.227Y-17.841
X-2.029Y-17.867
X-1.83Y-17.89
X-1.631Y-17.911
X-1.432Y-17.93
X-1.233Y-17.946
X-1.033Y-17.961
X-0.834Y-17.973
X-0.634Y-17.983
X-0.434Y-17.99
X-0.234Y-17.996
X-0.034Y-17.999
X0.165Y-18
X0.365Y-17.999
X0.565Y-17.996
X0.765Y-17.99
X0.965Y-17.982
X1.164Y-17.972
X1.364Y-17.96
X1.564Y-17.945
X1.763Y-17.929
X1.962Y-17.91
X2.161Y-17.889
X2.36Y-17.865
X2.558Y-17.84
X2.756Y-17.812
X2.954Y-17.782
X3.151Y-17.75
X3.348Y-17.716
X3.545Y-17.679
X3.741Y-17.64
X3.937Y-17.599
X4.132Y-17.556
X4.327Y-17.511
X4.521Y-17.464
X4.715Y-17.414
X4.908Y-17.363
X5.101Y-17.309
X5.293Y-17.253
X5.485Y-17.195
X5.675Y-17.135
X5.865Y-17.073
X6.055Y-17.008
X6.243Y-16.942
X6.431Y-16.873
X6.618Y-16.803
X6.805Y-16.73
X6.99Y-16.655
X7.175Y-16.578
X7.359Y-16.499
X7.542Y-16.419
X7.724Y-16.336
X7.905Y-16.251
X8.085Y-16.164
X8.264Y-16.075
X8.442Y-15.984
X8.62Y-15.891
X8.796Y-15.796
X8.971Y-15.7
X9.145Y-15.601
X9.318Y-15.5
X9.489Y-15.398
X9.66Y-15.294
X9.829Y-15.187
X9.998Y-15.079
X10.165Y-14.969
X10.331Y-14.857
X10.495Y-14.744
X10.659Y-14.628
X10.821Y-14.511
X10.981Y-14.392
X11.141Y-14.271
X11.299Y-14.149
X11.455Y-14.024
X11.611Y-13.898
X11.765Y-13.771
X11.917Y-13.641
X12.068Y-13.51
X12.218Y-13.377
X12.366Y-13.243
X12.513Y-13.107
X12.658Y-12.969
X12.801Y-12.83
X12.943Y-12.689
X13.084Y-12.547
X13.223Y-12.403
X13.36Y-12.257
X13.496Y-12.11
X13.63Y-11.962
X13.762Y-11.812
X13.893Y-11.661
X14.022Y-11.508
X14.15Y-11.354
X14.275Y-11.198
X14.399Y-11.041
X14.521Y-10.883
X14.642Y-10.723
X14.761Y-10.562
X14.878Y-10.4
X14.993Y-10.236
X15.106Y-10.072
X15.218Y-9.906
X15.327Y-9.738
X15.435Y-9.57
X15.541Y-9.4
X15.645Y-9.229
X15.747Y-9.057
X15.847Y-8.884
X15.946Y-8.71
X16.042Y-8.535
X16.137Y-8.359
X16.229Y-8.181
X16.32Y-8.003
X16.409Y-7.824
X16.495Y-7.644
X16.58Y-7.462
X16.663Y-7.28
X16.743Y-7.097
X16.822Y-6.913
X16.899Y-6.729
X16.973Y-6.543
X17.046Y-6.357
X17.116Y-6.169
X17.185Y-5.981
X17.251Y-5.793
X17.315Y-5.603
X17.378Y-5.413
X17.438Y-5.223
X17.496Y-5.031
X17.552Y-4.839
X17.605Y-4.646
X17.657Y-4.453
X17.707Y-4.259
X17.754Y-4.065
X17.799Y-3.87
X17.843Y-3.675
X17.884Y-3.479
X17.922Y-3.283
X17.959Y-3.086
X17.994Y-2.889
X18.026Y-2.692
X18.056Y-2.494
X18.084Y-2.296
X18.11Y-2.098
X18.134Y-1.899
X18.155Y-1.7
X18.174Y-1.501
X18.192Y-1.302
X18.206Y-1.103
X18.219Y-0.903
X18.23Y-0.703
X18.238Y-0.503
X18.244Y-0.303
X18.248Y-0.103
X18.25Y0.096
Y0.296
X18.247Y0.496
X18.242Y0.696
X18.235Y0.895
X18.226Y1.095
X18.215Y1.295
X18.201Y1.494
X18.186Y1.694
X18.168Y1.893
X18.147Y2.092
X18.125Y2.291
X18.101Y2.489
X18.074Y2.688
X18.045Y2.886
X18.014Y3.083
X17.981Y3.28
X17.946Y3.477
X17.909Y3.674
X17.869Y3.87
X17.827Y4.065
X17.784Y4.261
X17.738Y4.455
X17.689Y4.649
X17.639Y4.843
X17.587Y5.036
X17.532Y5.229
X17.476Y5.42
X17.417Y5.612
X17.357Y5.802
X17.294Y5.992
X17.229Y6.181
X17.162Y6.37
X17.093Y6.558
X17.022Y6.745
X16.949Y6.931
X16.874Y7.116
X16.797Y7.301
X16.717Y7.484
X16.636Y7.667
X16.553Y7.849
X16.468Y8.03
X16.381Y8.21
X16.292Y8.389
X16.201Y8.567
X16.108Y8.744
X16.013Y8.921
X15.916Y9.096
X15.818Y9.27
X15.717Y9.442
X15.615Y9.614
X15.51Y9.785
X15.404Y9.954
X15.296Y10.123
X15.186Y10.29
X15.075Y10.456
X14.961Y10.621
X14.846Y10.784
X14.729Y10.946
X14.61Y11.107
X14.49Y11.267
X14.367Y11.425
X14.243Y11.582
X14.118Y11.738
X13.99Y11.892
X13.861Y12.045
X13.73Y12.196
X13.598Y12.346
X13.464Y12.495
X13.329Y12.642
X13.191Y12.787
X13.053Y12.931
X12.912Y13.074
X12.77Y13.215
X12.627Y13.354
X12.482Y13.492
X12.336Y13.628
X12.188Y13.763
X12.039Y13.896
X11.888Y14.028
X11.736Y14.157
X11.582Y14.286
X11.427Y14.412
X11.271Y14.537
X11.113Y14.66
X10.954Y14.781
X10.794Y14.901
X10.632Y15.019
X10.469Y15.135
X10.305Y15.249
X10.14Y15.362
X9.973Y15.472
X9.806Y15.581
X9.637Y15.688
X9.466Y15.794
X9.295Y15.897
X9.123Y15.998
X8.949Y16.098
X8.775Y16.196
X8.599Y16.292
X8.423Y16.386
X8.245Y16.478
X8.067Y16.568
X7.887Y16.656
X7.707Y16.742
X7.525Y16.826
X7.343Y16.909
X7.16Y16.989
X6.976Y17.067
X6.791Y17.143
X6.605Y17.218
X6.418Y17.29
X6.231Y17.36
X6.043Y17.428
X5.854Y17.494
X5.665Y17.558
X5.475Y17.62
X5.284Y17.68
X5.092Y17.738
X4.9Y17.794
X4.708Y17.848
X4.515Y17.9
X4.321Y17.949
X4.126Y17.996
X3.932Y18.042
X3.736Y18.085
X3.541Y18.126
X3.344Y18.165
X3.148Y18.202
X2.951Y18.237
X2.753Y18.269
X2.556Y18.3
X2.358Y18.328
X2.159Y18.354
X1.961Y18.378
X1.762Y18.4
X1.563Y18.42
X1.364Y18.437
X1.164Y18.453
X0.965Y18.466
X0.765Y18.477
X0.565Y18.486
X0.365Y18.493
X0.165Y18.497
X-0.034Y18.5
X-0.234
X-0.434Y18.498
X-0.634Y18.494
X-0.833Y18.488
X-1.033Y18.479
X-1.233Y18.469
X-1.433Y18.456
X-1.632Y18.441
X-1.831Y18.424
X-2.031Y18.405
X-2.229Y18.384
X-2.428Y18.36
X-2.626Y18.335
X-2.825Y18.307
X-3.022Y18.277
X-3.22Y18.245
X-3.417Y18.211
X-3.613Y18.175
X-3.81Y18.137
X-4.006Y18.096
X-4.201Y18.053
X-4.396Y18.009
X-4.591Y17.962
X-4.784Y17.913
X-4.978Y17.862
X-5.171Y17.809
X-5.363Y17.754
X-5.555Y17.696
X-5.746Y17.637
X-5.936Y17.576
X-6.126Y17.512
X-6.315Y17.447
X-6.503Y17.38
X-6.691Y17.31
X-6.877Y17.239
X-7.063Y17.165
X-7.249Y17.089
X-7.433Y17.012
X-7.616Y16.932
X-7.799Y16.851
X-7.981Y16.768
X-8.162Y16.682
X-8.342Y16.595
X-8.521Y16.506
X-8.699Y16.414
X-8.876Y16.321
X-9.052Y16.226
X-9.227Y16.129
X-9.401Y16.031
X-9.574Y15.93
X-9.745Y15.827
X-9.916Y15.723
X-10.086Y15.617
X-10.254Y15.509
X-10.421Y15.399
X-10.587Y15.288
X-10.752Y15.174
X-10.915Y15.059
X-11.078Y14.942
X-11.239Y14.824
X-11.399Y14.703
X-11.557Y14.581
X-11.714Y14.458
X-11.87Y14.332
X-12.024Y14.205
X-12.178Y14.076
X-12.329Y13.946
X-12.479Y13.814
X-12.628Y13.68
X-12.776Y13.545
X-12.922Y13.408
X-13.066Y13.27
X-13.209Y13.13
X-13.351Y12.989
X-13.49Y12.846
X-13.629Y12.701
X-13.766Y12.556
X-13.901Y12.408
X-14.035Y12.259
X-14.167Y12.109
X-14.297Y11.958
X-14.426Y11.805
X-14.553Y11.65
X-14.679Y11.494
X-14.802Y11.337
X-14.925Y11.179
X-15.045Y11.019
X-15.164Y10.858
X-15.281Y10.696
X-15.396Y10.532
X-15.509Y10.368
X-15.621Y10.202
X-15.731Y10.035
X-15.839Y9.866
X-15.945Y9.697
X-16.05Y9.526
X-16.152Y9.355
X-16.253Y9.182
X-16.352Y9.008
X-16.449Y8.833
X-16.544Y8.657
X-16.638Y8.48
X-16.729Y8.302
X-16.819Y8.124
X-16.906Y7.944
X-16.992Y7.763
X-17.075Y7.581
X-17.157Y7.399
X-17.237Y7.215
X-17.315Y7.031
X-17.391Y6.846
X-17.464Y6.66
X-17.536Y6.474
X-17.606Y6.286
X-17.674Y6.098
X-17.74Y5.909
X-17.804Y5.72
X-17.865Y5.529
X-17.925Y5.338
X-17.983Y5.147
X-18.039Y4.955
X-18.092Y4.762
X-18.144Y4.569
X-18.193Y4.375
X-18.241Y4.181
X-18.286Y3.986
X-18.329Y3.791
X-18.37Y3.595
X-18.409Y3.399
X-18.446Y3.202
X-18.481Y3.005
X-18.514Y2.808
X-18.544Y2.61
X-18.573Y2.412
X-18.599Y2.214
X-18.624Y2.015
X-18.646Y1.817
X-18.666Y1.618
X-18.684Y1.418
X-18.699Y1.219
X-18.713Y1.019
X-18.725Y0.82
X-18.734Y0.62
X-18.741Y0.42
X-18.746Y0.22
X-18.749Y0.02
X-18.75Y-0.179
X-18.749Y-0.379
X-18.745Y-0.579
X-18.74Y-0.779
X-18.732Y-0.979
X-18.722Y-1.178
X-18.71Y-1.378
X-18.696Y-1.578
X-18.68Y-1.777
X-18.662Y-1.976
X-18.641Y-2.175
X-18.619Y-2.374
X-18.594Y-2.572
X-18.567Y-2.771
X-18.539Y-2.969
X-18.508Y-3.166
X-18.474Y-3.363
X-18.439Y-3.56
X-18.402Y-3.757
X-18.362Y-3.953
X-18.321Y-4.149
X-18.277Y-4.344
X-18.232Y-4.538
X-18.184Y-4.733
X-18.134Y-4.926
X-18.082Y-5.12
X-18.029Y-5.312
X-17.973Y-5.504
X-17.915Y-5.696
X-17.855Y-5.887
X-17.793Y-6.077
X-17.729Y-6.266
X-17.663Y-6.455
X-17.594Y-6.643
X-17.524Y-6.83
X-17.452Y-7.017
X-17.378Y-7.203
X-17.302Y-7.388
X-17.224Y-7.572
X-17.144Y-7.755
X-17.063Y-7.938
X-16.979Y-8.119
X-16.893Y-8.3
X-16.805Y-8.48
X-16.716Y-8.659
X-16.624Y-8.837
X-16.531Y-9.014
X-16.436Y-9.189
X-16.339Y-9.364
X-16.24Y-9.538
X-16.139Y-9.711
X-16.037Y-9.883
X-15.932Y-10.053
X-15.826Y-10.223
X-15.718Y-10.391
X-15.608Y-10.558
X-15.497Y-10.724
X-15.383Y-10.889
X-15.268Y-11.053
X-15.152Y-11.215
X-15.033Y-11.376
X-14.913Y-11.536
X-14.791Y-11.695
X-14.667Y-11.852
X-14.542Y-12.008
X-14.415Y-12.163
X-14.287Y-12.316
X-14.157Y-12.468
X-14.025Y-12.618
X-13.892Y-12.767
X-13.757Y-12.915
X-13.62Y-13.061
X-13.482Y-13.206
X-13.343Y-13.35
X-13.202Y-13.491
X-13.059Y-13.632
X-12.915Y-13.771
X-12.77Y-13.908
X-12.623Y-14.044
X-12.475Y-14.178
X-12.325Y-14.31
X-12.174Y-14.441
X-12.021Y-14.571
X-11.867Y-14.698
X-11.712Y-14.825
X-11.555Y-14.949
X-11.398Y-15.072
X-11.238Y-15.193
X-11.078Y-15.312
X-10.916Y-15.43
X-10.753Y-15.546
X-10.589Y-15.661
X-10.424Y-15.773
X-10.257Y-15.884
X-10.09Y-15.993
X-9.921Y-16.1
X-9.751Y-16.206
X-9.58Y-16.309
X-9.408Y-16.411
X-9.235Y-16.511
X-9.06Y-16.609
X-8.885Y-16.706
X-8.709Y-16.8
X-8.531Y-16.893
X-8.353Y-16.984
X-8.174Y-17.072
X-7.994Y-17.159
X-7.813Y-17.244
X-7.631Y-17.327
X-7.448Y-17.409
X-7.264Y-17.488
X-7.08Y-17.565
X-6.895Y-17.641
X-6.709Y-17.714
X-6.522Y-17.785
X-6.334Y-17.855
X-6.146Y-17.922
X-5.957Y-17.988
X-5.767Y-18.051
X-5.577Y-18.113
X-5.386Y-18.172
X-5.194Y-18.23
X-5.002Y-18.285
X-4.809Y-18.338
X-4.616Y-18.39
X-4.422Y-18.439
X-4.228Y-18.486
X-4.033Y-18.531
X-3.838Y-18.575
X-3.642Y-18.616
X-3.446Y-18.655
X-3.249Y-18.692
X-3.052Y-18.727
X-2.855Y-18.759
X-2.657Y-18.79
X-2.459Y-18.819
X-2.261Y-18.845
X-2.063Y-18.87
X-1.864Y-18.892
X-1.665Y-18.912
X-1.466Y-18.93
X-1.266Y-18.947
X-1.067Y-18.961
X-0.867Y-18.972
X-0.667Y-18.982
X-0.467Y-18.99
X-0.268Y-18.995
X-0.068Y-18.999
X0.131Y-19
X0.331Y-18.999
X0.531Y-18.996
X0.731Y-18.992
X0.931Y-18.984
X1.131Y-18.975
X1.331Y-18.964
X1.53Y-18.951
X1.73Y-18.935
X1.929Y-18.918
X2.128Y-18.898
X2.327Y-18.876
X2.525Y-18.852
X2.724Y-18.826
X2.922Y-18.798
X3.12Y-18.768
X3.317Y-18.736
X3.514Y-18.702
X3.711Y-18.665
X3.907Y-18.627
X4.103Y-18.586
X4.298Y-18.544
X4.493Y-18.499
X4.688Y-18.453
X4.882Y-18.404
X5.075Y-18.353
X5.268Y-18.301
X5.461Y-18.246
X5.652Y-18.189
X5.844Y-18.13
X6.034Y-18.07
X6.224Y-18.007
X6.413Y-17.942
X6.602Y-17.875
X6.79Y-17.807
X6.977Y-17.736
X7.163Y-17.663
X7.349Y-17.589
X7.534Y-17.512
X7.718Y-17.434
X7.901Y-17.353
X8.083Y-17.271
X8.264Y-17.187
X8.445Y-17.101
X8.625Y-17.013
X8.803Y-16.923
X8.981Y-16.831
X9.158Y-16.737
X9.333Y-16.642
X9.508Y-16.545
X9.682Y-16.446
X9.855Y-16.345
X10.026Y-16.242
X10.197Y-16.137
X10.366Y-16.031
X10.534Y-15.923
X10.702Y-15.813
X10.868Y-15.702
X11.032Y-15.588
X11.196Y-15.473
X11.358Y-15.356
X11.52Y-15.238
X11.68Y-15.118
X11.838Y-14.996
X11.996Y-14.873
X12.152Y-14.747
X12.306Y-14.621
X12.46Y-14.492
X12.612Y-14.363
X12.763Y-14.231
X12.912Y-14.098
X13.06Y-13.963
X13.206Y-13.827
X13.351Y-13.689
X13.495Y-13.55
X13.637Y-13.41
X13.778Y-13.267
X13.917Y-13.124
X14.055Y-12.979
X14.191Y-12.832
X14.325Y-12.684
X14.459Y-12.535
X14.59Y-12.384
X14.72Y-12.232
X14.848Y-12.079
X14.975Y-11.924
X15.1Y-11.768
X15.223Y-11.61
X15.345Y-11.452
X15.465Y-11.292
X15.584Y-11.131
X15.701Y-10.968
X15.816Y-10.805
X15.929Y-10.64
X16.041Y-10.474
X16.15Y-10.307
X16.259Y-10.138
X16.365Y-9.969
X16.469Y-9.798
X16.572Y-9.627
X16.673Y-9.454
X16.772Y-9.281
X16.87Y-9.106
X16.965Y-8.93
X17.059Y-8.753
X17.151Y-8.576
X17.241Y-8.397
X17.329Y-8.218
X17.415Y-8.037
X17.5Y-7.856
X17.582Y-7.674
X17.663Y-7.49
X17.741Y-7.307
X17.818Y-7.122
X17.893Y-6.936
X17.966Y-6.75
X18.037Y-6.563
X18.106Y-6.375
X18.173Y-6.187
X18.238Y-5.998
X18.301Y-5.808
X18.362Y-5.617
X18.421Y-5.426
X18.478Y-5.235
X18.533Y-5.042
X18.586Y-4.85
X18.638Y-4.656
X18.687Y-4.462
X18.734Y-4.268
X18.779Y-4.073
X18.822Y-3.878
X18.863Y-3.682
X18.902Y-3.486
X18.939Y-3.289
X18.973Y-3.092
X19.006Y-2.895
X19.037Y-2.697
X19.066Y-2.499
X19.092Y-2.301
X19.117Y-2.103
X19.139Y-1.904
X19.16Y-1.705
X19.178Y-1.506
X19.194Y-1.306
X19.208Y-1.107
X19.221Y-0.907
X19.231Y-0.707
X19.239Y-0.508
X19.244Y-0.308
X19.248Y-0.108
X19.25Y0.091
Y0.291
X19.247Y0.491
X19.243Y0.691
X19.236Y0.891
X19.228Y1.091
X19.217Y1.291
X19.204Y1.49
X19.189Y1.69
X19.172Y1.889
X19.153Y2.088
X19.132Y2.287
X19.109Y2.486
X19.084Y2.684
X19.057Y2.882
X19.027Y3.08
X18.996Y3.278
X18.962Y3.475
X18.927Y3.672
X18.889Y3.868
X18.85Y4.064
X18.808Y4.26
X18.765Y4.455
X18.719Y4.65
X18.672Y4.844
X18.622Y5.038
X18.57Y5.231
X18.517Y5.424
X18.461Y5.616
X18.403Y5.808
X18.344Y5.998
X18.282Y6.189
X18.219Y6.378
X18.153Y6.567
X18.086Y6.756
X18.016Y6.943
X17.945Y7.13
X17.872Y7.316
X17.796Y7.502
X17.719Y7.686
X17.64Y7.87
X17.559Y8.053
X17.476Y8.235
X17.392Y8.416
X17.305Y8.596
X17.217Y8.776
X17.126Y8.954
X17.034Y9.132
X16.94Y9.308
X16.845Y9.484
X16.747Y9.658
X16.648Y9.832
X16.546Y10.005
X16.443Y10.176
X16.339Y10.346
X16.232Y10.516
X16.124Y10.684
X16.014Y10.851
X15.902Y11.017
X15.789Y11.182
X15.674Y11.345
X15.557Y11.508
X15.439Y11.669
X15.318Y11.829
X15.197Y11.987
X15.073Y12.145
X14.948Y12.301
X14.822Y12.456
X14.693Y12.609
X14.564Y12.762
X14.432Y12.912
X14.299Y13.062
X14.165Y13.21
X14.029Y13.357
X13.891Y13.502
X13.753Y13.646
X13.612Y13.788
X13.47Y13.929
X13.327Y14.069
X13.182Y14.207
X13.036Y14.343
X12.888Y14.478
X12.739Y14.612
X12.589Y14.743
X12.437Y14.874
X12.284Y15.003
X12.13Y15.13
X11.974Y15.255
X11.817Y15.379
X11.659Y15.502
X11.499Y15.622
X11.339Y15.741
X11.177Y15.859
X11.014Y15.975
X10.849Y16.089
X10.684Y16.201
X10.517Y16.311
X10.349Y16.42
X10.18Y16.528
X10.011Y16.633
X9.839Y16.737
X9.667Y16.839
X9.494Y16.939
X9.32Y17.037
X9.145Y17.134
X8.969Y17.228
X8.792Y17.321
X8.613Y17.412
X8.434Y17.501
X8.255Y17.589
X8.074Y17.674
X7.892Y17.758
X7.71Y17.84
X7.526Y17.92
X7.342Y17.998
X7.157Y18.074
X6.971Y18.148
X6.785Y18.22
X6.598Y18.291
X6.41Y18.359
X6.221Y18.426
X6.032Y18.49
X5.842Y18.553
X5.651Y18.613
X5.46Y18.672
X5.268Y18.729
X5.076Y18.784
X4.883Y18.836
X4.689Y18.887
X4.495Y18.936
X4.301Y18.983
X4.106Y19.028
X3.911Y19.07
X3.715Y19.111
X3.519Y19.15
X3.322Y19.187
X3.125Y19.221
X2.928Y19.254
X2.73Y19.285
X2.532Y19.313
X2.334Y19.34
X2.135Y19.365
X1.937Y19.387
X1.738Y19.408
X1.538Y19.426
X1.339Y19.442
X1.14Y19.457
X0.94Y19.469
X0.74Y19.479
X0.54Y19.488
X0.34Y19.494
X0.14Y19.498
X-0.059Y19.5
X-0.259
X-0.459Y19.498
X-0.659Y19.494
X-0.858Y19.488
X-1.058Y19.479
X-1.258Y19.469
X-1.458Y19.457
X-1.657Y19.442
X-1.856Y19.426
X-2.056Y19.408
X-2.255Y19.387
X-2.453Y19.365
X-2.652Y19.34
X-2.85Y19.314
X-3.048Y19.285
X-3.246Y19.254
X-3.443Y19.222
X-3.64Y19.187
X-3.837Y19.15
X-4.033Y19.112
X-4.229Y19.071
X-4.424Y19.028
X-4.619Y18.983
X-4.814Y18.937
X-5.008Y18.888
X-5.201Y18.837
X-5.394Y18.785
X-5.586Y18.73
X-5.778Y18.674
X-5.97Y18.615
X-6.16Y18.554
X-6.35Y18.492
X-6.54Y18.428
X-6.728Y18.361
X-6.916Y18.293
X-7.104Y18.223
X-7.29Y18.151
X-7.476Y18.077
X-7.661Y18.001
X-7.845Y17.923
X-8.029Y17.844
X-8.211Y17.762
X-8.393Y17.679
X-8.574Y17.593
X-8.754Y17.506
X-8.933Y17.417
X-9.112Y17.327
X-9.289Y17.234
X-9.465Y17.14
X-9.641Y17.044
X-9.815Y16.946
X-9.988Y16.846
X-10.161Y16.744
X-10.332Y16.641
X-10.502Y16.536
X-10.671Y16.429
X-10.84Y16.321
X-11.006Y16.211
X-11.172Y16.099
X-11.337Y15.985
X-11.5Y15.87
X-11.663Y15.753
X-11.824Y15.635
X-11.984Y15.515
X-12.142Y15.393
X-12.3Y15.269
X-12.456Y15.144
X-12.611Y15.018
X-12.764Y14.89
X-12.917Y14.76
X-13.068Y14.629
X-13.217Y14.496
X-13.365Y14.362
X-13.512Y14.226
X-13.658Y14.088
X-13.802Y13.95
X-13.944Y13.809
X-14.085Y13.668
X-14.225Y13.525
X-14.363Y13.38
X-14.5Y13.234
X-14.635Y13.087
X-14.769Y12.938
X-14.901Y12.788
X-15.032Y12.637
X-15.161Y12.484
X-15.289Y12.33
X-15.415Y12.175
X-15.539Y12.018
X-15.662Y11.86
X-15.783Y11.701
X-15.903Y11.541
X-16.021Y11.379
X-16.137Y11.217
X-16.252Y11.053
X-16.365Y10.888
X-16.476Y10.721
X-16.586Y10.554
X-16.694Y10.386
X-16.8Y10.216
X-16.904Y10.046
X-17.007Y9.874
X-17.108Y9.701
X-17.207Y9.528
X-17.305Y9.353
X-17.4Y9.177
X-17.494Y9.001
X-17.586Y8.823
X-17.676Y8.644
X-17.765Y8.465
X-17.851Y8.285
X-17.936Y8.104
X-18.019Y7.922
X-18.1Y7.739
X-18.179Y7.555
X-18.257Y7.371
X-18.332Y7.185
X-18.406Y6.999
X-18.477Y6.813
X-18.547Y6.625
X-18.615Y6.437
X-18.681Y6.248
X-18.745Y6.059
X-18.807Y5.869
X-18.867Y5.678
X-18.925Y5.486
X-18.981Y5.294
X-19.036Y5.102
X-19.088Y4.909
X-19.139Y4.715
X-19.187Y4.521
X-19.233Y4.327
X-19.278Y4.132
X-19.32Y3.936
X-19.361Y3.74
X-19.4Y3.544
X-19.436Y3.348
X-19.471Y3.151
X-19.503Y2.953
X-19.534Y2.756
X-19.562Y2.558
X-19.589Y2.359
X-19.613Y2.161
X-19.636Y1.962
X-19.656Y1.763
X-19.675Y1.564
X-19.691Y1.365
X-19.706Y1.165
X-19.718Y0.965
X-19.728Y0.766
X-19.737Y0.566
X-19.743Y0.366
X-19.747Y0.166
X-19.75Y-0.033
Y-0.233
X-19.748Y-0.433
X-19.744Y-0.633
X-19.739Y-0.833
X-19.731Y-1.033
X-19.721Y-1.233
X-19.709Y-1.432
X-19.695Y-1.632
X-19.679Y-1.831
X-19.661Y-2.03
X-19.641Y-2.229
X-19.619Y-2.428
X-19.595Y-2.627
X-19.569Y-2.825
X-19.541Y-3.023
X-19.511Y-3.221
X-19.479Y-3.418
X-19.445Y-3.615
X-19.409Y-3.812
X-19.371Y-4.008
X-19.332Y-4.204
X-19.29Y-4.4
X-19.246Y-4.595
X-19.2Y-4.79
X-19.152Y-4.984
X-19.102Y-5.178
X-19.05Y-5.371
X-18.997Y-5.564
X-18.941Y-5.756
X-18.883Y-5.947
X-18.824Y-6.138
X-18.763Y-6.329
X-18.699Y-6.518
X-18.634Y-6.707
X-18.567Y-6.896
X-18.498Y-7.083
X-18.427Y-7.27
X-18.354Y-7.457
X-18.279Y-7.642
X-18.202Y-7.827
X-18.124Y-8.011
X-18.044Y-8.194
X-17.962Y-8.377
X-17.878Y-8.558
X-17.792Y-8.739
X-17.704Y-8.919
X-17.615Y-9.097
X-17.523Y-9.275
X-17.43Y-9.452
X-17.335Y-9.629
X-17.239Y-9.804
X-17.141Y-9.978
X-17.04Y-10.151
X-16.939Y-10.323
X-16.835Y-10.494
X-16.73Y-10.664
X-16.623Y-10.833
X-16.514Y-11.001
X-16.404Y-11.168
X-16.291Y-11.334
X-16.178Y-11.498
X-16.062Y-11.662
X-15.945Y-11.824
X-15.827Y-11.985
X-15.706Y-12.145
X-15.585Y-12.303
X-15.461Y-12.461
X-15.336Y-12.617
X-15.209Y-12.771
X-15.081Y-12.925
X-14.952Y-13.077
X-14.82Y-13.228
X-14.688Y-13.378
X-14.553Y-13.526
X-14.418Y-13.673
X-14.28Y-13.819
X-14.142Y-13.963
X-14.002Y-14.105
X-13.86Y-14.247
X-13.717Y-14.387
X-13.573Y-14.525
X-13.427Y-14.662
X-13.28Y-14.798
X-13.132Y-14.932
X-12.982Y-15.064
X-12.831Y-15.195
X-12.678Y-15.325
X-12.524Y-15.453
X-12.369Y-15.579
X-12.213Y-15.704
X-12.056Y-15.827
X-11.897Y-15.949
X-11.737Y-16.069
X-11.576Y-16.187
X-11.413Y-16.304
X-11.25Y-16.419
X-11.085Y-16.533
X-10.919Y-16.645
X-10.752Y-16.755
X-10.584Y-16.864
X-10.415Y-16.97
X-10.245Y-17.076
X-10.074Y-17.179
X-9.902Y-17.281
X-9.729Y-17.381
X-9.554Y-17.479
X-9.379Y-17.575
X-9.203Y-17.67
X-9.026Y-17.763
X-8.848Y-17.854
X-8.669Y-17.943
X-8.489Y-18.031
X-8.308Y-18.117
X-8.127Y-18.201
X-7.944Y-18.283
X-7.761Y-18.363
X-7.577Y-18.441
X-7.392Y-18.518
X-7.207Y-18.593
X-7.021Y-18.665
X-6.834Y-18.736
X-6.646Y-18.805
X-6.457Y-18.873
X-6.268Y-18.938
X-6.079Y-19.001
X-5.888Y-19.063
X-5.697Y-19.123
X-5.506Y-19.18
X-5.314Y-19.236
X-5.121Y-19.29
X-4.928Y-19.342
X-4.734Y-19.392
X-4.54Y-19.44
X-4.346Y-19.486
X-4.15Y-19.53
X-3.955Y-19.572
X-3.759Y-19.612
X-3.563Y-19.65
X-3.366Y-19.687
X-3.169Y-19.721
X-2.972Y-19.753
X-2.774Y-19.784
X-2.576Y-19.812
X-2.378Y-19.838
X-2.179Y-19.863
X-1.98Y-19.885
X-1.781Y-19.906
X-1.582Y-19.924
X-1.383Y-19.941
X-1.183Y-19.955
X-0.984Y-19.967
X-0.784Y-19.978
X-0.584Y-19.986
X-0.384Y-19.993
X-0.184Y-19.997
X0.015Y-20
X0.215
X0.415Y-19.998
X0.615Y-19.995
X0.815Y-19.989
X1.014Y-19.982
X1.214Y-19.972
X1.414Y-19.961
X1.614Y-19.947
X1.813Y-19.932
X2.012Y-19.914
X2.211Y-19.895
X2.41Y-19.873
X2.609Y-19.85
X2.807Y-19.824
X3.005Y-19.797
X3.203Y-19.767
X3.401Y-19.736
X3.598Y-19.702
X3.795Y-19.667
X3.991Y-19.63
X4.187Y-19.59
X4.383Y-19.549
X4.578Y-19.506
X4.773Y-19.461
X4.968Y-19.414
X5.161Y-19.365
X5.355Y-19.314
X5.548Y-19.261
X5.74Y-19.206
X5.932Y-19.149
X6.123Y-19.091
X6.314Y-19.03
X6.504Y-18.968
X6.693Y-18.904
X6.882Y-18.837
X7.07Y-18.769
X7.257Y-18.699
X7.444Y-18.627
X7.63Y-18.554
X7.815Y-18.478
X8Y-18.401
X8.183Y-18.322
X8.366Y-18.241
X8.548Y-18.158
X8.729Y-18.073
X8.91Y-17.987
X9.089Y-17.898
X9.268Y-17.808
X9.446Y-17.717
X9.622Y-17.623
X9.798Y-17.528
X9.973Y-17.431
X10.147Y-17.332
X10.32Y-17.231
X10.492Y-17.129
X10.663Y-17.025
X10.832Y-16.919
X11.001Y-16.812
X11.169Y-16.703
X11.335Y-16.592
X11.501Y-16.48
X11.665Y-16.366
X11.829Y-16.25
X11.991Y-16.133
X12.151Y-16.014
X12.311Y-15.894
X12.47Y-15.772
X12.627Y-15.648
X12.783Y-15.523
X12.938Y-15.396
X13.091Y-15.268
X13.243Y-15.138
X13.394Y-15.007
X13.544Y-14.874
X13.692Y-14.74
X13.839Y-14.604
X13.985Y-14.467
X14.129Y-14.329
X14.272Y-14.189
X14.413Y-14.047
X14.553Y-13.904
X14.692Y-13.76
X14.829Y-13.615
X14.965Y-13.468
X15.099Y-13.319
X15.232Y-13.17
X15.363Y-13.019
X15.493Y-12.867
X15.621Y-12.713
X15.748Y-12.558
X15.873Y-12.402
X15.996Y-12.245
X16.119Y-12.087
X16.239Y-11.927
X16.358Y-11.766
X16.475Y-11.604
X16.591Y-11.441
X16.705Y-11.277
X16.817Y-11.111
X16.928Y-10.945
X17.037Y-10.777
X17.144Y-10.608
X17.25Y-10.439
X17.354Y-10.268
X17.457Y-10.096
X17.557Y-9.923
X17.656Y-9.749
X17.753Y-9.574
X17.849Y-9.399
X17.943Y-9.222
X18.035Y-9.044
X18.125Y-8.866
X18.213Y-8.686
X18.3Y-8.506
X18.385Y-8.325
X18.468Y-8.143
X18.549Y-7.96
X18.628Y-7.777
X18.706Y-7.592
X18.782Y-7.407
X18.856Y-7.221
X18.928Y-7.035
X18.998Y-6.847
X19.066Y-6.66
X19.133Y-6.471
X19.197Y-6.282
X19.26Y-6.092
X19.321Y-5.901
X19.38Y-5.71
X19.437Y-5.518
X19.492Y-5.326
X19.546Y-5.133
X19.597Y-4.94
X19.646Y-4.746
X19.694Y-4.552
X19.74Y-4.357
X19.783Y-4.162
X19.825Y-3.966
X19.865Y-3.77
X19.903Y-3.574
X19.939Y-3.377
X19.973Y-3.18
X20.005Y-2.983
X20.035Y-2.785
X20.063Y-2.587
X20.089Y-2.389
X20.113Y-2.19
X20.135Y-1.991
X20.156Y-1.792
X20.174Y-1.593
X20.19Y-1.394
X20.205Y-1.194
X20.217Y-0.995
X20.228Y-0.795
X20.236Y-0.595
X20.242Y-0.395
X20.247Y-0.195
X20.249Y0.004
X20.25Y0.204
X20.249Y0.404
X20.245Y0.604
X20.24Y0.804
X20.232Y1.004
X20.223Y1.203
X20.212Y1.403
X20.199Y1.603
X20.183Y1.802
X20.166Y2.001
X20.147Y2.2
X20.126Y2.399
X20.103Y2.598
X20.078Y2.796
X20.051Y2.995
X20.022Y3.192
X19.991Y3.39
X19.958Y3.587
X19.923Y3.784
X19.886Y3.981
X19.848Y4.177
X19.807Y4.373
X19.764Y4.568
X19.72Y4.763
X19.674Y4.958
X19.625Y5.152
X19.575Y5.346
X19.523Y5.539
X19.469Y5.731
X19.413Y5.923
X19.355Y6.115
X19.295Y6.306
X19.234Y6.496
X19.17Y6.686
X19.105Y6.875
X19.038Y7.063
X18.969Y7.251
X18.898Y7.438
X18.825Y7.624
X18.751Y7.81
X18.674Y7.995
X18.596Y8.179
X18.516Y8.362
X18.434Y8.545
X18.351Y8.726
X18.265Y8.907
X18.178Y9.087
X18.089Y9.266
X17.999Y9.445
X17.906Y9.622
X17.812Y9.799
X17.716Y9.974
X17.618Y10.149
X17.519Y10.322
X17.418Y10.495
X17.315Y10.667
X17.211Y10.837
X17.105Y11.007
X16.997Y11.175
X16.888Y11.343
X16.777Y11.509
X16.664Y11.674
X16.55Y11.838
X16.434Y12.001
X16.316Y12.163
X16.197Y12.324
X16.077Y12.484
X15.954Y12.642
X15.831Y12.799
X15.705Y12.955
X15.579Y13.11
X15.45Y13.263
X15.32Y13.415
X15.189Y13.566
X15.056Y13.716
X14.922Y13.864
X14.786Y14.011
X14.649Y14.156
X14.511Y14.301
X14.371Y14.443
X14.229Y14.585
X14.086Y14.725
X13.942Y14.864
X13.797Y15.001
X13.65Y15.137
X13.502Y15.271
X13.352Y15.404
X13.202Y15.535
X13.05Y15.665
X12.896Y15.794
X12.742Y15.921
X12.586Y16.046
X12.429Y16.17
X12.271Y16.293
X12.111Y16.413
X11.951Y16.533
X11.789Y16.65
X11.626Y16.766
X11.462Y16.881
X11.297Y16.994
X11.131Y17.105
X10.963Y17.214
X10.795Y17.322
X10.625Y17.429
X10.455Y17.533
X10.284Y17.636
X10.111Y17.737
X9.938Y17.837
X9.763Y17.935
X9.588Y18.031
X9.411Y18.125
X9.234Y18.218
X9.056Y18.309
X8.877Y18.398
X8.697Y18.486
X8.516Y18.571
X8.335Y18.655
X8.152Y18.737
X7.969Y18.818
X7.785Y18.896
X7.601Y18.973
X7.415Y19.048
X7.229Y19.121
X7.042Y19.192
X6.854Y19.262
X6.666Y19.329
X6.477Y19.395
X6.288Y19.459
X6.098Y19.521
X5.907Y19.581
X5.716Y19.639
X5.524Y19.696
X5.331Y19.75
X5.138Y19.803
X4.945Y19.854
X4.751Y19.903
X4.557Y19.95
X4.362Y19.995
X4.166Y20.038
X3.971Y20.079
X3.775Y20.119
X3.578Y20.156
X3.381Y20.192
X3.184Y20.225
X2.987Y20.257
X2.789Y20.287
X2.591Y20.315
X2.392Y20.341
X2.194Y20.364
X1.995Y20.386
X1.796Y20.407
X1.597Y20.425
X1.398Y20.441
X1.198Y20.455
X0.998Y20.467
X0.799Y20.478
X0.599Y20.486
X0.399Y20.492
X0.199Y20.497
X-0Y20.499
X-0.2Y20.5
X-0.4Y20.499
X-0.6Y20.495
X-0.8Y20.49
X-1Y20.483
X-1.2Y20.474
X-1.399Y20.462
X-1.599Y20.449
X-1.798Y20.434
X-1.998Y20.417
X-2.197Y20.399
X-2.396Y20.378
X-2.594Y20.355
X-2.793Y20.33
X-2.991Y20.304
X-3.189Y20.275
X-3.387Y20.244
X-3.584Y20.212
X-3.781Y20.178
X-3.978Y20.141
X-4.174Y20.103
X-4.37Y20.063
X-4.566Y20.021
X-4.761Y19.977
X-4.956Y19.931
X-5.15Y19.884
X-5.344Y19.834
X-5.537Y19.783
X-5.73Y19.729
X-5.922Y19.674
X-6.114Y19.617
X-6.305Y19.558
X-6.495Y19.497
X-6.685Y19.434
X-6.874Y19.37
X-7.063Y19.304
X-7.251Y19.235
X-7.439Y19.165
X-7.625Y19.093
X-7.811Y19.02
X-7.996Y18.944
X-8.181Y18.867
X-8.365Y18.788
X-8.548Y18.707
X-8.73Y18.625
X-8.911Y18.54
X-9.092Y18.454
X-9.271Y18.366
X-9.45Y18.277
X-9.628Y18.185
X-9.805Y18.092
X-9.981Y17.997
X-10.156Y17.901
X-10.331Y17.803
X-10.504Y17.703
X-10.676Y17.601
X-10.848Y17.498
X-11.018Y17.393
X-11.187Y17.287
X-11.355Y17.178
X-11.522Y17.069
X-11.689Y16.957
X-11.854Y16.844
X-12.017Y16.729
X-12.18Y16.613
X-12.342Y16.495
X-12.502Y16.376
X-12.662Y16.255
X-12.82Y16.133
X-12.977Y16.009
X-13.133Y15.883
X-13.287Y15.756
X-13.44Y15.628
X-13.592Y15.498
X-13.743Y15.366
X-13.893Y15.233
X-14.041Y15.099
X-14.188Y14.963
X-14.333Y14.826
X-14.477Y14.687
X-14.62Y14.547
X-14.762Y14.406
X-14.902Y14.263
X-15.04Y14.119
X-15.178Y13.974
X-15.314Y13.827
X-15.448Y13.679
X-15.581Y13.53
X-15.713Y13.379
X-15.843Y13.227
X-15.971Y13.074
X-16.099Y12.919
X-16.224Y12.764
X-16.348Y12.607
X-16.471Y12.449
X-16.592Y12.29
X-16.712Y12.129
X-16.829Y11.968
X-16.946Y11.805
X-17.061Y11.641
X-17.174Y11.476
X-17.285Y11.31
X-17.395Y11.143
X-17.504Y10.975
X-17.611Y10.806
X-17.716Y10.636
X-17.819Y10.465
X-17.921Y10.293
X-18.021Y10.119
X-18.119Y9.945
X-18.216Y9.77
X-18.311Y9.594
X-18.405Y9.417
X-18.496Y9.24
X-18.586Y9.061
X-18.674Y8.881
X-18.761Y8.701
X-18.845Y8.52
X-18.928Y8.338
X-19.009Y8.155
X-19.089Y7.971
X-19.166Y7.787
X-19.242Y7.602
X-19.316Y7.416
X-19.388Y7.23
X-19.459Y7.042
X-19.527Y6.855
X-19.594Y6.666
X-19.659Y6.477
X-19.722Y6.287
X-19.784Y6.097
X-19.843Y5.906
X-19.901Y5.714
X-19.956Y5.522
X-20.01Y5.329
X-20.062Y5.136
X-20.113Y4.943
X-20.161Y4.749
X-20.207Y4.554
X-20.252Y4.359
X-20.294Y4.164
X-20.335Y3.968
X-20.374Y3.772
X-20.411Y3.575
X-20.446Y3.378
X-20.479Y3.181
X-20.511Y2.983
X-20.54Y2.785
X-20.567Y2.587
X-20.593Y2.389
X-20.616Y2.19
X-20.638Y1.992
X-20.658Y1.793
X-20.676Y1.593
X-20.692Y1.394
X-20.706Y1.194
X-20.718Y0.995
X-20.728Y0.795
X-20.736Y0.595
X-20.743Y0.395
X-20.747Y0.195
X-20.749Y-0.004
X-20.75Y-0.204
X-20.749Y-0.404
X-20.745Y-0.604
X-20.74Y-0.804
X-20.733Y-1.004
X-20.724Y-1.203
X-20.713Y-1.403
X-20.7Y-1.603
X-20.685Y-1.802
X-20.668Y-2.001
X-20.649Y-2.201
X-20.629Y-2.399
X-20.606Y-2.598
X-20.582Y-2.797
X-20.555Y-2.995
X-20.527Y-3.193
X-20.497Y-3.391
X-20.465Y-3.588
X-20.431Y-3.785
X-20.395Y-3.982
X-20.357Y-4.178
X-20.317Y-4.374
X-20.276Y-4.57
X-20.233Y-4.765
X-20.187Y-4.96
X-20.14Y-5.155
X-20.091Y-5.348
X-20.04Y-5.542
X-19.987Y-5.735
X-19.933Y-5.927
X-19.876Y-6.119
X-19.818Y-6.31
X-19.758Y-6.501
X-19.696Y-6.691
X-19.632Y-6.881
X-19.566Y-7.07
X-19.499Y-7.258
X-19.43Y-7.446
X-19.359Y-7.633
X-19.286Y-7.819
X-19.211Y-8.005
X-19.135Y-8.189
X-19.057Y-8.374
X-18.977Y-8.557
X-18.895Y-8.739
X-18.812Y-8.921
X-18.726Y-9.102
X-18.639Y-9.282
X-18.551Y-9.462
X-18.46Y-9.64
X-18.368Y-9.818
X-18.275Y-9.994
X-18.179Y-10.17
X-18.082Y-10.345
X-17.983Y-10.519
X-17.883Y-10.692
X-17.78Y-10.864
X-17.677Y-11.035
X-17.571Y-11.205
X-17.464Y-11.374
X-17.355Y-11.541
X-17.245Y-11.708
X-17.133Y-11.874
X-17.02Y-12.039
X-16.905Y-12.202
X-16.788Y-12.365
X-16.67Y-12.526
X-16.55Y-12.687
X-16.429Y-12.846
X-16.306Y-13.004
X-16.182Y-13.16
X-16.056Y-13.316
X-15.929Y-13.47
X-15.8Y-13.623
X-15.67Y-13.775
X-15.539Y-13.926
X-15.405Y-14.075
X-15.271Y-14.223
X-15.135Y-14.37
X-14.998Y-14.515
X-14.859Y-14.659
X-14.719Y-14.802
X-14.578Y-14.944
X-14.435Y-15.084
X-14.291Y-15.222
X-14.145Y-15.36
X-13.999Y-15.496
X-13.85Y-15.63
X-13.701Y-15.763
X-13.551Y-15.895
