(Created with grbl post processor 2024/12/14 11:54)
G21
(G-code Generated with Fabex and NC library)
G17G90
(Tool: D = 3.0 mm  type END flutes 2)
S12000M03
G00 Z10.0

G0X0Y0Z10
G1Z-5F500
X-1F1000
X-0.98Y-0.198
X-0.921Y-0.389
X-0.825Y-0.564
X-0.696Y-0.717
X-0.54Y-0.841
X-0.362Y-0.932
X-0.169Y-0.985
X0.029Y-0.999
X0.227Y-0.973
X0.416Y-0.909
X0.588Y-0.808
X0.737Y-0.675
X0.856Y-0.515
X0.942Y-0.334
X0.989Y-0.141
X0.998Y0.058
X0.966Y0.255
X0.896Y0.442
X0.79Y0.611
X0.653Y0.756
X0.49Y0.871
X0.307Y0.951
X0.112Y0.993
X-0.087Y0.996
X-0.283Y0.958
X-0.468Y0.883
X-0.634Y0.772
X-0.775Y0.631
X-0.885Y0.464
X-0.96Y0.279
X-1Y0
X-2
X-1.99Y-0.199
X-1.96Y-0.397
X-1.91Y-0.591
X-1.842Y-0.778
X-1.755Y-0.958
X-1.65Y-1.129
X-1.529Y-1.288
X-1.393Y-1.434
X-1.243Y-1.566
X-1.08Y-1.682
X-0.907Y-1.782
X-0.724Y-1.864
X-0.534Y-1.927
X-0.339Y-1.97
X-0.141Y-1.994
X0.058Y-1.999
X0.257Y-1.983
X0.454Y-1.947
X0.646Y-1.892
X0.832Y-1.818
X1.009Y-1.726
X1.177Y-1.616
X1.332Y-1.491
X1.474Y-1.35
X1.602Y-1.196
X1.713Y-1.031
X1.808Y-0.854
X1.884Y-0.669
X1.941Y-0.478
X1.979Y-0.282
X1.998Y-0.083
X1.996Y0.116
X1.974Y0.315
X1.933Y0.511
X1.872Y0.701
X1.793Y0.885
X1.696Y1.059
X1.581Y1.223
X1.451Y1.375
X1.307Y1.513
X1.149Y1.636
X0.98Y1.743
X0.801Y1.832
X0.614Y1.903
X0.421Y1.955
X0.224Y1.987
X0.024Y1.999
X-0.174Y1.992
X-0.373Y1.964
X-0.567Y1.917
X-0.755Y1.851
X-0.937Y1.766
X-1.108Y1.664
X-1.269Y1.545
X-1.417Y1.411
X-1.551Y1.262
X-1.669Y1.101
X-1.771Y0.929
X-1.854Y0.747
X-1.92Y0.558
X-1.966Y0.364
X-2Y0
X-3
X-2.993Y-0.199
X-2.973Y-0.398
X-2.94Y-0.596
X-2.893Y-0.79
X-2.834Y-0.981
X-2.763Y-1.168
X-2.679Y-1.349
X-2.583Y-1.525
X-2.476Y-1.693
X-2.357Y-1.855
X-2.228Y-2.008
X-2.09Y-2.152
X-1.942Y-2.286
X-1.785Y-2.41
X-1.62Y-2.524
X-1.449Y-2.626
X-1.27Y-2.717
X-1.087Y-2.796
X-0.898Y-2.862
X-0.705Y-2.915
X-0.509Y-2.956
X-0.311Y-2.983
X-0.112Y-2.997
X0.087Y-2.998
X0.287Y-2.986
X0.485Y-2.96
X0.681Y-2.921
X0.874Y-2.869
X1.063Y-2.805
X1.248Y-2.727
X1.427Y-2.638
X1.6Y-2.537
X1.765Y-2.425
X1.923Y-2.302
X2.072Y-2.169
X2.212Y-2.026
X2.342Y-1.874
X2.461Y-1.714
X2.57Y-1.546
X2.667Y-1.371
X2.753Y-1.191
X2.826Y-1.004
X2.887Y-0.814
X2.935Y-0.62
X2.969Y-0.423
X2.991Y-0.224
X2.999Y-0.024
X2.994Y0.175
X2.976Y0.374
X2.945Y0.571
X2.9Y0.766
X2.842Y0.958
X2.772Y1.145
X2.69Y1.327
X2.595Y1.503
X2.489Y1.673
X2.372Y1.835
X2.245Y1.989
X2.107Y2.134
X1.96Y2.27
X1.805Y2.395
X1.641Y2.51
X1.47Y2.614
X1.293Y2.706
X1.11Y2.787
X0.922Y2.854
X0.729Y2.909
X0.534Y2.952
X0.336Y2.981
X0.137Y2.996
X-0.062Y2.999
X-0.262Y2.988
X-0.46Y2.964
X-0.657Y2.927
X-0.85Y2.876
X-1.04Y2.813
X-1.225Y2.738
X-1.405Y2.65
X-1.578Y2.55
X-1.745Y2.439
X-1.904Y2.318
X-2.054Y2.186
X-2.195Y2.044
X-2.326Y1.893
X-2.447Y1.734
X-2.557Y1.567
X-2.656Y1.393
X-2.743Y1.213
X-2.818Y1.028
X-2.88Y0.838
X-2.929Y0.644
X-2.966Y0.447
X-2.989Y0.249
X-3Y0
X-4
X-3.995Y-0.199
X-3.98Y-0.399
X-3.955Y-0.597
X-3.92Y-0.794
X-3.875Y-0.989
X-3.821Y-1.182
X-3.757Y-1.371
X-3.684Y-1.557
X-3.601Y-1.739
X-3.51Y-1.917
X-3.41Y-2.09
X-3.301Y-2.258
X-3.184Y-2.42
X-3.059Y-2.576
X-2.926Y-2.726
X-2.786Y-2.869
X-2.639Y-3.005
X-2.486Y-3.133
X-2.326Y-3.253
X-2.161Y-3.365
X-1.99Y-3.469
X-1.814Y-3.564
X-1.633Y-3.651
X-1.449Y-3.728
X-1.261Y-3.795
X-1.069Y-3.854
X-0.876Y-3.902
X-0.679Y-3.941
X-0.482Y-3.97
X-0.282Y-3.989
X-0.083Y-3.999
X0.116Y-3.998
X0.316Y-3.987
X0.515Y-3.966
X0.712Y-3.935
X0.908Y-3.895
X1.102Y-3.845
X1.293Y-3.785
X1.48Y-3.715
X1.664Y-3.637
X1.844Y-3.549
X2.019Y-3.452
X2.189Y-3.347
X2.354Y-3.233
X2.512Y-3.112
X2.665Y-2.982
X2.81Y-2.845
X2.949Y-2.701
X3.08Y-2.551
X3.204Y-2.393
X3.32Y-2.23
X3.427Y-2.062
X3.526Y-1.888
X3.616Y-1.709
X3.697Y-1.526
X3.768Y-1.339
X3.831Y-1.149
X3.883Y-0.956
X3.926Y-0.761
X3.959Y-0.564
X3.983Y-0.365
X3.996Y-0.166
X3.999Y0.033
X3.993Y0.233
X3.976Y0.432
X3.949Y0.63
X3.913Y0.827
X3.867Y1.022
X3.811Y1.214
X3.745Y1.403
X3.671Y1.588
X3.587Y1.77
X3.494Y1.947
X3.392Y2.119
X3.282Y2.286
X3.163Y2.447
X3.037Y2.602
X2.903Y2.751
X2.762Y2.892
X2.614Y3.027
X2.46Y3.154
X2.299Y3.273
X2.132Y3.383
X1.961Y3.486
X1.784Y3.579
X1.603Y3.664
X1.418Y3.74
X1.229Y3.806
X1.037Y3.863
X0.843Y3.91
X0.646Y3.947
X0.448Y3.974
X0.249Y3.992
X0.049Y3.999
X-0.15Y3.997
X-0.349Y3.984
X-0.548Y3.962
X-0.746Y3.929
X-0.941Y3.887
X-1.134Y3.835
X-1.324Y3.774
X-1.511Y3.703
X-1.695Y3.623
X-1.874Y3.533
X-2.048Y3.435
X-2.217Y3.329
X-2.381Y3.214
X-2.538Y3.091
X-2.69Y2.96
X-2.834Y2.822
X-2.972Y2.676
X-3.102Y2.525
X-3.224Y2.366
X-3.338Y2.202
X-3.444Y2.033
X-3.542Y1.858
X-3.63Y1.679
X-3.709Y1.495
X-3.78Y1.308
X-3.84Y1.117
X-3.891Y0.924
X-3.933Y0.728
X-3.964Y0.531
X-3.986Y0.332
X-4Y0
X-5
X-4.996Y-0.199
X-4.984Y-0.399
X-4.964Y-0.598
X-4.936Y-0.796
X-4.9Y-0.993
X-4.856Y-1.188
X-4.805Y-1.381
X-4.746Y-1.572
X-4.679Y-1.761
X-4.605Y-1.947
X-4.523Y-2.129
X-4.434Y-2.308
X-4.339Y-2.484
X-4.236Y-2.655
X-4.126Y-2.823
X-4.01Y-2.985
X-3.887Y-3.143
X-3.759Y-3.296
X-3.624Y-3.444
X-3.483Y-3.586
X-3.337Y-3.723
X-3.185Y-3.853
X-3.029Y-3.978
X-2.867Y-4.095
X-2.701Y-4.207
X-2.531Y-4.312
X-2.356Y-4.409
X-2.178Y-4.5
X-1.996Y-4.584
X-1.811Y-4.66
X-1.623Y-4.728
X-1.433Y-4.79
X-1.24Y-4.843
X-1.046Y-4.889
X-0.849Y-4.927
X-0.652Y-4.957
X-0.453Y-4.979
X-0.253Y-4.993
X-0.053Y-4.999
X0.145Y-4.997
X0.345Y-4.988
X0.544Y-4.97
X0.743Y-4.944
X0.94Y-4.91
X1.136Y-4.869
X1.329Y-4.819
X1.521Y-4.762
X1.71Y-4.698
X1.897Y-4.626
X2.08Y-4.546
X2.26Y-4.459
X2.437Y-4.365
X2.61Y-4.264
X2.778Y-4.156
X2.942Y-4.042
X3.101Y-3.921
X3.256Y-3.794
X3.405Y-3.661
X3.548Y-3.522
X3.686Y-3.377
X3.819Y-3.227
X3.945Y-3.071
X4.064Y-2.911
X4.177Y-2.746
X4.284Y-2.577
X4.384Y-2.404
X4.476Y-2.226
X4.562Y-2.046
X4.64Y-1.861
X4.711Y-1.674
X4.774Y-1.485
X4.829Y-1.293
X4.877Y-1.098
X4.917Y-0.902
X4.949Y-0.705
X4.974Y-0.507
X4.99Y-0.307
X4.998Y-0.107
X4.999Y0.092
X4.991Y0.291
X4.975Y0.491
X4.952Y0.689
X4.92Y0.887
X4.881Y1.083
X4.833Y1.277
X4.779Y1.469
X4.716Y1.659
X4.646Y1.847
X4.568Y2.031
X4.483Y2.212
X4.391Y2.39
X4.292Y2.563
X4.186Y2.733
X4.074Y2.898
X3.954Y3.059
X3.829Y3.214
X3.697Y3.365
X3.56Y3.51
X3.416Y3.65
X3.268Y3.784
X3.114Y3.911
X2.955Y4.033
X2.791Y4.148
X2.623Y4.256
X2.451Y4.357
X2.275Y4.452
X2.095Y4.539
X1.911Y4.619
X1.725Y4.692
X1.536Y4.758
X1.345Y4.815
X1.151Y4.865
X0.956Y4.907
X0.759Y4.942
X0.56Y4.968
X0.361Y4.986
X0.161Y4.997
X-0.038Y4.999
X-0.237Y4.994
X-0.437Y4.98
X-0.636Y4.959
X-0.834Y4.929
X-1.03Y4.892
X-1.225Y4.847
X-1.418Y4.794
X-1.608Y4.734
X-1.796Y4.665
X-1.982Y4.59
X-2.164Y4.507
X-2.342Y4.417
X-2.517Y4.32
X-2.688Y4.215
X-2.854Y4.105
X-3.016Y3.987
X-3.173Y3.863
X-3.325Y3.733
X-3.472Y3.597
X-3.613Y3.456
X-3.748Y3.308
X-3.877Y3.156
X-4Y2.998
X-4.117Y2.836
X-4.227Y2.669
X-4.331Y2.498
X-4.427Y2.323
X-4.516Y2.144
X-4.599Y1.961
X-4.673Y1.776
X-4.741Y1.587
X-4.8Y1.397
X-4.852Y1.203
X-4.897Y1.008
X-4.933Y0.812
X-4.962Y0.614
X-4.982Y0.415
X-4.995Y0.215
X-5Y0
X-6
X-5.996Y-0.199
X-5.986Y-0.399
X-5.97Y-0.599
X-5.946Y-0.797
X-5.916Y-0.995
X-5.88Y-1.192
X-5.837Y-1.387
X-5.787Y-1.581
X-5.732Y-1.773
X-5.669Y-1.963
X-5.601Y-2.151
X-5.526Y-2.336
X-5.445Y-2.519
X-5.358Y-2.699
X-5.265Y-2.876
X-5.166Y-3.05
X-5.062Y-3.22
X-4.952Y-3.387
X-4.836Y-3.551
X-4.715Y-3.71
X-4.589Y-3.865
X-4.457Y-4.016
X-4.321Y-4.162
X-4.18Y-4.304
X-4.034Y-4.441
X-3.884Y-4.573
X-3.729Y-4.699
X-3.57Y-4.821
X-3.408Y-4.937
X-3.241Y-5.048
X-3.071Y-5.154
X-2.898Y-5.253
X-2.721Y-5.347
X-2.541Y-5.434
X-2.359Y-5.516
X-2.174Y-5.592
X-1.986Y-5.661
X-1.796Y-5.724
X-1.604Y-5.781
X-1.411Y-5.831
X-1.216Y-5.875
X-1.019Y-5.912
X-0.822Y-5.943
X-0.623Y-5.967
X-0.424Y-5.984
X-0.224Y-5.995
X-0.024Y-5.999
X0.175Y-5.997
X0.374Y-5.988
X0.574Y-5.972
X0.773Y-5.949
X0.97Y-5.92
X1.167Y-5.885
X1.363Y-5.843
X1.557Y-5.794
X1.749Y-5.739
X1.939Y-5.677
X2.127Y-5.609
X2.313Y-5.535
X2.496Y-5.455
X2.677Y-5.369
X2.854Y-5.277
X3.029Y-5.179
X3.2Y-5.075
X3.367Y-4.965
X3.531Y-4.85
X3.69Y-4.73
X3.846Y-4.604
X3.997Y-4.474
X4.144Y-4.338
X4.286Y-4.197
X4.424Y-4.052
X4.556Y-3.903
X4.684Y-3.749
X4.806Y-3.59
X4.923Y-3.428
X5.035Y-3.262
X5.141Y-3.093
X5.241Y-2.919
X5.335Y-2.743
X5.424Y-2.564
X5.506Y-2.382
X5.583Y-2.197
X5.653Y-2.009
X5.717Y-1.82
X5.774Y-1.628
X5.825Y-1.435
X5.87Y-1.24
X5.908Y-1.044
X5.939Y-0.846
X5.964Y-0.648
X5.983Y-0.449
X5.994Y-0.249
X5.999Y-0.049
X5.998Y0.15
X5.989Y0.35
X5.974Y0.549
X5.953Y0.748
X5.924Y0.946
X5.89Y1.143
X5.848Y1.339
X5.8Y1.533
X5.746Y1.725
X5.685Y1.916
X5.618Y2.104
X5.545Y2.29
X5.466Y2.474
X5.38Y2.655
X5.289Y2.832
X5.191Y3.007
X5.088Y3.179
X4.979Y3.346
X4.865Y3.51
X4.745Y3.671
X4.62Y3.827
X4.49Y3.979
X4.355Y4.126
X4.215Y4.269
X4.071Y4.407
X3.921Y4.54
X3.768Y4.668
X3.61Y4.791
X3.448Y4.909
X3.283Y5.021
X3.114Y5.128
X2.941Y5.229
X2.765Y5.324
X2.586Y5.413
X2.404Y5.496
X2.22Y5.574
X2.033Y5.644
X1.843Y5.709
X1.652Y5.767
X1.459Y5.819
X1.264Y5.865
X1.068Y5.904
X0.871Y5.936
X0.672Y5.962
X0.473Y5.981
X0.274Y5.993
X0.074Y5.999
X-0.125Y5.998
X-0.325Y5.991
X-0.524Y5.976
X-0.723Y5.956
X-0.921Y5.928
X-1.119Y5.894
X-1.314Y5.854
X-1.509Y5.807
X-1.701Y5.753
X-1.892Y5.693
X-2.081Y5.627
X-2.267Y5.554
X-2.451Y5.476
X-2.632Y5.391
X-2.811Y5.3
X-2.986Y5.204
X-3.157Y5.101
X-3.326Y4.993
X-3.49Y4.879
X-3.651Y4.76
X-3.808Y4.636
X-3.96Y4.507
X-4.108Y4.372
X-4.252Y4.233
X-4.39Y4.089
X-4.524Y3.94
X-4.653Y3.787
X-4.777Y3.63
X-4.895Y3.469
X-5.008Y3.304
X-5.115Y3.135
X-5.217Y2.963
X-5.313Y2.787
X-5.403Y2.608
X-5.487Y2.427
X-5.564Y2.243
X-5.636Y2.056
X-5.701Y1.867
X-5.761Y1.676
X-5.813Y1.483
X-5.859Y1.288
X-5.899Y1.092
X-5.932Y0.895
X-5.959Y0.697
X-5.979Y0.498
X-5.992Y0.298
X-6Y0
X-7
X-6.997Y-0.199
X-6.988Y-0.399
X-6.974Y-0.599
X-6.954Y-0.798
X-6.928Y-0.996
X-6.897Y-1.194
X-6.86Y-1.39
X-6.817Y-1.586
X-6.769Y-1.78
X-6.716Y-1.972
X-6.657Y-2.163
X-6.592Y-2.353
X-6.522Y-2.54
X-6.447Y-2.725
X-6.366Y-2.909
X-6.281Y-3.089
X-6.19Y-3.267
X-6.094Y-3.443
X-5.993Y-3.616
X-5.887Y-3.785
X-5.777Y-3.952
X-5.662Y-4.115
X-5.542Y-4.276
X-5.417Y-4.432
X-5.288Y-4.585
X-5.155Y-4.734
X-5.018Y-4.88
X-4.876Y-5.021
X-4.731Y-5.158
X-4.582Y-5.291
X-4.429Y-5.42
X-4.272Y-5.544
X-4.112Y-5.664
X-3.948Y-5.779
X-3.782Y-5.89
X-3.612Y-5.995
X-3.439Y-6.096
X-3.263Y-6.192
X-3.085Y-6.283
X-2.904Y-6.368
X-2.721Y-6.449
X-2.536Y-6.524
X-2.349Y-6.594
X-2.159Y-6.658
X-1.968Y-6.717
X-1.775Y-6.77
X-1.581Y-6.818
X-1.386Y-6.861
X-1.189Y-6.898
X-0.992Y-6.929
X-0.793Y-6.954
X-0.594Y-6.974
X-0.395Y-6.988
X-0.195Y-6.997
X0.004Y-7
X0.204Y-6.997
X0.404Y-6.988
X0.603Y-6.973
X0.802Y-6.953
X1Y-6.928
X1.198Y-6.896
X1.395Y-6.859
X1.59Y-6.816
X1.784Y-6.768
X1.977Y-6.714
X2.168Y-6.655
X2.357Y-6.591
X2.544Y-6.521
X2.73Y-6.445
X2.913Y-6.365
X3.093Y-6.279
X3.271Y-6.188
X3.447Y-6.092
X3.619Y-5.991
X3.789Y-5.885
X3.956Y-5.774
X4.119Y-5.659
X4.279Y-5.539
X4.436Y-5.414
X4.588Y-5.286
X4.738Y-5.152
X4.883Y-5.015
X5.024Y-4.873
X5.161Y-4.728
X5.294Y-4.578
X5.423Y-4.425
X5.547Y-4.269
X5.667Y-4.108
X5.782Y-3.945
X5.892Y-3.778
X5.998Y-3.608
X6.098Y-3.435
X6.194Y-3.26
X6.285Y-3.081
X6.37Y-2.9
X6.45Y-2.717
X6.525Y-2.532
X6.595Y-2.344
X6.659Y-2.155
X6.718Y-1.964
X6.772Y-1.771
X6.819Y-1.577
X6.862Y-1.382
X6.898Y-1.185
X6.929Y-0.987
X6.955Y-0.789
X6.975Y-0.59
X6.989Y-0.39
X6.997Y-0.191
X7Y0.008
X6.996Y0.208
X6.988Y0.408
X6.973Y0.608
X6.953Y0.807
X6.927Y1.005
X6.895Y1.202
X6.858Y1.399
X6.815Y1.594
X6.767Y1.788
X6.713Y1.981
X6.654Y2.172
X6.589Y2.361
X6.519Y2.548
X6.443Y2.734
X6.363Y2.917
X6.277Y3.097
X6.186Y3.275
X6.09Y3.451
X5.989Y3.623
X5.883Y3.793
X5.772Y3.959
X5.656Y4.123
X5.536Y4.283
X5.412Y4.439
X5.283Y4.592
X5.149Y4.741
X5.012Y4.886
X4.87Y5.027
X4.724Y5.164
X4.575Y5.297
X4.422Y5.426
X4.265Y5.55
X4.105Y5.669
X3.941Y5.784
X3.774Y5.895
X3.604Y6
X3.431Y6.101
X3.256Y6.196
X3.077Y6.287
X2.896Y6.372
X2.713Y6.452
X2.528Y6.527
X2.34Y6.597
X2.151Y6.661
X1.96Y6.719
X1.767Y6.773
X1.573Y6.82
X1.377Y6.863
X1.181Y6.899
X0.983Y6.93
X0.785Y6.955
X0.586Y6.975
X0.386Y6.989
X0.186Y6.997
X-0.013Y7
X-0.213Y6.996
X-0.413Y6.987
X-0.612Y6.973
X-0.811Y6.952
X-1.009Y6.926
X-1.207Y6.895
X-1.403Y6.857
X-1.599Y6.814
X-1.793Y6.766
X-1.985Y6.712
X-2.176Y6.653
X-2.365Y6.588
X-2.553Y6.517
X-2.738Y6.442
X-2.921Y6.361
X-3.101Y6.275
X-3.279Y6.184
X-3.454Y6.087
X-3.627Y5.986
X-3.797Y5.88
X-3.963Y5.769
X-4.126Y5.654
X-4.286Y5.534
X-4.442Y5.409
X-4.595Y5.28
X-4.744Y5.146
X-4.889Y5.009
X-5.03Y4.867
X-5.167Y4.721
X-5.3Y4.572
X-5.428Y4.418
X-5.553Y4.261
X-5.672Y4.101
X-5.787Y3.937
X-5.897Y3.77
X-6.002Y3.6
X-6.103Y3.427
X-6.198Y3.252
X-6.289Y3.073
X-6.374Y2.892
X-6.454Y2.709
X-6.529Y2.524
X-6.598Y2.336
X-6.662Y2.147
X-6.721Y1.955
X-6.774Y1.763
X-6.821Y1.568
X-6.863Y1.373
X-6.9Y1.176
X-6.931Y0.979
X-6.956Y0.78
X-6.975Y0.581
X-6.989Y0.382
X-7Y0
X-8
X-7.997Y-0.199
X-7.99Y-0.399
X-7.977Y-0.599
X-7.96Y-0.798
X-7.937Y-0.997
X-7.91Y-1.195
X-7.877Y-1.392
X-7.84Y-1.589
X-7.798Y-1.784
X-7.751Y-1.979
X-7.699Y-2.172
X-7.642Y-2.364
X-7.581Y-2.554
X-7.514Y-2.743
X-7.444Y-2.93
X-7.368Y-3.115
X-7.288Y-3.298
X-7.203Y-3.479
X-7.114Y-3.658
X-7.02Y-3.835
X-6.922Y-4.009
X-6.82Y-4.181
X-6.713Y-4.35
X-6.602Y-4.517
X-6.487Y-4.68
X-6.368Y-4.841
X-6.245Y-4.999
X-6.118Y-5.153
X-5.987Y-5.305
X-5.853Y-5.453
X-5.715Y-5.597
X-5.573Y-5.738
X-5.428Y-5.876
X-5.279Y-6.01
X-5.127Y-6.14
X-4.972Y-6.266
X-4.814Y-6.388
X-4.653Y-6.507
X-4.489Y-6.621
X-4.322Y-6.731
X-4.152Y-6.837
X-3.98Y-6.939
X-3.805Y-7.036
X-3.628Y-7.129
X-3.449Y-7.218
X-3.267Y-7.302
X-3.084Y-7.381
X-2.898Y-7.456
X-2.711Y-7.526
X-2.522Y-7.591
X-2.332Y-7.652
X-2.139Y-7.708
X-1.946Y-7.759
X-1.752Y-7.805
X-1.556Y-7.847
X-1.359Y-7.883
X-1.162Y-7.915
X-0.964Y-7.941
X-0.765Y-7.963
X-0.565Y-7.979
X-0.366Y-7.991
X-0.166Y-7.998
X0.033Y-7.999
X0.233Y-7.996
X0.433Y-7.988
X0.632Y-7.974
X0.832Y-7.956
X1.03Y-7.933
X1.228Y-7.905
X1.425Y-7.871
X1.622Y-7.833
X1.817Y-7.79
X2.011Y-7.742
X2.204Y-7.69
X2.396Y-7.632
X2.586Y-7.57
X2.774Y-7.503
X2.961Y-7.431
X3.146Y-7.355
X3.329Y-7.274
X3.509Y-7.188
X3.688Y-7.098
X3.864Y-7.004
X4.038Y-6.905
X4.21Y-6.802
X4.378Y-6.695
X4.544Y-6.583
X4.708Y-6.467
X4.868Y-6.348
X5.025Y-6.224
X5.179Y-6.097
X5.33Y-5.965
X5.477Y-5.83
X5.621Y-5.691
X5.762Y-5.549
X5.899Y-5.403
X6.032Y-5.254
X6.161Y-5.102
X6.287Y-4.946
X6.409Y-4.787
X6.526Y-4.626
X6.64Y-4.461
X6.749Y-4.294
X6.855Y-4.124
X6.956Y-3.951
X7.052Y-3.776
X7.144Y-3.598
X7.232Y-3.419
X7.315Y-3.237
X7.394Y-3.053
X7.468Y-2.867
X7.537Y-2.679
X7.602Y-2.49
X7.662Y-2.299
X7.717Y-2.107
X7.767Y-1.913
X7.813Y-1.719
X7.853Y-1.523
X7.889Y-1.326
X7.919Y-1.128
X7.945Y-0.93
X7.966Y-0.731
X7.982Y-0.532
X7.993Y-0.332
X7.998Y-0.132
X7.999Y0.067
X7.995Y0.267
X7.986Y0.466
X7.972Y0.666
X7.953Y0.865
X7.928Y1.064
X7.899Y1.261
X7.865Y1.459
X7.826Y1.655
X7.783Y1.85
X7.734Y2.044
X7.68Y2.237
X7.622Y2.428
X7.559Y2.618
X7.491Y2.806
X7.419Y2.992
X7.342Y3.177
X7.26Y3.359
X7.174Y3.54
X7.083Y3.718
X6.988Y3.894
X6.888Y4.067
X6.784Y4.238
X6.676Y4.406
X6.564Y4.572
X6.448Y4.735
X6.327Y4.894
X6.203Y5.051
X6.075Y5.204
X5.943Y5.355
X5.807Y5.502
X5.668Y5.645
X5.525Y5.785
X5.378Y5.921
X5.229Y6.054
X5.076Y6.183
X4.92Y6.308
X4.76Y6.429
X4.598Y6.546
X4.433Y6.659
X4.265Y6.767
X4.095Y6.872
X3.922Y6.972
X3.746Y7.068
X3.568Y7.159
X3.388Y7.246
X3.206Y7.329
X3.022Y7.407
X2.836Y7.48
X2.648Y7.548
X2.458Y7.612
X2.267Y7.671
X2.075Y7.726
X1.881Y7.775
X1.686Y7.82
X1.49Y7.859
X1.293Y7.894
X1.095Y7.924
X0.897Y7.949
X0.698Y7.969
X0.498Y7.984
X0.299Y7.994
X0.099Y7.999
X-0.1
X-0.3Y7.994
X-0.5Y7.984
X-0.699Y7.969
X-0.898Y7.949
X-1.097Y7.924
X-1.295Y7.894
X-1.492Y7.859
X-1.688Y7.819
X-1.883Y7.775
X-2.076Y7.725
X-2.269Y7.671
X-2.46Y7.612
X-2.649Y7.548
X-2.837Y7.479
X-3.023Y7.406
X-3.208Y7.328
X-3.39Y7.246
X-3.57Y7.159
X-3.748Y7.067
X-3.923Y6.971
X-4.096Y6.871
X-4.267Y6.766
X-4.434Y6.658
X-4.6Y6.545
X-4.762Y6.428
X-4.921Y6.307
X-5.077Y6.182
X-5.23Y6.053
X-5.38Y5.92
X-5.526Y5.784
X-5.669Y5.644
X-5.808Y5.5
X-5.944Y5.353
X-6.076Y5.203
X-6.204Y5.05
X-6.328Y4.893
X-6.449Y4.733
X-6.565Y4.571
X-6.677Y4.405
X-6.785Y4.237
X-6.889Y4.066
X-6.988Y3.892
X-7.084Y3.716
X-7.174Y3.538
X-7.261Y3.358
X-7.342Y3.175
X-7.419Y2.99
X-7.492Y2.804
X-7.56Y2.616
X-7.623Y2.426
X-7.681Y2.235
X-7.734Y2.042
X-7.783Y1.848
X-7.827Y1.653
X-7.866Y1.457
X-7.9Y1.26
X-7.929Y1.062
X-7.953Y0.863
X-7.972Y0.664
X-7.986Y0.465
X-7.995Y0.265
X-8Y0
X-9
X-8.997Y-0.199
X-8.991Y-0.399
X-8.98Y-0.599
X-8.964Y-0.798
X-8.944Y-0.997
X-8.92Y-1.196
X-8.891Y-1.394
X-8.858Y-1.591
X-8.82Y-1.788
X-8.778Y-1.983
X-8.732Y-2.178
X-8.681Y-2.371
X-8.627Y-2.563
X-8.567Y-2.755
X-8.504Y-2.944
X-8.437Y-3.133
X-8.365Y-3.319
X-8.289Y-3.504
X-8.209Y-3.688
X-8.125Y-3.869
X-8.037Y-4.049
X-7.945Y-4.226
X-7.849Y-4.402
X-7.75Y-4.575
X-7.646Y-4.746
X-7.539Y-4.915
X-7.428Y-5.081
X-7.313Y-5.245
X-7.194Y-5.406
X-7.072Y-5.565
X-6.947Y-5.721
X-6.818Y-5.874
X-6.686Y-6.024
X-6.551Y-6.171
X-6.412Y-6.315
X-6.27Y-6.456
X-6.125Y-6.593
X-5.977Y-6.728
X-5.826Y-6.859
X-5.672Y-6.987
X-5.515Y-7.111
X-5.356Y-7.232
X-5.194Y-7.349
X-5.029Y-7.463
X-4.862Y-7.573
X-4.693Y-7.679
X-4.521Y-7.781
X-4.347Y-7.88
X-4.171Y-7.975
X-3.993Y-8.065
X-3.812Y-8.152
X-3.63Y-8.235
X-3.446Y-8.313
X-3.261Y-8.388
X-3.074Y-8.458
X-2.885Y-8.524
X-2.695Y-8.586
X-2.503Y-8.644
X-2.31Y-8.698
X-2.117Y-8.747
X-1.922Y-8.792
X-1.726Y-8.832
X-1.529Y-8.869
X-1.332Y-8.9
X-1.134Y-8.928
X-0.935Y-8.951
X-0.736Y-8.969
X-0.536Y-8.983
X-0.337Y-8.993
X-0.137Y-8.998
X0.062Y-8.999
X0.262Y-8.996
X0.462Y-8.988
X0.662Y-8.975
X0.861Y-8.958
X1.06Y-8.937
X1.258Y-8.911
X1.456Y-8.881
X1.653Y-8.846
X1.849Y-8.807
X2.044Y-8.764
X2.239Y-8.717
X2.432Y-8.665
X2.624Y-8.608
X2.814Y-8.548
X3.004Y-8.483
X3.191Y-8.415
X3.378Y-8.342
X3.562Y-8.264
X3.745Y-8.183
X3.926Y-8.098
X4.105Y-8.009
X4.282Y-7.916
X4.457Y-7.818
X4.629Y-7.717
X4.8Y-7.613
X4.967Y-7.504
X5.133Y-7.392
X5.296Y-7.276
X5.456Y-7.157
X5.614Y-7.033
X5.769Y-6.907
X5.921Y-6.777
X6.07Y-6.644
X6.216Y-6.507
X6.359Y-6.368
X6.499Y-6.225
X6.636Y-6.079
X6.77Y-5.93
X6.9Y-5.778
X7.026Y-5.623
X7.15Y-5.466
X7.269Y-5.305
X7.385Y-5.142
X7.498Y-4.977
X7.607Y-4.809
X7.712Y-4.639
X7.813Y-4.467
X7.91Y-4.292
X8.003Y-4.115
X8.093Y-3.936
X8.178Y-3.755
X8.26Y-3.573
X8.337Y-3.388
X8.41Y-3.202
X8.48Y-3.014
X8.544Y-2.825
X8.605Y-2.635
X8.662Y-2.443
X8.714Y-2.25
X8.762Y-2.056
X8.805Y-1.86
X8.844Y-1.664
X8.879Y-1.467
X8.909Y-1.27
X8.935Y-1.071
X8.957Y-0.872
X8.974Y-0.673
X8.987Y-0.474
X8.995Y-0.274
X8.999Y-0.074
Y0.125
X8.994Y0.325
X8.984Y0.525
X8.97Y0.724
X8.952Y0.924
X8.929Y1.122
X8.902Y1.32
X8.871Y1.518
X8.835Y1.715
X8.794Y1.911
X8.75Y2.105
X8.701Y2.299
X8.647Y2.492
X8.59Y2.684
X8.528Y2.874
X8.462Y3.063
X8.392Y3.25
X8.318Y3.436
X8.239Y3.62
X8.157Y3.802
X8.07Y3.982
X7.98Y4.161
X7.885Y4.337
X7.787Y4.511
X7.685Y4.683
X7.579Y4.853
X7.469Y5.02
X7.356Y5.185
X7.239Y5.347
X7.118Y5.506
X6.994Y5.663
X6.867Y5.817
X6.736Y5.968
X6.601Y6.116
X6.464Y6.262
X6.323Y6.404
X6.179Y6.543
X6.032Y6.678
X5.882Y6.811
X5.73Y6.94
X5.574Y7.065
X5.416Y7.188
X5.254Y7.306
X5.091Y7.421
X4.925Y7.532
X4.756Y7.64
X4.585Y7.744
X4.412Y7.844
X4.236Y7.94
X4.059Y8.032
X3.88Y8.12
X3.698Y8.204
X3.515Y8.285
X3.33Y8.361
X3.143Y8.433
X2.955Y8.5
X2.766Y8.564
X2.575Y8.623
X2.382Y8.678
X2.189Y8.729
X1.994Y8.776
X1.799Y8.818
X1.602Y8.856
X1.405Y8.889
X1.207Y8.918
X1.009Y8.943
X0.81Y8.963
X0.611Y8.979
X0.411Y8.99
X0.211Y8.997
X0.011Y9
X-0.188Y8.998
X-0.388Y8.991
X-0.588Y8.98
X-0.787Y8.965
X-0.986Y8.945
X-1.185Y8.921
X-1.382Y8.893
X-1.58Y8.86
X-1.776Y8.822
X-1.972Y8.781
X-2.166Y8.735
X-2.36Y8.684
X-2.552Y8.63
X-2.744Y8.571
X-2.933Y8.508
X-3.122Y8.441
X-3.309Y8.369
X-3.494Y8.294
X-3.677Y8.214
X-3.859Y8.13
X-4.038Y8.042
X-4.216Y7.951
X-4.392Y7.855
X-4.565Y7.755
X-4.736Y7.652
X-4.905Y7.545
X-5.072Y7.434
X-5.236Y7.32
X-5.397Y7.201
X-5.556Y7.08
X-5.712Y6.954
X-5.865Y6.826
X-6.015Y6.694
X-6.162Y6.558
X-6.307Y6.42
X-6.448Y6.278
X-6.586Y6.133
X-6.72Y5.985
X-6.852Y5.835
X-6.98Y5.681
X-7.104Y5.524
X-7.225Y5.365
X-7.343Y5.203
X-7.456Y5.039
X-7.567Y4.872
X-7.673Y4.703
X-7.776Y4.531
X-7.874Y4.357
X-7.969Y4.181
X-8.06Y4.003
X-8.147Y3.823
X-8.23Y3.641
X-8.309Y3.457
X-8.384Y3.271
X-8.454Y3.084
X-8.521Y2.896
X-8.583Y2.706
X-8.641Y2.514
X-8.695Y2.322
X-8.744Y2.128
X-8.789Y1.933
X-8.83Y1.737
X-8.867Y1.541
X-8.899Y1.343
X-8.926Y1.145
X-8.95Y0.946
X-8.968Y0.747
X-8.983Y0.548
X-8.993Y0.348
X-9Y0
X-10
X-9.998Y-0.199
X-9.992Y-0.399
X-9.982Y-0.599
X-9.968Y-0.799
X-9.95Y-0.998
X-9.928Y-1.197
X-9.902Y-1.395
X-9.872Y-1.593
X-9.838Y-1.79
X-9.8Y-1.986
X-9.758Y-2.182
X-9.713Y-2.377
X-9.663Y-2.57
X-9.61Y-2.763
X-9.553Y-2.955
X-9.492Y-3.145
X-9.427Y-3.334
X-9.358Y-3.522
X-9.286Y-3.709
X-9.21Y-3.894
X-9.13Y-4.077
X-9.047Y-4.259
X-8.96Y-4.439
X-8.869Y-4.617
X-8.775Y-4.794
X-8.678Y-4.968
X-8.577Y-5.141
X-8.472Y-5.311
X-8.364Y-5.48
X-8.253Y-5.646
X-8.138Y-5.81
X-8.02Y-5.971
X-7.899Y-6.131
X-7.775Y-6.287
X-7.648Y-6.442
X-7.518Y-6.593
X-7.384Y-6.742
X-7.248Y-6.889
X-7.109Y-7.032
X-6.967Y-7.173
X-6.822Y-7.311
X-6.674Y-7.446
X-6.524Y-7.578
X-6.371Y-7.707
X-6.216Y-7.833
X-6.058Y-7.956
X-5.897Y-8.075
X-5.735Y-8.191
X-5.57Y-8.304
X-5.403Y-8.414
X-5.233Y-8.521
X-5.062Y-8.624
X-4.888Y-8.723
X-4.713Y-8.819
X-4.535Y-8.912
X-4.356Y-9.001
X-4.175Y-9.086
X-3.993Y-9.168
X-3.809Y-9.246
X-3.623Y-9.32
X-3.436Y-9.391
X-3.247Y-9.457
X-3.058Y-9.52
X-2.867Y-9.58
X-2.674Y-9.635
X-2.481Y-9.687
X-2.287Y-9.734
X-2.092Y-9.778
X-1.896Y-9.818
X-1.699Y-9.854
X-1.502Y-9.886
X-1.304Y-9.914
X-1.105Y-9.938
X-0.906Y-9.958
X-0.707Y-9.974
X-0.507Y-9.987
X-0.307Y-9.995
X-0.107Y-9.999
X0.092
X0.291Y-9.995
X0.491Y-9.987
X0.691Y-9.976
X0.89Y-9.96
X1.089Y-9.94
X1.288Y-9.916
X1.486Y-9.888
X1.683Y-9.857
X1.88Y-9.821
X2.076Y-9.781
X2.272Y-9.738
X2.466Y-9.691
X2.659Y-9.639
X2.851Y-9.584
X3.043Y-9.525
X3.232Y-9.463
X3.421Y-9.396
X3.608Y-9.326
X3.794Y-9.252
X3.978Y-9.174
X4.161Y-9.092
X4.342Y-9.007
X4.521Y-8.919
X4.699Y-8.827
X4.874Y-8.731
X5.048Y-8.632
X5.22Y-8.529
X5.389Y-8.423
X5.557Y-8.313
X5.722Y-8.201
X5.885Y-8.084
X6.045Y-7.965
X6.203Y-7.843
X6.359Y-7.717
X6.512Y-7.588
X6.662Y-7.457
X6.81Y-7.322
X6.955Y-7.184
X7.097Y-7.044
X7.237Y-6.9
X7.373Y-6.754
X7.507Y-6.605
X7.638Y-6.454
X7.765Y-6.3
X7.89Y-6.143
X8.011Y-5.984
X8.129Y-5.823
X8.244Y-5.659
X8.355Y-5.493
X8.464Y-5.325
X8.568Y-5.155
X8.67Y-4.982
X8.768Y-4.808
X8.862Y-4.631
X8.953Y-4.453
X9.04Y-4.273
X9.124Y-4.092
X9.204Y-3.908
X9.28Y-3.724
X9.353Y-3.537
X9.422Y-3.349
X9.487Y-3.16
X9.548Y-2.97
X9.606Y-2.778
X9.659Y-2.586
X9.709Y-2.392
X9.755Y-2.197
X9.797Y-2.002
X9.835Y-1.805
X9.869Y-1.608
X9.899Y-1.411
X9.926Y-1.212
X9.948Y-1.014
X9.966Y-0.815
X9.981Y-0.615
X9.991Y-0.415
X9.997Y-0.215
X10Y-0.015
X9.998Y0.184
X9.992Y0.383
X9.982Y0.583
X9.969Y0.783
X9.951Y0.982
X9.93Y1.181
X9.904Y1.379
X9.874Y1.577
X9.841Y1.774
X9.803Y1.971
X9.762Y2.166
X9.717Y2.361
X9.668Y2.555
X9.614Y2.748
X9.558Y2.939
X9.497Y3.13
X9.432Y3.319
X9.364Y3.507
X9.292Y3.694
X9.216Y3.879
X9.137Y4.063
X9.054Y4.244
X8.967Y4.425
X8.877Y4.603
X8.783Y4.78
X8.686Y4.954
X8.585Y5.127
X8.481Y5.298
X8.373Y5.466
X8.262Y5.633
X8.148Y5.797
X8.03Y5.959
X7.909Y6.118
X7.785Y6.275
X7.658Y6.43
X7.528Y6.581
X7.395Y6.731
X7.259Y6.877
X7.12Y7.021
X6.978Y7.162
X6.833Y7.3
X6.686Y7.435
X6.536Y7.568
X6.383Y7.697
X6.228Y7.823
X6.07Y7.946
X5.91Y8.066
X5.748Y8.182
X5.583Y8.296
X5.416Y8.406
X5.247Y8.512
X5.075Y8.616
X4.902Y8.715
X4.727Y8.812
X4.55Y8.904
X4.371Y8.994
X4.19Y9.079
X4.008Y9.161
X3.823Y9.24
X3.638Y9.314
X3.451Y9.385
X3.263Y9.452
X3.073Y9.516
X2.882Y9.575
X2.69Y9.631
X2.497Y9.683
X2.303Y9.731
X2.107Y9.775
X1.912Y9.815
X1.715Y9.851
X1.518Y9.884
X1.32Y9.912
X1.121Y9.936
X0.922Y9.957
X0.723Y9.973
X0.523Y9.986
X0.323Y9.994
X0.123Y9.999
X-0.076
X-0.276Y9.996
X-0.475Y9.988
X-0.675Y9.977
X-0.874Y9.961
X-1.074Y9.942
X-1.272Y9.918
X-1.47Y9.891
X-1.668Y9.859
X-1.865Y9.824
X-2.061Y9.785
X-2.256Y9.742
X-2.45Y9.695
X-2.644Y9.644
X-2.836Y9.589
X-3.027Y9.53
X-3.217Y9.468
X-3.406Y9.401
X-3.593Y9.331
X-3.779Y9.258
X-3.964Y9.18
X-4.146Y9.099
X-4.328Y9.014
X-4.507Y8.926
X-4.685Y8.834
X-4.86Y8.739
X-5.034Y8.64
X-5.206Y8.537
X-5.376Y8.431
X-5.543Y8.322
X-5.709Y8.21
X-5.872Y8.094
X-6.032Y7.975
X-6.191Y7.853
X-6.346Y7.727
X-6.5Y7.599
X-6.65Y7.467
X-6.798Y7.333
X-6.944Y7.195
X-7.086Y7.055
X-7.226Y6.912
X-7.363Y6.766
X-7.497Y6.617
X-7.627Y6.466
X-7.755Y6.312
X-7.88Y6.156
X-8.001Y5.997
X-8.12Y5.836
X-8.235Y5.672
X-8.347Y5.506
X-8.455Y5.338
X-8.56Y5.168
X-8.662Y4.996
X-8.76Y4.822
X-8.855Y4.646
X-8.946Y4.468
X-9.033Y4.288
X-9.117Y4.106
X-9.198Y3.923
X-9.274Y3.738
X-9.347Y3.552
X-9.416Y3.364
X-9.482Y3.175
X-9.543Y2.985
X-9.601Y2.794
X-9.655Y2.601
X-9.705Y2.407
X-9.752Y2.213
X-9.794Y2.017
X-9.832Y1.821
X-9.867Y1.624
X-9.897Y1.426
X-9.924Y1.228
X-9.946Y1.03
X-9.965Y0.83
X-9.98Y0.631
X-9.99Y0.431
X-9.997Y0.231
X-10Y0
X-11
X-10.998Y-0.199
X-10.992Y-0.399
X-10.983Y-0.599
X-10.97Y-0.799
X-10.954Y-0.998
X-10.934Y-1.197
X-10.911Y-1.396
X-10.883Y-1.594
X-10.853Y-1.791
X-10.818Y-1.988
X-10.78Y-2.185
X-10.739Y-2.381
X-10.694Y-2.575
X-10.645Y-2.769
X-10.593Y-2.962
X-10.537Y-3.155
X-10.478Y-3.346
X-10.416Y-3.536
X-10.35Y-3.724
X-10.28Y-3.912
X-10.207Y-4.098
X-10.131Y-4.283
X-10.052Y-4.467
X-9.969Y-4.649
X-9.883Y-4.829
X-9.793Y-5.008
X-9.7Y-5.185
X-9.605Y-5.361
X-9.506Y-5.534
X-9.403Y-5.706
X-9.298Y-5.876
X-9.19Y-6.044
X-9.078Y-6.211
X-8.964Y-6.375
X-8.846Y-6.537
X-8.726Y-6.696
X-8.603Y-6.854
X-8.477Y-7.009
X-8.348Y-7.162
X-8.216Y-7.313
X-8.082Y-7.461
X-7.945Y-7.607
X-7.805Y-7.75
X-7.663Y-7.89
X-7.519Y-8.028
X-7.371Y-8.164
X-7.222Y-8.296
X-7.07Y-8.426
X-6.915Y-8.554
X-6.759Y-8.678
X-6.6Y-8.799
X-6.439Y-8.918
X-6.275Y-9.033
X-6.11Y-9.146
X-5.943Y-9.256
X-5.774Y-9.362
X-5.602Y-9.466
X-5.429Y-9.566
X-5.255Y-9.663
X-5.078Y-9.757
X-4.9Y-9.848
X-4.72Y-9.935
X-4.538Y-10.019
X-4.356Y-10.1
X-4.171Y-10.178
X-3.985Y-10.252
X-3.798Y-10.323
X-3.61Y-10.39
X-3.421Y-10.454
X-3.23Y-10.514
X-3.038Y-10.571
X-2.846Y-10.625
X-2.652Y-10.675
X-2.457Y-10.721
X-2.262Y-10.764
X-2.066Y-10.804
X-1.869Y-10.839
X-1.672Y-10.872
X-1.474Y-10.9
X-1.275Y-10.925
X-1.077Y-10.947
X-0.877Y-10.964
X-0.678Y-10.979
X-0.478Y-10.989
X-0.278Y-10.996
X-0.078Y-10.999
X0.121
X0.321Y-10.995
X0.521Y-10.987
X0.72Y-10.976
X0.92Y-10.961
X1.119Y-10.942
X1.318Y-10.92
X1.516Y-10.894
X1.714Y-10.865
X1.911Y-10.832
X2.108Y-10.796
X2.304Y-10.755
X2.499Y-10.712
X2.693Y-10.665
X2.887Y-10.614
X3.079Y-10.56
X3.271Y-10.502
X3.461Y-10.441
X3.65Y-10.376
X3.838Y-10.308
X4.025Y-10.236
X4.21Y-10.162
X4.395Y-10.083
X4.577Y-10.002
X4.758Y-9.917
X4.938Y-9.829
X5.116Y-9.737
X5.292Y-9.643
X5.466Y-9.545
X5.639Y-9.444
X5.81Y-9.34
X5.979Y-9.233
X6.145Y-9.122
X6.31Y-9.009
X6.473Y-8.893
X6.634Y-8.774
X6.792Y-8.652
X6.948Y-8.527
X7.102Y-8.399
X7.254Y-8.269
X7.403Y-8.135
X7.549Y-7.999
X7.694Y-7.861
X7.835Y-7.72
X7.974Y-7.576
X8.111Y-7.43
X8.245Y-7.281
X8.376Y-7.13
X8.504Y-6.976
X8.629Y-6.821
X8.752Y-6.663
X8.872Y-6.502
X8.988Y-6.34
X9.102Y-6.175
X9.213Y-6.009
X9.321Y-5.84
X9.425Y-5.67
X9.527Y-5.498
X9.625Y-5.324
X9.72Y-5.148
X9.812Y-4.97
X9.901Y-4.791
X9.987Y-4.61
X10.069Y-4.428
X10.148Y-4.244
X10.223Y-4.059
X10.295Y-3.872
X10.364Y-3.684
X10.429Y-3.495
X10.491Y-3.305
X10.549Y-3.114
X10.604Y-2.922
X10.656Y-2.728
X10.704Y-2.534
X10.748Y-2.339
X10.789Y-2.143
X10.826Y-1.947
X10.859Y-1.75
X10.889Y-1.552
X10.916Y-1.354
X10.939Y-1.155
X10.958Y-0.956
X10.973Y-0.756
X10.985Y-0.557
X10.994Y-0.357
X10.998Y-0.157
X10.999Y0.042
X10.997Y0.242
X10.991Y0.442
X10.981Y0.642
X10.967Y0.841
X10.95Y1.04
X10.929Y1.239
X10.905Y1.438
X10.877Y1.636
X10.846Y1.833
X10.81Y2.03
X10.772Y2.226
X10.729Y2.422
X10.684Y2.617
X10.634Y2.81
X10.581Y3.003
X10.525Y3.195
X10.465Y3.386
X10.402Y3.576
X10.335Y3.764
X10.265Y3.952
X10.191Y4.138
X10.115Y4.322
X10.034Y4.505
X9.951Y4.687
X9.864Y4.867
X9.774Y5.046
X9.68Y5.223
X9.584Y5.398
X9.484Y5.571
X9.381Y5.743
X9.275Y5.912
X9.166Y6.08
X9.054Y6.246
X8.939Y6.409
X8.821Y6.571
X8.7Y6.73
X8.576Y6.887
X8.45Y7.042
X8.32Y7.194
X8.188Y7.344
X8.053Y7.492
X7.916Y7.637
X7.775Y7.78
X7.633Y7.92
X7.487Y8.057
X7.34Y8.192
X7.19Y8.324
X7.037Y8.454
X6.882Y8.58
X6.725Y8.704
X6.566Y8.825
X6.404Y8.943
X6.24Y9.058
X6.075Y9.17
X5.907Y9.279
X5.737Y9.384
X5.566Y9.487
X5.392Y9.587
X5.217Y9.683
X5.04Y9.777
X4.862Y9.867
X4.681Y9.953
X4.5Y10.037
X4.317Y10.117
X4.132Y10.194
X3.946Y10.267
X3.758Y10.337
X3.57Y10.404
X3.38Y10.467
X3.189Y10.527
X2.997Y10.583
X2.804Y10.636
X2.611Y10.685
X2.416Y10.731
X2.22Y10.773
X2.024Y10.812
X1.827Y10.847
X1.63Y10.878
X1.432Y10.906
X1.233Y10.93
X1.034Y10.951
X0.835Y10.968
X0.635Y10.981
X0.436Y10.991
X0.236Y10.997
X0.036Y10.999
X-0.163Y10.998
X-0.363Y10.993
X-0.563Y10.985
X-0.763Y10.973
X-0.962Y10.957
X-1.161Y10.938
X-1.36Y10.915
X-1.558Y10.889
X-1.756Y10.858
X-1.953Y10.825
X-2.149Y10.787
X-2.345Y10.747
X-2.54Y10.702
X-2.734Y10.654
X-2.927Y10.603
X-3.12Y10.548
X-3.311Y10.489
X-3.501Y10.427
X-3.69Y10.362
X-3.878Y10.293
X-4.065Y10.221
X-4.25Y10.145
X-4.433Y10.066
X-4.616Y9.984
X-4.796Y9.898
X-4.976Y9.81
X-5.153Y9.718
X-5.329Y9.622
X-5.503Y9.524
X-5.675Y9.422
X-5.846Y9.317
X-6.014Y9.21
X-6.181Y9.099
X-6.345Y8.985
X-6.507Y8.868
X-6.667Y8.748
X-6.825Y8.625
X-6.981Y8.5
X-7.135Y8.372
X-7.286Y8.24
X-7.434Y8.107
X-7.58Y7.97
X-7.724Y7.831
X-7.865Y7.689
X-8.004Y7.545
X-8.139Y7.398
X-8.273Y7.249
X-8.403Y7.097
X-8.531Y6.943
X-8.656Y6.787
X-8.778Y6.629
X-8.897Y6.468
X-9.013Y6.305
X-9.126Y6.14
X-9.236Y5.973
X-9.343Y5.804
X-9.447Y5.634
X-9.548Y5.461
X-9.646Y5.286
X-9.74Y5.11
X-9.832Y4.932
X-9.92Y4.753
X-10.004Y4.571
X-10.086Y4.389
X-10.164Y4.205
X-10.239Y4.019
X-10.31Y3.832
X-10.378Y3.644
X-10.443Y3.455
X-10.504Y3.265
X-10.561Y3.073
X-10.616Y2.881
X-10.666Y2.687
X-10.713Y2.493
X-10.757Y2.297
X-10.797Y2.102
X-10.833Y1.905
X-10.866Y1.708
X-10.895Y1.51
X-10.921Y1.311
X-10.943Y1.113
X-10.961Y0.913
X-10.976Y0.714
X-10.987Y0.514
X-10.995Y0.314
X-11Y0
X-12
X-11.998Y-0.199
X-11.993Y-0.399
X-11.985Y-0.599
X-11.973Y-0.799
X-11.958Y-0.998
X-11.94Y-1.198
X-11.918Y-1.396
X-11.893Y-1.595
X-11.865Y-1.793
X-11.833Y-1.99
X-11.798Y-2.187
X-11.76Y-2.384
X-11.719Y-2.579
X-11.674Y-2.774
X-11.626Y-2.968
X-11.575Y-3.162
X-11.521Y-3.354
X-11.464Y-3.546
X-11.403Y-3.736
X-11.339Y-3.926
X-11.272Y-4.114
X-11.202Y-4.302
X-11.129Y-4.488
X-11.052Y-4.673
X-10.973Y-4.856
X-10.89Y-5.038
X-10.805Y-5.219
X-10.716Y-5.398
X-10.625Y-5.576
X-10.53Y-5.753
X-10.433Y-5.927
X-10.333Y-6.1
X-10.23Y-6.272
X-10.124Y-6.441
X-10.015Y-6.609
X-9.904Y-6.775
X-9.789Y-6.939
X-9.672Y-7.102
X-9.553Y-7.262
X-9.43Y-7.42
X-9.305Y-7.576
X-9.178Y-7.73
X-9.047Y-7.882
X-8.915Y-8.032
X-8.78Y-8.179
X-8.642Y-8.324
X-8.502Y-8.467
X-8.36Y-8.608
X-8.215Y-8.746
X-8.068Y-8.882
X-7.919Y-9.015
X-7.768Y-9.146
X-7.614Y-9.274
X-7.459Y-9.399
X-7.301Y-9.522
X-7.141Y-9.643
X-6.98Y-9.76
X-6.816Y-9.875
X-6.651Y-9.988
X-6.483Y-10.097
X-6.314Y-10.204
X-6.143Y-10.308
X-5.97Y-10.409
X-5.796Y-10.507
X-5.62Y-10.602
X-5.443Y-10.694
X-5.264Y-10.783
X-5.083Y-10.869
X-4.901Y-10.953
X-4.718Y-11.033
X-4.534Y-11.11
X-4.348Y-11.184
X-4.161Y-11.255
X-3.973Y-11.323
X-3.783Y-11.387
X-3.593Y-11.449
X-3.402Y-11.507
X-3.209Y-11.562
X-3.016Y-11.614
X-2.822Y-11.663
X-2.628Y-11.708
X-2.432Y-11.75
X-2.236Y-11.789
X-2.039Y-11.825
X-1.842Y-11.857
X-1.644Y-11.886
X-1.446Y-11.912
X-1.247Y-11.935
X-1.048Y-11.954
X-0.848Y-11.969
X-0.649Y-11.982
X-0.449Y-11.991
X-0.249Y-11.997
X-0.049Y-11.999
X0.15
X0.35Y-11.994
X0.55Y-11.987
X0.749Y-11.976
X0.949Y-11.962
X1.148Y-11.944
X1.347Y-11.924
X1.546Y-11.899
X1.744Y-11.872
X1.941Y-11.841
X2.138Y-11.807
X2.335Y-11.77
X2.531Y-11.73
X2.726Y-11.686
X2.92Y-11.639
X3.114Y-11.588
X3.307Y-11.535
X3.498Y-11.478
X3.689Y-11.418
X3.879Y-11.355
X4.068Y-11.289
X4.255Y-11.22
X4.442Y-11.147
X4.627Y-11.071
X4.811Y-10.993
X4.993Y-10.911
X5.174Y-10.826
X5.354Y-10.739
X5.532Y-10.648
X5.709Y-10.554
X5.884Y-10.458
X6.058Y-10.358
X6.229Y-10.256
X6.4Y-10.15
X6.568Y-10.042
X6.734Y-9.931
X6.899Y-9.818
X7.062Y-9.701
X7.222Y-9.582
X7.381Y-9.461
X7.538Y-9.336
X7.692Y-9.209
X7.845Y-9.08
X7.995Y-8.948
X8.143Y-8.813
X8.289Y-8.677
X8.432Y-8.537
X8.573Y-8.395
X8.712Y-8.251
X8.848Y-8.105
X8.982Y-7.956
X9.113Y-7.806
X9.242Y-7.653
X9.369Y-7.498
X9.492Y-7.34
X9.613Y-7.181
X9.732Y-7.02
X9.847Y-6.857
X9.96Y-6.692
X10.07Y-6.525
X10.178Y-6.356
X10.282Y-6.186
X10.384Y-6.013
X10.483Y-5.839
X10.579Y-5.664
X10.671Y-5.487
X10.761Y-5.308
X10.848Y-5.128
X10.932Y-4.947
X11.013Y-4.764
X11.091Y-4.579
X11.166Y-4.394
X11.238Y-4.207
X11.306Y-4.019
X11.372Y-3.83
X11.434Y-3.64
X11.493Y-3.449
X11.549Y-3.257
X11.602Y-3.064
X11.651Y-2.87
X11.697Y-2.676
X11.74Y-2.481
X11.78Y-2.285
X11.816Y-2.088
X11.85Y-1.891
X11.879Y-1.693
X11.906Y-1.495
X11.929Y-1.296
X11.949Y-1.097
X11.966Y-0.898
X11.979Y-0.698
X11.989Y-0.498
X11.996Y-0.299
X11.999Y-0.099
Y0.1
X11.996Y0.3
X11.989Y0.5
X11.979Y0.7
X11.966Y0.9
X11.949Y1.099
X11.929Y1.298
X11.906Y1.496
X11.879Y1.695
X11.849Y1.892
X11.816Y2.09
X11.78Y2.286
X11.74Y2.482
X11.697Y2.678
X11.651Y2.872
X11.601Y3.066
X11.548Y3.259
X11.492Y3.451
X11.433Y3.642
X11.371Y3.832
X11.306Y4.021
X11.237Y4.209
X11.165Y4.396
X11.09Y4.581
X11.013Y4.765
X10.932Y4.948
X10.848Y5.13
X10.761Y5.31
X10.671Y5.488
X10.578Y5.665
X10.482Y5.841
X10.383Y6.015
X10.281Y6.187
X10.177Y6.358
X10.069Y6.526
X9.959Y6.693
X9.846Y6.858
X9.731Y7.021
X9.612Y7.183
X9.491Y7.342
X9.367Y7.499
X9.241Y7.654
X9.112Y7.807
X8.981Y7.958
X8.847Y8.106
X8.711Y8.253
X8.572Y8.397
X8.431Y8.538
X8.287Y8.678
X8.142Y8.815
X7.994Y8.949
X7.843Y9.081
X7.691Y9.211
X7.536Y9.338
X7.38Y9.462
X7.221Y9.584
X7.06Y9.703
X6.897Y9.819
X6.733Y9.932
X6.566Y10.043
X6.398Y10.151
X6.228Y10.257
X6.056Y10.359
X5.883Y10.458
X5.708Y10.555
X5.531Y10.649
X5.353Y10.739
X5.173Y10.827
X4.992Y10.912
X4.809Y10.994
X4.625Y11.072
X4.44Y11.148
X4.254Y11.22
X4.066Y11.289
X3.877Y11.356
X3.688Y11.419
X3.497Y11.479
X3.305Y11.535
X3.112Y11.589
X2.919Y11.639
X2.724Y11.686
X2.529Y11.73
X2.333Y11.77
X2.137Y11.808
X1.94Y11.842
X1.742Y11.872
X1.544Y11.9
X1.345Y11.924
X1.146Y11.945
X0.947Y11.962
X0.748Y11.976
X0.548Y11.987
X0.348Y11.994
X0.148Y11.999
X-0.051
X-0.251Y11.997
X-0.451Y11.991
X-0.651Y11.982
X-0.85Y11.969
X-1.049Y11.954
X-1.249Y11.934
X-1.447Y11.912
X-1.646Y11.886
X-1.843Y11.857
X-2.041Y11.825
X-2.238Y11.789
X-2.434Y11.75
X-2.629Y11.708
X-2.824Y11.662
X-3.018Y11.614
X-3.211Y11.562
X-3.403Y11.507
X-3.595Y11.448
X-3.785Y11.387
X-3.974Y11.322
X-4.162Y11.254
X-4.349Y11.183
X-4.535Y11.109
X-4.72Y11.032
X-4.903Y10.952
X-5.085Y10.869
X-5.265Y10.782
X-5.444Y10.693
X-5.622Y10.601
X-5.798Y10.506
X-5.972Y10.408
X-6.145Y10.307
X-6.315Y10.203
X-6.485Y10.096
X-6.652Y9.987
X-6.818Y9.874
X-6.981Y9.759
X-7.143Y9.642
X-7.303Y9.521
X-7.46Y9.398
X-7.616Y9.273
X-7.769Y9.144
X-7.921Y9.014
X-8.07Y8.88
X-8.217Y8.745
X-8.361Y8.607
X-8.504Y8.466
X-8.643Y8.323
X-8.781Y8.178
X-8.916Y8.03
X-9.049Y7.881
X-9.179Y7.729
X-9.306Y7.575
X-9.431Y7.419
X-9.554Y7.26
X-9.673Y7.1
X-9.79Y6.938
X-9.905Y6.774
X-10.016Y6.608
X-10.125Y6.44
X-10.231Y6.27
X-10.334Y6.099
X-10.434Y5.926
X-10.531Y5.751
X-10.626Y5.575
X-10.717Y5.397
X-10.806Y5.218
X-10.891Y5.037
X-10.974Y4.854
X-11.053Y4.671
X-11.129Y4.486
X-11.202Y4.3
X-11.273Y4.113
X-11.34Y3.924
X-11.403Y3.735
X-11.464Y3.544
X-11.522Y3.352
X-11.576Y3.16
X-11.627Y2.967
X-11.675Y2.772
X-11.719Y2.577
X-11.761Y2.382
X-11.799Y2.185
X-11.834Y1.989
X-11.865Y1.791
X-11.893Y1.593
X-11.918Y1.395
X-11.94Y1.196
X-11.958Y0.997
X-11.973Y0.797
X-11.985Y0.597
X-11.993Y0.398
X-12Y0
X-13
X-12.998Y-0.199
X-12.993Y-0.399
X-12.986Y-0.599
X-12.975Y-0.799
X-12.961Y-0.999
X-12.944Y-1.198
X-12.924Y-1.397
X-12.901Y-1.595
X-12.875Y-1.794
X-12.846Y-1.992
X-12.814Y-2.189
X-12.779Y-2.386
X-12.74Y-2.582
X-12.699Y-2.778
X-12.655Y-2.973
X-12.608Y-3.167
X-12.557Y-3.361
X-12.504Y-3.554
X-12.448Y-3.746
X-12.389Y-3.937
X-12.327Y-4.127
X-12.262Y-4.316
X-12.194Y-4.504
X-12.123Y-4.691
X-12.05Y-4.877
X-11.973Y-5.062
X-11.894Y-5.246
X-11.812Y-5.428
X-11.727Y-5.609
X-11.639Y-5.789
X-11.549Y-5.967
X-11.456Y-6.144
X-11.36Y-6.32
X-11.261Y-6.494
X-11.16Y-6.666
X-11.056Y-6.837
X-10.95Y-7.006
X-10.841Y-7.174
X-10.729Y-7.34
X-10.615Y-7.504
X-10.498Y-7.666
X-10.379Y-7.827
X-10.257Y-7.986
X-10.133Y-8.143
X-10.007Y-8.298
X-9.878Y-8.451
X-9.747Y-8.602
X-9.613Y-8.75
X-9.477Y-8.897
X-9.339Y-9.042
X-9.199Y-9.185
X-9.057Y-9.325
X-8.912Y-9.463
X-8.766Y-9.599
X-8.617Y-9.733
X-8.466Y-9.865
X-8.313Y-9.994
X-8.159Y-10.12
X-8.002Y-10.245
X-7.843Y-10.367
X-7.683Y-10.486
X-7.521Y-10.603
X-7.357Y-10.717
X-7.191Y-10.829
X-7.023Y-10.939
X-6.854Y-11.045
X-6.684Y-11.15
X-6.511Y-11.251
X-6.337Y-11.35
X-6.162Y-11.446
X-5.985Y-11.54
X-5.807Y-11.63
X-5.627Y-11.718
X-5.446Y-11.803
X-5.264Y-11.886
X-5.081Y-11.965
X-4.896Y-12.042
X-4.71Y-12.116
X-4.523Y-12.187
X-4.335Y-12.255
X-4.146Y-12.32
X-3.956Y-12.383
X-3.765Y-12.442
X-3.573Y-12.499
X-3.381Y-12.552
X-3.187Y-12.603
X-2.993Y-12.65
X-2.798Y-12.695
X-2.602Y-12.736
X-2.406Y-12.775
X-2.209Y-12.81
X-2.012Y-12.843
X-1.814Y-12.872
X-1.616Y-12.899
X-1.417Y-12.922
X-1.218Y-12.942
X-1.019Y-12.96
X-0.819Y-12.974
X-0.62Y-12.985
X-0.42Y-12.993
X-0.22Y-12.998
X-0.02Y-13
X0.179Y-12.998
X0.379Y-12.994
X0.579Y-12.987
X0.779Y-12.976
X0.978Y-12.963
X1.178Y-12.946
X1.377Y-12.926
X1.575Y-12.904
X1.774Y-12.878
X1.972Y-12.849
X2.169Y-12.817
X2.366Y-12.782
X2.562Y-12.744
X2.758Y-12.703
X2.953Y-12.66
X3.148Y-12.613
X3.341Y-12.563
X3.534Y-12.51
X3.726Y-12.454
X3.917Y-12.395
X4.108Y-12.333
X4.297Y-12.269
X4.485Y-12.201
X4.672Y-12.131
X4.858Y-12.057
X5.043Y-11.981
X5.227Y-11.902
X5.409Y-11.82
X5.591Y-11.736
X5.771Y-11.648
X5.949Y-11.558
X6.126Y-11.465
X6.302Y-11.37
X6.476Y-11.271
X6.649Y-11.17
X6.82Y-11.067
X6.989Y-10.961
X7.157Y-10.852
X7.323Y-10.74
X7.487Y-10.626
X7.65Y-10.51
X7.811Y-10.391
X7.97Y-10.27
X8.127Y-10.146
X8.282Y-10.02
X8.435Y-9.891
X8.586Y-9.76
X8.735Y-9.627
X8.883Y-9.491
X9.027Y-9.353
X9.17Y-9.213
X9.311Y-9.071
X9.449Y-8.927
X9.586Y-8.781
X9.72Y-8.632
X9.851Y-8.481
X9.981Y-8.329
X10.108Y-8.174
X10.232Y-8.018
X10.354Y-7.86
X10.474Y-7.699
X10.591Y-7.537
X10.706Y-7.373
X10.818Y-7.208
X10.928Y-7.041
X11.035Y-6.872
X11.139Y-6.701
X11.241Y-6.529
X11.34Y-6.355
X11.436Y-6.18
X11.53Y-6.003
X11.621Y-5.825
X11.709Y-5.646
X11.795Y-5.465
X11.878Y-5.283
X11.957Y-5.099
X12.034Y-4.915
X12.109Y-4.729
X12.18Y-4.542
X12.248Y-4.354
X12.314Y-4.165
X12.377Y-3.975
X12.436Y-3.785
X12.493Y-3.593
X12.547Y-3.4
X12.598Y-3.207
X12.646Y-3.013
X12.69Y-2.818
X12.732Y-2.622
X12.771Y-2.426
X12.807Y-2.229
X12.84Y-2.032
X12.869Y-1.834
X12.896Y-1.636
X12.92Y-1.437
X12.94Y-1.238
X12.958Y-1.039
X12.972Y-0.84
X12.984Y-0.64
X12.992Y-0.44
X12.997Y-0.24
X13Y-0.04
X12.999Y0.159
X12.995Y0.359
X12.988Y0.559
X12.977Y0.758
X12.964Y0.958
X12.948Y1.157
X12.929Y1.356
X12.906Y1.555
X12.881Y1.753
X12.852Y1.951
X12.821Y2.149
X12.786Y2.346
X12.748Y2.542
X12.708Y2.738
X12.664Y2.933
X12.618Y3.128
X12.568Y3.322
X12.515Y3.515
X12.46Y3.707
X12.401Y3.898
X12.34Y4.088
X12.275Y4.278
X12.208Y4.466
X12.138Y4.653
X12.065Y4.839
X11.989Y5.024
X11.91Y5.208
X11.829Y5.391
X11.745Y5.572
X11.657Y5.752
X11.568Y5.931
X11.475Y6.108
X11.38Y6.284
X11.282Y6.458
X11.181Y6.631
X11.078Y6.802
X10.972Y6.972
X10.863Y7.14
X10.752Y7.306
X10.638Y7.471
X10.522Y7.634
X10.403Y7.795
X10.282Y7.954
X10.159Y8.111
X10.033Y8.266
X9.904Y8.42
X9.774Y8.571
X9.64Y8.72
X9.505Y8.868
X9.368Y9.013
X9.228Y9.156
X9.086Y9.297
X8.942Y9.435
X8.796Y9.572
X8.647Y9.706
X8.497Y9.838
X8.345Y9.968
X8.19Y10.095
X8.034Y10.22
X7.876Y10.342
X7.716Y10.462
X7.554Y10.579
X7.39Y10.694
X7.225Y10.807
X7.058Y10.917
X6.889Y11.024
X6.719Y11.129
X6.546Y11.231
X6.373Y11.33
X6.198Y11.427
X6.021Y11.521
X5.843Y11.612
X5.664Y11.701
X5.483Y11.786
X5.301Y11.869
X5.118Y11.949
X4.934Y12.027
X4.748Y12.101
X4.561Y12.173
X4.374Y12.242
X4.185Y12.307
X3.995Y12.37
X3.804Y12.43
X3.612Y12.487
X3.42Y12.542
X3.226Y12.593
X3.032Y12.641
X2.838Y12.686
X2.642Y12.728
X2.446Y12.767
X2.249Y12.803
X2.052Y12.837
X1.854Y12.867
X1.656Y12.894
X1.458Y12.918
X1.259Y12.938
X1.059Y12.956
X0.86Y12.971
X0.66Y12.983
X0.46Y12.991
X0.261Y12.997
X0.061Y12.999
X-0.138
X-0.338Y12.995
X-0.538Y12.988
X-0.738Y12.979
X-0.938Y12.966
X-1.137Y12.95
X-1.336Y12.931
X-1.535Y12.909
X-1.733Y12.883
X-1.931Y12.855
X-2.129Y12.824
X-2.326Y12.79
X-2.522Y12.752
X-2.718Y12.712
X-2.913Y12.669
X-3.108Y12.622
X-3.302Y12.573
X-3.495Y12.521
X-3.687Y12.466
X-3.878Y12.407
X-4.069Y12.346
X-4.258Y12.282
X-4.447Y12.215
X-4.634Y12.145
X-4.821Y12.073
X-5.006Y11.997
X-5.19Y11.919
X-5.372Y11.837
X-5.554Y11.753
X-5.734Y11.666
X-5.913Y11.577
X-6.09Y11.485
X-6.266Y11.389
X-6.441Y11.292
X-6.614Y11.191
X-6.785Y11.088
X-6.955Y10.982
X-7.123Y10.874
X-7.289Y10.763
X-7.454Y10.65
X-7.617Y10.534
X-7.778Y10.416
X-7.938Y10.295
X-8.095Y10.171
X-8.251Y10.046
X-8.404Y9.917
X-8.556Y9.787
X-8.705Y9.654
X-8.853Y9.519
X-8.998Y9.382
X-9.141Y9.242
X-9.283Y9.1
X-9.421Y8.957
X-9.558Y8.811
X-9.693Y8.662
X-9.825Y8.512
X-9.954Y8.36
X-10.082Y8.206
X-10.207Y8.05
X-10.33Y7.892
X-10.45Y7.732
X-10.568Y7.57
X-10.683Y7.407
X-10.795Y7.242
X-10.906Y7.075
X-11.013Y6.906
X-11.118Y6.736
X-11.22Y6.564
X-11.32Y6.391
X-11.417Y6.216
X-11.511Y6.039
X-11.603Y5.862
X-11.692Y5.682
X-11.778Y5.502
X-11.861Y5.32
X-11.941Y5.137
X-12.019Y4.953
X-12.094Y4.767
X-12.166Y4.58
X-12.235Y4.393
X-12.301Y4.204
X-12.364Y4.014
X-12.424Y3.824
X-12.482Y3.632
X-12.536Y3.439
X-12.588Y3.246
X-12.636Y3.052
X-12.682Y2.857
X-12.724Y2.662
X-12.764Y2.466
X-12.8Y2.269
X-12.833Y2.072
X-12.864Y1.874
X-12.891Y1.676
X-12.915Y1.478
X-12.937Y1.279
X-12.955Y1.08
X-12.97Y0.88
X-12.982Y0.681
X-12.991Y0.481
X-12.997Y0.281
X-13Y0
X-14
X-13.998Y-0.199
X-13.994Y-0.399
X-13.987Y-0.599
X-13.977Y-0.799
X-13.964Y-0.999
X-13.948Y-1.198
X-13.93Y-1.397
X-13.908Y-1.596
X-13.884Y-1.795
X-13.857Y-1.993
X-13.827Y-2.19
X-13.794Y-2.388
X-13.759Y-2.585
X-13.72Y-2.781
X-13.679Y-2.977
X-13.635Y-3.172
X-13.589Y-3.366
X-13.539Y-3.56
X-13.487Y-3.753
X-13.432Y-3.945
X-13.374Y-4.137
X-13.314Y-4.327
X-13.251Y-4.517
X-13.185Y-4.706
X-13.116Y-4.894
X-13.045Y-5.081
X-12.971Y-5.267
X-12.894Y-5.451
X-12.815Y-5.635
X-12.733Y-5.818
X-12.649Y-5.999
X-12.562Y-6.179
X-12.472Y-6.358
X-12.38Y-6.535
X-12.286Y-6.711
X-12.189Y-6.886
X-12.089Y-7.06
X-11.987Y-7.232
X-11.882Y-7.402
X-11.775Y-7.571
X-11.666Y-7.739
X-11.554Y-7.904
X-11.44Y-8.069
X-11.324Y-8.231
X-11.205Y-8.392
X-11.084Y-8.551
X-10.961Y-8.709
X-10.835Y-8.865
X-10.707Y-9.019
X-10.577Y-9.171
X-10.445Y-9.321
X-10.311Y-9.469
X-10.175Y-9.615
X-10.036Y-9.76
X-9.896Y-9.902
X-9.753Y-10.042
X-9.609Y-10.181
X-9.463Y-10.317
X-9.314Y-10.451
X-9.164Y-10.583
X-9.012Y-10.713
X-8.858Y-10.841
X-8.702Y-10.966
X-8.544Y-11.089
X-8.385Y-11.21
X-8.224Y-11.329
X-8.062Y-11.445
X-7.897Y-11.559
X-7.731Y-11.671
X-7.564Y-11.78
X-7.395Y-11.887
X-7.224Y-11.991
X-7.052Y-12.093
X-6.879Y-12.193
X-6.704Y-12.29
X-6.527Y-12.384
X-6.35Y-12.476
X-6.171Y-12.566
X-5.991Y-12.653
X-5.809Y-12.737
X-5.627Y-12.819
X-5.443Y-12.898
X-5.258Y-12.974
X-5.073Y-13.048
X-4.886Y-13.119
X-4.698Y-13.188
X-4.509Y-13.253
X-4.319Y-13.316
X-4.128Y-13.377
X-3.937Y-13.434
X-3.744Y-13.489
X-3.551Y-13.541
X-3.358Y-13.591
X-3.163Y-13.637
X-2.968Y-13.681
X-2.772Y-13.722
X-2.576Y-13.76
X-2.379Y-13.796
X-2.182Y-13.828
X-1.984Y-13.858
X-1.786Y-13.885
X-1.587Y-13.909
X-1.388Y-13.93
X-1.189Y-13.949
X-0.99Y-13.964
X-0.79Y-13.977
X-0.59Y-13.987
X-0.391Y-13.994
X-0.191Y-13.998
X0.008Y-13.999
X0.208Y-13.998
X0.408Y-13.994
X0.608Y-13.986
X0.808Y-13.976
X1.007Y-13.963
X1.207Y-13.947
X1.406Y-13.929
X1.605Y-13.907
X1.803Y-13.883
X2.001Y-13.856
X2.199Y-13.826
X2.396Y-13.793
X2.593Y-13.757
X2.79Y-13.719
X2.985Y-13.677
X3.18Y-13.633
X3.375Y-13.587
X3.569Y-13.537
X3.762Y-13.485
X3.954Y-13.429
X4.145Y-13.372
X4.336Y-13.311
X4.526Y-13.248
X4.714Y-13.182
X4.902Y-13.113
X5.089Y-13.042
X5.275Y-12.968
X5.46Y-12.891
X5.643Y-12.812
X5.826Y-12.73
X6.007Y-12.645
X6.187Y-12.558
X6.366Y-12.468
X6.543Y-12.376
X6.719Y-12.281
X6.894Y-12.184
X7.067Y-12.084
X7.239Y-11.982
X7.41Y-11.878
X7.579Y-11.771
X7.746Y-11.661
X7.912Y-11.549
X8.076Y-11.435
X8.239Y-11.318
X8.399Y-11.2
X8.559Y-11.078
X8.716Y-10.955
X8.872Y-10.829
X9.025Y-10.702
X9.177Y-10.572
X9.327Y-10.439
X9.476Y-10.305
X9.622Y-10.169
X9.766Y-10.03
X9.908Y-9.89
X10.049Y-9.747
X10.187Y-9.602
X10.323Y-9.456
X10.457Y-9.308
X10.589Y-9.157
X10.719Y-9.005
X10.846Y-8.851
X10.972Y-8.695
X11.095Y-8.537
X11.216Y-8.378
X11.334Y-8.217
X11.45Y-8.054
X11.564Y-7.89
X11.676Y-7.724
X11.785Y-7.556
X11.892Y-7.387
X11.996Y-7.217
X12.098Y-7.044
X12.197Y-6.871
X12.294Y-6.696
X12.389Y-6.52
X12.48Y-6.342
X12.57Y-6.163
X12.657Y-5.983
X12.741Y-5.801
X12.822Y-5.619
X12.901Y-5.435
X12.978Y-5.25
X13.051Y-5.064
X13.122Y-4.877
X13.191Y-4.689
X13.256Y-4.5
X13.319Y-4.311
X13.379Y-4.12
X13.437Y-3.928
X13.492Y-3.736
X13.544Y-3.543
X13.593Y-3.349
X13.639Y-3.154
X13.683Y-2.959
X13.724Y-2.764
X13.762Y-2.567
X13.797Y-2.37
X13.83Y-2.173
X13.859Y-1.975
X13.886Y-1.777
X13.91Y-1.578
X13.931Y-1.38
X13.95Y-1.18
X13.965Y-0.981
X13.978Y-0.781
X13.987Y-0.582
X13.994Y-0.382
X13.998Y-0.182
X13.999Y0.017
X13.998Y0.217
X13.993Y0.417
X13.986Y0.617
X13.976Y0.817
X13.963Y1.016
X13.947Y1.216
X13.928Y1.415
X13.906Y1.614
X13.882Y1.812
X13.854Y2.01
X13.824Y2.208
X13.791Y2.405
X13.755Y2.602
X13.717Y2.798
X13.676Y2.994
X13.631Y3.189
X13.584Y3.383
X13.535Y3.577
X13.482Y3.77
X13.427Y3.962
X13.369Y4.154
X13.308Y4.344
X13.245Y4.534
X13.179Y4.723
X13.11Y4.91
X13.038Y5.097
X12.964Y5.283
X12.887Y5.468
X12.808Y5.651
X12.726Y5.834
X12.641Y6.015
X12.554Y6.195
X12.464Y6.373
X12.372Y6.551
X12.277Y6.727
X12.18Y6.902
X12.08Y7.075
X11.978Y7.247
X11.873Y7.417
X11.766Y7.586
X11.656Y7.753
X11.544Y7.919
X11.43Y8.083
X11.313Y8.246
X11.194Y8.406
X11.073Y8.566
X10.95Y8.723
X10.824Y8.878
X10.696Y9.032
X10.566Y9.184
X10.433Y9.334
X10.299Y9.482
X10.163Y9.628
X10.024Y9.772
X9.883Y9.915
X9.741Y10.055
X9.596Y10.193
X9.449Y10.329
X9.301Y10.463
X9.151Y10.595
X8.998Y10.724
X8.844Y10.852
X8.688Y10.977
X8.53Y11.1
X8.371Y11.221
X8.21Y11.339
X8.047Y11.455
X7.883Y11.569
X7.716Y11.681
X7.549Y11.79
X7.38Y11.896
X7.209Y12
X7.037Y12.102
X6.863Y12.202
X6.688Y12.298
X6.512Y12.393
X6.334Y12.484
X6.155Y12.574
X5.975Y12.66
X5.793Y12.744
X5.611Y12.826
X5.427Y12.905
X5.242Y12.981
X5.056Y13.054
X4.869Y13.125
X4.681Y13.194
X4.492Y13.259
X4.302Y13.322
X4.111Y13.382
X3.92Y13.439
X3.727Y13.494
X3.534Y13.546
X3.34Y13.595
X3.146Y13.641
X2.951Y13.685
X2.755Y13.726
X2.558Y13.764
X2.362Y13.799
X2.164Y13.831
X1.966Y13.861
X1.768Y13.887
X1.57Y13.911
X1.371Y13.932
X1.172Y13.95
X0.972Y13.966
X0.773Y13.978
X0.573Y13.988
X0.373Y13.995
X0.173Y13.998
X-0.026Y13.999
X-0.226Y13.998
X-0.426Y13.993
X-0.626Y13.985
X-0.826Y13.975
X-1.025Y13.962
X-1.224Y13.946
X-1.424Y13.927
X-1.622Y13.905
X-1.821Y13.88
X-2.019Y13.853
X-2.217Y13.823
X-2.414Y13.79
X-2.611Y13.754
X-2.807Y13.715
X-3.003Y13.674
X-3.198Y13.629
X-3.392Y13.582
X-3.586Y13.532
X-3.779Y13.48
X-3.971Y13.424
X-4.162Y13.366
X-4.353Y13.305
X-4.542Y13.242
X-4.731Y13.176
X-4.919Y13.107
X-5.105Y13.035
X-5.291Y12.961
X-5.476Y12.884
X-5.659Y12.804
X-5.842Y12.722
X-6.023Y12.638
X-6.203Y12.55
X-6.381Y12.46
X-6.559Y12.368
X-6.735Y12.273
X-6.909Y12.175
X-7.083Y12.075
X-7.254Y11.973
X-7.425Y11.868
X-7.593Y11.761
X-7.761Y11.651
X-7.926Y11.539
X-8.09Y11.425
X-8.253Y11.308
X-8.414Y11.189
X-8.572Y11.068
X-8.73Y10.944
X-8.885Y10.818
X-9.039Y10.69
X-9.191Y10.56
X-9.341Y10.428
X-9.489Y10.293
X-9.635Y10.156
X-9.779Y10.018
X-9.921Y9.877
X-10.061Y9.734
X-10.199Y9.59
X-10.335Y9.443
X-10.469Y9.294
X-10.601Y9.144
X-10.73Y8.991
X-10.857Y8.837
X-10.983Y8.681
X-11.105Y8.523
X-11.226Y8.364
X-11.344Y8.203
X-11.46Y8.04
X-11.574Y7.875
X-11.685Y7.709
X-11.794Y7.541
X-11.901Y7.372
X-12.005Y7.201
X-12.107Y7.029
X-12.206Y6.855
X-12.303Y6.68
X-12.397Y6.504
X-12.488Y6.326
X-12.578Y6.147
X-12.664Y5.967
X-12.748Y5.785
X-12.829Y5.603
X-12.908Y5.419
X-12.984Y5.234
X-13.058Y5.048
X-13.128Y4.861
X-13.197Y4.673
X-13.262Y4.484
X-13.325Y4.294
X-13.385Y4.103
X-13.442Y3.911
X-13.496Y3.719
X-13.548Y3.526
X-13.597Y3.332
X-13.643Y3.137
X-13.687Y2.942
X-13.727Y2.746
X-13.765Y2.55
X-13.8Y2.353
X-13.832Y2.155
X-13.862Y1.958
X-13.888Y1.759
X-13.912Y1.561
X-13.933Y1.362
X-13.951Y1.163
X-13.966Y0.963
X-13.979Y0.764
X-13.988Y0.564
X-13.995Y0.364
X-14Y0
X-15
X-14.998Y-0.199
X-14.994Y-0.399
X-14.988Y-0.599
X-14.978Y-0.799
X-14.966Y-0.999
X-14.952Y-1.198
X-14.934Y-1.397
X-14.914Y-1.596
X-14.892Y-1.795
X-14.866Y-1.994
X-14.838Y-2.192
X-14.808Y-2.389
X-14.775Y-2.587
X-14.739Y-2.783
X-14.701Y-2.98
X-14.659Y-3.175
X-14.616Y-3.37
X-14.57Y-3.565
X-14.521Y-3.759
X-14.469Y-3.952
X-14.415Y-4.145
X-14.359Y-4.337
X-14.3Y-4.528
X-14.238Y-4.718
X-14.174Y-4.907
X-14.107Y-5.096
X-14.038Y-5.284
X-13.966Y-5.47
X-13.892Y-5.656
X-13.815Y-5.841
X-13.736Y-6.024
X-13.655Y-6.207
X-13.571Y-6.389
X-13.484Y-6.569
X-13.396Y-6.748
X-13.304Y-6.926
X-13.211Y-7.103
X-13.115Y-7.278
X-13.017Y-7.453
X-12.916Y-7.626
X-12.813Y-7.797
X-12.708Y-7.967
X-12.601Y-8.136
X-12.491Y-8.303
X-12.38Y-8.469
X-12.266Y-8.633
X-12.149Y-8.796
X-12.031Y-8.957
X-11.91Y-9.117
X-11.788Y-9.275
X-11.663Y-9.431
X-11.536Y-9.586
X-11.407Y-9.739
X-11.277Y-9.89
X-11.144Y-10.04
X-11.009Y-10.187
X-10.872Y-10.333
X-10.733Y-10.477
X-10.593Y-10.62
X-10.45Y-10.76
X-10.306Y-10.898
X-10.159Y-11.035
X-10.011Y-11.169
X-9.862Y-11.302
X-9.71Y-11.432
X-9.557Y-11.561
X-9.402Y-11.687
X-9.245Y-11.811
X-9.087Y-11.934
X-8.927Y-12.054
X-8.765Y-12.172
X-8.602Y-12.287
X-8.438Y-12.401
X-8.272Y-12.512
X-8.104Y-12.622
X-7.935Y-12.729
X-7.765Y-12.833
X-7.593Y-12.936
X-7.42Y-13.036
X-7.245Y-13.133
X-7.069Y-13.229
X-6.892Y-13.322
X-6.714Y-13.413
X-6.535Y-13.501
X-6.354Y-13.587
X-6.172Y-13.67
X-5.99Y-13.752
X-5.806Y-13.83
X-5.621Y-13.906
X-5.435Y-13.98
X-5.248Y-14.051
X-5.06Y-14.12
X-4.871Y-14.186
X-4.682Y-14.25
X-4.491Y-14.311
X-4.3Y-14.37
X-4.108Y-14.426
X-3.916Y-14.479
X-3.722Y-14.53
X-3.528Y-14.579
X-3.333Y-14.624
X-3.138Y-14.667
X-2.942Y-14.708
X-2.746Y-14.746
X-2.549Y-14.781
X-2.352Y-14.814
X-2.154Y-14.844
X-1.956Y-14.871
X-1.757Y-14.896
X-1.559Y-14.918
X-1.36Y-14.938
X-1.16Y-14.955
X-0.961Y-14.969
X-0.761Y-14.98
X-0.561Y-14.989
X-0.361Y-14.995
X-0.161Y-14.999
X0.038
X0.238Y-14.998
X0.437Y-14.993
X0.637Y-14.986
X0.837Y-14.976
X1.037Y-14.964
X1.236Y-14.948
X1.435Y-14.931
X1.634Y-14.91
X1.833Y-14.887
X2.031Y-14.861
X2.229Y-14.833
X2.427Y-14.802
X2.624Y-14.768
X2.821Y-14.732
X3.017Y-14.693
X3.212Y-14.651
X3.408Y-14.607
X3.602Y-14.561
X3.796Y-14.511
X3.989Y-14.459
X4.181Y-14.405
X4.373Y-14.348
X4.564Y-14.288
X4.754Y-14.226
X4.943Y-14.161
X5.132Y-14.094
X5.319Y-14.025
X5.506Y-13.952
X5.691Y-13.878
X5.876Y-13.801
X6.059Y-13.721
X6.242Y-13.639
X6.423Y-13.555
X6.603Y-13.468
X6.782Y-13.378
X6.96Y-13.287
X7.136Y-13.193
X7.312Y-13.097
X7.486Y-12.998
X7.658Y-12.897
X7.83Y-12.794
X8Y-12.688
X8.168Y-12.58
X8.335Y-12.47
X8.501Y-12.358
X8.665Y-12.244
X8.827Y-12.127
X8.988Y-12.008
X9.147Y-11.887
X9.305Y-11.764
X9.461Y-11.639
X9.615Y-11.512
X9.768Y-11.383
X9.919Y-11.251
X10.068Y-11.118
X10.215Y-10.983
X10.361Y-10.846
X10.505Y-10.707
X10.646Y-10.566
X10.786Y-10.423
X10.924Y-10.278
X11.06Y-10.131
X11.195Y-9.983
X11.327Y-9.833
X11.457Y-9.681
X11.585Y-9.527
X11.711Y-9.372
X11.835Y-9.215
X11.957Y-9.057
X12.076Y-8.896
X12.194Y-8.734
X12.309Y-8.571
X12.422Y-8.406
X12.533Y-8.24
X12.642Y-8.072
X12.749Y-7.903
X12.853Y-7.732
X12.955Y-7.56
X13.054Y-7.387
X13.152Y-7.212
X13.247Y-7.036
X13.339Y-6.859
X13.43Y-6.68
X13.518Y-6.5
X13.603Y-6.32
X13.686Y-6.138
X13.767Y-5.955
X13.845Y-5.771
X13.921Y-5.586
X13.994Y-5.399
X14.065Y-5.212
X14.133Y-5.024
X14.199Y-4.835
X14.262Y-4.646
X14.323Y-4.455
X14.381Y-4.264
X14.436Y-4.072
X14.489Y-3.879
X14.54Y-3.685
X14.588Y-3.491
X14.633Y-3.296
X14.675Y-3.101
X14.715Y-2.905
X14.753Y-2.708
X14.788Y-2.512
X14.82Y-2.314
X14.849Y-2.116
X14.876Y-1.918
X14.901Y-1.72
X14.922Y-1.521
X14.941Y-1.322
X14.957Y-1.122
X14.971Y-0.923
X14.982Y-0.723
X14.99Y-0.523
X14.996Y-0.323
X14.999Y-0.123
Y0.076
X14.997Y0.276
X14.992Y0.476
X14.984Y0.675
X14.974Y0.875
X14.961Y1.075
X14.945Y1.274
X14.927Y1.473
X14.906Y1.672
X14.882Y1.871
X14.856Y2.069
X14.827Y2.267
X14.796Y2.464
X14.761Y2.661
X14.725Y2.858
X14.685Y3.054
X14.643Y3.25
X14.599Y3.445
X14.551Y3.639
X14.502Y3.833
X14.449Y4.026
X14.394Y4.218
X14.337Y4.409
X14.277Y4.6
X14.214Y4.79
X14.149Y4.979
X14.081Y5.168
X14.011Y5.355
X13.938Y5.541
X13.863Y5.726
X13.786Y5.911
X13.706Y6.094
X13.623Y6.276
X13.538Y6.457
X13.451Y6.637
X13.361Y6.816
X13.269Y6.994
X13.175Y7.17
X13.078Y7.345
X12.979Y7.519
X12.877Y7.691
X12.774Y7.862
X12.668Y8.032
X12.56Y8.2
X12.449Y8.367
X12.336Y8.532
X12.222Y8.696
X12.105Y8.858
X11.985Y9.018
X11.864Y9.177
X11.741Y9.335
X11.615Y9.491
X11.488Y9.645
X11.358Y9.797
X11.226Y9.947
X11.093Y10.096
X10.957Y10.243
X10.82Y10.388
X10.68Y10.532
X10.539Y10.673
X10.395Y10.813
X10.25Y10.95
X10.103Y11.086
X9.955Y11.22
X9.804Y11.352
X9.652Y11.481
X9.498Y11.609
X9.342Y11.735
X9.185Y11.858
X9.026Y11.98
X8.866Y12.099
X8.704Y12.216
X8.54Y12.331
X8.375Y12.444
X8.208Y12.554
X8.04Y12.663
X7.87Y12.769
X7.699Y12.872
X7.527Y12.974
X7.353Y13.073
X7.178Y13.17
X7.002Y13.265
X6.825Y13.357
X6.646Y13.447
X6.466Y13.534
X6.285Y13.619
X6.103Y13.702
X5.92Y13.782
X5.735Y13.86
X5.55Y13.935
X5.364Y14.008
X5.177Y14.078
X4.988Y14.146
X4.799Y14.211
X4.61Y14.274
X4.419Y14.334
X4.227Y14.391
X4.035Y14.447
X3.842Y14.499
X3.648Y14.549
X3.454Y14.596
X3.259Y14.641
X3.064Y14.683
X2.868Y14.723
X2.671Y14.76
X2.474Y14.794
X2.277Y14.826
X2.079Y14.855
X1.88Y14.881
X1.682Y14.905
X1.483Y14.926
X1.284Y14.945
X1.084Y14.96
X0.885Y14.973
X0.685Y14.984
X0.485Y14.992
X0.285Y14.997
X0.085Y14.999
X-0.114
X-0.314Y14.996
X-0.514Y14.991
X-0.713Y14.983
X-0.913Y14.972
X-1.113Y14.958
X-1.312Y14.942
X-1.511Y14.923
X-1.71Y14.902
X-1.908Y14.878
X-2.107Y14.851
X-2.305Y14.821
X-2.502Y14.789
X-2.699Y14.755
X-2.895Y14.717
X-3.091Y14.677
X-3.287Y14.635
X-3.482Y14.59
X-3.676Y14.542
X-3.869Y14.492
X-4.062Y14.439
X-4.254Y14.383
X-4.446Y14.325
X-4.636Y14.265
X-4.826Y14.202
X-5.015Y14.136
X-5.203Y14.068
X-5.39Y13.997
X-5.576Y13.924
X-5.762Y13.849
X-5.946Y13.771
X-6.129Y13.69
X-6.311Y13.607
X-6.492Y13.522
X-6.671Y13.434
X-6.85Y13.344
X-7.027Y13.251
X-7.203Y13.157
X-7.378Y13.059
X-7.552Y12.96
X-7.724Y12.858
X-7.894Y12.754
X-8.064Y12.647
X-8.232Y12.539
X-8.398Y12.428
X-8.563Y12.315
X-8.727Y12.2
X-8.888Y12.082
X-9.049Y11.962
X-9.207Y11.841
X-9.365Y11.717
X-9.52Y11.591
X-9.674Y11.463
X-9.826Y11.333
X-9.976Y11.201
X-10.124Y11.067
X-10.271Y10.931
X-10.416Y10.793
X-10.559Y10.653
X-10.7Y10.512
X-10.839Y10.368
X-10.976Y10.223
X-11.112Y10.075
X-11.245Y9.926
X-11.376Y9.775
X-11.506Y9.623
X-11.633Y9.469
X-11.758Y9.313
X-11.881Y9.155
X-12.002Y8.996
X-12.121Y8.835
X-12.238Y8.673
X-12.353Y8.509
X-12.465Y8.343
X-12.575Y8.176
X-12.683Y8.008
X-12.789Y7.838
X-12.892Y7.667
X-12.993Y7.494
X-13.092Y7.32
X-13.188Y7.145
X-13.282Y6.969
X-13.374Y6.791
X-13.463Y6.612
X-13.55Y6.432
X-13.635Y6.251
X-13.717Y6.068
X-13.797Y5.885
X-13.874Y5.7
X-13.949Y5.515
X-14.021Y5.328
X-14.091Y5.141
X-14.158Y4.953
X-14.223Y4.763
X-14.285Y4.573
X-14.345Y4.382
X-14.402Y4.191
X-14.457Y3.998
X-14.509Y3.805
X-14.558Y3.611
X-14.605Y3.417
X-14.649Y3.222
X-14.691Y3.026
X-14.73Y2.83
X-14.767Y2.634
X-14.8Y2.436
X-14.832Y2.239
X-14.86Y2.041
X-14.886Y1.843
X-14.909Y1.644
X-14.93Y1.445
X-14.948Y1.246
X-14.963Y1.046
X-14.976Y0.847
X-14.986Y0.647
X-14.993Y0.447
X-14.998Y0.247
X-15Y0
X-16
X-15.998Y-0.199
X-15.995Y-0.399
X-15.988Y-0.599
X-15.98Y-0.799
X-15.968Y-0.999
X-15.955Y-1.198
X-15.938Y-1.398
X-15.92Y-1.597
X-15.898Y-1.796
X-15.875Y-1.994
X-15.848Y-2.193
X-15.82Y-2.391
X-15.789Y-2.588
X-15.755Y-2.785
X-15.719Y-2.982
X-15.681Y-3.178
X-15.64Y-3.374
X-15.596Y-3.569
X-15.55Y-3.764
X-15.502Y-3.958
X-15.451Y-4.151
X-15.398Y-4.344
X-15.343Y-4.536
X-15.285Y-4.728
X-15.225Y-4.919
X-15.162Y-5.108
X-15.097Y-5.298
X-15.029Y-5.486
X-14.96Y-5.673
X-14.888Y-5.86
X-14.813Y-6.045
X-14.736Y-6.23
X-14.657Y-6.414
X-14.576Y-6.597
X-14.493Y-6.778
X-14.407Y-6.959
X-14.319Y-7.138
X-14.228Y-7.317
X-14.136Y-7.494
X-14.041Y-7.67
X-13.944Y-7.845
X-13.845Y-8.019
X-13.743Y-8.191
X-13.64Y-8.362
X-13.534Y-8.532
X-13.427Y-8.701
X-13.317Y-8.868
X-13.205Y-9.034
X-13.091Y-9.198
X-12.975Y-9.361
X-12.857Y-9.523
X-12.737Y-9.682
X-12.615Y-9.841
X-12.491Y-9.998
X-12.365Y-10.153
X-12.237Y-10.307
X-12.107Y-10.459
X-11.975Y-10.61
X-11.842Y-10.759
X-11.707Y-10.906
X-11.569Y-11.051
X-11.43Y-11.195
X-11.289Y-11.337
X-11.147Y-11.477
X-11.002Y-11.616
X-10.856Y-11.752
X-10.709Y-11.887
X-10.559Y-12.02
X-10.408Y-12.151
X-10.255Y-12.28
X-10.101Y-12.407
X-9.945Y-12.533
X-9.788Y-12.656
X-9.629Y-12.777
X-9.468Y-12.897
X-9.306Y-13.014
X-9.143Y-13.129
X-8.978Y-13.243
X-8.812Y-13.354
X-8.644Y-13.463
X-8.475Y-13.57
X-8.305Y-13.675
X-8.133Y-13.778
X-7.961Y-13.878
X-7.787Y-13.977
X-7.611Y-14.073
X-7.435Y-14.167
X-7.257Y-14.259
X-7.078Y-14.348
X-6.898Y-14.436
X-6.717Y-14.521
X-6.535Y-14.604
X-6.352Y-14.684
X-6.168Y-14.763
X-5.983Y-14.838
X-5.797Y-14.912
X-5.61Y-14.983
X-5.423Y-15.052
X-5.234Y-15.119
X-5.045Y-15.183
X-4.854Y-15.245
X-4.664Y-15.305
X-4.472Y-15.362
X-4.279Y-15.416
X-4.086Y-15.469
X-3.893Y-15.519
X-3.698Y-15.566
X-3.504Y-15.611
X-3.308Y-15.654
X-3.112Y-15.694
X-2.916Y-15.731
X-2.719Y-15.767
X-2.522Y-15.799
X-2.324Y-15.83
X-2.126Y-15.858
X-1.928Y-15.883
X-1.729Y-15.906
X-1.53Y-15.926
X-1.331Y-15.944
X-1.131Y-15.959
X-0.932Y-15.972
X-0.732Y-15.983
X-0.532Y-15.991
X-0.332Y-15.996
X-0.132Y-15.999
X0.067
X0.267Y-15.997
X0.467Y-15.993
X0.667Y-15.986
X0.866Y-15.976
X1.066Y-15.964
X1.265Y-15.949
X1.465Y-15.932
X1.664Y-15.913
X1.863Y-15.891
X2.061Y-15.866
X2.259Y-15.839
X2.457Y-15.81
X2.654Y-15.778
X2.851Y-15.743
X3.048Y-15.706
X3.244Y-15.667
X3.44Y-15.625
X3.635Y-15.581
X3.829Y-15.534
X4.023Y-15.485
X4.216Y-15.434
X4.409Y-15.38
X4.601Y-15.324
X4.792Y-15.265
X4.982Y-15.204
X5.172Y-15.14
X5.361Y-15.074
X5.549Y-15.006
X5.736Y-14.936
X5.922Y-14.863
X6.108Y-14.788
X6.292Y-14.71
X6.475Y-14.63
X6.658Y-14.548
X6.839Y-14.464
X7.019Y-14.377
X7.199Y-14.288
X7.377Y-14.197
X7.554Y-14.104
X7.729Y-14.008
X7.904Y-13.911
X8.077Y-13.811
X8.249Y-13.709
X8.42Y-13.605
X8.589Y-13.498
X8.757Y-13.39
X8.924Y-13.279
X9.089Y-13.167
X9.253Y-13.052
X9.416Y-12.935
X9.576Y-12.817
X9.736Y-12.696
X9.894Y-12.573
X10.05Y-12.449
X10.205Y-12.322
X10.358Y-12.194
X10.51Y-12.063
X10.66Y-11.931
X10.808Y-11.797
X10.955Y-11.661
X11.1Y-11.523
X11.243Y-11.383
X11.384Y-11.242
X11.524Y-11.098
X11.662Y-10.954
X11.798Y-10.807
X11.932Y-10.659
X12.064Y-10.509
X12.195Y-10.357
X12.323Y-10.204
X12.45Y-10.049
X12.574Y-9.892
X12.697Y-9.735
X12.818Y-9.575
X12.936Y-9.414
X13.053Y-9.252
X13.168Y-9.088
X13.28Y-8.922
X13.391Y-8.756
X13.499Y-8.588
X13.606Y-8.418
X13.71Y-8.248
X13.812Y-8.075
X13.912Y-7.902
X14.009Y-7.728
X14.105Y-7.552
X14.198Y-7.375
X14.289Y-7.197
X14.378Y-7.018
X14.465Y-6.838
X14.549Y-6.656
X14.631Y-6.474
X14.711Y-6.29
X14.788Y-6.106
X14.863Y-5.921
X14.936Y-5.734
X15.007Y-5.547
X15.075Y-5.359
X15.141Y-5.17
X15.204Y-4.981
X15.265Y-4.79
X15.324Y-4.599
X15.38Y-4.407
X15.434Y-4.215
X15.486Y-4.021
X15.535Y-3.827
X15.581Y-3.633
X15.626Y-3.438
X15.667Y-3.242
X15.707Y-3.046
X15.744Y-2.85
X15.778Y-2.653
X15.81Y-2.455
X15.839Y-2.257
X15.866Y-2.059
X15.891Y-1.861
X15.913Y-1.662
X15.932Y-1.463
X15.949Y-1.264
X15.964Y-1.064
X15.976Y-0.865
X15.986Y-0.665
X15.993Y-0.465
X15.997Y-0.265
X15.999Y-0.065
Y0.134
X15.996Y0.334
X15.991Y0.534
X15.983Y0.734
X15.972Y0.933
X15.959Y1.133
X15.944Y1.332
X15.926Y1.532
X15.906Y1.731
X15.883Y1.929
X15.857Y2.128
X15.829Y2.326
X15.799Y2.523
X15.766Y2.721
X15.731Y2.918
X15.693Y3.114
X15.653Y3.31
X15.611Y3.505
X15.566Y3.7
X15.518Y3.894
X15.468Y4.088
X15.416Y4.281
X15.361Y4.474
X15.304Y4.665
X15.245Y4.856
X15.183Y5.046
X15.118Y5.236
X15.052Y5.424
X14.983Y5.612
X14.911Y5.799
X14.838Y5.985
X14.762Y6.17
X14.684Y6.354
X14.603Y6.537
X14.52Y6.719
X14.435Y6.9
X14.348Y7.08
X14.258Y7.259
X14.166Y7.436
X14.072Y7.613
X13.976Y7.788
X13.877Y7.962
X13.777Y8.135
X13.674Y8.307
X13.569Y8.477
X13.462Y8.646
X13.353Y8.813
X13.242Y8.98
X13.128Y9.144
X13.013Y9.308
X12.896Y9.47
X12.776Y9.63
X12.655Y9.789
X12.532Y9.947
X12.406Y10.102
X12.279Y10.257
X12.15Y10.409
X12.019Y10.561
X11.886Y10.71
X11.751Y10.858
X11.614Y11.004
X11.476Y11.148
X11.336Y11.291
X11.194Y11.431
X11.05Y11.57
X10.904Y11.708
X10.757Y11.843
X10.608Y11.977
X10.458Y12.108
X10.306Y12.238
X10.152Y12.366
X9.996Y12.492
X9.84Y12.616
X9.681Y12.738
X9.521Y12.858
X9.36Y12.976
X9.197Y13.092
X9.032Y13.206
X8.867Y13.318
X8.699Y13.427
X8.531Y13.535
X8.361Y13.641
X8.19Y13.744
X8.017Y13.846
X7.844Y13.945
X7.669Y14.042
X7.493Y14.136
X7.315Y14.229
X7.137Y14.319
X6.957Y14.407
X6.777Y14.493
X6.595Y14.577
X6.412Y14.658
X6.229Y14.737
X6.044Y14.814
X5.858Y14.888
X5.672Y14.96
X5.484Y15.03
X5.296Y15.097
X5.107Y15.162
X4.917Y15.225
X4.726Y15.285
X4.535Y15.343
X4.343Y15.399
X4.15Y15.452
X3.956Y15.502
X3.762Y15.551
X3.567Y15.597
X3.372Y15.64
X3.176Y15.681
X2.98Y15.719
X2.783Y15.755
X2.586Y15.789
X2.389Y15.82
X2.191Y15.849
X1.993Y15.875
X1.794Y15.898
X1.595Y15.92
X1.396Y15.938
X1.197Y15.955
X0.997Y15.968
X0.797Y15.98
X0.598Y15.988
X0.398Y15.994
X0.198Y15.998
X-0.001Y15.999
X-0.201Y15.998
X-0.401Y15.994
X-0.601Y15.988
X-0.801Y15.979
X-1.001Y15.968
X-1.2Y15.954
X-1.399Y15.938
X-1.599Y15.919
X-1.797Y15.898
X-1.996Y15.874
X-2.194Y15.848
X-2.392Y15.819
X-2.59Y15.788
X-2.787Y15.755
X-2.984Y15.719
X-3.18Y15.68
X-3.376Y15.639
X-3.571Y15.596
X-3.766Y15.55
X-3.96Y15.502
X-4.153Y15.451
X-4.346Y15.398
X-4.538Y15.342
X-4.729Y15.284
X-4.92Y15.224
X-5.11Y15.161
X-5.299Y15.096
X-5.487Y15.029
X-5.675Y14.959
X-5.861Y14.887
X-6.047Y14.812
X-6.232Y14.736
X-6.416Y14.657
X-6.598Y14.575
X-6.78Y14.492
X-6.961Y14.406
X-7.14Y14.318
X-7.318Y14.227
X-7.496Y14.135
X-7.672Y14.04
X-7.847Y13.943
X-8.02Y13.844
X-8.193Y13.742
X-8.364Y13.639
X-8.534Y13.533
X-8.702Y13.426
X-8.869Y13.316
X-9.035Y13.204
X-9.2Y13.09
X-9.362Y12.974
X-9.524Y12.856
X-9.684Y12.736
X-9.842Y12.614
X-9.999Y12.49
X-10.155Y12.364
X-10.308Y12.236
X-10.46Y12.106
X-10.611Y11.974
X-10.76Y11.841
X-10.907Y11.705
X-11.052Y11.568
X-11.196Y11.429
X-11.338Y11.288
X-11.478Y11.145
X-11.617Y11.001
X-11.753Y10.855
X-11.888Y10.707
X-12.021Y10.558
X-12.152Y10.407
X-12.281Y10.254
X-12.408Y10.1
X-12.534Y9.944
X-12.657Y9.786
X-12.778Y9.627
X-12.898Y9.467
X-13.015Y9.305
X-13.13Y9.142
X-13.244Y8.977
X-13.355Y8.81
X-13.464Y8.643
X-13.571Y8.474
X-13.676Y8.304
X-13.778Y8.132
X-13.879Y7.959
X-13.977Y7.785
X-14.074Y7.61
X-14.168Y7.433
X-14.26Y7.255
X-14.349Y7.077
X-14.436Y6.897
X-14.522Y6.716
X-14.604Y6.534
X-14.685Y6.351
X-14.763Y6.167
X-14.839Y5.981
X-14.913Y5.796
X-14.984Y5.609
X-15.053Y5.421
X-15.119Y5.232
X-15.184Y5.043
X-15.246Y4.853
X-15.305Y4.662
X-15.362Y4.47
X-15.417Y4.278
X-15.469Y4.085
X-15.519Y3.891
X-15.566Y3.697
X-15.611Y3.502
X-15.654Y3.306
X-15.694Y3.111
X-15.732Y2.914
X-15.767Y2.717
X-15.8Y2.52
X-15.83Y2.322
X-15.858Y2.124
X-15.883Y1.926
X-15.906Y1.727
X-15.926Y1.528
X-15.944Y1.329
X-15.959Y1.13
X-15.972Y0.93
X-15.983Y0.73
X-15.991Y0.53
X-15.996Y0.33
X-16Y0
X-17
X-16.998Y-0.199
X-16.995Y-0.399
X-16.989Y-0.599
X-16.981Y-0.799
X-16.97Y-0.999
X-16.957Y-1.199
X-16.942Y-1.398
X-16.924Y-1.597
X-16.904Y-1.796
X-16.882Y-1.995
X-16.857Y-2.193
X-16.83Y-2.392
X-16.801Y-2.589
X-16.769Y-2.787
X-16.735Y-2.984
X-16.699Y-3.181
X-16.661Y-3.377
X-16.62Y-3.573
X-16.577Y-3.768
X-16.531Y-3.963
X-16.483Y-4.157
X-16.433Y-4.351
X-16.381Y-4.544
X-16.326Y-4.736
X-16.269Y-4.928
X-16.21Y-5.119
X-16.149Y-5.309
X-16.085Y-5.499
X-16.02Y-5.688
X-15.952Y-5.876
X-15.881Y-6.063
X-15.809Y-6.249
X-15.734Y-6.435
X-15.658Y-6.62
X-15.579Y-6.803
X-15.497Y-6.986
X-15.414Y-7.168
X-15.329Y-7.349
X-15.241Y-7.529
X-15.152Y-7.707
X-15.06Y-7.885
X-14.966Y-8.062
X-14.87Y-8.237
X-14.772Y-8.412
X-14.672Y-8.585
X-14.57Y-8.757
X-14.466Y-8.928
X-14.36Y-9.097
X-14.252Y-9.266
X-14.142Y-9.433
X-14.03Y-9.598
X-13.916Y-9.763
X-13.8Y-9.926
X-13.683Y-10.088
X-13.563Y-10.248
X-13.442Y-10.407
X-13.318Y-10.564
X-13.193Y-10.72
X-13.066Y-10.875
X-12.937Y-11.027
X-12.807Y-11.179
X-12.674Y-11.329
X-12.54Y-11.477
X-12.404Y-11.624
X-12.266Y-11.769
X-12.127Y-11.913
X-11.986Y-12.054
X-11.844Y-12.195
X-11.699Y-12.333
X-11.553Y-12.47
X-11.406Y-12.605
X-11.257Y-12.738
X-11.106Y-12.87
X-10.954Y-13
X-10.8Y-13.128
X-10.645Y-13.254
X-10.488Y-13.378
X-10.33Y-13.5
X-10.171Y-13.621
X-10.01Y-13.74
X-9.847Y-13.857
X-9.684Y-13.971
X-9.519Y-14.084
X-9.352Y-14.195
X-9.185Y-14.305
X-9.016Y-14.412
X-8.846Y-14.517
X-8.674Y-14.62
X-8.502Y-14.721
X-8.328Y-14.82
X-8.153Y-14.917
X-7.977Y-15.012
X-7.8Y-15.104
X-7.621Y-15.195
X-7.442Y-15.284
X-7.262Y-15.37
X-7.08Y-15.455
X-6.898Y-15.537
X-6.715Y-15.617
X-6.531Y-15.695
X-6.346Y-15.771
X-6.16Y-15.844
X-5.973Y-15.916
X-5.785Y-15.985
X-5.597Y-16.052
X-5.407Y-16.116
X-5.217Y-16.179
X-5.027Y-16.239
X-4.835Y-16.297
X-4.643Y-16.353
X-4.451Y-16.406
X-4.257Y-16.458
X-4.063Y-16.507
X-3.869Y-16.553
X-3.674Y-16.598
X-3.478Y-16.64
X-3.282Y-16.68
X-3.086Y-16.717
X-2.889Y-16.752
X-2.692Y-16.785
X-2.494Y-16.816
X-2.296Y-16.844
X-2.098Y-16.87
X-1.899Y-16.893
X-1.7Y-16.914
X-1.501Y-16.933
X-1.302Y-16.95
X-1.102Y-16.964
X-0.903Y-16.976
X-0.703Y-16.985
X-0.503Y-16.992
X-0.303Y-16.997
X-0.103Y-16.999
X0.096
X0.296Y-16.997
X0.496Y-16.992
X0.696Y-16.985
X0.896Y-16.976
X1.095Y-16.964
X1.295Y-16.95
X1.494Y-16.934
X1.693Y-16.915
X1.892Y-16.894
X2.091Y-16.87
X2.289Y-16.845
X2.487Y-16.817
X2.685Y-16.786
X2.882Y-16.753
X3.079Y-16.718
X3.275Y-16.681
X3.471Y-16.641
X3.667Y-16.599
X3.862Y-16.555
X4.056Y-16.508
X4.25Y-16.459
X4.444Y-16.408
X4.636Y-16.355
X4.829Y-16.299
X5.02Y-16.241
X5.211Y-16.181
X5.401Y-16.119
X5.59Y-16.054
X5.778Y-15.987
X5.966Y-15.918
X6.153Y-15.847
X6.339Y-15.773
X6.524Y-15.698
X6.708Y-15.62
X6.892Y-15.54
X7.074Y-15.458
X7.255Y-15.373
X7.436Y-15.287
X7.615Y-15.198
X7.793Y-15.108
X7.971Y-15.015
X8.147Y-14.92
X8.322Y-14.823
X8.495Y-14.724
X8.668Y-14.623
X8.84Y-14.52
X9.01Y-14.415
X9.179Y-14.308
X9.346Y-14.199
X9.513Y-14.088
X9.678Y-13.976
X9.842Y-13.861
X10.004Y-13.744
X10.165Y-13.625
X10.325Y-13.505
X10.483Y-13.382
X10.64Y-13.258
X10.795Y-13.132
X10.949Y-13.004
X11.101Y-12.874
X11.251Y-12.743
X11.401Y-12.61
X11.548Y-12.475
X11.694Y-12.338
X11.838Y-12.199
X11.981Y-12.059
X12.122Y-11.918
X12.262Y-11.774
X12.399Y-11.629
X12.535Y-11.482
X12.669Y-11.334
X12.802Y-11.184
X12.933Y-11.033
X13.062Y-10.88
X13.189Y-10.726
X13.314Y-10.57
X13.437Y-10.412
X13.559Y-10.253
X13.679Y-10.093
X13.796Y-9.932
X13.912Y-9.769
X14.026Y-9.604
X14.138Y-9.439
X14.248Y-9.272
X14.356Y-9.103
X14.463Y-8.934
X14.567Y-8.763
X14.669Y-8.591
X14.769Y-8.418
X14.867Y-8.244
X14.963Y-8.068
X15.057Y-7.891
X15.148Y-7.714
X15.238Y-7.535
X15.326Y-7.355
X15.411Y-7.174
X15.495Y-6.993
X15.576Y-6.81
X15.655Y-6.626
X15.732Y-6.441
X15.806Y-6.256
X15.879Y-6.07
X15.949Y-5.882
X16.017Y-5.694
X16.083Y-5.505
X16.147Y-5.316
X16.208Y-5.126
X16.267Y-4.934
X16.324Y-4.743
X16.379Y-4.55
X16.431Y-4.357
X16.482Y-4.164
X16.529Y-3.97
X16.575Y-3.775
X16.618Y-3.58
X16.659Y-3.384
X16.698Y-3.188
X16.734Y-2.991
X16.768Y-2.794
X16.8Y-2.596
X16.829Y-2.399
X16.856Y-2.2
X16.881Y-2.002
X16.904Y-1.803
X16.924Y-1.604
X16.941Y-1.405
X16.957Y-1.206
X16.97Y-1.006
X16.98Y-0.806
X16.989Y-0.606
X16.995Y-0.407
X16.998Y-0.207
X17Y-0.007
X16.998Y0.192
X16.995Y0.392
X16.989Y0.592
X16.981Y0.792
X16.971Y0.992
X16.958Y1.191
X16.942Y1.391
X16.925Y1.59
X16.905Y1.789
X16.883Y1.988
X16.858Y2.186
X16.831Y2.385
X16.802Y2.582
X16.771Y2.78
X16.737Y2.977
X16.701Y3.174
X16.662Y3.37
X16.621Y3.566
X16.578Y3.761
X16.533Y3.956
X16.485Y4.15
X16.435Y4.344
X16.383Y4.537
X16.328Y4.729
X16.272Y4.921
X16.213Y5.112
X16.151Y5.302
X16.088Y5.492
X16.022Y5.681
X15.954Y5.869
X15.884Y6.056
X15.812Y6.243
X15.737Y6.428
X15.66Y6.613
X15.581Y6.797
X15.5Y6.98
X15.417Y7.162
X15.332Y7.343
X15.244Y7.522
X15.155Y7.701
X15.063Y7.879
X14.969Y8.056
X14.874Y8.231
X14.776Y8.406
X14.676Y8.579
X14.574Y8.751
X14.47Y8.922
X14.364Y9.091
X14.256Y9.26
X14.146Y9.427
X14.034Y9.593
X13.92Y9.757
X13.805Y9.92
X13.687Y10.082
X13.567Y10.242
X13.446Y10.401
X13.323Y10.559
X13.198Y10.715
X13.071Y10.869
X12.942Y11.022
X12.811Y11.174
X12.679Y11.324
X12.545Y11.472
X12.409Y11.619
X12.271Y11.764
X12.132Y11.907
X11.991Y12.049
X11.849Y12.19
X11.704Y12.328
X11.559Y12.465
X11.411Y12.6
X11.262Y12.734
X11.111Y12.865
X10.959Y12.995
X10.806Y13.123
X10.651Y13.249
X10.494Y13.374
X10.336Y13.496
X10.176Y13.617
X10.015Y13.736
X9.853Y13.853
X9.69Y13.967
X9.525Y14.081
X9.358Y14.192
X9.191Y14.301
X9.022Y14.408
X8.852Y14.513
X8.68Y14.616
X8.508Y14.717
X8.334Y14.816
X8.159Y14.913
X7.983Y15.008
X7.806Y15.101
X7.628Y15.192
X7.448Y15.281
X7.268Y15.367
X7.087Y15.452
X6.905Y15.534
X6.721Y15.614
X6.537Y15.692
X6.352Y15.768
X6.166Y15.842
X5.979Y15.913
X5.792Y15.982
X5.603Y16.049
X5.414Y16.114
X5.224Y16.177
X5.033Y16.237
X4.842Y16.295
X4.65Y16.351
X4.457Y16.405
X4.264Y16.456
X4.07Y16.505
X3.876Y16.552
X3.681Y16.596
X3.485Y16.638
X3.289Y16.678
X3.093Y16.716
X2.896Y16.751
X2.699Y16.784
X2.501Y16.814
X2.303Y16.843
X2.105Y16.869
X1.906Y16.892
X1.707Y16.914
X1.508Y16.932
X1.309Y16.949
X1.109Y16.963
X0.91Y16.975
X0.71Y16.985
X0.51Y16.992
X0.31Y16.997
X0.11Y16.999
X-0.089
X-0.289Y16.997
X-0.489Y16.992
X-0.689Y16.986
X-0.888Y16.976
X-1.088Y16.965
X-1.288Y16.951
X-1.487Y16.934
X-1.686Y16.916
X-1.885Y16.895
X-2.084Y16.871
X-2.282Y16.846
X-2.48Y16.818
X-2.678Y16.787
X-2.875Y16.755
X-3.072Y16.72
X-3.268Y16.682
X-3.464Y16.643
X-3.66Y16.601
X-3.855Y16.557
X-4.05Y16.51
X-4.244Y16.461
X-4.437Y16.41
X-4.63Y16.357
X-4.822Y16.301
X-5.013Y16.243
X-5.204Y16.183
X-5.394Y16.121
X-5.583Y16.056
X-5.772Y15.99
X-5.96Y15.921
X-6.146Y15.849
X-6.332Y15.776
X-6.518Y15.7
X-6.702Y15.623
X-6.885Y15.543
X-7.068Y15.461
X-7.249Y15.376
X-7.429Y15.29
X-7.609Y15.201
X-7.787Y15.111
X-7.964Y15.018
X-8.14Y14.924
X-8.315Y14.827
X-8.489Y14.728
X-8.662Y14.627
X-8.833Y14.524
X-9.004Y14.419
X-9.173Y14.312
X-9.341Y14.203
X-9.507Y14.092
X-9.672Y13.98
X-9.836Y13.865
X-9.998Y13.748
X-10.159Y13.63
X-10.319Y13.509
X-10.477Y13.387
X-10.634Y13.263
X-10.789Y13.137
X-10.943Y13.009
X-11.095Y12.879
X-11.246Y12.748
X-11.395Y12.614
X-11.543Y12.479
X-11.689Y12.343
X-11.833Y12.204
X-11.976Y12.064
X-12.117Y11.923
X-12.257Y11.779
X-12.394Y11.634
X-12.53Y11.488
X-12.665Y11.339
X-12.797Y11.19
X-12.928Y11.038
X-13.057Y10.885
X-13.184Y10.731
X-13.309Y10.575
X-13.433Y10.418
X-13.555Y10.259
X-13.674Y10.099
X-13.792Y9.937
X-13.908Y9.774
X-14.022Y9.61
X-14.134Y9.444
X-14.244Y9.278
X-14.353Y9.109
X-14.459Y8.94
X-14.563Y8.769
X-14.665Y8.597
X-14.765Y8.424
X-14.863Y8.25
X-14.959Y8.074
X-15.053Y7.898
X-15.145Y7.72
X-15.235Y7.541
X-15.323Y7.362
X-15.408Y7.181
X-15.492Y6.999
X-15.573Y6.816
X-15.652Y6.633
X-15.729Y6.448
X-15.804Y6.263
X-15.876Y6.076
X-15.947Y5.889
X-16.015Y5.701
X-16.081Y5.512
X-16.145Y5.323
X-16.206Y5.132
X-16.265Y4.941
X-16.322Y4.75
X-16.377Y4.557
X-16.43Y4.364
X-16.48Y4.171
X-16.528Y3.976
X-16.573Y3.782
X-16.617Y3.586
X-16.658Y3.391
X-16.697Y3.195
X-16.733Y2.998
X-16.767Y2.801
X-16.799Y2.603
X-16.828Y2.406
X-16.856Y2.207
X-16.88Y2.009
X-16.903Y1.81
X-16.923Y1.611
X-16.941Y1.412
X-16.956Y1.213
X-16.969Y1.013
X-16.98Y0.813
X-16.988Y0.614
X-16.995Y0.414
X-16.998Y0.214
X-17Y0
X-18
X-17.998Y-0.199
X-17.995Y-0.399
X-17.989Y-0.599
X-17.982Y-0.799
X-17.972Y-0.999
X-17.96Y-1.199
X-17.945Y-1.398
X-17.928Y-1.597
X-17.91Y-1.797
X-17.888Y-1.995
X-17.865Y-2.194
X-17.84Y-2.392
X-17.812Y-2.59
X-17.782Y-2.788
X-17.75Y-2.986
X-17.716Y-3.183
X-17.679Y-3.379
X-17.641Y-3.576
X-17.6Y-3.771
X-17.557Y-3.967
X-17.512Y-4.161
X-17.464Y-4.356
X-17.415Y-4.55
X-17.363Y-4.743
X-17.309Y-4.935
X-17.254Y-5.127
X-17.196Y-5.319
X-17.135Y-5.51
X-17.073Y-5.7
X-17.009Y-5.889
X-16.942Y-6.078
X-16.874Y-6.265
X-16.803Y-6.453
X-16.73Y-6.639
X-16.655Y-6.824
X-16.579Y-7.009
X-16.5Y-7.193
X-16.419Y-7.376
X-16.336Y-7.558
X-16.251Y-7.739
X-16.164Y-7.919
X-16.075Y-8.098
X-15.984Y-8.276
X-15.891Y-8.453
X-15.796Y-8.629
X-15.699Y-8.804
X-15.6Y-8.978
X-15.5Y-9.151
X-15.397Y-9.322
X-15.292Y-9.493
X-15.186Y-9.662
X-15.078Y-9.83
X-14.968Y-9.997
X-14.856Y-10.163
X-14.742Y-10.327
X-14.626Y-10.491
X-14.509Y-10.653
X-14.389Y-10.813
X-14.268Y-10.972
X-14.145Y-11.13
X-14.021Y-11.287
X-13.895Y-11.442
X-13.767Y-11.595
X-13.637Y-11.748
X-13.506Y-11.898
X-13.373Y-12.048
X-13.238Y-12.196
X-13.102Y-12.342
X-12.964Y-12.487
X-12.824Y-12.63
X-12.683Y-12.772
X-12.54Y-12.912
X-12.396Y-13.05
X-12.25Y-13.187
X-12.103Y-13.323
X-11.954Y-13.456
X-11.804Y-13.588
X-11.652Y-13.719
X-11.499Y-13.847
X-11.344Y-13.974
X-11.188Y-14.099
X-11.031Y-14.223
X-10.872Y-14.344
X-10.712Y-14.464
X-10.551Y-14.583
X-10.388Y-14.699
X-10.224Y-14.813
X-10.059Y-14.926
X-9.893Y-15.037
X-9.725Y-15.146
X-9.556Y-15.253
X-9.386Y-15.358
X-9.215Y-15.462
X-9.042Y-15.563
X-8.869Y-15.663
X-8.694Y-15.76
X-8.519Y-15.856
X-8.342Y-15.949
X-8.164Y-16.041
X-7.985Y-16.131
X-7.806Y-16.219
X-7.625Y-16.304
X-7.443Y-16.388
X-7.261Y-16.47
X-7.077Y-16.549
X-6.893Y-16.627
X-6.708Y-16.703
X-6.522Y-16.776
X-6.335Y-16.848
X-6.148Y-16.917
X-5.959Y-16.984
X-5.77Y-17.049
X-5.58Y-17.112
X-5.39Y-17.173
X-5.199Y-17.232
X-5.007Y-17.289
X-4.814Y-17.343
X-4.621Y-17.396
X-4.428Y-17.446
X-4.234Y-17.494
X-4.039Y-17.54
X-3.844Y-17.584
X-3.648Y-17.626
X-3.452Y-17.665
X-3.256Y-17.702
X-3.059Y-17.738
X-2.862Y-17.77
X-2.664Y-17.801
X-2.466Y-17.83
X-2.268Y-17.856
X-2.069Y-17.88
X-1.87Y-17.902
X-1.671Y-17.922
X-1.472Y-17.939
X-1.273Y-17.954
X-1.073Y-17.967
X-0.873Y-17.978
X-0.674Y-17.987
X-0.474Y-17.993
X-0.274Y-17.997
X-0.074Y-17.999
X0.125
X0.325Y-17.996
X0.525Y-17.992
X0.725Y-17.985
X0.925Y-17.976
X1.124Y-17.964
X1.324Y-17.951
X1.523Y-17.935
X1.723Y-17.917
X1.921Y-17.897
X2.12Y-17.874
X2.319Y-17.849
X2.517Y-17.823
X2.715Y-17.793
X2.912Y-17.762
X3.109Y-17.729
X3.306Y-17.693
X3.503Y-17.655
X3.699Y-17.615
X3.894Y-17.573
X4.089Y-17.529
X4.284Y-17.482
X4.478Y-17.433
X4.671Y-17.383
X4.864Y-17.33
X5.056Y-17.275
X5.248Y-17.217
X5.439Y-17.158
X5.629Y-17.096
X5.819Y-17.033
X6.008Y-16.967
X6.196Y-16.899
X6.383Y-16.829
X6.57Y-16.757
X6.756Y-16.683
X6.94Y-16.607
X7.125Y-16.529
X7.308Y-16.449
X7.49Y-16.367
X7.671Y-16.283
X7.852Y-16.196
X8.031Y-16.108
X8.21Y-16.018
X8.387Y-15.926
X8.564Y-15.831
X8.739Y-15.735
X8.913Y-15.637
X9.087Y-15.537
X9.259Y-15.435
X9.43Y-15.331
X9.599Y-15.226
X9.768Y-15.118
X9.935Y-15.009
X10.102Y-14.897
X10.266Y-14.784
X10.43Y-14.669
X10.592Y-14.552
X10.754Y-14.434
X10.913Y-14.313
X11.072Y-14.191
X11.229Y-14.067
X11.384Y-13.942
X11.538Y-13.814
X11.691Y-13.685
X11.843Y-13.555
X11.992Y-13.422
X12.141Y-13.288
X12.288Y-13.152
X12.433Y-13.015
X12.577Y-12.876
X12.719Y-12.735
X12.86Y-12.593
X12.999Y-12.45
X13.137Y-12.304
X13.273Y-12.158
X13.407Y-12.01
X13.539Y-11.86
X13.67Y-11.709
X13.8Y-11.556
X13.927Y-11.402
X14.053Y-11.247
X14.177Y-11.09
X14.299Y-10.931
X14.42Y-10.772
X14.539Y-10.611
X14.656Y-10.449
X14.771Y-10.285
X14.884Y-10.121
X14.996Y-9.955
X15.106Y-9.787
X15.213Y-9.619
X15.319Y-9.449
X15.423Y-9.278
X15.526Y-9.107
X15.626Y-8.933
X15.724Y-8.759
X15.82Y-8.584
X15.915Y-8.408
X16.007Y-8.23
X16.098Y-8.052
X16.186Y-7.873
X16.273Y-7.692
X16.357Y-7.511
X16.44Y-7.329
X16.52Y-7.146
X16.598Y-6.962
X16.675Y-6.777
X16.749Y-6.591
X16.821Y-6.405
X16.891Y-6.217
X16.959Y-6.029
X17.025Y-5.84
X17.089Y-5.651
X17.151Y-5.461
X17.211Y-5.27
X17.268Y-5.078
X17.323Y-4.886
X17.377Y-4.693
X17.428Y-4.5
X17.477Y-4.306
X17.523Y-4.112
X17.568Y-3.917
X17.61Y-3.721
X17.651Y-3.525
X17.689Y-3.329
X17.725Y-3.132
X17.758Y-2.935
X17.79Y-2.737
X17.819Y-2.54
X17.846Y-2.341
X17.871Y-2.143
X17.894Y-1.944
X17.915Y-1.745
X17.933Y-1.546
X17.949Y-1.347
X17.963Y-1.147
X17.974Y-0.948
X17.984Y-0.748
X17.991Y-0.548
X17.996Y-0.348
X17.999Y-0.148
Y0.051
X17.998Y0.251
X17.994Y0.451
X17.988Y0.651
X17.979Y0.851
X17.969Y1.05
X17.956Y1.25
X17.941Y1.449
X17.924Y1.649
X17.904Y1.848
X17.883Y2.046
X17.859Y2.245
X17.833Y2.443
X17.804Y2.641
X17.774Y2.839
X17.741Y3.036
X17.707Y3.233
X17.67Y3.43
X17.63Y3.626
X17.589Y3.821
X17.545Y4.017
X17.5Y4.211
X17.452Y4.406
X17.402Y4.599
X17.35Y4.792
X17.295Y4.985
X17.239Y5.177
X17.18Y5.368
X17.119Y5.558
X17.057Y5.748
X16.992Y5.937
X16.925Y6.126
X16.856Y6.314
X16.784Y6.5
X16.711Y6.687
X16.636Y6.872
X16.558Y7.056
X16.479Y7.24
X16.398Y7.422
X16.314Y7.604
X16.229Y7.785
X16.141Y7.965
X16.052Y8.144
X15.96Y8.322
X15.867Y8.498
X15.771Y8.674
X15.674Y8.849
X15.575Y9.022
X15.473Y9.195
X15.37Y9.366
X15.265Y9.536
X15.158Y9.705
X15.049Y9.873
X14.939Y10.04
X14.826Y10.205
X14.712Y10.369
X14.596Y10.532
X14.478Y10.694
X14.358Y10.854
X14.237Y11.013
X14.114Y11.17
X13.989Y11.326
X13.862Y11.481
X13.733Y11.635
X13.603Y11.786
X13.471Y11.937
X13.338Y12.086
X13.203Y12.233
X13.066Y12.379
X12.928Y12.524
X12.788Y12.666
X12.646Y12.808
X12.503Y12.948
X12.359Y13.086
X12.212Y13.222
X12.065Y13.357
X11.916Y13.49
X11.765Y13.622
X11.613Y13.752
X11.459Y13.88
X11.304Y14.006
X11.148Y14.131
X10.99Y14.254
X10.831Y14.375
X10.671Y14.495
X10.509Y14.612
X10.346Y14.728
X10.182Y14.842
X10.016Y14.955
X9.85Y15.065
X9.682Y15.174
X9.512Y15.28
X9.342Y15.385
X9.171Y15.488
X8.998Y15.589
X8.824Y15.688
X8.649Y15.785
X8.473Y15.88
X8.296Y15.973
X8.118Y16.064
X7.939Y16.154
X7.759Y16.241
X7.578Y16.326
X7.397Y16.409
X7.214Y16.49
X7.03Y16.569
X6.846Y16.647
X6.66Y16.722
X6.474Y16.795
X6.287Y16.865
X6.099Y16.934
X5.911Y17.001
X5.721Y17.066
X5.531Y17.128
X5.341Y17.189
X5.149Y17.247
X4.958Y17.303
X4.765Y17.357
X4.572Y17.409
X4.378Y17.459
X4.184Y17.506
X3.989Y17.552
X3.794Y17.595
X3.598Y17.636
X3.402Y17.675
X3.205Y17.712
X3.008Y17.746
X2.811Y17.778
X2.613Y17.809
X2.415Y17.836
X2.217Y17.862
X2.018Y17.886
X1.819Y17.907
X1.62Y17.926
X1.421Y17.943
X1.222Y17.958
X1.022Y17.97
X0.822Y17.981
X0.622Y17.989
X0.422Y17.994
X0.222Y17.998
X0.022Y17.999
X-0.176Y17.998
X-0.376Y17.995
X-0.576Y17.99
X-0.776Y17.983
X-0.976Y17.973
X-1.176Y17.961
X-1.375Y17.947
X-1.574Y17.93
X-1.774Y17.912
X-1.973Y17.891
X-2.171Y17.868
X-2.37Y17.843
X-2.568Y17.815
X-2.765Y17.786
X-2.963Y17.754
X-3.16Y17.72
X-3.357Y17.683
X-3.553Y17.645
X-3.749Y17.605
X-3.944Y17.562
X-4.139Y17.517
X-4.333Y17.47
X-4.527Y17.421
X-4.721Y17.369
X-4.913Y17.316
X-5.105Y17.26
X-5.297Y17.202
X-5.488Y17.142
X-5.678Y17.08
X-5.867Y17.016
X-6.056Y16.95
X-6.244Y16.881
X-6.431Y16.811
X-6.617Y16.739
X-6.803Y16.664
X-6.988Y16.587
X-7.172Y16.509
X-7.355Y16.428
X-7.537Y16.345
X-7.718Y16.26
X-7.898Y16.174
X-8.077Y16.085
X-8.256Y15.994
X-8.433Y15.902
X-8.609Y15.807
X-8.784Y15.71
X-8.958Y15.612
X-9.131Y15.511
X-9.303Y15.409
X-9.473Y15.304
X-9.643Y15.198
X-9.811Y15.09
X-9.978Y14.98
X-10.144Y14.868
X-10.309Y14.755
X-10.472Y14.639
X-10.634Y14.522
X-10.795Y14.403
X-10.954Y14.282
X-11.112Y14.16
X-11.269Y14.035
X-11.424Y13.909
X-11.578Y13.781
X-11.73Y13.652
X-11.881Y13.521
X-12.031Y13.388
X-12.179Y13.253
X-12.325Y13.117
X-12.47Y12.979
X-12.614Y12.84
X-12.755Y12.699
X-12.896Y12.557
X-13.034Y12.413
X-13.172Y12.267
X-13.307Y12.12
X-13.441Y11.971
X-13.573Y11.821
X-13.704Y11.67
X-13.832Y11.517
X-13.96Y11.362
X-14.085Y11.206
X-14.209Y11.049
X-14.33Y10.891
X-14.451Y10.731
X-14.569Y10.569
X-14.685Y10.407
X-14.8Y10.243
X-14.913Y10.078
X-15.024Y9.912
X-15.133Y9.744
X-15.241Y9.575
X-15.346Y9.405
X-15.45Y9.234
X-15.551Y9.062
X-15.651Y8.889
X-15.749Y8.714
X-15.845Y8.539
X-15.939Y8.362
X-16.031Y8.185
X-16.121Y8.006
X-16.209Y7.826
X-16.294Y7.646
X-16.378Y7.464
X-16.46Y7.282
X-16.54Y7.098
X-16.618Y6.914
X-16.694Y6.729
X-16.768Y6.543
X-16.839Y6.357
X-16.909Y6.169
X-16.976Y5.981
X-17.042Y5.792
X-17.105Y5.602
X-17.166Y5.412
X-17.225Y5.221
X-17.282Y5.029
X-17.337Y4.837
X-17.39Y4.644
X-17.44Y4.45
X-17.489Y4.256
X-17.535Y4.061
X-17.579Y3.866
X-17.621Y3.671
X-17.661Y3.475
X-17.698Y3.278
X-17.733Y3.082
X-17.767Y2.884
X-17.798Y2.687
X-17.826Y2.489
X-17.853Y2.291
X-17.877Y2.092
X-17.899Y1.893
X-17.919Y1.694
X-17.937Y1.495
X-17.953Y1.296
X-17.966Y1.096
X-17.977Y0.896
X-17.986Y0.697
X-17.992Y0.497
X-17.997Y0.297
X-18Y0
X-19
X-18.998Y-0.199
X-18.995Y-0.399
X-18.99Y-0.599
X-18.983Y-0.799
X-18.973Y-0.999
X-18.962Y-1.199
X-18.948Y-1.398
X-18.932Y-1.598
X-18.914Y-1.797
X-18.894Y-1.996
X-18.872Y-2.195
X-18.848Y-2.393
X-18.822Y-2.591
X-18.794Y-2.789
X-18.763Y-2.987
X-18.731Y-3.184
X-18.696Y-3.381
X-18.659Y-3.578
X-18.621Y-3.774
X-18.58Y-3.97
X-18.537Y-4.165
X-18.492Y-4.36
X-18.445Y-4.555
X-18.396Y-4.749
X-18.345Y-4.942
X-18.292Y-5.135
X-18.237Y-5.327
X-18.18Y-5.519
X-18.121Y-5.71
X-18.06Y-5.9
X-17.997Y-6.09
X-17.932Y-6.279
X-17.865Y-6.468
X-17.796Y-6.655
X-17.725Y-6.842
X-17.652Y-7.028
X-17.577Y-7.214
X-17.5Y-7.398
X-17.421Y-7.582
X-17.34Y-7.765
X-17.257Y-7.947
X-17.173Y-8.129
X-17.086Y-8.309
X-16.998Y-8.488
X-16.908Y-8.667
X-16.815Y-8.844
X-16.721Y-9.021
X-16.625Y-9.196
X-16.528Y-9.371
X-16.428Y-9.544
X-16.327Y-9.717
X-16.224Y-9.888
X-16.119Y-10.058
X-16.012Y-10.227
X-15.903Y-10.395
X-15.793Y-10.562
X-15.681Y-10.728
X-15.567Y-10.892
X-15.452Y-11.055
X-15.334Y-11.217
X-15.215Y-11.378
X-15.095Y-11.538
X-14.973Y-11.696
X-14.849Y-11.853
X-14.723Y-12.009
X-14.596Y-12.163
X-14.467Y-12.316
X-14.336Y-12.468
X-14.204Y-12.618
X-14.071Y-12.767
X-13.936Y-12.914
X-13.799Y-13.06
X-13.661Y-13.205
X-13.521Y-13.348
X-13.38Y-13.489
X-13.237Y-13.629
X-13.093Y-13.768
X-12.947Y-13.905
X-12.8Y-14.04
X-12.652Y-14.174
X-12.502Y-14.307
X-12.35Y-14.438
X-12.198Y-14.567
X-12.044Y-14.694
X-11.888Y-14.82
X-11.732Y-14.945
X-11.574Y-15.067
X-11.414Y-15.188
X-11.254Y-15.308
X-11.092Y-15.425
X-10.929Y-15.541
X-10.765Y-15.655
X-10.6Y-15.768
X-10.433Y-15.879
X-10.265Y-15.987
X-10.096Y-16.095
X-9.926Y-16.2
X-9.755Y-16.304
X-9.583Y-16.405
X-9.41Y-16.505
X-9.236Y-16.604
X-9.06Y-16.7
X-8.884Y-16.794
X-8.707Y-16.887
X-8.529Y-16.978
X-8.349Y-17.066
X-8.169Y-17.153
X-7.988Y-17.238
X-7.806Y-17.322
X-7.624Y-17.403
X-7.44Y-17.482
X-7.256Y-17.559
X-7.07Y-17.635
X-6.884Y-17.708
X-6.698Y-17.78
X-6.51Y-17.849
X-6.322Y-17.917
X-6.133Y-17.982
X-5.943Y-18.046
X-5.753Y-18.108
X-5.562Y-18.167
X-5.37Y-18.225
X-5.178Y-18.28
X-4.986Y-18.334
X-4.792Y-18.385
X-4.599Y-18.435
X-4.404Y-18.482
X-4.209Y-18.527
X-4.014Y-18.571
X-3.818Y-18.612
X-3.622Y-18.651
X-3.426Y-18.688
X-3.229Y-18.723
X-3.032Y-18.756
X-2.834Y-18.787
X-2.636Y-18.816
X-2.438Y-18.842
X-2.239Y-18.867
X-2.041Y-18.89
X-1.842Y-18.91
X-1.643Y-18.928
X-1.443Y-18.945
X-1.244Y-18.959
X-1.044Y-18.971
X-0.844Y-18.981
X-0.645Y-18.989
X-0.445Y-18.994
X-0.245Y-18.998
X-0.045Y-19
X0.154Y-18.999
X0.354Y-18.996
X0.554Y-18.991
X0.754Y-18.985
X0.954Y-18.976
X1.154Y-18.964
X1.353Y-18.951
X1.553Y-18.936
X1.752Y-18.919
X1.951Y-18.899
X2.15Y-18.878
X2.348Y-18.854
X2.547Y-18.828
X2.745Y-18.8
X2.942Y-18.77
X3.14Y-18.738
X3.337Y-18.704
X3.534Y-18.668
X3.73Y-18.63
X3.926Y-18.589
X4.121Y-18.547
X4.316Y-18.503
X4.511Y-18.456
X4.705Y-18.408
X4.898Y-18.357
X5.091Y-18.305
X5.284Y-18.25
X5.476Y-18.193
X5.667Y-18.135
X5.857Y-18.074
X6.047Y-18.011
X6.237Y-17.947
X6.425Y-17.88
X6.613Y-17.811
X6.8Y-17.741
X6.986Y-17.668
X7.172Y-17.594
X7.357Y-17.517
X7.541Y-17.439
X7.724Y-17.359
X7.906Y-17.276
X8.088Y-17.192
X8.268Y-17.106
X8.448Y-17.018
X8.627Y-16.928
X8.804Y-16.836
X8.981Y-16.743
X9.157Y-16.647
X9.331Y-16.55
X9.505Y-16.451
X9.678Y-16.35
X9.849Y-16.247
X10.02Y-16.142
X10.189Y-16.036
X10.357Y-15.928
X10.525Y-15.818
X10.69Y-15.706
X10.855Y-15.593
X11.019Y-15.478
X11.181Y-15.361
X11.342Y-15.242
X11.502Y-15.122
X11.661Y-15
X11.818Y-14.877
X11.974Y-14.752
X12.128Y-14.625
X12.282Y-14.496
X12.434Y-14.366
X12.584Y-14.234
X12.733Y-14.101
X12.881Y-13.966
X13.027Y-13.83
X13.172Y-13.692
X13.316Y-13.553
X13.457Y-13.412
X13.598Y-13.269
X13.737Y-13.125
X13.874Y-12.98
X14.01Y-12.833
X14.144Y-12.685
X14.277Y-12.536
X14.408Y-12.385
X14.538Y-12.232
X14.666Y-12.079
X14.792Y-11.924
X14.917Y-11.767
X15.04Y-11.609
X15.161Y-11.451
X15.281Y-11.29
X15.399Y-11.129
X15.515Y-10.966
X15.63Y-10.802
X15.743Y-10.637
X15.854Y-10.471
X15.963Y-10.303
X16.071Y-10.135
X16.176Y-9.965
X16.28Y-9.794
X16.383Y-9.622
X16.483Y-9.449
X16.582Y-9.275
X16.678Y-9.1
X16.773Y-8.924
X16.866Y-8.747
X16.957Y-8.569
X17.047Y-8.39
X17.134Y-8.21
X17.219Y-8.029
X17.303Y-7.848
X17.385Y-7.665
X17.464Y-7.482
X17.542Y-7.297
X17.618Y-7.112
X17.692Y-6.926
X17.764Y-6.74
X17.834Y-6.552
X17.902Y-6.364
X17.968Y-6.176
X18.032Y-5.986
X18.094Y-5.796
X18.154Y-5.605
X18.212Y-5.414
X18.268Y-5.222
X18.322Y-5.029
X18.374Y-4.836
X18.424Y-4.642
X18.472Y-4.448
X18.517Y-4.253
X18.561Y-4.058
X18.603Y-3.863
X18.642Y-3.667
X18.68Y-3.47
X18.715Y-3.273
X18.749Y-3.076
X18.78Y-2.879
X18.809Y-2.681
X18.837Y-2.483
X18.862Y-2.284
X18.885Y-2.086
X18.906Y-1.887
X18.925Y-1.688
X18.941Y-1.488
X18.956Y-1.289
X18.968Y-1.089
X18.979Y-0.889
X18.987Y-0.69
X18.993Y-0.49
X18.997Y-0.29
X18.999Y-0.09
Y0.109
X18.997Y0.309
X18.993Y0.509
X18.986Y0.709
X18.978Y0.909
X18.967Y1.109
X18.955Y1.308
X18.94Y1.508
X18.923Y1.707
X18.904Y1.906
X18.883Y2.105
X18.859Y2.304
X18.834Y2.502
X18.807Y2.7
X18.777Y2.898
X18.746Y3.095
X18.712Y3.293
X18.676Y3.489
X18.639Y3.686
X18.599Y3.882
X18.557Y4.077
X18.513Y4.272
X18.467Y4.467
X18.419Y4.661
X18.369Y4.855
X18.317Y5.048
X18.263Y5.24
X18.206Y5.432
X18.148Y5.624
X18.088Y5.814
X18.026Y6.005
X17.962Y6.194
X17.895Y6.383
X17.827Y6.571
X17.757Y6.758
X17.685Y6.945
X17.611Y7.13
X17.535Y7.315
X17.457Y7.499
X17.377Y7.683
X17.295Y7.865
X17.211Y8.047
X17.126Y8.228
X17.038Y8.407
X16.949Y8.586
X16.857Y8.764
X16.764Y8.941
X16.669Y9.117
X16.572Y9.292
X16.473Y9.466
X16.373Y9.639
X16.27Y9.811
X16.166Y9.982
X16.06Y10.151
X15.953Y10.32
X15.843Y10.487
X15.732Y10.653
X15.619Y10.818
X15.504Y10.982
X15.388Y11.145
X15.269Y11.306
X15.15Y11.466
X15.028Y11.625
X14.905Y11.782
X14.78Y11.939
X14.653Y12.094
X14.525Y12.247
X14.396Y12.399
X14.264Y12.55
X14.131Y12.7
X13.997Y12.848
X13.861Y12.994
X13.723Y13.14
X13.584Y13.283
X13.444Y13.426
X13.302Y13.566
X13.158Y13.706
X13.013Y13.843
X12.867Y13.98
X12.719Y14.114
X12.57Y14.247
X12.419Y14.379
X12.267Y14.509
X12.113Y14.637
X11.959Y14.764
X11.803Y14.889
X11.645Y15.012
X11.487Y15.134
X11.327Y15.254
X11.165Y15.373
X11.003Y15.489
X10.839Y15.604
X10.674Y15.717
X10.508Y15.829
X10.341Y15.939
X10.173Y16.047
X10.003Y16.153
X9.833Y16.257
X9.661Y16.36
X9.488Y16.461
X9.315Y16.56
X9.14Y16.657
X8.964Y16.752
X8.787Y16.845
X8.609Y16.937
X8.43Y17.027
X8.251Y17.115
X8.07Y17.2
X7.889Y17.284
X7.706Y17.367
X7.523Y17.447
X7.339Y17.525
X7.154Y17.601
X6.968Y17.676
X6.782Y17.748
X6.595Y17.818
X6.407Y17.887
X6.218Y17.953
X6.029Y18.018
X5.839Y18.08
X5.648Y18.141
X5.457Y18.199
X5.265Y18.255
X5.073Y18.31
X4.88Y18.362
X4.686Y18.413
X4.492Y18.461
X4.297Y18.507
X4.102Y18.551
X3.907Y18.594
X3.711Y18.634
X3.515Y18.672
X3.318Y18.708
X3.121Y18.742
X2.923Y18.773
X2.725Y18.803
X2.527Y18.831
X2.329Y18.856
X2.13Y18.88
X1.932Y18.901
X1.733Y18.921
X1.533Y18.938
X1.334Y18.953
X1.134Y18.966
X0.935Y18.977
X0.735Y18.985
X0.535Y18.992
X0.335Y18.997
X0.135Y18.999
X-0.064Y19
X-0.264Y18.998
X-0.464Y18.994
X-0.664Y18.988
X-0.864Y18.98
X-1.064Y18.97
X-1.263Y18.958
X-1.463Y18.943
X-1.662Y18.927
X-1.861Y18.908
X-2.06Y18.888
X-2.259Y18.865
X-2.457Y18.84
X-2.655Y18.813
X-2.853Y18.784
X-3.051Y18.753
X-3.248Y18.72
X-3.445Y18.685
X-3.641Y18.647
X-3.838Y18.608
X-4.033Y18.567
X-4.228Y18.523
X-4.423Y18.478
X-4.617Y18.43
X-4.811Y18.38
X-5.004Y18.329
X-5.197Y18.275
X-5.389Y18.219
X-5.581Y18.162
X-5.771Y18.102
X-5.962Y18.04
X-6.151Y17.976
X-6.34Y17.911
X-6.528Y17.843
X-6.716Y17.773
X-6.903Y17.701
X-7.088Y17.628
X-7.274Y17.552
X-7.458Y17.475
X-7.642Y17.395
X-7.824Y17.314
X-8.006Y17.23
X-8.187Y17.145
X-8.367Y17.058
X-8.546Y16.969
X-8.724Y16.878
X-8.901Y16.785
X-9.078Y16.691
X-9.253Y16.594
X-9.427Y16.496
X-9.6Y16.396
X-9.772Y16.294
X-9.943Y16.19
X-10.113Y16.084
X-10.282Y15.977
X-10.449Y15.868
X-10.616Y15.757
X-10.781Y15.645
X-10.945Y15.53
X-11.108Y15.414
X-11.27Y15.296
X-11.43Y15.177
X-11.589Y15.056
X-11.747Y14.933
X-11.904Y14.808
X-12.059Y14.682
X-12.213Y14.554
X-12.365Y14.425
X-12.516Y14.294
X-12.666Y14.162
X-12.815Y14.028
X-12.962Y13.892
X-13.107Y13.755
X-13.251Y13.616
X-13.394Y13.476
X-13.535Y13.334
X-13.674Y13.191
X-13.812Y13.046
X-13.949Y12.9
X-14.084Y12.752
X-14.218Y12.603
X-14.349Y12.453
X-14.48Y12.301
X-14.608Y12.148
X-14.735Y11.994
X-14.861Y11.838
X-14.985Y11.681
X-15.107Y11.523
X-15.227Y11.363
X-15.346Y11.202
X-15.463Y11.04
X-15.578Y10.876
X-15.692Y10.712
X-15.804Y10.546
X-15.914Y10.379
X-16.023Y10.211
X-16.129Y10.042
X-16.234Y9.871
X-16.337Y9.7
X-16.438Y9.527
X-16.538Y9.354
X-16.635Y9.179
X-16.731Y9.004
X-16.825Y8.827
X-16.917Y8.649
X-17.007Y8.471
X-17.095Y8.291
X-17.181Y8.111
X-17.266Y7.93
X-17.348Y7.748
X-17.429Y7.565
X-17.508Y7.381
X-17.584Y7.196
X-17.659Y7.01
X-17.732Y6.824
X-17.803Y6.637
X-17.872Y6.449
X-17.938Y6.261
X-18.003Y6.072
X-18.066Y5.882
X-18.127Y5.691
X-18.186Y5.5
X-18.243Y5.308
X-18.298Y5.116
X-18.351Y4.923
X-18.402Y4.73
X-18.45Y4.536
X-18.497Y4.341
X-18.542Y4.146
X-18.584Y3.951
X-18.625Y3.755
X-18.663Y3.559
X-18.7Y3.362
X-18.734Y3.165
X-18.767Y2.968
X-18.797Y2.77
X-18.825Y2.572
X-18.851Y2.374
X-18.875Y2.175
X-18.897Y1.976
X-18.916Y1.777
X-18.934Y1.578
X-18.95Y1.379
X-18.963Y1.179
X-18.975Y0.98
X-18.984Y0.78
X-18.991Y0.58
X-18.996Y0.38
X-19Y0
X-20
X-19.999Y-0.199
X-19.996Y-0.399
X-19.991Y-0.599
X-19.984Y-0.799
X-19.975Y-0.999
X-19.964Y-1.199
X-19.951Y-1.398
X-19.936Y-1.598
X-19.919Y-1.797
X-19.9Y-1.996
X-19.879Y-2.195
X-19.856Y-2.394
X-19.831Y-2.592
X-19.804Y-2.79
X-19.775Y-2.988
X-19.744Y-3.186
X-19.711Y-3.383
X-19.676Y-3.58
X-19.64Y-3.777
X-19.601Y-3.973
X-19.56Y-4.169
X-19.517Y-4.364
X-19.473Y-4.559
X-19.426Y-4.754
X-19.378Y-4.948
X-19.327Y-5.141
X-19.275Y-5.334
X-19.221Y-5.527
X-19.164Y-5.719
X-19.106Y-5.91
X-19.046Y-6.101
X-18.984Y-6.291
X-18.92Y-6.48
X-18.855Y-6.669
X-18.787Y-6.857
X-18.717Y-7.045
X-18.646Y-7.232
X-18.573Y-7.418
X-18.498Y-7.603
X-18.421Y-7.788
X-18.342Y-7.972
X-18.261Y-8.155
X-18.179Y-8.337
X-18.095Y-8.518
X-18.008Y-8.699
X-17.921Y-8.878
X-17.831Y-9.057
X-17.739Y-9.235
X-17.646Y-9.412
X-17.551Y-9.588
X-17.454Y-9.763
X-17.356Y-9.937
X-17.256Y-10.11
X-17.154Y-10.282
X-17.05Y-10.453
X-16.945Y-10.623
X-16.838Y-10.792
X-16.729Y-10.96
X-16.618Y-11.127
X-16.506Y-11.292
X-16.392Y-11.457
X-16.277Y-11.62
X-16.16Y-11.782
X-16.041Y-11.943
X-15.921Y-12.103
X-15.799Y-12.262
X-15.676Y-12.419
X-15.551Y-12.575
X-15.424Y-12.73
X-15.296Y-12.884
X-15.167Y-13.036
X-15.036Y-13.187
X-14.903Y-13.337
X-14.769Y-13.485
X-14.633Y-13.632
X-14.496Y-13.778
X-14.358Y-13.922
X-14.218Y-14.065
X-14.076Y-14.207
X-13.934Y-14.347
X-13.789Y-14.485
X-13.644Y-14.622
X-13.497Y-14.758
X-13.349Y-14.892
X-13.199Y-15.025
X-13.048Y-15.156
X-12.896Y-15.286
X-12.743Y-15.414
X-12.588Y-15.541
X-12.432Y-15.666
X-12.274Y-15.79
X-12.116Y-15.912
X-11.956Y-16.032
X-11.795Y-16.151
X-11.633Y-16.268
X-11.47Y-16.383
X-11.305Y-16.497
X-11.14Y-16.609
X-10.973Y-16.72
X-10.806Y-16.829
X-10.637Y-16.936
X-10.467Y-17.042
X-10.296Y-17.145
X-10.124Y-17.248
X-9.951Y-17.348
X-9.777Y-17.447
X-9.602Y-17.543
X-9.426Y-17.639
X-9.249Y-17.732
X-9.071Y-17.824
X-8.893Y-17.913
X-8.713Y-18.001
X-8.533Y-18.088
X-8.351Y-18.172
X-8.169Y-18.255
X-7.986Y-18.336
X-7.803Y-18.414
X-7.618Y-18.492
X-7.433Y-18.567
X-7.247Y-18.64
X-7.06Y-18.712
X-6.872Y-18.781
X-6.684Y-18.849
X-6.495Y-18.915
X-6.306Y-18.979
X-6.116Y-19.041
X-5.925Y-19.101
X-5.734Y-19.16
X-5.542Y-19.216
X-5.349Y-19.271
X-5.156Y-19.323
X-4.963Y-19.374
X-4.769Y-19.422
X-4.575Y-19.469
X-4.38Y-19.514
X-4.184Y-19.557
X-3.988Y-19.598
X-3.792Y-19.637
X-3.596Y-19.673
X-3.399Y-19.708
X-3.202Y-19.741
X-3.004Y-19.773
X-2.806Y-19.802
X-2.608Y-19.829
X-2.41Y-19.854
X-2.211Y-19.877
X-2.012Y-19.898
X-1.813Y-19.917
X-1.614Y-19.934
X-1.414Y-19.949
X-1.215Y-19.963
X-1.015Y-19.974
X-0.815Y-19.983
X-0.615Y-19.99
X-0.415Y-19.995
X-0.215Y-19.998
X-0.015Y-19.999
X0.184
X0.384Y-19.996
X0.583Y-19.991
X0.783Y-19.984
X0.983Y-19.975
X1.183Y-19.964
X1.382Y-19.952
X1.582Y-19.937
X1.781Y-19.92
X1.98Y-19.901
X2.179Y-19.88
X2.378Y-19.858
X2.576Y-19.833
X2.775Y-19.806
X2.973Y-19.777
X3.17Y-19.747
X3.367Y-19.714
X3.564Y-19.679
X3.761Y-19.643
X3.957Y-19.604
X4.153Y-19.563
X4.349Y-19.521
X4.544Y-19.476
X4.738Y-19.43
X4.932Y-19.382
X5.126Y-19.331
X5.319Y-19.279
X5.511Y-19.225
X5.703Y-19.169
X5.895Y-19.111
X6.085Y-19.051
X6.276Y-18.989
X6.465Y-18.925
X6.654Y-18.86
X6.842Y-18.792
X7.03Y-18.723
X7.217Y-18.652
X7.403Y-18.579
X7.589Y-18.504
X7.773Y-18.427
X7.957Y-18.348
X8.14Y-18.268
X8.322Y-18.185
X8.504Y-18.101
X8.684Y-18.015
X8.864Y-17.928
X9.043Y-17.838
X9.221Y-17.747
X9.398Y-17.654
X9.574Y-17.559
X9.749Y-17.462
X9.923Y-17.364
X10.096Y-17.264
X10.269Y-17.162
X10.44Y-17.058
X10.61Y-16.953
X10.779Y-16.846
X10.947Y-16.737
X11.113Y-16.627
X11.279Y-16.515
X11.444Y-16.402
X11.607Y-16.286
X11.769Y-16.169
X11.931Y-16.051
X12.091Y-15.931
X12.249Y-15.809
X12.407Y-15.686
X12.563Y-15.561
X12.718Y-15.435
X12.872Y-15.307
X13.024Y-15.177
X13.175Y-15.046
X13.325Y-14.914
X13.473Y-14.78
X13.621Y-14.644
X13.766Y-14.507
X13.911Y-14.369
X14.054Y-14.229
X14.195Y-14.088
X14.335Y-13.945
X14.474Y-13.801
X14.612Y-13.656
X14.747Y-13.509
X14.882Y-13.361
X15.015Y-13.211
X15.146Y-13.06
X15.276Y-12.908
X15.404Y-12.755
X15.531Y-12.6
X15.656Y-12.444
X15.78Y-12.287
X15.902Y-12.129
X16.022Y-11.969
X16.141Y-11.808
X16.259Y-11.646
X16.374Y-11.483
X16.488Y-11.319
X16.601Y-11.153
X16.711Y-10.987
X16.82Y-10.819
X16.928Y-10.65
X17.033Y-10.48
X17.137Y-10.31
X17.239Y-10.138
X17.34Y-9.965
X17.439Y-9.791
X17.536Y-9.616
X17.631Y-9.44
X17.725Y-9.263
X17.816Y-9.086
X17.906Y-8.907
X17.995Y-8.727
X18.081Y-8.547
X18.165Y-8.366
X18.248Y-8.184
X18.329Y-8.001
X18.408Y-7.817
X18.485Y-7.633
X18.561Y-7.447
X18.634Y-7.261
X18.706Y-7.075
X18.776Y-6.887
X18.844Y-6.699
X18.91Y-6.51
X18.974Y-6.321
X19.036Y-6.131
X19.097Y-5.94
X19.155Y-5.749
X19.212Y-5.557
X19.266Y-5.365
X19.319Y-5.172
X19.37Y-4.978
X19.419Y-4.784
X19.465Y-4.59
X19.51Y-4.395
X19.553Y-4.2
X19.594Y-4.004
X19.633Y-3.808
X19.671Y-3.611
X19.706Y-3.415
X19.739Y-3.217
X19.77Y-3.02
X19.799Y-2.822
X19.827Y-2.624
X19.852Y-2.425
X19.875Y-2.227
X19.896Y-2.028
X19.916Y-1.829
X19.933Y-1.63
X19.948Y-1.43
X19.962Y-1.231
X19.973Y-1.031
X19.982Y-0.831
X19.989Y-0.631
X19.995Y-0.431
X19.998Y-0.231
X19.999Y-0.031
Y0.168
X19.996Y0.368
X19.991Y0.568
X19.985Y0.767
X19.976Y0.967
X19.965Y1.167
X19.953Y1.367
X19.938Y1.566
X19.921Y1.765
X19.903Y1.964
X19.882Y2.163
X19.859Y2.362
X19.835Y2.561
X19.808Y2.759
X19.78Y2.957
X19.749Y3.154
X19.717Y3.352
X19.682Y3.549
X19.646Y3.745
X19.607Y3.942
X19.567Y4.138
X19.524Y4.333
X19.48Y4.528
X19.434Y4.723
X19.386Y4.917
X19.335Y5.11
X19.283Y5.303
X19.229Y5.496
X19.173Y5.688
X19.116Y5.879
X19.056Y6.07
X18.994Y6.261
X18.931Y6.45
X18.865Y6.639
X18.798Y6.827
X18.729Y7.015
X18.657Y7.202
X18.585Y7.388
X18.51Y7.574
X18.433Y7.758
X18.355Y7.942
X18.274Y8.126
X18.192Y8.308
X18.108Y8.489
X18.022Y8.67
X17.935Y8.85
X17.845Y9.029
X17.754Y9.207
X17.661Y9.384
X17.566Y9.56
X17.47Y9.735
X17.372Y9.909
X17.272Y10.083
X17.17Y10.255
X17.067Y10.426
X16.961Y10.596
X16.855Y10.765
X16.746Y10.933
X16.636Y11.1
X16.524Y11.266
X16.411Y11.431
X16.296Y11.594
X16.179Y11.757
X16.06Y11.918
X15.94Y12.078
X15.819Y12.237
X15.696Y12.394
X15.571Y12.551
X15.445Y12.706
X15.317Y12.859
X15.187Y13.012
X15.057Y13.163
X14.924Y13.313
X14.79Y13.462
X14.655Y13.609
X14.518Y13.755
X14.38Y13.899
X14.24Y14.042
X14.099Y14.184
X13.956Y14.324
X13.812Y14.463
X13.667Y14.601
X13.52Y14.737
X13.372Y14.871
X13.223Y15.004
X13.072Y15.135
X12.92Y15.265
X12.767Y15.394
X12.612Y15.521
X12.457Y15.646
X12.3Y15.77
X12.141Y15.892
X11.982Y16.013
X11.821Y16.132
X11.659Y16.249
X11.496Y16.365
X11.332Y16.479
X11.166Y16.592
X11Y16.702
X10.832Y16.812
X10.664Y16.919
X10.494Y17.025
X10.323Y17.129
X10.151Y17.231
X9.979Y17.332
X9.805Y17.431
X9.63Y17.528
X9.454Y17.624
X9.277Y17.717
X9.1Y17.809
X8.921Y17.899
X8.742Y17.988
X8.561Y18.074
X8.38Y18.159
X8.198Y18.242
X8.015Y18.323
X7.832Y18.402
X7.647Y18.479
X7.462Y18.555
X7.276Y18.629
X7.09Y18.7
X6.902Y18.77
X6.714Y18.839
X6.526Y18.905
X6.336Y18.969
X6.146Y19.031
X5.956Y19.092
X5.764Y19.151
X5.573Y19.207
X5.38Y19.262
X5.187Y19.315
X4.994Y19.366
X4.8Y19.415
X4.606Y19.462
X4.411Y19.507
X4.215Y19.55
X4.02Y19.591
X3.824Y19.63
X3.627Y19.668
X3.43Y19.703
X3.233Y19.736
X3.035Y19.768
X2.838Y19.797
X2.64Y19.824
X2.441Y19.85
X2.243Y19.873
X2.044Y19.895
X1.845Y19.914
X1.645Y19.932
X1.446Y19.947
X1.246Y19.961
X1.047Y19.972
X0.847Y19.981
X0.647Y19.989
X0.447Y19.994
X0.247Y19.998
X0.047Y19.999
X-0.152
X-0.352Y19.996
X-0.552Y19.992
X-0.752Y19.985
X-0.951Y19.977
X-1.151Y19.966
X-1.351Y19.954
X-1.55Y19.939
X-1.749Y19.923
X-1.949Y19.904
X-2.148Y19.884
X-2.346Y19.861
X-2.545Y19.837
X-2.743Y19.81
X-2.941Y19.782
X-3.139Y19.752
X-3.336Y19.719
X-3.533Y19.685
X-3.73Y19.648
X-3.926Y19.61
X-4.122Y19.57
X-4.317Y19.528
X-4.512Y19.484
X-4.707Y19.437
X-4.901Y19.389
X-5.095Y19.339
X-5.288Y19.288
X-5.481Y19.234
X-5.673Y19.178
X-5.864Y19.12
X-6.055Y19.061
X-6.245Y18.999
X-6.435Y18.936
X-6.624Y18.87
X-6.813Y18.803
X-7Y18.734
X-7.187Y18.663
X-7.373Y18.59
X-7.559Y18.516
X-7.744Y18.439
X-7.928Y18.361
X-8.111Y18.281
X-8.293Y18.199
X-8.475Y18.115
X-8.656Y18.029
X-8.836Y17.942
X-9.015Y17.852
X-9.193Y17.761
X-9.37Y17.669
X-9.546Y17.574
X-9.721Y17.478
X-9.896Y17.38
X-10.069Y17.28
X-10.241Y17.178
X-10.412Y17.075
X-10.583Y16.97
X-10.752Y16.863
X-10.92Y16.755
X-11.087Y16.645
X-11.253Y16.533
X-11.418Y16.42
X-11.581Y16.305
X-11.744Y16.188
X-11.905Y16.07
X-12.065Y15.95
X-12.224Y15.829
X-12.382Y15.705
X-12.538Y15.581
X-12.693Y15.455
X-12.847Y15.327
X-13Y15.198
X-13.151Y15.067
X-13.301Y14.935
X-13.45Y14.801
X-13.597Y14.666
X-13.743Y14.529
X-13.888Y14.391
X-14.031Y14.251
X-14.173Y14.11
X-14.313Y13.968
X-14.452Y13.824
X-14.59Y13.679
X-14.726Y13.532
X-14.86Y13.384
X-14.993Y13.235
X-15.125Y13.084
X-15.255Y12.932
X-15.384Y12.779
X-15.511Y12.625
X-15.636Y12.469
X-15.76Y12.312
X-15.882Y12.154
X-16.003Y11.994
X-16.122Y11.834
X-16.24Y11.672
X-16.356Y11.509
X-16.47Y11.345
X-16.583Y11.18
X-16.694Y11.013
X-16.803Y10.846
X-16.911Y10.677
X-17.017Y10.507
X-17.121Y10.337
X-17.223Y10.165
X-17.324Y9.992
X-17.423Y9.819
X-17.52Y9.644
X-17.616Y9.468
X-17.71Y9.292
X-17.802Y9.114
X-17.892Y8.935
X-17.981Y8.756
X-18.067Y8.576
X-18.152Y8.395
X-18.235Y8.213
X-18.316Y8.03
X-18.396Y7.846
X-18.473Y7.662
X-18.549Y7.477
X-18.623Y7.291
X-18.695Y7.105
X-18.765Y6.917
X-18.833Y6.729
X-18.9Y6.541
X-18.964Y6.351
X-19.027Y6.161
X-19.087Y5.971
X-19.146Y5.78
X-19.203Y5.588
X-19.258Y5.395
X-19.311Y5.203
X-19.362Y5.009
X-19.411Y4.815
X-19.458Y4.621
X-19.503Y4.426
X-19.547Y4.231
X-19.588Y4.035
X-19.627Y3.839
X-19.665Y3.643
X-19.7Y3.446
X-19.734Y3.249
X-19.765Y3.051
X-19.795Y2.853
X-19.822Y2.655
X-19.848Y2.457
X-19.871Y2.258
X-19.893Y2.06
X-19.913Y1.861
X-19.93Y1.661
X-19.946Y1.462
X-19.959Y1.262
X-19.971Y1.063
X-19.981Y0.863
X-19.988Y0.663
X-19.994Y0.463
X-19.998Y0.263
X-20Y0
X-21
X-20.999Y-0.199
X-20.996Y-0.399
X-20.991Y-0.599
X-20.984Y-0.799
X-20.976Y-0.999
X-20.965Y-1.199
X-20.953Y-1.398
X-20.939Y-1.598
X-20.922Y-1.797
X-20.904Y-1.996
X-20.884Y-2.195
X-20.863Y-2.394
X-20.839Y-2.593
X-20.813Y-2.791
X-20.786Y-2.989
X-20.756Y-3.187
X-20.725Y-3.385
X-20.692Y-3.582
X-20.657Y-3.779
X-20.62Y-3.975
X-20.581Y-4.172
X-20.54Y-4.367
X-20.498Y-4.563
X-20.453Y-4.758
X-20.407Y-4.952
X-20.359Y-5.147
X-20.309Y-5.34
X-20.257Y-5.533
X-20.204Y-5.726
X-20.148Y-5.918
X-20.091Y-6.11
X-20.032Y-6.301
X-19.971Y-6.491
X-19.908Y-6.681
X-19.844Y-6.871
X-19.777Y-7.059
X-19.709Y-7.247
X-19.639Y-7.435
X-19.568Y-7.621
X-19.494Y-7.807
X-19.419Y-7.993
X-19.342Y-8.177
X-19.263Y-8.361
X-19.183Y-8.544
X-19.1Y-8.727
X-19.016Y-8.908
X-18.931Y-9.089
X-18.843Y-9.269
X-18.754Y-9.448
X-18.663Y-9.626
X-18.571Y-9.803
X-18.476Y-9.98
X-18.381Y-10.155
X-18.283Y-10.33
X-18.184Y-10.503
X-18.083Y-10.676
X-17.98Y-10.848
X-17.876Y-11.019
X-17.771Y-11.188
X-17.663Y-11.357
X-17.554Y-11.525
X-17.444Y-11.691
X-17.332Y-11.857
X-17.218Y-12.022
X-17.103Y-12.185
X-16.986Y-12.347
X-16.867Y-12.508
X-16.747Y-12.669
X-16.626Y-12.827
X-16.503Y-12.985
X-16.379Y-13.142
X-16.253Y-13.297
X-16.125Y-13.451
X-15.997Y-13.604
X-15.866Y-13.756
X-15.735Y-13.907
X-15.601Y-14.056
X-15.467Y-14.204
X-15.331Y-14.35
X-15.193Y-14.496
X-15.055Y-14.64
X-14.915Y-14.783
X-14.773Y-14.924
X-14.63Y-15.064
X-14.486Y-15.203
X-14.341Y-15.34
X-14.194Y-15.476
X-14.046Y-15.61
X-13.897Y-15.743
X-13.746Y-15.875
X-13.594Y-16.005
X-13.441Y-16.134
X-13.287Y-16.261
X-13.131Y-16.387
X-12.975Y-16.511
X-12.817Y-16.634
X-12.658Y-16.755
X-12.498Y-16.875
X-12.337Y-16.994
X-12.174Y-17.11
X-12.011Y-17.225
X-11.846Y-17.339
X-11.68Y-17.451
X-11.514Y-17.562
X-11.346Y-17.67
X-11.177Y-17.778
X-11.007Y-17.883
X-10.836Y-17.987
X-10.665Y-18.09
X-10.492Y-18.19
X-10.318Y-18.29
X-10.143Y-18.387
X-9.968Y-18.483
X-9.791Y-18.577
X-9.614Y-18.669
X-9.436Y-18.76
X-9.257Y-18.849
X-9.077Y-18.936
X-8.896Y-19.022
X-8.714Y-19.106
X-8.532Y-19.188
X-8.349Y-19.268
X-8.165Y-19.347
X-7.98Y-19.424
X-7.795Y-19.499
X-7.609Y-19.572
X-7.422Y-19.644
X-7.235Y-19.714
X-7.047Y-19.782
X-6.858Y-19.848
X-6.669Y-19.912
X-6.479Y-19.975
X-6.288Y-20.036
X-6.097Y-20.095
X-5.905Y-20.152
X-5.713Y-20.207
X-5.521Y-20.261
X-5.327Y-20.312
X-5.134Y-20.362
X-4.939Y-20.41
X-4.745Y-20.456
X-4.55Y-20.501
X-4.354Y-20.543
X-4.159Y-20.584
X-3.962Y-20.622
X-3.766Y-20.659
X-3.569Y-20.694
X-3.372Y-20.727
X-3.174Y-20.758
X-2.976Y-20.787
X-2.778Y-20.815
X-2.58Y-20.84
X-2.381Y-20.864
X-2.182Y-20.886
X-1.983Y-20.906
X-1.784Y-20.924
X-1.585Y-20.94
X-1.385Y-20.954
X-1.186Y-20.966
X-0.986Y-20.976
X-0.786Y-20.985
X-0.586Y-20.991
X-0.386Y-20.996
X-0.186Y-20.999
X0.013
X0.213Y-20.998
X0.413Y-20.995
X0.613Y-20.991
X0.813Y-20.984
X1.012Y-20.975
X1.212Y-20.964
X1.412Y-20.952
X1.611Y-20.938
X1.811Y-20.921
X2.01Y-20.903
X2.209Y-20.883
X2.407Y-20.861
X2.606Y-20.837
X2.804Y-20.811
X3.002Y-20.784
X3.2Y-20.754
X3.398Y-20.723
X3.595Y-20.689
X3.792Y-20.654
X3.988Y-20.617
X4.185Y-20.578
X4.38Y-20.537
X4.576Y-20.495
X4.771Y-20.45
X4.965Y-20.404
X5.159Y-20.356
X5.353Y-20.306
X5.546Y-20.254
X5.739Y-20.2
X5.931Y-20.144
X6.123Y-20.087
X6.314Y-20.028
X6.504Y-19.967
X6.694Y-19.904
X6.883Y-19.839
X7.072Y-19.773
X7.26Y-19.705
X7.447Y-19.634
X7.634Y-19.563
X7.82Y-19.489
X8.005Y-19.414
X8.19Y-19.337
X8.373Y-19.258
X8.556Y-19.177
X8.739Y-19.095
X8.92Y-19.011
X9.101Y-18.925
X9.281Y-18.837
X9.459Y-18.748
X9.638Y-18.657
X9.815Y-18.564
X9.991Y-18.47
X10.167Y-18.374
X10.341Y-18.276
X10.515Y-18.177
X10.687Y-18.076
X10.859Y-17.974
X11.03Y-17.869
X11.199Y-17.763
X11.368Y-17.656
X11.536Y-17.547
X11.702Y-17.436
X11.868Y-17.324
X12.032Y-17.21
X12.196Y-17.095
X12.358Y-16.978
X12.519Y-16.859
X12.679Y-16.739
X12.838Y-16.618
X12.996Y-16.495
X13.152Y-16.37
X13.307Y-16.244
X13.462Y-16.117
X13.614Y-15.988
X13.766Y-15.858
X13.917Y-15.726
X14.066Y-15.592
X14.214Y-15.458
X14.36Y-15.322
X14.505Y-15.184
X14.649Y-15.045
X14.792Y-14.905
X14.933Y-14.764
X15.073Y-14.621
X15.212Y-14.477
X15.349Y-14.331
