(Created with grbl post processor 2024/03/23 07:39)
G21
(G-code generated with Fabex and NC library)
G17G90
(Tool: D = 3.0 mm  type END flutes 2)
S12000M03
G00 Z10.0

G0X0Y0Z10
X-66Y-18
G1Z-5.1F500
Y17.999F1000
G0Z10
X-63Y-26.5
G1Z-5.1F500
Y26.499F1000
G0Z10
X-60Y-33
G1Z-5.1F500
Y32.999F1000
G0Z10
X-18Y66
G1Z-5.1F500
X17.999F1000
G0Z10
X-26.5Y63
G1Z-5.1F500
X26.499F1000
G0Z10
X-33Y60
G1Z-5.1F500
X32.999F1000
G0Z10
X-37.5Y57
G1Z-5.1F500
X37.499F1000
G0Z10
X-42Y54
G1Z-5.1F500
X41.999F1000
G0Z10
X-45.5Y51
G1Z-5.1F500
X45.499F1000
G0Z10
X-48.5Y48
G1Z-5.1F500
X48.499F1000
G0Z10
X-51.5Y45
G1Z-5.1F500
X51.499F1000
G0Z10
X-54Y42
G1Z-5.1F500
X53.999F1000
G0Z10
X-56Y39
G1Z-5.1F500
X55.999F1000
G0Z10
X-58Y36
G1Z-5.1F500
X57.999F1000
G0Z10
X-60Y33
G1Z-5.1F500
X59.999F1000
G0Z10
X-61.5Y30
G1Z-5.1F500
X61.499F1000
G0Z10
X-62.5Y27
G1Z-5.1F500
X62.499F1000
G0Z10
X-64Y24
G1Z-5.1F500
X63.999F1000
G0Z10
X-65Y21
G1Z-5.1F500
X64.999F1000
G0Z10
X-66Y18
G1Z-5.1F500
X65.999F1000
G0Z10
X-66.5Y15
G1Z-5.1F500
X66.499F1000
G0Z10
X-67Y12
G1Z-5.1F500
X66.999F1000
G0Z10
X-57Y-37.5
G1Z-5.1F500
Y37.499F1000
G0Z10
X-67.5Y9
G1Z-5.1F500
X67.499F1000
G0Z10
X-54Y-42
G1Z-5.1F500
Y41.999F1000
G0Z10
X-68Y6
G1Z-5.1F500
X67.999F1000
G0Z10
X-51Y-45.5
G1Z-5.1F500
Y45.499F1000
G0Z10
X-68Y3
G1Z-5.1F500
X67.999F1000
G0Z10
X-48Y-48.5
G1Z-5.1F500
Y48.499F1000
G0Z10
X-68Y0
G1Z-5.1F500
X68.499F1000
G0Z10
X-45Y-51.5
G1Z-5.1F500
Y51.499F1000
G0Z10
X-68Y-2.999
G1Z-5.1F500
X67.999F1000
G0Z10
X-42Y-54
G1Z-5.1F500
Y53.999F1000
G0Z10
X-68Y-5.999
G1Z-5.1F500
X67.999F1000
G0Z10
X-39Y-56
G1Z-5.1F500
Y55.999F1000
G0Z10
X-67.5Y-8.999
G1Z-5.1F500
X67.499F1000
G0Z10
X-36Y-58
G1Z-5.1F500
Y57.999F1000
G0Z10
X-67Y-11.999
G1Z-5.1F500
X66.999F1000
G0Z10
X-33Y-60
G1Z-5.1F500
Y59.999F1000
G0Z10
X-66.5Y-14.999
G1Z-5.1F500
X66.499F1000
G0Z10
X-30Y-61.5
G1Z-5.1F500
Y61.499F1000
G0Z10
X-66Y-17.999
G1Z-5.1F500
X65.999F1000
G0Z10
X-27Y-62.5
G1Z-5.1F500
Y62.499F1000
G0Z10
X-65Y-20.999
G1Z-5.1F500
X64.999F1000
G0Z10
X-24Y-64
G1Z-5.1F500
Y63.999F1000
G0Z10
X-64Y-23.999
G1Z-5.1F500
X63.999F1000
G0Z10
X-21Y-65
G1Z-5.1F500
Y64.999F1000
G0Z10
X-62.5Y-26.999
G1Z-5.1F500
X62.499F1000
G0Z10
X-18Y-66
G1Z-5.1F500
Y65.999F1000
G0Z10
X-61.5Y-29.999
G1Z-5.1F500
X61.499F1000
G0Z10
X-15Y-66.5
G1Z-5.1F500
Y66.499F1000
G0Z10
X-60Y-32.999
G1Z-5.1F500
X59.999F1000
G0Z10
X-12Y-67
G1Z-5.1F500
Y66.999F1000
G0Z10
X-58Y-35.999
G1Z-5.1F500
X57.999F1000
G0Z10
X-9Y-67.5
G1Z-5.1F500
Y67.499F1000
G0Z10
X-56Y-38.999
G1Z-5.1F500
X55.999F1000
G0Z10
X-6Y-68
G1Z-5.1F500
Y67.999F1000
G0Z10
X-54Y-41.999
G1Z-5.1F500
X53.999F1000
G0Z10
X-3Y-68
G1Z-5.1F500
Y67.999F1000
G0Z10
X-51.5Y-44.999
G1Z-5.1F500
X51.499F1000
G0Z10
X0Y-68
G1Z-5.1F500
Y68.499F1000
G0Z10
X-48.5Y-47.999
G1Z-5.1F500
X48.499F1000
G0Z10
X3Y-68
G1Z-5.1F500
Y67.999F1000
G0Z10
X-45.5Y-50.999
G1Z-5.1F500
X45.499F1000
G0Z10
X6Y-68
G1Z-5.1F500
Y67.999F1000
G0Z10
X-42Y-53.999
G1Z-5.1F500
X41.999F1000
G0Z10
X9Y-67.5
G1Z-5.1F500
Y67.499F1000
G0Z10
X-37.5Y-56.999
G1Z-5.1F500
X37.499F1000
G0Z10
X12Y-67
G1Z-5.1F500
Y66.999F1000
G0Z10
X15Y-66.5
G1Z-5.1F500
Y66.499F1000
G0Z10
X18Y-66
G1Z-5.1F500
Y65.999F1000
G0Z10
X21Y-65
G1Z-5.1F500
Y64.999F1000
G0Z10
X24Y-64
G1Z-5.1F500
Y63.999F1000
G0Z10
X27Y-62.5
G1Z-5.1F500
Y62.499F1000
G0Z10
X30Y-61.5
G1Z-5.1F500
Y61.499F1000
G0Z10
X33Y-60
G1Z-5.1F500
Y59.999F1000
G0Z10
X36Y-58
G1Z-5.1F500
Y57.999F1000
G0Z10
X39Y-56
G1Z-5.1F500
Y55.999F1000
G0Z10
X42Y-54
G1Z-5.1F500
Y53.999F1000
G0Z10
X45Y-51.5
G1Z-5.1F500
Y51.499F1000
G0Z10
X48Y-48.5
G1Z-5.1F500
Y48.499F1000
G0Z10
X51Y-45.5
G1Z-5.1F500
Y45.499F1000
G0Z10
X54Y-42
G1Z-5.1F500
Y41.999F1000
G0Z10
X57Y-37.5
G1Z-5.1F500
Y37.499F1000
G0Z10
X60Y-33
G1Z-5.1F500
Y32.999F1000
G0Z10
X63Y-26.5
G1Z-5.1F500
Y26.499F1000
G0Z10
X66Y-18
G1Z-5.1F500
Y17.999F1000
G0Z10
X-33Y-59.999
G1Z-5.1F500
X32.999F1000
G0Z10
X-26.5Y-63
G1Z-5.1F500
X26.499F1000
G0Z10
X-18Y-66
G1Z-5.1F500
X17.999F1000
G0Z10
X-66Y-18
G1Z-6.912F500
Y17.999F1000
G0Z10
X-63Y-26.5
G1Z-6.912F500
Y26.499F1000
G0Z10
X-60Y-33
G1Z-6.912F500
Y32.999F1000
G0Z10
X-18Y66
G1Z-6.912F500
X17.999F1000
G0Z10
X-26.5Y63
G1Z-6.912F500
X26.499F1000
G0Z10
X-33Y60
G1Z-6.912F500
X32.999F1000
G0Z10
X-37.5Y57
G1Z-6.912F500
X37.499F1000
G0Z10
X-42Y54
G1Z-6.912F500
X41.999F1000
G0Z10
X-45.5Y51
G1Z-6.912F500
X45.499F1000
G0Z10
X-48.5Y48
G1Z-6.912F500
X48.499F1000
G0Z10
X-51.5Y45
G1Z-6.912F500
X51.499F1000
G0Z10
X-54Y42
G1Z-6.912F500
X53.999F1000
G0Z10
X-56Y39
G1Z-6.912F500
X55.999F1000
G0Z10
X-58Y36
G1Z-6.912F500
X57.999F1000
G0Z10
X-60Y33
G1Z-6.912F500
X59.999F1000
G0Z10
X-61.5Y30
G1Z-6.912F500
X61.499F1000
G0Z10
X-62.5Y27
G1Z-6.912F500
X62.499F1000
G0Z10
X-64Y24
G1Z-6.912F500
X63.999F1000
G0Z10
X-65Y21
G1Z-6.912F500
X64.999F1000
G0Z10
X-66Y18
G1Z-6.912F500
X65.999F1000
G0Z10
X-66.5Y15
G1Z-6.912F500
X66.499F1000
G0Z10
X-67Y12
G1Z-6.912F500
X66.999F1000
G0Z10
X-57Y-37.5
G1Z-6.912F500
Y37.499F1000
G0Z10
X-67.5Y9
G1Z-6.912F500
X67.499F1000
G0Z10
X-54Y-42
G1Z-6.912F500
Y41.999F1000
G0Z10
X-68Y6
G1Z-6.912F500
X67.999F1000
G0Z10
X-51Y-45.5
G1Z-6.912F500
Y45.499F1000
G0Z10
X-68Y3
G1Z-6.912F500
X67.999F1000
G0Z10
X-48Y-48.5
G1Z-6.912F500
Y48.499F1000
G0Z10
X-68Y0
G1Z-6.912F500
X68.499F1000
G0Z10
X-45Y-51.5
G1Z-6.912F500
Y51.499F1000
G0Z10
X-68Y-2.999
G1Z-6.912F500
X67.999F1000
G0Z10
X-42Y-54
G1Z-6.912F500
Y53.999F1000
G0Z10
X-68Y-5.999
G1Z-6.912F500
X67.999F1000
G0Z10
X-39Y-56
G1Z-6.912F500
Y55.999F1000
G0Z10
X-67.5Y-8.999
G1Z-6.912F500
X67.499F1000
G0Z10
X-36Y-58
G1Z-6.912F500
Y57.999F1000
G0Z10
X-67Y-11.999
G1Z-6.912F500
X66.999F1000
G0Z10
X-33Y-60
G1Z-6.912F500
Y59.999F1000
G0Z10
X-66.5Y-14.999
G1Z-6.912F500
X66.499F1000
G0Z10
X-30Y-61.5
G1Z-6.912F500
Y61.499F1000
G0Z10
X-66Y-17.999
G1Z-6.912F500
X65.999F1000
G0Z10
X-27Y-62.5
G1Z-6.912F500
Y62.499F1000
G0Z10
X-65Y-20.999
G1Z-6.912F500
X64.999F1000
G0Z10
X-24Y-64
G1Z-6.912F500
Y63.999F1000
G0Z10
X-64Y-23.999
G1Z-6.912F500
X63.999F1000
G0Z10
X-21Y-65
G1Z-6.912F500
Y64.999F1000
G0Z10
X-62.5Y-26.999
G1Z-6.912F500
X62.499F1000
G0Z10
X-18Y-66
G1Z-6.912F500
Y65.999F1000
G0Z10
X-61.5Y-29.999
G1Z-6.912F500
X61.499F1000
G0Z10
X-15Y-66.5
G1Z-6.912F500
Y66.499F1000
G0Z10
X-60Y-32.999
G1Z-6.912F500
X59.999F1000
G0Z10
X-12Y-67
G1Z-6.912F500
Y66.999F1000
G0Z10
X-58Y-35.999
G1Z-6.912F500
X57.999F1000
G0Z10
X-9Y-67.5
G1Z-6.912F500
Y67.499F1000
G0Z10
X-56Y-38.999
G1Z-6.912F500
X55.999F1000
G0Z10
X-6Y-68
G1Z-6.912F500
Y67.999F1000
G0Z10
X-54Y-41.999
G1Z-6.912F500
X53.999F1000
G0Z10
X-3Y-68
G1Z-6.912F500
Y67.999F1000
G0Z10
X-51.5Y-44.999
G1Z-6.912F500
X51.499F1000
G0Z10
X0Y-68
G1Z-6.912F500
Y68.499F1000
G0Z10
X-48.5Y-47.999
G1Z-6.912F500
X48.499F1000
G0Z10
X3Y-68
G1Z-6.912F500
Y67.999F1000
G0Z10
X-45.5Y-50.999
G1Z-6.912F500
X45.499F1000
G0Z10
X6Y-68
G1Z-6.912F500
Y67.999F1000
G0Z10
X-42Y-53.999
G1Z-6.912F500
X41.999F1000
G0Z10
X9Y-67.5
G1Z-6.912F500
Y67.499F1000
G0Z10
X-37.5Y-56.999
G1Z-6.912F500
X37.499F1000
G0Z10
X12Y-67
G1Z-6.912F500
Y66.999F1000
G0Z10
X15Y-66.5
G1Z-6.912F500
Y66.499F1000
G0Z10
X18Y-66
G1Z-6.912F500
Y65.999F1000
G0Z10
X21Y-65
G1Z-6.912F500
Y64.999F1000
G0Z10
X24Y-64
G1Z-6.912F500
Y63.999F1000
G0Z10
X27Y-62.5
G1Z-6.912F500
Y62.499F1000
G0Z10
X30Y-61.5
G1Z-6.912F500
Y61.499F1000
G0Z10
X33Y-60
G1Z-6.912F500
Y59.999F1000
G0Z10
X36Y-58
G1Z-6.912F500
Y57.999F1000
G0Z10
X39Y-56
G1Z-6.912F500
Y55.999F1000
G0Z10
X42Y-54
G1Z-6.912F500
Y53.999F1000
G0Z10
X45Y-51.5
G1Z-6.912F500
Y51.499F1000
G0Z10
X48Y-48.5
G1Z-6.912F500
Y48.499F1000
G0Z10
X51Y-45.5
G1Z-6.912F500
Y45.499F1000
G0Z10
X54Y-42
G1Z-6.912F500
Y41.999F1000
G0Z10
X57Y-37.5
G1Z-6.912F500
Y37.499F1000
G0Z10
X60Y-33
G1Z-6.912F500
Y32.999F1000
G0Z10
X63Y-26.5
G1Z-6.912F500
Y26.499F1000
G0Z10
X66Y-18
G1Z-6.912F500
Y17.999F1000
G0Z10
X-33Y-59.999
G1Z-6.912F500
X32.999F1000
G0Z10
X-26.5Y-63
G1Z-6.912F500
X26.499F1000
G0Z10
X-18Y-66
G1Z-6.912F500
X17.999F1000
G0Z10
 
