(Created with grbl post processor 2024/12/14 11:54)
G21
(G-code Generated with Fabex and NC library)
G17G90
(Tool: D = 3.0 mm  type END flutes 2)
S12000M03
G00 Z10.0

G0X0Y0Z10
X-68Y-8.397
G1Z-0.1F500
Y8.402F1000
G0Z10
X-67Y-14.597
G1Z0F500
Y-14.397F1000
Y-14.394Z-0.1F500
Y14.399Z-0.099F1000
Y14.402Z0
Y14.602
G0Z10
X-66Y-18.597
G1Z0F500
Y-18.47Z-0.1
Y18.399F1000
Y18.402Z0
Y18.602
G0Z10
X-65Y-21.597
G1Z-0.1F500
Y21.402F1000
G0Z10
X-64Y-24.397
G1Z-0.1F500
Y24.202F1000
G0Z10
X-63Y-26.997
G1Z-0.1F500
Y26.999F1000
Y27.002Z0
G0Z10
X-62Y-29.197
G1Z-0.1F500
Y29.002F1000
G0Z10
X-61Y-31.197
G1Z-0.1F500
Y31.002F1000
G0Z10
X-60Y-32.997
G1Z-0.1F500
Y33.002F1000
G0Z10
X-59Y-34.797
G1Z-0.1F500
Y34.802F1000
G0Z10
X-58Y-36.397
G1Z-0.1F500
Y36.402F1000
G0Z10
X-57Y-37.997
G1Z-0.1F500
Y37.802F1000
G0Z10
X-56Y-39.397
G1Z-0.1F500
Y39.402F1000
G0Z10
X-55Y-40.797
G1Z-0.1F500
Y40.802F1000
G0Z10
X-54Y-42.197
G1Z-0.1F500
Y42.199F1000
Y42.202Z0
G0Z10
X-53Y-43.397
G1Z-0.1F500
Y43.202F1000
G0Z10
X-52Y-44.597
G1Z-0.1F500
Y44.599F1000
Y44.602Z0
G0Z10
X-51Y-45.797
G1Z-0.1F500
Y45.602F1000
G0Z10
X-50Y-46.797
G1Z-0.1F500
Y46.802F1000
G0Z10
X-49Y-47.797
G1Z-0.1F500
Y47.802F1000
G0Z10
X-48Y-48.797
G1Z-0.1F500
Y48.802F1000
G0Z10
X-47Y-49.797
G1Z-0.1F500
Y49.802F1000
G0Z10
X-46Y-50.797
G1Z-0.1F500
Y50.602F1000
G0Z10
X-45Y-51.597
G1Z-0.1F500
Y51.602F1000
G0Z10
X-44Y-52.397
G1Z-0.1F500
Y52.402F1000
G0Z10
X-43Y-53.397
G1Z-0.1F500
Y53.202F1000
G0Z10
X-42Y-53.997
G1Z-0.1F500
Y54.002F1000
G0Z10
X-41Y-54.797
G1Z-0.1F500
Y54.802F1000
G0Z10
X-40Y-55.597
G1Z-0.1F500
Y55.402F1000
G0Z10
X-39Y-56.197
G1Z-0.1F500
Y56.202F1000
G0Z10
X-38Y-56.997
G1Z-0.1F500
Y56.999F1000
Y57.002Z0
G0Z10
X-37Y-57.597
G1Z-0.1F500
Y57.602F1000
G0Z10
X-36Y-58.197
G1Z-0.1F500
Y58.202F1000
G0Z10
X-35Y-58.797
G1Z-0.1F500
Y58.802F1000
G0Z10
X-34Y-59.397
G1Z-0.1F500
Y59.402F1000
G0Z10
X-33Y-59.997
G1Z-0.1F500
Y60.002F1000
G0Z10
X-32Y-60.597
G1Z-0.1F500
Y60.599F1000
Y60.602Z0
G0Z10
X-31Y-60.997
G1Z-0.1F500
Y61.002F1000
G0Z10
X-30Y-61.597
G1Z-0.1F500
Y61.599F1000
Y61.602Z0
G0Z10
X-29Y-61.997
G1Z-0.1F500
Y62.002F1000
G0Z10
X-28Y-62.597
G1Z-0.1F500
Y62.402F1000
G0Z10
X-27Y-62.997
G1Z-0.1F500
Y62.999F1000
Y63.002Z0
G0Z10
X-26Y-63.397
G1Z-0.1F500
Y63.399F1000
Y63.402Z0
G0Z10
X-25Y-63.797
G1Z-0.1F500
Y63.799F1000
Y63.802Z0
G0Z10
X-24Y-64.197
G1Z-0.1F500
Y64.002F1000
G0Z10
X-23Y-64.597
G1Z-0.1F500
Y64.402F1000
G0Z10
X-22Y-64.797
G1Z-0.1F500
Y64.802F1000
G0Z10
X-21Y-65.197
G1Z-0.1F500
Y65.199F1000
Y65.202Z0
G0Z10
X-20Y-65.597
G1Z-0.1F500
Y65.402F1000
G0Z10
X-19Y-65.797
G1Z-0.1F500
Y65.802F1000
G0Z10
X-18Y-65.997
G1Z-0.1F500
Y66.002F1000
G0Z10
X-17Y-66.397
G1Z-0.1F500
Y66.202F1000
G0Z10
X-16Y-66.597
G1Z-0.1F500
Y66.602F1000
G0Z10
X-15Y-66.797
G1Z-0.1F500
Y66.802F1000
G0Z10
X-14Y-66.997
G1Z-0.1F500
Y67.002F1000
G0Z10
X-13Y-67.197
G1Z-0.1F500
Y67.202F1000
G0Z10
X-12Y-67.397
G1Z-0.1F500
Y67.402F1000
G0Z10
X-11Y-67.597
G1Z-0.1F500
Y67.602F1000
G0Z10
X-10Y-67.797
G1Z-0.1F500
Y67.802F1000
G0Z10
X-9Y-67.997
G1Z-0.1F500
Y67.802F1000
G0Z10
X-8Y-67.997
G1Z-0.1F500
Y68.002F1000
G0Z10
X-7Y-68.197
G1Z-0.1F500
Y68.002F1000
G0Z10
X-6Y-68.197
G1Z-0.1F500
Y68.202F1000
G0Z10
X-5Y-68.397
G1Z-0.1F500
Y68.202F1000
G0Z10
X-4Y-68.397
G1Z-0.1F500
Y68.402F1000
G0Z10
X-3Y-68.597
G1Z-0.1F500
Y68.402F1000
G0Z10
X-2Y-68.597
G1Z-0.1F500
Y68.402F1000
G0Z10
X-1Y-68.597
G1Z-0.1F500
Y68.402F1000
G0Z10
X0Y-68.597
G1Z-0.1F500
Y68.402F1000
G0Z10
X1Y-68.597
G1Z-0.1F500
Y68.402F1000
G0Z10
X2Y-68.597
G1Z-0.1F500
Y68.402F1000
G0Z10
X3Y-68.597
G1Z-0.1F500
Y68.402F1000
G0Z10
X4Y-68.397
G1Z-0.1F500
Y68.402F1000
G0Z10
X5Y-68.397
G1Z-0.1F500
Y68.202F1000
G0Z10
X6Y-68.197
G1Z-0.1F500
Y68.202F1000
G0Z10
X7Y-68.197
G1Z-0.1F500
Y68.002F1000
G0Z10
X8Y-67.997
G1Z-0.1F500
Y68.002F1000
G0Z10
X9Y-67.997
G1Z-0.1F500
Y67.802F1000
G0Z10
X10Y-67.797
G1Z-0.1F500
Y67.802F1000
G0Z10
X11Y-67.597
G1Z-0.1F500
Y67.602F1000
G0Z10
X12Y-67.397
G1Z-0.1F500
Y67.402F1000
G0Z10
X13Y-67.197
G1Z-0.1F500
Y67.202F1000
G0Z10
X14Y-66.997
G1Z-0.1F500
Y67.002F1000
G0Z10
X15Y-66.797
G1Z-0.1F500
Y66.802F1000
G0Z10
X16Y-66.597
G1Z-0.1F500
Y66.602F1000
G0Z10
X17Y-66.397
G1Z-0.1F500
Y66.202F1000
G0Z10
X18Y-65.997
G1Z-0.1F500
Y66.002F1000
G0Z10
X19Y-65.797
G1Z-0.1F500
Y65.802F1000
G0Z10
X20Y-65.597
G1Z-0.1F500
Y65.402F1000
G0Z10
X21Y-65.197
G1Z-0.1F500
Y65.002F1000
G0Z10
X22Y-64.797
G1Z-0.1F500
Y64.802F1000
G0Z10
X23Y-64.597
G1Z-0.1F500
Y64.402F1000
G0Z10
X24Y-64.197
G1Z-0.1F500
Y64.002F1000
G0Z10
X25Y-63.797
G1Z-0.1F500
Y63.602F1000
G0Z10
X26Y-63.397
G1Z-0.1F500
Y63.202F1000
G0Z10
X27Y-62.997
G1Z-0.1F500
Y62.802F1000
G0Z10
X28Y-62.597
G1Z-0.1F500
Y62.402F1000
G0Z10
X29Y-61.997
G1Z-0.1F500
Y62.002F1000
G0Z10
X30Y-61.597
G1Z-0.1F500
Y61.402F1000
G0Z10
X31Y-60.997
G1Z-0.1F500
Y61.002F1000
G0Z10
X32Y-60.597
G1Z-0.1F500
Y60.402F1000
G0Z10
X33Y-59.997
G1Z-0.1F500
Y60.002F1000
G0Z10
X34Y-59.397
G1Z-0.1F500
Y59.402F1000
G0Z10
X35Y-58.797
G1Z-0.1F500
Y58.802F1000
G0Z10
X36Y-58.197
G1Z-0.1F500
Y58.202F1000
G0Z10
X37Y-57.597
G1Z-0.1F500
Y57.602F1000
G0Z10
X38Y-56.997
G1Z-0.1F500
Y56.802F1000
G0Z10
X39Y-56.197
G1Z-0.1F500
Y56.202F1000
G0Z10
X40Y-55.597
G1Z-0.1F500
Y55.402F1000
G0Z10
X41Y-54.797
G1Z-0.1F500
Y54.802F1000
G0Z10
X42Y-53.997
G1Z-0.1F500
Y54.002F1000
G0Z10
X43Y-53.397
G1Z-0.1F500
Y53.202F1000
G0Z10
X44Y-52.397
G1Z-0.1F500
Y52.402F1000
G0Z10
X45Y-51.597
G1Z-0.1F500
Y51.602F1000
G0Z10
X46Y-50.797
G1Z-0.1F500
Y50.602F1000
G0Z10
X47Y-49.797
G1Z-0.1F500
Y49.802F1000
G0Z10
X48Y-48.797
G1Z-0.1F500
Y48.802F1000
G0Z10
X49Y-47.797
G1Z-0.1F500
Y47.802F1000
G0Z10
X50Y-46.797
G1Z-0.1F500
Y46.802F1000
G0Z10
X51Y-45.797
G1Z-0.1F500
Y45.602F1000
G0Z10
X52Y-44.597
G1Z-0.1F500
Y44.402F1000
G0Z10
X53Y-43.397
G1Z-0.1F500
Y43.202F1000
G0Z10
X54Y-42.197
G1Z-0.1F500
Y42.002F1000
G0Z10
X55Y-40.797
G1Z-0.1F500
Y40.802F1000
G0Z10
X56Y-39.397
G1Z-0.1F500
Y39.402F1000
G0Z10
X57Y-37.997
G1Z-0.1F500
Y37.802F1000
G0Z10
X58Y-36.397
G1Z-0.1F500
Y36.402F1000
G0Z10
X59Y-34.797
G1Z-0.1F500
Y34.802F1000
G0Z10
X60Y-32.997
G1Z-0.1F500
Y33.002F1000
G0Z10
X61Y-31.197
G1Z-0.1F500
Y31.002F1000
G0Z10
X62Y-29.197
G1Z-0.1F500
Y29.002F1000
G0Z10
X63Y-26.997
G1Z-0.1F500
Y26.802F1000
G0Z10
X64Y-24.397
G1Z-0.1F500
Y24.202F1000
G0Z10
X65Y-21.597
G1Z-0.1F500
Y21.402F1000
G0Z10
X66Y-18.397
G1Z-0.1F500
Y18.202F1000
G0Z10
X67Y-14.197
G1Z-0.1F500
Y14.202F1000
G0Z10
X68Y-8.397
G1Z-0.1F500
Y8.402F1000
G0Z10
X-68Y-8.397
G1Z-0.2F500
Y8.402F1000
G0Z10
X-67Y-14.394
G1Z-0.1F500
Y-14.391Z-0.2
Y14.396F1000
Y14.399Z-0.099
G0Z10
X-66Y-18.47
G1Z-0.1F500
Y-18.397Z-0.157
Y-18.396Z-0.2
Y18.396F1000
Y18.399Z-0.1
G0Z10
X-65Y-21.597
G1Z-0.157F500
Y-21.596Z-0.2
Y21.402F1000
G0Z10
X-64Y-24.397
G1Z-0.157F500
Y-24.396Z-0.2
Y24.202F1000
G0Z10
X-63Y-26.997
G1Z-0.158F500
Y-26.996Z-0.2
Y26.996F1000
Y26.999Z-0.1
G0Z10
X-62Y-29.197
G1Z-0.158F500
Y-29.196Z-0.2
Y29.002F1000
G0Z10
X-61Y-31.197
G1Z-0.158F500
Y-31.196Z-0.2
Y31.002F1000
G0Z10
X-60Y-32.997
G1Z-0.2F500
Y33.002F1000
G0Z10
X-59Y-34.797
G1Z-0.2F500
Y34.802F1000
G0Z10
X-58Y-36.397
G1Z-0.2F500
Y36.402F1000
G0Z10
X-57Y-37.997
G1Z-0.159F500
Y-37.996Z-0.2
Y37.802F1000
G0Z10
X-56Y-39.397
G1Z-0.2F500
Y39.402F1000
G0Z10
X-55Y-40.797
G1Z-0.2F500
Y40.802F1000
G0Z10
X-54Y-42.197
G1Z-0.159F500
Y-42.196Z-0.2
Y42.196F1000
Y42.199Z-0.1
G0Z10
X-53Y-43.397
G1Z-0.159F500
Y-43.396Z-0.2
Y43.202F1000
G0Z10
X-52Y-44.597
G1Z-0.16F500
Y-44.596Z-0.2
Y44.596F1000
Y44.599Z-0.1
G0Z10
X-51Y-45.797
G1Z-0.16F500
Y-45.796Z-0.2
Y45.602F1000
G0Z10
X-50Y-46.797
G1Z-0.2F500
Y46.802F1000
G0Z10
X-49Y-47.797
G1Z-0.2F500
Y47.802F1000
G0Z10
X-48Y-48.797
G1Z-0.2F500
Y48.802F1000
G0Z10
X-47Y-49.797
G1Z-0.2F500
Y49.802F1000
G0Z10
X-46Y-50.797
G1Z-0.16F500
Y-50.796Z-0.2
Y50.602F1000
G0Z10
X-45Y-51.597
G1Z-0.2F500
Y51.602F1000
G0Z10
X-44Y-52.397
G1Z-0.2F500
Y52.402F1000
G0Z10
X-43Y-53.397
G1Z-0.16F500
Y-53.396Z-0.2
Y53.202F1000
G0Z10
X-42Y-53.997
G1Z-0.2F500
Y54.002F1000
G0Z10
X-41Y-54.797
G1Z-0.2F500
Y54.802F1000
G0Z10
X-40Y-55.597
G1Z-0.161F500
Y-55.596Z-0.2
Y55.402F1000
G0Z10
X-39Y-56.197
G1Z-0.2F500
Y56.202F1000
G0Z10
X-38Y-56.997
G1Z-0.161F500
Y-56.996Z-0.2
Y56.996F1000
Y56.999Z-0.1
G0Z10
X-37Y-57.597
G1Z-0.2F500
Y57.602F1000
G0Z10
X-36Y-58.197
G1Z-0.2F500
Y58.202F1000
G0Z10
X-35Y-58.797
G1Z-0.2F500
Y58.802F1000
G0Z10
X-34Y-59.397
G1Z-0.2F500
Y59.402F1000
G0Z10
X-33Y-59.997
G1Z-0.2F500
Y60.002F1000
G0Z10
X-32Y-60.597
G1Z-0.161F500
Y-60.596Z-0.2
Y60.596F1000
Y60.599Z-0.1
G0Z10
X-31Y-60.997
G1Z-0.2F500
Y61.002F1000
G0Z10
X-30Y-61.597
G1Z-0.162F500
Y-61.596Z-0.2
Y61.596F1000
Y61.599Z-0.1
G0Z10
X-29Y-61.997
G1Z-0.2F500
Y62.002F1000
G0Z10
X-28Y-62.597
G1Z-0.161F500
Y-62.596Z-0.2
Y62.402F1000
G0Z10
X-27Y-62.997
G1Z-0.161F500
Y-62.996Z-0.2
Y62.996F1000
Y62.999Z-0.1
G0Z10
X-26Y-63.397
G1Z-0.161F500
Y-63.396Z-0.2
Y63.396F1000
Y63.399Z-0.1
G0Z10
X-25Y-63.797
G1Z-0.16F500
Y-63.796Z-0.2
Y63.796F1000
Y63.799Z-0.1
G0Z10
X-24Y-64.197
G1Z-0.159F500
Y-64.196Z-0.2
Y64.002F1000
G0Z10
X-23Y-64.597
G1Z-0.159F500
Y-64.596Z-0.2
Y64.402F1000
G0Z10
X-22Y-64.797
G1Z-0.2F500
Y64.802F1000
G0Z10
X-21Y-65.197
G1Z-0.159F500
Y-65.196Z-0.2
Y65.196F1000
Y65.199Z-0.1
G0Z10
X-20Y-65.597
G1Z-0.158F500
Y-65.596Z-0.2
Y65.402F1000
G0Z10
X-19Y-65.797
G1Z-0.2F500
Y65.802F1000
G0Z10
X-18Y-65.997
G1Z-0.2F500
Y66.002F1000
G0Z10
X-17Y-66.397
G1Z-0.157F500
Y-66.396Z-0.2
Y66.202F1000
G0Z10
X-16Y-66.597
G1Z-0.2F500
Y66.602F1000
G0Z10
X-15Y-66.797
G1Z-0.2F500
Y66.802F1000
G0Z10
X-14Y-66.997
G1Z-0.2F500
Y67.002F1000
G0Z10
X-13Y-67.197
G1Z-0.2F500
Y67.202F1000
G0Z10
X-12Y-67.397
G1Z-0.2F500
Y67.402F1000
G0Z10
X-11Y-67.597
G1Z-0.2F500
Y67.602F1000
G0Z10
X-10Y-67.797
G1Z-0.2F500
Y67.802F1000
G0Z10
X-9Y-67.997
G1Z-0.155F500
Y-67.996Z-0.2
Y67.802F1000
G0Z10
X-8Y-67.997
G1Z-0.2F500
Y68.002F1000
G0Z10
X-7Y-68.197
G1Z-0.155F500
Y-68.196Z-0.2
Y68.002F1000
G0Z10
X-6Y-68.197
G1Z-0.2F500
Y68.202F1000
G0Z10
X-5Y-68.397
G1Z-0.154F500
Y-68.396Z-0.2
Y68.202F1000
G0Z10
X-4Y-68.397
G1Z-0.2F500
Y68.402F1000
G0Z10
X-3Y-68.597
G1Z-0.154F500
Y-68.596Z-0.2
Y68.402F1000
G0Z10
X-2Y-68.597
G1Z-0.154F500
Y-68.596Z-0.2
Y68.402F1000
G0Z10
X-1Y-68.597
G1Z-0.154F500
Y-68.596Z-0.2
Y68.402F1000
G0Z10
X0Y-68.597
G1Z-0.154F500
Y-68.596Z-0.2
Y68.402F1000
G0Z10
X1Y-68.597
G1Z-0.154F500
Y-68.596Z-0.2
Y68.402F1000
G0Z10
X2Y-68.597
G1Z-0.154F500
Y-68.596Z-0.2
Y68.402F1000
G0Z10
X3Y-68.597
G1Z-0.154F500
Y-68.596Z-0.2
Y68.402F1000
G0Z10
X4Y-68.397
G1Z-0.2F500
Y68.402F1000
G0Z10
X5Y-68.397
G1Z-0.154F500
Y-68.396Z-0.2
Y68.202F1000
G0Z10
X6Y-68.197
G1Z-0.2F500
Y68.202F1000
G0Z10
X7Y-68.197
G1Z-0.155F500
Y-68.196Z-0.2
Y68.002F1000
G0Z10
X8Y-67.997
G1Z-0.2F500
Y68.002F1000
G0Z10
X9Y-67.997
G1Z-0.155F500
Y-67.996Z-0.2
Y67.802F1000
G0Z10
X10Y-67.797
G1Z-0.2F500
Y67.802F1000
G0Z10
X11Y-67.597
G1Z-0.2F500
Y67.602F1000
G0Z10
X12Y-67.397
G1Z-0.2F500
Y67.402F1000
G0Z10
X13Y-67.197
G1Z-0.2F500
Y67.202F1000
G0Z10
X14Y-66.997
G1Z-0.2F500
Y67.002F1000
G0Z10
X15Y-66.797
G1Z-0.2F500
Y66.802F1000
G0Z10
X16Y-66.597
G1Z-0.2F500
Y66.602F1000
G0Z10
X17Y-66.397
G1Z-0.157F500
Y-66.396Z-0.2
Y66.202F1000
G0Z10
X18Y-65.997
G1Z-0.2F500
Y66.002F1000
G0Z10
X19Y-65.797
G1Z-0.2F500
Y65.802F1000
G0Z10
X20Y-65.597
G1Z-0.158F500
Y-65.596Z-0.2
Y65.402F1000
G0Z10
X21Y-65.197
G1Z-0.158F500
Y-65.196Z-0.2
Y65.002F1000
G0Z10
X22Y-64.797
G1Z-0.2F500
Y64.802F1000
G0Z10
X23Y-64.597
G1Z-0.159F500
Y-64.596Z-0.2
Y64.402F1000
G0Z10
X24Y-64.197
G1Z-0.159F500
Y-64.196Z-0.2
Y64.002F1000
G0Z10
X25Y-63.797
G1Z-0.16F500
Y-63.796Z-0.2
Y63.602F1000
G0Z10
X26Y-63.397
G1Z-0.16F500
Y-63.396Z-0.2
Y63.202F1000
G0Z10
X27Y-62.997
G1Z-0.161F500
Y-62.996Z-0.2
Y62.802F1000
G0Z10
X28Y-62.597
G1Z-0.161F500
Y-62.596Z-0.2
Y62.402F1000
G0Z10
X29Y-61.997
G1Z-0.2F500
Y62.002F1000
G0Z10
X30Y-61.597
G1Z-0.161F500
Y-61.596Z-0.2
Y61.402F1000
G0Z10
X31Y-60.997
G1Z-0.2F500
Y61.002F1000
G0Z10
X32Y-60.597
G1Z-0.161F500
Y-60.596Z-0.2
Y60.402F1000
G0Z10
X33Y-59.997
G1Z-0.2F500
Y60.002F1000
G0Z10
X34Y-59.397
G1Z-0.2F500
Y59.402F1000
G0Z10
X35Y-58.797
G1Z-0.2F500
Y58.802F1000
G0Z10
X36Y-58.197
G1Z-0.2F500
Y58.202F1000
G0Z10
X37Y-57.597
G1Z-0.2F500
Y57.602F1000
G0Z10
X38Y-56.997
G1Z-0.161F500
Y-56.996Z-0.2
Y56.802F1000
G0Z10
X39Y-56.197
G1Z-0.2F500
Y56.202F1000
G0Z10
X40Y-55.597
G1Z-0.16F500
Y-55.596Z-0.2
Y55.402F1000
G0Z10
X41Y-54.797
G1Z-0.2F500
Y54.802F1000
G0Z10
X42Y-53.997
G1Z-0.2F500
Y54.002F1000
G0Z10
X43Y-53.397
G1Z-0.16F500
Y-53.396Z-0.2
Y53.202F1000
G0Z10
X44Y-52.397
G1Z-0.2F500
Y52.402F1000
G0Z10
X45Y-51.597
G1Z-0.2F500
Y51.602F1000
G0Z10
X46Y-50.797
G1Z-0.16F500
Y-50.796Z-0.2
Y50.602F1000
G0Z10
X47Y-49.797
G1Z-0.2F500
Y49.802F1000
G0Z10
X48Y-48.797
G1Z-0.2F500
Y48.802F1000
G0Z10
X49Y-47.797
G1Z-0.2F500
Y47.802F1000
G0Z10
X50Y-46.797
G1Z-0.2F500
Y46.802F1000
G0Z10
X51Y-45.797
G1Z-0.159F500
Y-45.796Z-0.2
Y45.602F1000
G0Z10
X52Y-44.597
G1Z-0.159F500
Y-44.596Z-0.2
Y44.402F1000
G0Z10
X53Y-43.397
G1Z-0.159F500
Y-43.396Z-0.2
Y43.202F1000
G0Z10
X54Y-42.197
G1Z-0.159F500
Y-42.196Z-0.2
Y42.002F1000
G0Z10
X55Y-40.797
G1Z-0.2F500
Y40.802F1000
G0Z10
X56Y-39.397
G1Z-0.2F500
Y39.402F1000
G0Z10
X57Y-37.997
G1Z-0.158F500
Y-37.996Z-0.2
Y37.802F1000
G0Z10
X58Y-36.397
G1Z-0.2F500
Y36.402F1000
G0Z10
X59Y-34.797
G1Z-0.2F500
Y34.802F1000
G0Z10
X60Y-32.997
G1Z-0.2F500
Y33.002F1000
G0Z10
X61Y-31.197
G1Z-0.158F500
Y-31.196Z-0.2
Y31.002F1000
G0Z10
X62Y-29.197
G1Z-0.157F500
Y-29.196Z-0.2
Y29.002F1000
G0Z10
X63Y-26.997
G1Z-0.157F500
Y-26.996Z-0.2
Y26.802F1000
G0Z10
X64Y-24.397
G1Z-0.157F500
Y-24.396Z-0.2
Y24.202F1000
G0Z10
X65Y-21.597
G1Z-0.156F500
Y-21.596Z-0.2
Y21.402F1000
G0Z10
X66Y-18.397
G1Z-0.156F500
Y-18.396Z-0.2
Y18.202F1000
G0Z10
X67Y-14.197
G1Z-0.2F500
Y14.202F1000
G0Z10
X68Y-8.397
G1Z-0.2F500
Y8.402F1000
G0Z10
X-68Y-8.397
G1Z-0.3F500
Y8.402F1000
G0Z10
X-67Y-14.391
G1Z-0.2F500
Y-14.389Z-0.3
Y14.393F1000
Y14.396Z-0.2
G0Z10
X-66Y-18.396
G1Z-0.2F500
Y-18.393Z-0.3
Y18.393F1000
Y18.396Z-0.2
G0Z10
X-65Y-21.596
G1Z-0.2F500
Y-21.593Z-0.3
Y21.402F1000
G0Z10
X-64Y-24.396
G1Z-0.2F500
Y-24.393Z-0.3
Y24.202F1000
G0Z10
X-63Y-26.996
G1Z-0.2F500
Y-26.993Z-0.3
Y26.993F1000
Y26.996Z-0.2
G0Z10
X-62Y-29.196
G1Z-0.2F500
Y-29.193Z-0.3
Y29.002F1000
G0Z10
X-61Y-31.196
G1Z-0.2F500
Y-31.193Z-0.3
Y31.002F1000
G0Z10
X-60Y-32.997
G1Z-0.3F500
Y33.002F1000
G0Z10
X-59Y-34.797
G1Z-0.3F500
Y34.802F1000
G0Z10
X-58Y-36.397
G1Z-0.3F500
Y36.402F1000
G0Z10
X-57Y-37.996
G1Z-0.2F500
Y-37.993Z-0.3
Y37.802F1000
G0Z10
X-56Y-39.397
G1Z-0.3F500
Y39.402F1000
G0Z10
X-55Y-40.797
G1Z-0.3F500
Y40.802F1000
G0Z10
X-54Y-42.196
G1Z-0.2F500
Y-42.193Z-0.3
Y42.193F1000
Y42.196Z-0.2
G0Z10
X-53Y-43.396
G1Z-0.2F500
Y-43.393Z-0.3
Y43.202F1000
G0Z10
X-52Y-44.596
G1Z-0.2F500
Y-44.593Z-0.3
Y44.593F1000
Y44.596Z-0.2
G0Z10
X-51Y-45.796
G1Z-0.2F500
Y-45.793Z-0.3
Y45.602F1000
G0Z10
X-50Y-46.797
G1Z-0.3F500
Y46.802F1000
G0Z10
X-49Y-47.797
G1Z-0.3F500
Y47.802F1000
G0Z10
X-48Y-48.797
G1Z-0.3F500
Y48.802F1000
G0Z10
X-47Y-49.797
G1Z-0.3F500
Y49.802F1000
G0Z10
X-46Y-50.796
G1Z-0.2F500
Y-50.793Z-0.3
Y50.602F1000
G0Z10
X-45Y-51.597
G1Z-0.3F500
Y51.602F1000
G0Z10
X-44Y-52.397
G1Z-0.3F500
Y52.402F1000
G0Z10
X-43Y-53.396
G1Z-0.2F500
Y-53.393Z-0.3
Y53.202F1000
G0Z10
X-42Y-53.997
G1Z-0.3F500
Y54.002F1000
G0Z10
X-41Y-54.797
G1Z-0.3F500
Y54.802F1000
G0Z10
X-40Y-55.596
G1Z-0.2F500
Y-55.593Z-0.3
Y55.402F1000
G0Z10
X-39Y-56.197
G1Z-0.3F500
Y56.202F1000
G0Z10
X-38Y-56.996
G1Z-0.2F500
Y-56.993Z-0.3
Y56.993F1000
Y56.996Z-0.2
G0Z10
X-37Y-57.597
G1Z-0.3F500
Y57.602F1000
G0Z10
X-36Y-58.197
G1Z-0.3F500
Y58.202F1000
G0Z10
X-35Y-58.797
G1Z-0.3F500
Y58.802F1000
G0Z10
X-34Y-59.397
G1Z-0.3F500
Y59.402F1000
G0Z10
X-33Y-59.997
G1Z-0.3F500
Y60.002F1000
G0Z10
X-32Y-60.596
G1Z-0.2F500
Y-60.593Z-0.3
Y60.593F1000
Y60.596Z-0.2
G0Z10
X-31Y-60.997
G1Z-0.3F500
Y61.002F1000
G0Z10
X-30Y-61.596
G1Z-0.2F500
Y-61.593Z-0.3
Y61.593Z-0.299F1000
Y61.596Z-0.2
G0Z10
X-29Y-61.997
G1Z-0.3F500
Y62.002F1000
G0Z10
X-28Y-62.596
G1Z-0.2F500
Y-62.593Z-0.3
Y62.402F1000
G0Z10
X-27Y-62.996
G1Z-0.2F500
Y-62.993Z-0.3
Y62.993F1000
Y62.996Z-0.2
G0Z10
X-26Y-63.396
G1Z-0.2F500
Y-63.393Z-0.3
Y63.393F1000
Y63.396Z-0.2
G0Z10
X-25Y-63.796
G1Z-0.2F500
Y-63.793Z-0.3
Y63.793F1000
Y63.796Z-0.2
G0Z10
X-24Y-64.196
G1Z-0.2F500
Y-64.193Z-0.3
Y64.002F1000
G0Z10
X-23Y-64.596
G1Z-0.2F500
Y-64.593Z-0.3
Y64.402F1000
G0Z10
X-22Y-64.797
G1Z-0.3F500
Y64.802F1000
G0Z10
X-21Y-65.196
G1Z-0.2F500
Y-65.193Z-0.3
Y65.193F1000
Y65.196Z-0.2
G0Z10
X-20Y-65.596
G1Z-0.2F500
Y-65.593Z-0.3
Y65.402F1000
G0Z10
X-19Y-65.797
G1Z-0.3F500
Y65.802F1000
G0Z10
X-18Y-65.997
G1Z-0.3F500
Y66.002F1000
G0Z10
X-17Y-66.396
G1Z-0.2F500
Y-66.393Z-0.3
Y66.202F1000
G0Z10
X-16Y-66.597
G1Z-0.3F500
Y66.602F1000
G0Z10
X-15Y-66.797
G1Z-0.3F500
Y66.802F1000
G0Z10
X-14Y-66.997
G1Z-0.3F500
Y67.002F1000
G0Z10
X-13Y-67.197
G1Z-0.3F500
Y67.202F1000
G0Z10
X-12Y-67.397
G1Z-0.3F500
Y67.402F1000
G0Z10
X-11Y-67.597
G1Z-0.3F500
Y67.602F1000
G0Z10
X-10Y-67.797
G1Z-0.3F500
Y67.802F1000
G0Z10
X-9Y-67.996
G1Z-0.2F500
Y-67.993Z-0.3
Y67.802F1000
G0Z10
X-8Y-67.997
G1Z-0.3F500
Y68.002F1000
G0Z10
X-7Y-68.196
G1Z-0.2F500
Y-68.193Z-0.3
Y68.002F1000
G0Z10
X-6Y-68.197
G1Z-0.3F500
Y68.202F1000
G0Z10
X-5Y-68.396
G1Z-0.2F500
Y-68.393Z-0.3
Y68.202F1000
G0Z10
X-4Y-68.397
G1Z-0.3F500
Y68.402F1000
G0Z10
X-3Y-68.596
G1Z-0.2F500
Y-68.593Z-0.3
Y68.402F1000
G0Z10
X-2Y-68.596
G1Z-0.2F500
Y-68.593Z-0.3
Y68.402F1000
G0Z10
X-1Y-68.596
G1Z-0.2F500
Y-68.593Z-0.3
Y68.402F1000
G0Z10
X0Y-68.596
G1Z-0.2F500
Y-68.593Z-0.3
Y68.402F1000
G0Z10
X1Y-68.596
G1Z-0.2F500
Y-68.593Z-0.3
Y68.402F1000
G0Z10
X2Y-68.596
G1Z-0.2F500
Y-68.593Z-0.3
Y68.402F1000
G0Z10
X3Y-68.596
G1Z-0.2F500
Y-68.593Z-0.3
Y68.402F1000
G0Z10
X4Y-68.397
G1Z-0.3F500
Y68.402F1000
G0Z10
X5Y-68.396
G1Z-0.2F500
Y-68.393Z-0.3
Y68.202F1000
G0Z10
X6Y-68.197
G1Z-0.3F500
Y68.202F1000
G0Z10
X7Y-68.196
G1Z-0.2F500
Y-68.193Z-0.3
Y68.002F1000
G0Z10
X8Y-67.997
G1Z-0.3F500
Y68.002F1000
G0Z10
X9Y-67.996
G1Z-0.2F500
Y-67.993Z-0.3
Y67.802F1000
G0Z10
X10Y-67.797
G1Z-0.3F500
Y67.802F1000
G0Z10
X11Y-67.597
G1Z-0.3F500
Y67.602F1000
G0Z10
X12Y-67.397
G1Z-0.3F500
Y67.402F1000
G0Z10
X13Y-67.197
G1Z-0.3F500
Y67.202F1000
G0Z10
X14Y-66.997
G1Z-0.3F500
Y67.002F1000
G0Z10
X15Y-66.797
G1Z-0.3F500
Y66.802F1000
G0Z10
X16Y-66.597
G1Z-0.3F500
Y66.602F1000
G0Z10
X17Y-66.396
G1Z-0.2F500
Y-66.393Z-0.3
Y66.202F1000
G0Z10
X18Y-65.997
G1Z-0.3F500
Y66.002F1000
G0Z10
X19Y-65.797
G1Z-0.3F500
Y65.802F1000
G0Z10
X20Y-65.596
G1Z-0.2F500
Y-65.593Z-0.3
Y65.402F1000
G0Z10
X21Y-65.196
G1Z-0.2F500
Y-65.193Z-0.3
Y65.002F1000
G0Z10
X22Y-64.797
G1Z-0.3F500
Y64.802F1000
G0Z10
X23Y-64.596
G1Z-0.2F500
Y-64.593Z-0.3
Y64.402F1000
G0Z10
X24Y-64.196
G1Z-0.2F500
Y-64.193Z-0.3
Y64.002F1000
G0Z10
X25Y-63.796
G1Z-0.2F500
Y-63.793Z-0.3
Y63.602F1000
G0Z10
X26Y-63.396
G1Z-0.2F500
Y-63.393Z-0.3
Y63.202F1000
G0Z10
X27Y-62.996
G1Z-0.2F500
Y-62.993Z-0.3
Y62.802F1000
G0Z10
X28Y-62.596
G1Z-0.2F500
Y-62.593Z-0.3
Y62.402F1000
G0Z10
X29Y-61.997
G1Z-0.3F500
Y62.002F1000
G0Z10
X30Y-61.596
G1Z-0.2F500
Y-61.593Z-0.3
Y61.402F1000
G0Z10
X31Y-60.997
G1Z-0.3F500
Y61.002F1000
G0Z10
X32Y-60.596
G1Z-0.2F500
Y-60.593Z-0.3
Y60.402F1000
G0Z10
X33Y-59.997
G1Z-0.3F500
Y60.002F1000
G0Z10
X34Y-59.397
G1Z-0.3F500
Y59.402F1000
G0Z10
X35Y-58.797
G1Z-0.3F500
Y58.802F1000
G0Z10
X36Y-58.197
G1Z-0.3F500
Y58.202F1000
G0Z10
X37Y-57.597
G1Z-0.3F500
Y57.602F1000
G0Z10
X38Y-56.996
G1Z-0.2F500
Y-56.993Z-0.3
Y56.802F1000
G0Z10
X39Y-56.197
G1Z-0.3F500
Y56.202F1000
G0Z10
X40Y-55.596
G1Z-0.2F500
Y-55.593Z-0.3
Y55.402F1000
G0Z10
X41Y-54.797
G1Z-0.3F500
Y54.802F1000
G0Z10
X42Y-53.997
G1Z-0.3F500
Y54.002F1000
G0Z10
X43Y-53.396
G1Z-0.2F500
Y-53.393Z-0.3
Y53.202F1000
G0Z10
X44Y-52.397
G1Z-0.3F500
Y52.402F1000
G0Z10
X45Y-51.597
G1Z-0.3F500
Y51.602F1000
G0Z10
X46Y-50.796
G1Z-0.2F500
Y-50.793Z-0.3
Y50.602F1000
G0Z10
X47Y-49.797
G1Z-0.3F500
Y49.802F1000
G0Z10
X48Y-48.797
G1Z-0.3F500
Y48.802F1000
G0Z10
X49Y-47.797
G1Z-0.3F500
Y47.802F1000
G0Z10
X50Y-46.797
G1Z-0.3F500
Y46.802F1000
G0Z10
X51Y-45.796
G1Z-0.2F500
Y-45.793Z-0.3
Y45.602F1000
G0Z10
X52Y-44.596
G1Z-0.2F500
Y-44.593Z-0.3
Y44.402F1000
G0Z10
X53Y-43.396
G1Z-0.2F500
Y-43.393Z-0.3
Y43.202F1000
G0Z10
X54Y-42.196
G1Z-0.2F500
Y-42.193Z-0.3
Y42.002F1000
G0Z10
X55Y-40.797
G1Z-0.3F500
Y40.802F1000
G0Z10
X56Y-39.397
G1Z-0.3F500
Y39.402F1000
G0Z10
X57Y-37.996
G1Z-0.2F500
Y-37.993Z-0.3
Y37.802F1000
G0Z10
X58Y-36.397
G1Z-0.3F500
Y36.402F1000
G0Z10
X59Y-34.797
G1Z-0.3F500
Y34.802F1000
G0Z10
X60Y-32.997
G1Z-0.3F500
Y33.002F1000
G0Z10
X61Y-31.196
G1Z-0.2F500
Y-31.193Z-0.3
Y31.002F1000
G0Z10
X62Y-29.196
G1Z-0.2F500
Y-29.193Z-0.3
Y29.002F1000
G0Z10
X63Y-26.996
G1Z-0.2F500
Y-26.993Z-0.3
Y26.802F1000
G0Z10
X64Y-24.396
G1Z-0.2F500
Y-24.393Z-0.3
Y24.202F1000
G0Z10
X65Y-21.596
G1Z-0.2F500
Y-21.593Z-0.3
Y21.402F1000
G0Z10
X66Y-18.396
G1Z-0.2F500
Y-18.393Z-0.3
Y18.202F1000
G0Z10
X67Y-14.197
G1Z-0.3F500
Y14.202F1000
G0Z10
X68Y-8.397
G1Z-0.3F500
Y8.402F1000
G0Z10
X-68Y-8.397
G1Z-0.4F500
Y8.402F1000
G0Z10
X-67Y-14.389
G1Z-0.3F500
Y-14.386Z-0.4
Y14.39F1000
Y14.393Z-0.3
G0Z10
X-66Y-18.393
G1Z-0.3F500
Y-18.39Z-0.4
Y18.39F1000
Y18.393Z-0.3
G0Z10
X-65Y-21.593
G1Z-0.3F500
Y-21.59Z-0.4
Y21.402F1000
G0Z10
X-64Y-24.393
G1Z-0.3F500
Y-24.39Z-0.4
Y24.202F1000
G0Z10
X-63Y-26.993
G1Z-0.3F500
Y-26.99Z-0.4
Y26.99F1000
Y26.993Z-0.3
G0Z10
X-62Y-29.193
G1Z-0.3F500
Y-29.19Z-0.4
Y29.002F1000
G0Z10
X-61Y-31.193
G1Z-0.3F500
Y-31.19Z-0.4
Y31.002F1000
G0Z10
X-60Y-32.997
G1Z-0.4F500
Y33.002F1000
G0Z10
X-59Y-34.797
G1Z-0.4F500
Y34.802F1000
G0Z10
X-58Y-36.397
G1Z-0.4F500
Y36.402F1000
G0Z10
X-57Y-37.993
G1Z-0.3F500
Y-37.99Z-0.4
Y37.802F1000
G0Z10
X-56Y-39.397
G1Z-0.4F500
Y39.402F1000
G0Z10
X-55Y-40.797
G1Z-0.4F500
Y40.802F1000
G0Z10
X-54Y-42.193
G1Z-0.3F500
Y-42.19Z-0.4
Y42.19F1000
Y42.193Z-0.3
G0Z10
X-53Y-43.393
G1Z-0.3F500
Y-43.39Z-0.4
Y43.202F1000
G0Z10
X-52Y-44.593
G1Z-0.3F500
Y-44.59Z-0.4
Y44.59F1000
Y44.593Z-0.3
G0Z10
X-51Y-45.793
G1Z-0.3F500
Y-45.79Z-0.4
Y45.602F1000
G0Z10
X-50Y-46.797
G1Z-0.4F500
Y46.802F1000
G0Z10
X-49Y-47.797
G1Z-0.4F500
Y47.802F1000
G0Z10
X-48Y-48.797
G1Z-0.4F500
Y48.802F1000
G0Z10
X-47Y-49.797
G1Z-0.4F500
Y49.802F1000
G0Z10
X-46Y-50.793
G1Z-0.3F500
Y-50.79Z-0.4
Y50.602F1000
G0Z10
X-45Y-51.597
G1Z-0.4F500
Y51.602F1000
G0Z10
X-44Y-52.397
G1Z-0.4F500
Y52.402F1000
G0Z10
X-43Y-53.393
G1Z-0.3F500
Y-53.39Z-0.4
Y53.202F1000
G0Z10
X-42Y-53.997
G1Z-0.4F500
Y54.002F1000
G0Z10
X-41Y-54.797
G1Z-0.4F500
Y54.802F1000
G0Z10
X-40Y-55.593
G1Z-0.3F500
Y-55.59Z-0.4
Y55.402F1000
G0Z10
X-39Y-56.197
G1Z-0.4F500
Y56.202F1000
G0Z10
X-38Y-56.993
G1Z-0.3F500
Y-56.99Z-0.4
Y56.99F1000
Y56.993Z-0.3
G0Z10
X-37Y-57.597
G1Z-0.4F500
Y57.602F1000
G0Z10
X-36Y-58.197
G1Z-0.4F500
Y58.202F1000
G0Z10
X-35Y-58.797
G1Z-0.4F500
Y58.802F1000
G0Z10
X-34Y-59.397
G1Z-0.4F500
Y59.402F1000
G0Z10
X-33Y-59.997
G1Z-0.4F500
Y60.002F1000
G0Z10
X-32Y-60.593
G1Z-0.3F500
Y-60.59Z-0.4
Y60.59F1000
Y60.593Z-0.3
G0Z10
X-31Y-60.997
G1Z-0.4F500
Y61.002F1000
G0Z10
X-30Y-61.593
G1Z-0.3F500
Y-61.59Z-0.4
Y61.59F1000
Y61.593Z-0.299
G0Z10
X-29Y-61.997
G1Z-0.4F500
Y62.002F1000
G0Z10
X-28Y-62.593
G1Z-0.3F500
Y-62.59Z-0.4
Y62.402F1000
G0Z10
X-27Y-62.993
G1Z-0.3F500
Y-62.99Z-0.4
Y62.99F1000
Y62.993Z-0.3
G0Z10
X-26Y-63.393
G1Z-0.3F500
Y-63.39Z-0.4
Y63.39F1000
Y63.393Z-0.3
G0Z10
X-25Y-63.793
G1Z-0.3F500
Y-63.79Z-0.4
Y63.79F1000
Y63.793Z-0.3
G0Z10
X-24Y-64.193
G1Z-0.3F500
Y-64.19Z-0.4
Y64.002F1000
G0Z10
X-23Y-64.593
G1Z-0.3F500
Y-64.59Z-0.4
Y64.402F1000
G0Z10
X-22Y-64.797
G1Z-0.4F500
Y64.802F1000
G0Z10
X-21Y-65.193
G1Z-0.3F500
Y-65.19Z-0.4
Y65.19F1000
Y65.193Z-0.3
G0Z10
X-20Y-65.593
G1Z-0.3F500
Y-65.59Z-0.4
Y65.402F1000
G0Z10
X-19Y-65.797
G1Z-0.4F500
Y65.802F1000
G0Z10
X-18Y-65.997
G1Z-0.4F500
Y66.002F1000
G0Z10
X-17Y-66.393
G1Z-0.3F500
Y-66.39Z-0.4
Y66.202F1000
G0Z10
X-16Y-66.597
G1Z-0.4F500
Y66.602F1000
G0Z10
X-15Y-66.797
G1Z-0.4F500
Y66.802F1000
G0Z10
X-14Y-66.997
G1Z-0.4F500
Y67.002F1000
G0Z10
X-13Y-67.197
G1Z-0.4F500
Y67.202F1000
G0Z10
X-12Y-67.397
G1Z-0.4F500
Y67.402F1000
G0Z10
X-11Y-67.597
G1Z-0.4F500
Y67.602F1000
G0Z10
X-10Y-67.797
G1Z-0.4F500
Y67.802F1000
G0Z10
X-9Y-67.993
G1Z-0.3F500
Y-67.99Z-0.4
Y67.802F1000
G0Z10
X-8Y-67.997
G1Z-0.4F500
Y68.002F1000
G0Z10
X-7Y-68.193
G1Z-0.3F500
Y-68.19Z-0.4
Y68.002F1000
G0Z10
X-6Y-68.197
G1Z-0.4F500
Y68.202F1000
G0Z10
X-5Y-68.393
G1Z-0.3F500
Y-68.39Z-0.4
Y68.202F1000
G0Z10
X-4Y-68.397
G1Z-0.4F500
Y68.402F1000
G0Z10
X-3Y-68.593
G1Z-0.3F500
Y-68.59Z-0.4
Y68.402F1000
G0Z10
X-2Y-68.593
G1Z-0.3F500
Y-68.59Z-0.4
Y68.402F1000
G0Z10
X-1Y-68.593
G1Z-0.3F500
Y-68.59Z-0.4
Y68.402F1000
G0Z10
X0Y-68.593
G1Z-0.3F500
Y-68.59Z-0.4
Y68.402F1000
G0Z10
X1Y-68.593
G1Z-0.3F500
Y-68.59Z-0.4
Y68.402F1000
G0Z10
X2Y-68.593
G1Z-0.3F500
Y-68.59Z-0.4
Y68.402F1000
G0Z10
X3Y-68.593
G1Z-0.3F500
Y-68.59Z-0.4
Y68.402F1000
G0Z10
X4Y-68.397
G1Z-0.4F500
Y68.402F1000
G0Z10
X5Y-68.393
G1Z-0.3F500
Y-68.39Z-0.4
Y68.202F1000
G0Z10
X6Y-68.197
G1Z-0.4F500
Y68.202F1000
G0Z10
X7Y-68.193
G1Z-0.3F500
Y-68.19Z-0.4
Y68.002F1000
G0Z10
X8Y-67.997
G1Z-0.4F500
Y68.002F1000
G0Z10
X9Y-67.993
G1Z-0.3F500
Y-67.99Z-0.4
Y67.802F1000
G0Z10
X10Y-67.797
G1Z-0.4F500
Y67.802F1000
G0Z10
X11Y-67.597
G1Z-0.4F500
Y67.602F1000
G0Z10
X12Y-67.397
G1Z-0.4F500
Y67.402F1000
G0Z10
X13Y-67.197
G1Z-0.4F500
Y67.202F1000
G0Z10
X14Y-66.997
G1Z-0.4F500
Y67.002F1000
G0Z10
X15Y-66.797
G1Z-0.4F500
Y66.802F1000
G0Z10
X16Y-66.597
G1Z-0.4F500
Y66.602F1000
G0Z10
X17Y-66.393
G1Z-0.3F500
Y-66.39Z-0.4
Y66.202F1000
G0Z10
X18Y-65.997
G1Z-0.4F500
Y66.002F1000
G0Z10
X19Y-65.797
G1Z-0.4F500
Y65.802F1000
G0Z10
X20Y-65.593
G1Z-0.3F500
Y-65.59Z-0.4
Y65.402F1000
G0Z10
X21Y-65.193
G1Z-0.3F500
Y-65.19Z-0.4
Y65.002F1000
G0Z10
X22Y-64.797
G1Z-0.4F500
Y64.802F1000
G0Z10
X23Y-64.593
G1Z-0.3F500
Y-64.59Z-0.4
Y64.402F1000
G0Z10
X24Y-64.193
G1Z-0.3F500
Y-64.19Z-0.4
Y64.002F1000
G0Z10
X25Y-63.793
G1Z-0.3F500
Y-63.79Z-0.4
Y63.602F1000
G0Z10
X26Y-63.393
G1Z-0.3F500
Y-63.39Z-0.4
Y63.202F1000
G0Z10
X27Y-62.993
G1Z-0.3F500
Y-62.99Z-0.4
Y62.802F1000
G0Z10
X28Y-62.593
G1Z-0.3F500
Y-62.59Z-0.4
Y62.402F1000
G0Z10
X29Y-61.997
G1Z-0.4F500
Y62.002F1000
G0Z10
X30Y-61.593
G1Z-0.3F500
Y-61.59Z-0.4
Y61.402F1000
G0Z10
X31Y-60.997
G1Z-0.4F500
Y61.002F1000
G0Z10
X32Y-60.593
G1Z-0.3F500
Y-60.59Z-0.4
Y60.402F1000
G0Z10
X33Y-59.997
G1Z-0.4F500
Y60.002F1000
G0Z10
X34Y-59.397
G1Z-0.4F500
Y59.402F1000
G0Z10
X35Y-58.797
G1Z-0.4F500
Y58.802F1000
G0Z10
X36Y-58.197
G1Z-0.4F500
Y58.202F1000
G0Z10
X37Y-57.597
G1Z-0.4F500
Y57.602F1000
G0Z10
X38Y-56.993
G1Z-0.3F500
Y-56.99Z-0.4
Y56.802F1000
G0Z10
X39Y-56.197
G1Z-0.4F500
Y56.202F1000
G0Z10
X40Y-55.593
G1Z-0.3F500
Y-55.59Z-0.4
Y55.402F1000
G0Z10
X41Y-54.797
G1Z-0.4F500
Y54.802F1000
G0Z10
X42Y-53.997
G1Z-0.4F500
Y54.002F1000
G0Z10
X43Y-53.393
G1Z-0.3F500
Y-53.39Z-0.4
Y53.202F1000
G0Z10
X44Y-52.397
G1Z-0.4F500
Y52.402F1000
G0Z10
X45Y-51.597
G1Z-0.4F500
Y51.602F1000
G0Z10
X46Y-50.793
G1Z-0.3F500
Y-50.79Z-0.4
Y50.602F1000
G0Z10
X47Y-49.797
G1Z-0.4F500
Y49.802F1000
G0Z10
X48Y-48.797
G1Z-0.4F500
Y48.802F1000
G0Z10
X49Y-47.797
G1Z-0.4F500
Y47.802F1000
G0Z10
X50Y-46.797
G1Z-0.4F500
Y46.802F1000
G0Z10
X51Y-45.793
G1Z-0.3F500
Y-45.79Z-0.4
Y45.602F1000
G0Z10
X52Y-44.593
G1Z-0.3F500
Y-44.59Z-0.4
Y44.402F1000
G0Z10
X53Y-43.393
G1Z-0.3F500
Y-43.39Z-0.4
Y43.202F1000
G0Z10
X54Y-42.193
G1Z-0.3F500
Y-42.19Z-0.4
Y42.002F1000
G0Z10
X55Y-40.797
G1Z-0.4F500
Y40.802F1000
G0Z10
X56Y-39.397
G1Z-0.4F500
Y39.402F1000
G0Z10
X57Y-37.993
G1Z-0.3F500
Y-37.99Z-0.4
Y37.802F1000
G0Z10
X58Y-36.397
G1Z-0.4F500
Y36.402F1000
G0Z10
X59Y-34.797
G1Z-0.4F500
Y34.802F1000
G0Z10
X60Y-32.997
G1Z-0.4F500
Y33.002F1000
G0Z10
X61Y-31.193
G1Z-0.3F500
Y-31.19Z-0.4
Y31.002F1000
G0Z10
X62Y-29.193
G1Z-0.3F500
Y-29.19Z-0.4
Y29.002F1000
G0Z10
X63Y-26.993
G1Z-0.3F500
Y-26.99Z-0.4
Y26.802F1000
G0Z10
X64Y-24.393
G1Z-0.3F500
Y-24.39Z-0.4
Y24.202F1000
G0Z10
X65Y-21.593
G1Z-0.3F500
Y-21.59Z-0.4
Y21.402F1000
G0Z10
X66Y-18.393
G1Z-0.3F500
Y-18.39Z-0.4
Y18.202F1000
G0Z10
X67Y-14.197
G1Z-0.4F500
Y14.202F1000
G0Z10
X68Y-8.397
G1Z-0.4F500
Y8.402F1000
G0Z10
X-68Y-8.397
G1Z-0.5F500
Y8.402F1000
G0Z10
X-67Y-14.386
G1Z-0.4F500
Y-14.383Z-0.5
Y14.387F1000
Y14.39Z-0.4
G0Z10
X-66Y-18.39
G1Z-0.4F500
Y-18.387Z-0.5
Y18.387F1000
Y18.39Z-0.4
G0Z10
X-65Y-21.59
G1Z-0.4F500
Y-21.587Z-0.5
Y21.402F1000
G0Z10
X-64Y-24.39
G1Z-0.4F500
Y-24.387Z-0.5
Y24.202F1000
G0Z10
X-63Y-26.99
G1Z-0.4F500
Y-26.987Z-0.5
Y26.987F1000
Y26.99Z-0.4
G0Z10
X-62Y-29.19
G1Z-0.4F500
Y-29.187Z-0.5
Y29.002F1000
G0Z10
X-61Y-31.19
G1Z-0.4F500
Y-31.187Z-0.5
Y31.002F1000
G0Z10
X-60Y-32.997
G1Z-0.5F500
Y33.002F1000
G0Z10
X-59Y-34.797
G1Z-0.5F500
Y34.802F1000
G0Z10
X-58Y-36.397
G1Z-0.5F500
Y36.402F1000
G0Z10
X-57Y-37.99
G1Z-0.4F500
Y-37.987Z-0.5
Y37.802F1000
G0Z10
X-56Y-39.397
G1Z-0.5F500
Y39.402F1000
G0Z10
X-55Y-40.797
G1Z-0.5F500
Y40.802F1000
G0Z10
X-54Y-42.19
G1Z-0.4F500
Y-42.187Z-0.5
Y42.187F1000
Y42.19Z-0.4
G0Z10
X-53Y-43.39
G1Z-0.4F500
Y-43.387Z-0.5
Y43.202F1000
G0Z10
X-52Y-44.59
G1Z-0.4F500
Y-44.587Z-0.5
Y44.587F1000
Y44.59Z-0.4
G0Z10
X-51Y-45.79
G1Z-0.4F500
Y-45.787Z-0.5
Y45.602F1000
G0Z10
X-50Y-46.797
G1Z-0.5F500
Y46.802F1000
G0Z10
X-49Y-47.797
G1Z-0.5F500
Y47.802F1000
G0Z10
X-48Y-48.797
G1Z-0.5F500
Y48.802F1000
G0Z10
X-47Y-49.797
G1Z-0.5F500
Y49.802F1000
G0Z10
X-46Y-50.79
G1Z-0.4F500
Y-50.787Z-0.5
Y50.602F1000
G0Z10
X-45Y-51.597
G1Z-0.5F500
Y51.602F1000
G0Z10
X-44Y-52.397
G1Z-0.5F500
Y52.402F1000
G0Z10
X-43Y-53.39
G1Z-0.4F500
Y-53.387Z-0.5
Y53.202F1000
G0Z10
X-42Y-53.997
G1Z-0.5F500
Y54.002F1000
G0Z10
X-41Y-54.797
G1Z-0.5F500
Y54.802F1000
G0Z10
X-40Y-55.59
G1Z-0.4F500
Y-55.587Z-0.5
Y55.402F1000
G0Z10
X-39Y-56.197
G1Z-0.5F500
Y56.202F1000
G0Z10
X-38Y-56.99
G1Z-0.4F500
Y-56.987Z-0.5
Y56.987F1000
Y56.99Z-0.4
G0Z10
X-37Y-57.597
G1Z-0.5F500
Y57.602F1000
G0Z10
X-36Y-58.197
G1Z-0.5F500
Y58.202F1000
G0Z10
X-35Y-58.797
G1Z-0.5F500
Y58.802F1000
G0Z10
X-34Y-59.397
G1Z-0.5F500
Y59.402F1000
G0Z10
X-33Y-59.997
G1Z-0.5F500
Y60.002F1000
G0Z10
X-32Y-60.59
G1Z-0.4F500
Y-60.587Z-0.5
Y60.587F1000
Y60.59Z-0.4
G0Z10
X-31Y-60.997
G1Z-0.5F500
Y61.002F1000
G0Z10
X-30Y-61.59
G1Z-0.4F500
Y-61.587Z-0.5
Y61.587F1000
Y61.59Z-0.4
G0Z10
X-29Y-61.997
G1Z-0.5F500
Y62.002F1000
G0Z10
X-28Y-62.59
G1Z-0.4F500
Y-62.587Z-0.5
Y62.402F1000
G0Z10
X-27Y-62.99
G1Z-0.4F500
Y-62.987Z-0.5
Y62.987F1000
Y62.99Z-0.4
G0Z10
X-26Y-63.39
G1Z-0.4F500
Y-63.387Z-0.5
Y63.387F1000
Y63.39Z-0.4
G0Z10
X-25Y-63.79
G1Z-0.4F500
Y-63.787Z-0.5
Y63.787F1000
Y63.79Z-0.4
G0Z10
X-24Y-64.19
G1Z-0.4F500
Y-64.187Z-0.5
Y64.002F1000
G0Z10
X-23Y-64.59
G1Z-0.4F500
Y-64.587Z-0.5
Y64.402F1000
G0Z10
X-22Y-64.797
G1Z-0.5F500
Y64.802F1000
G0Z10
X-21Y-65.19
G1Z-0.4F500
Y-65.187Z-0.5
Y65.187F1000
Y65.19Z-0.4
G0Z10
X-20Y-65.59
G1Z-0.4F500
Y-65.587Z-0.5
Y65.402F1000
G0Z10
X-19Y-65.797
G1Z-0.5F500
Y65.802F1000
G0Z10
X-18Y-65.997
G1Z-0.5F500
Y66.002F1000
G0Z10
X-17Y-66.39
G1Z-0.4F500
Y-66.387Z-0.5
Y66.202F1000
G0Z10
X-16Y-66.597
G1Z-0.5F500
Y66.602F1000
G0Z10
X-15Y-66.797
G1Z-0.5F500
Y66.802F1000
G0Z10
X-14Y-66.997
G1Z-0.5F500
Y67.002F1000
G0Z10
X-13Y-67.197
G1Z-0.5F500
Y67.202F1000
G0Z10
X-12Y-67.397
G1Z-0.5F500
Y67.402F1000
G0Z10
X-11Y-67.597
G1Z-0.5F500
Y67.602F1000
G0Z10
X-10Y-67.797
G1Z-0.5F500
Y67.802F1000
G0Z10
X-9Y-67.99
G1Z-0.4F500
Y-67.987Z-0.5
Y67.802F1000
G0Z10
X-8Y-67.997
G1Z-0.5F500
Y68.002F1000
G0Z10
X-7Y-68.19
G1Z-0.4F500
Y-68.187Z-0.5
Y68.002F1000
G0Z10
X-6Y-68.197
G1Z-0.5F500
Y68.202F1000
G0Z10
X-5Y-68.39
G1Z-0.4F500
Y-68.387Z-0.5
Y68.202F1000
G0Z10
X-4Y-68.397
G1Z-0.5F500
Y68.402F1000
G0Z10
X-3Y-68.59
G1Z-0.4F500
Y-68.587Z-0.5
Y68.402F1000
G0Z10
X-2Y-68.59
G1Z-0.4F500
Y-68.587Z-0.5
Y68.402F1000
G0Z10
X-1Y-68.59
G1Z-0.4F500
Y-68.587Z-0.5
Y68.402F1000
G0Z10
X0Y-68.59
G1Z-0.4F500
Y-68.587Z-0.5
Y68.402F1000
G0Z10
X1Y-68.59
G1Z-0.4F500
Y-68.587Z-0.5
Y68.402F1000
G0Z10
X2Y-68.59
G1Z-0.4F500
Y-68.587Z-0.5
Y68.402F1000
G0Z10
X3Y-68.59
G1Z-0.4F500
Y-68.587Z-0.5
Y68.402F1000
G0Z10
X4Y-68.397
G1Z-0.5F500
Y68.402F1000
G0Z10
X5Y-68.39
G1Z-0.4F500
Y-68.387Z-0.5
Y68.202F1000
G0Z10
X6Y-68.197
G1Z-0.5F500
Y68.202F1000
G0Z10
X7Y-68.19
G1Z-0.4F500
Y-68.187Z-0.5
Y68.002F1000
G0Z10
X8Y-67.997
G1Z-0.5F500
Y68.002F1000
G0Z10
X9Y-67.99
G1Z-0.4F500
Y-67.987Z-0.5
Y67.802F1000
G0Z10
X10Y-67.797
G1Z-0.5F500
Y67.802F1000
G0Z10
X11Y-67.597
G1Z-0.5F500
Y67.602F1000
G0Z10
X12Y-67.397
G1Z-0.5F500
Y67.402F1000
G0Z10
X13Y-67.197
G1Z-0.5F500
Y67.202F1000
G0Z10
X14Y-66.997
G1Z-0.5F500
Y67.002F1000
G0Z10
X15Y-66.797
G1Z-0.5F500
Y66.802F1000
G0Z10
X16Y-66.597
G1Z-0.5F500
Y66.602F1000
G0Z10
X17Y-66.39
G1Z-0.4F500
Y-66.387Z-0.5
Y66.202F1000
G0Z10
X18Y-65.997
G1Z-0.5F500
Y66.002F1000
G0Z10
X19Y-65.797
G1Z-0.5F500
Y65.802F1000
G0Z10
X20Y-65.59
G1Z-0.4F500
Y-65.587Z-0.5
Y65.402F1000
G0Z10
X21Y-65.19
G1Z-0.4F500
Y-65.187Z-0.5
Y65.002F1000
G0Z10
X22Y-64.797
G1Z-0.5F500
Y64.802F1000
G0Z10
X23Y-64.59
G1Z-0.4F500
Y-64.587Z-0.5
Y64.402F1000
G0Z10
X24Y-64.19
G1Z-0.4F500
Y-64.187Z-0.5
Y64.002F1000
G0Z10
X25Y-63.79
G1Z-0.4F500
Y-63.787Z-0.5
Y63.602F1000
G0Z10
X26Y-63.39
G1Z-0.4F500
Y-63.387Z-0.5
Y63.202F1000
G0Z10
X27Y-62.99
G1Z-0.4F500
Y-62.987Z-0.5
Y62.802F1000
G0Z10
X28Y-62.59
G1Z-0.4F500
Y-62.587Z-0.5
Y62.402F1000
G0Z10
X29Y-61.997
G1Z-0.5F500
Y62.002F1000
G0Z10
X30Y-61.59
G1Z-0.4F500
Y-61.587Z-0.5
Y61.402F1000
G0Z10
X31Y-60.997
G1Z-0.5F500
Y61.002F1000
G0Z10
X32Y-60.59
G1Z-0.4F500
Y-60.587Z-0.5
Y60.402F1000
G0Z10
X33Y-59.997
G1Z-0.5F500
Y60.002F1000
G0Z10
X34Y-59.397
G1Z-0.5F500
Y59.402F1000
G0Z10
X35Y-58.797
G1Z-0.5F500
Y58.802F1000
G0Z10
X36Y-58.197
G1Z-0.5F500
Y58.202F1000
G0Z10
X37Y-57.597
G1Z-0.5F500
Y57.602F1000
G0Z10
X38Y-56.99
G1Z-0.4F500
Y-56.987Z-0.5
Y56.802F1000
G0Z10
X39Y-56.197
G1Z-0.5F500
Y56.202F1000
G0Z10
X40Y-55.59
G1Z-0.4F500
Y-55.587Z-0.5
Y55.402F1000
G0Z10
X41Y-54.797
G1Z-0.5F500
Y54.802F1000
G0Z10
X42Y-53.997
G1Z-0.5F500
Y54.002F1000
G0Z10
X43Y-53.39
G1Z-0.4F500
Y-53.387Z-0.5
Y53.202F1000
G0Z10
X44Y-52.397
G1Z-0.5F500
Y52.402F1000
G0Z10
X45Y-51.597
G1Z-0.5F500
Y51.602F1000
G0Z10
X46Y-50.79
G1Z-0.4F500
Y-50.787Z-0.5
Y50.602F1000
G0Z10
X47Y-49.797
G1Z-0.5F500
Y49.802F1000
G0Z10
X48Y-48.797
G1Z-0.5F500
Y48.802F1000
G0Z10
X49Y-47.797
G1Z-0.5F500
Y47.802F1000
G0Z10
X50Y-46.797
G1Z-0.5F500
Y46.802F1000
G0Z10
X51Y-45.79
G1Z-0.4F500
Y-45.787Z-0.5
Y45.602F1000
G0Z10
X52Y-44.59
G1Z-0.4F500
Y-44.587Z-0.5
Y44.402F1000
G0Z10
X53Y-43.39
G1Z-0.4F500
Y-43.387Z-0.5
Y43.202F1000
G0Z10
X54Y-42.19
G1Z-0.4F500
Y-42.187Z-0.5
Y42.002F1000
G0Z10
X55Y-40.797
G1Z-0.5F500
Y40.802F1000
G0Z10
X56Y-39.397
G1Z-0.5F500
Y39.402F1000
G0Z10
X57Y-37.99
G1Z-0.4F500
Y-37.987Z-0.5
Y37.802F1000
G0Z10
X58Y-36.397
G1Z-0.5F500
Y36.402F1000
G0Z10
X59Y-34.797
G1Z-0.5F500
Y34.802F1000
G0Z10
X60Y-32.997
G1Z-0.5F500
Y33.002F1000
G0Z10
X61Y-31.19
G1Z-0.4F500
Y-31.187Z-0.5
Y31.002F1000
G0Z10
X62Y-29.19
G1Z-0.4F500
Y-29.187Z-0.5
Y29.002F1000
G0Z10
X63Y-26.99
G1Z-0.4F500
Y-26.987Z-0.5
Y26.802F1000
G0Z10
X64Y-24.39
G1Z-0.4F500
Y-24.387Z-0.5
Y24.202F1000
G0Z10
X65Y-21.59
G1Z-0.4F500
Y-21.587Z-0.5
Y21.402F1000
G0Z10
X66Y-18.39
G1Z-0.4F500
Y-18.387Z-0.5
Y18.202F1000
G0Z10
X67Y-14.197
G1Z-0.5F500
Y14.202F1000
G0Z10
X68Y-8.397
G1Z-0.5F500
Y8.402F1000
G0Z10
X-68Y-8.397
G1Z-0.6F500
Y8.402F1000
G0Z10
X-67Y-14.383
G1Z-0.5F500
Y-14.38Z-0.6
Y14.384F1000
Y14.387Z-0.5
G0Z10
X-66Y-18.387
G1Z-0.5F500
Y-18.384Z-0.6
Y18.384F1000
Y18.387Z-0.5
G0Z10
X-65Y-21.587
G1Z-0.5F500
Y-21.584Z-0.6
Y21.402F1000
G0Z10
X-64Y-24.387
G1Z-0.5F500
Y-24.384Z-0.6
Y24.202F1000
G0Z10
X-63Y-26.987
G1Z-0.5F500
Y-26.984Z-0.6
Y26.984F1000
Y26.987Z-0.5
G0Z10
X-62Y-29.187
G1Z-0.5F500
Y-29.184Z-0.6
Y29.002F1000
G0Z10
X-61Y-31.187
G1Z-0.5F500
Y-31.184Z-0.6
Y31.002F1000
G0Z10
X-60Y-32.997
G1Z-0.6F500
Y33.002F1000
G0Z10
X-59Y-34.797
G1Z-0.6F500
Y34.802F1000
G0Z10
X-58Y-36.397
G1Z-0.6F500
Y36.402F1000
G0Z10
X-57Y-37.987
G1Z-0.5F500
Y-37.984Z-0.6
Y37.802F1000
G0Z10
X-56Y-39.397
G1Z-0.6F500
Y39.402F1000
G0Z10
X-55Y-40.797
G1Z-0.6F500
Y40.802F1000
G0Z10
X-54Y-42.187
G1Z-0.5F500
Y-42.184Z-0.6
Y42.184F1000
Y42.187Z-0.5
G0Z10
X-53Y-43.387
G1Z-0.5F500
Y-43.384Z-0.6
Y43.202F1000
G0Z10
X-52Y-44.587
G1Z-0.5F500
Y-44.584Z-0.6
Y44.584F1000
Y44.587Z-0.5
G0Z10
X-51Y-45.787
G1Z-0.5F500
Y-45.784Z-0.6
Y45.602F1000
G0Z10
X-50Y-46.797
G1Z-0.6F500
Y46.802F1000
G0Z10
X-49Y-47.797
G1Z-0.6F500
Y47.802F1000
G0Z10
X-48Y-48.797
G1Z-0.6F500
Y48.802F1000
G0Z10
X-47Y-49.797
G1Z-0.6F500
Y49.802F1000
G0Z10
X-46Y-50.787
G1Z-0.5F500
Y-50.784Z-0.6
Y50.602F1000
G0Z10
X-45Y-51.597
G1Z-0.6F500
Y51.602F1000
G0Z10
X-44Y-52.397
G1Z-0.6F500
Y52.402F1000
G0Z10
X-43Y-53.387
G1Z-0.5F500
Y-53.384Z-0.6
Y53.202F1000
G0Z10
X-42Y-53.997
G1Z-0.6F500
Y54.002F1000
G0Z10
X-41Y-54.797
G1Z-0.6F500
Y54.802F1000
G0Z10
X-40Y-55.587
G1Z-0.5F500
Y-55.584Z-0.6
Y55.402F1000
G0Z10
X-39Y-56.197
G1Z-0.6F500
Y56.202F1000
G0Z10
X-38Y-56.987
G1Z-0.5F500
Y-56.984Z-0.6
Y56.984F1000
Y56.987Z-0.5
G0Z10
X-37Y-57.597
G1Z-0.6F500
Y57.602F1000
G0Z10
X-36Y-58.197
G1Z-0.6F500
Y58.202F1000
G0Z10
X-35Y-58.797
G1Z-0.6F500
Y58.802F1000
G0Z10
X-34Y-59.397
G1Z-0.6F500
Y59.402F1000
G0Z10
X-33Y-59.997
G1Z-0.6F500
Y60.002F1000
G0Z10
X-32Y-60.587
G1Z-0.5F500
Y-60.584Z-0.6
Y60.584F1000
Y60.587Z-0.5
G0Z10
X-31Y-60.997
G1Z-0.6F500
Y61.002F1000
G0Z10
X-30Y-61.587
G1Z-0.5F500
Y-61.584Z-0.6
Y61.584F1000
Y61.587Z-0.5
G0Z10
X-29Y-61.997
G1Z-0.6F500
Y62.002F1000
G0Z10
X-28Y-62.587
G1Z-0.5F500
Y-62.584Z-0.6
Y62.402F1000
G0Z10
X-27Y-62.987
G1Z-0.5F500
Y-62.984Z-0.6
Y62.984F1000
Y62.987Z-0.5
G0Z10
X-26Y-63.387
G1Z-0.5F500
Y-63.384Z-0.6
Y63.384F1000
Y63.387Z-0.5
G0Z10
X-25Y-63.787
G1Z-0.5F500
Y-63.784Z-0.6
Y63.784F1000
Y63.787Z-0.5
G0Z10
X-24Y-64.187
G1Z-0.5F500
Y-64.184Z-0.6
Y64.002F1000
G0Z10
X-23Y-64.587
G1Z-0.5F500
Y-64.584Z-0.6
Y64.402F1000
G0Z10
X-22Y-64.797
G1Z-0.6F500
Y64.802F1000
G0Z10
X-21Y-65.187
G1Z-0.5F500
Y-65.184Z-0.6
Y65.184F1000
Y65.187Z-0.5
G0Z10
X-20Y-65.587
G1Z-0.5F500
Y-65.584Z-0.6
Y65.402F1000
G0Z10
X-19Y-65.797
G1Z-0.6F500
Y65.802F1000
G0Z10
X-18Y-65.997
G1Z-0.6F500
Y66.002F1000
G0Z10
X-17Y-66.387
G1Z-0.5F500
Y-66.384Z-0.6
Y66.202F1000
G0Z10
X-16Y-66.597
G1Z-0.6F500
Y66.602F1000
G0Z10
X-15Y-66.797
G1Z-0.6F500
Y66.802F1000
G0Z10
X-14Y-66.997
G1Z-0.6F500
Y67.002F1000
G0Z10
X-13Y-67.197
G1Z-0.6F500
Y67.202F1000
G0Z10
X-12Y-67.397
G1Z-0.6F500
Y67.402F1000
G0Z10
X-11Y-67.597
G1Z-0.6F500
Y67.602F1000
G0Z10
X-10Y-67.797
G1Z-0.6F500
Y67.802F1000
G0Z10
X-9Y-67.987
G1Z-0.5F500
Y-67.984Z-0.6
Y67.802F1000
G0Z10
X-8Y-67.997
G1Z-0.6F500
Y68.002F1000
G0Z10
X-7Y-68.187
G1Z-0.5F500
Y-68.184Z-0.6
Y68.002F1000
G0Z10
X-6Y-68.197
G1Z-0.6F500
Y68.202F1000
G0Z10
X-5Y-68.387
G1Z-0.5F500
Y-68.384Z-0.6
Y68.202F1000
G0Z10
X-4Y-68.397
G1Z-0.6F500
Y68.402F1000
G0Z10
X-3Y-68.587
G1Z-0.5F500
Y-68.584Z-0.6
Y68.402F1000
G0Z10
X-2Y-68.587
G1Z-0.5F500
Y-68.584Z-0.6
Y68.402F1000
G0Z10
X-1Y-68.587
G1Z-0.5F500
Y-68.584Z-0.6
Y68.402F1000
G0Z10
X0Y-68.587
G1Z-0.5F500
Y-68.584Z-0.6
Y68.402F1000
G0Z10
X1Y-68.587
G1Z-0.5F500
Y-68.584Z-0.6
Y68.402F1000
G0Z10
X2Y-68.587
G1Z-0.5F500
Y-68.584Z-0.6
Y68.402F1000
G0Z10
X3Y-68.587
G1Z-0.5F500
Y-68.584Z-0.6
Y68.402F1000
G0Z10
X4Y-68.397
G1Z-0.6F500
Y68.402F1000
G0Z10
X5Y-68.387
G1Z-0.5F500
Y-68.384Z-0.6
Y68.202F1000
G0Z10
X6Y-68.197
G1Z-0.6F500
Y68.202F1000
G0Z10
X7Y-68.187
G1Z-0.5F500
Y-68.184Z-0.6
Y68.002F1000
G0Z10
X8Y-67.997
G1Z-0.6F500
Y68.002F1000
G0Z10
X9Y-67.987
G1Z-0.5F500
Y-67.984Z-0.6
Y67.802F1000
G0Z10
X10Y-67.797
G1Z-0.6F500
Y67.802F1000
G0Z10
X11Y-67.597
G1Z-0.6F500
Y67.602F1000
G0Z10
X12Y-67.397
G1Z-0.6F500
Y67.402F1000
G0Z10
X13Y-67.197
G1Z-0.6F500
Y67.202F1000
G0Z10
X14Y-66.997
G1Z-0.6F500
Y67.002F1000
G0Z10
X15Y-66.797
G1Z-0.6F500
Y66.802F1000
G0Z10
X16Y-66.597
G1Z-0.6F500
Y66.602F1000
G0Z10
X17Y-66.387
G1Z-0.5F500
Y-66.384Z-0.6
Y66.202F1000
G0Z10
X18Y-65.997
G1Z-0.6F500
Y66.002F1000
G0Z10
X19Y-65.797
G1Z-0.6F500
Y65.802F1000
G0Z10
X20Y-65.587
G1Z-0.5F500
Y-65.584Z-0.6
Y65.402F1000
G0Z10
X21Y-65.187
G1Z-0.5F500
Y-65.184Z-0.6
Y65.002F1000
G0Z10
X22Y-64.797
G1Z-0.6F500
Y64.802F1000
G0Z10
X23Y-64.587
G1Z-0.5F500
Y-64.584Z-0.6
Y64.402F1000
G0Z10
X24Y-64.187
G1Z-0.5F500
Y-64.184Z-0.6
Y64.002F1000
G0Z10
X25Y-63.787
G1Z-0.5F500
Y-63.784Z-0.6
Y63.602F1000
G0Z10
X26Y-63.387
G1Z-0.5F500
Y-63.384Z-0.6
Y63.202F1000
G0Z10
X27Y-62.987
G1Z-0.5F500
Y-62.984Z-0.6
Y62.802F1000
G0Z10
X28Y-62.587
G1Z-0.5F500
Y-62.584Z-0.6
Y62.402F1000
G0Z10
X29Y-61.997
G1Z-0.6F500
Y62.002F1000
G0Z10
X30Y-61.587
G1Z-0.5F500
Y-61.584Z-0.6
Y61.402F1000
G0Z10
X31Y-60.997
G1Z-0.6F500
Y61.002F1000
G0Z10
X32Y-60.587
G1Z-0.5F500
Y-60.584Z-0.6
Y60.402F1000
G0Z10
X33Y-59.997
G1Z-0.6F500
Y60.002F1000
G0Z10
X34Y-59.397
G1Z-0.6F500
Y59.402F1000
G0Z10
X35Y-58.797
G1Z-0.6F500
Y58.802F1000
G0Z10
X36Y-58.197
G1Z-0.6F500
Y58.202F1000
G0Z10
X37Y-57.597
G1Z-0.6F500
Y57.602F1000
G0Z10
X38Y-56.987
G1Z-0.5F500
Y-56.984Z-0.6
Y56.802F1000
G0Z10
X39Y-56.197
G1Z-0.6F500
Y56.202F1000
G0Z10
X40Y-55.587
G1Z-0.5F500
Y-55.584Z-0.6
Y55.402F1000
G0Z10
X41Y-54.797
G1Z-0.6F500
Y54.802F1000
G0Z10
X42Y-53.997
G1Z-0.6F500
Y54.002F1000
G0Z10
X43Y-53.387
G1Z-0.5F500
Y-53.384Z-0.6
Y53.202F1000
G0Z10
X44Y-52.397
G1Z-0.6F500
Y52.402F1000
G0Z10
X45Y-51.597
G1Z-0.6F500
Y51.602F1000
G0Z10
X46Y-50.787
G1Z-0.5F500
Y-50.784Z-0.6
Y50.602F1000
G0Z10
X47Y-49.797
G1Z-0.6F500
Y49.802F1000
G0Z10
X48Y-48.797
G1Z-0.6F500
Y48.802F1000
G0Z10
X49Y-47.797
G1Z-0.6F500
Y47.802F1000
G0Z10
X50Y-46.797
G1Z-0.6F500
Y46.802F1000
G0Z10
X51Y-45.787
G1Z-0.5F500
Y-45.784Z-0.6
Y45.602F1000
G0Z10
X52Y-44.587
G1Z-0.5F500
Y-44.584Z-0.6
Y44.402F1000
G0Z10
X53Y-43.387
G1Z-0.5F500
Y-43.384Z-0.6
Y43.202F1000
G0Z10
X54Y-42.187
G1Z-0.5F500
Y-42.184Z-0.6
Y42.002F1000
G0Z10
X55Y-40.797
G1Z-0.6F500
Y40.802F1000
G0Z10
X56Y-39.397
G1Z-0.6F500
Y39.402F1000
G0Z10
X57Y-37.987
G1Z-0.5F500
Y-37.984Z-0.6
Y37.802F1000
G0Z10
X58Y-36.397
G1Z-0.6F500
Y36.402F1000
G0Z10
X59Y-34.797
G1Z-0.6F500
Y34.802F1000
G0Z10
X60Y-32.997
G1Z-0.6F500
Y33.002F1000
G0Z10
X61Y-31.187
G1Z-0.5F500
Y-31.184Z-0.6
Y31.002F1000
G0Z10
X62Y-29.187
G1Z-0.5F500
Y-29.184Z-0.6
Y29.002F1000
G0Z10
X63Y-26.987
G1Z-0.5F500
Y-26.984Z-0.6
Y26.802F1000
G0Z10
X64Y-24.387
G1Z-0.5F500
Y-24.384Z-0.6
Y24.202F1000
G0Z10
X65Y-21.587
G1Z-0.5F500
Y-21.584Z-0.6
Y21.402F1000
G0Z10
X66Y-18.387
G1Z-0.5F500
Y-18.384Z-0.6
Y18.202F1000
G0Z10
X67Y-14.197
G1Z-0.6F500
Y14.202F1000
G0Z10
X68Y-8.397
G1Z-0.6F500
Y8.402F1000
G0Z10
X-68Y-8.397
G1Z-0.7F500
Y8.402F1000
G0Z10
X-67Y-14.38
G1Z-0.6F500
Y-14.377Z-0.7
Y14.381F1000
Y14.384Z-0.6
G0Z10
X-66Y-18.384
G1Z-0.6F500
Y-18.381Z-0.7
Y18.381F1000
Y18.384Z-0.6
G0Z10
X-65Y-21.584
G1Z-0.6F500
Y-21.581Z-0.7
Y21.402F1000
G0Z10
X-64Y-24.384
G1Z-0.6F500
Y-24.381Z-0.7
Y24.202F1000
G0Z10
X-63Y-26.984
G1Z-0.6F500
Y-26.981Z-0.7
Y26.981F1000
Y26.984Z-0.6
G0Z10
X-62Y-29.184
G1Z-0.6F500
Y-29.181Z-0.7
Y29.002F1000
G0Z10
X-61Y-31.184
G1Z-0.6F500
Y-31.181Z-0.7
Y31.002F1000
G0Z10
X-60Y-32.997
G1Z-0.7F500
Y33.002F1000
G0Z10
X-59Y-34.797
G1Z-0.7F500
Y34.802F1000
G0Z10
X-58Y-36.397
G1Z-0.7F500
Y36.402F1000
G0Z10
X-57Y-37.984
G1Z-0.6F500
Y-37.981Z-0.7
Y37.802F1000
G0Z10
X-56Y-39.397
G1Z-0.7F500
Y39.402F1000
G0Z10
X-55Y-40.797
G1Z-0.7F500
Y40.802F1000
G0Z10
X-54Y-42.184
G1Z-0.6F500
Y-42.181Z-0.7
Y42.181F1000
Y42.184Z-0.6
G0Z10
X-53Y-43.384
G1Z-0.6F500
Y-43.381Z-0.7
Y43.202F1000
G0Z10
X-52Y-44.584
G1Z-0.6F500
Y-44.581Z-0.7
Y44.581F1000
Y44.584Z-0.6
G0Z10
X-51Y-45.784
G1Z-0.6F500
Y-45.781Z-0.7
Y45.602F1000
G0Z10
X-50Y-46.797
G1Z-0.7F500
Y46.802F1000
G0Z10
X-49Y-47.797
G1Z-0.7F500
Y47.802F1000
G0Z10
X-48Y-48.797
G1Z-0.7F500
Y48.802F1000
G0Z10
X-47Y-49.797
G1Z-0.7F500
Y49.802F1000
G0Z10
X-46Y-50.784
G1Z-0.6F500
Y-50.781Z-0.7
Y50.602F1000
G0Z10
X-45Y-51.597
G1Z-0.7F500
Y51.602F1000
G0Z10
X-44Y-52.397
G1Z-0.7F500
Y52.402F1000
G0Z10
X-43Y-53.384
G1Z-0.6F500
Y-53.381Z-0.7
Y53.202F1000
G0Z10
X-42Y-53.997
G1Z-0.7F500
Y54.002F1000
G0Z10
X-41Y-54.797
G1Z-0.7F500
Y54.802F1000
G0Z10
X-40Y-55.584
G1Z-0.6F500
Y-55.581Z-0.7
Y55.402F1000
G0Z10
X-39Y-56.197
G1Z-0.7F500
Y56.202F1000
G0Z10
X-38Y-56.984
G1Z-0.6F500
Y-56.981Z-0.7
Y56.981F1000
Y56.984Z-0.6
G0Z10
X-37Y-57.597
G1Z-0.7F500
Y57.602F1000
G0Z10
X-36Y-58.197
G1Z-0.7F500
Y58.202F1000
G0Z10
X-35Y-58.797
G1Z-0.7F500
Y58.802F1000
G0Z10
X-34Y-59.397
G1Z-0.7F500
Y59.402F1000
G0Z10
X-33Y-59.997
G1Z-0.7F500
Y60.002F1000
G0Z10
X-32Y-60.584
G1Z-0.6F500
Y-60.581Z-0.7
Y60.581F1000
Y60.584Z-0.6
G0Z10
X-31Y-60.997
G1Z-0.7F500
Y61.002F1000
G0Z10
X-30Y-61.584
G1Z-0.6F500
Y-61.581Z-0.7
Y61.581F1000
Y61.584Z-0.6
G0Z10
X-29Y-61.997
G1Z-0.7F500
Y62.002F1000
G0Z10
X-28Y-62.584
G1Z-0.6F500
Y-62.581Z-0.7
Y62.402F1000
G0Z10
X-27Y-62.984
G1Z-0.6F500
Y-62.981Z-0.7
Y62.981F1000
Y62.984Z-0.6
G0Z10
X-26Y-63.384
G1Z-0.6F500
Y-63.381Z-0.7
Y63.381F1000
Y63.384Z-0.6
G0Z10
X-25Y-63.784
G1Z-0.6F500
Y-63.781Z-0.7
Y63.781F1000
Y63.784Z-0.6
G0Z10
X-24Y-64.184
G1Z-0.6F500
Y-64.181Z-0.7
Y64.002F1000
G0Z10
X-23Y-64.584
G1Z-0.6F500
Y-64.581Z-0.7
Y64.402F1000
G0Z10
X-22Y-64.797
G1Z-0.7F500
Y64.802F1000
G0Z10
X-21Y-65.184
G1Z-0.6F500
Y-65.181Z-0.7
Y65.181F1000
Y65.184Z-0.6
G0Z10
X-20Y-65.584
G1Z-0.6F500
Y-65.581Z-0.7
Y65.402F1000
G0Z10
X-19Y-65.797
G1Z-0.7F500
Y65.802F1000
G0Z10
X-18Y-65.997
G1Z-0.7F500
Y66.002F1000
G0Z10
X-17Y-66.384
G1Z-0.6F500
Y-66.381Z-0.7
Y66.202F1000
G0Z10
X-16Y-66.597
G1Z-0.7F500
Y66.602F1000
G0Z10
X-15Y-66.797
G1Z-0.7F500
Y66.802F1000
G0Z10
X-14Y-66.997
G1Z-0.7F500
Y67.002F1000
G0Z10
X-13Y-67.197
G1Z-0.7F500
Y67.202F1000
G0Z10
X-12Y-67.397
G1Z-0.7F500
Y67.402F1000
G0Z10
X-11Y-67.597
G1Z-0.7F500
Y67.602F1000
G0Z10
X-10Y-67.797
G1Z-0.7F500
Y67.802F1000
G0Z10
X-9Y-67.984
G1Z-0.6F500
Y-67.981Z-0.7
Y67.802F1000
G0Z10
X-8Y-67.997
G1Z-0.7F500
Y68.002F1000
G0Z10
X-7Y-68.184
G1Z-0.6F500
Y-68.181Z-0.7
Y68.002F1000
G0Z10
X-6Y-68.197
G1Z-0.7F500
Y68.202F1000
G0Z10
X-5Y-68.384
G1Z-0.6F500
Y-68.381Z-0.7
Y68.202F1000
G0Z10
X-4Y-68.397
G1Z-0.7F500
Y68.402F1000
G0Z10
X-3Y-68.584
G1Z-0.6F500
Y-68.581Z-0.7
Y68.402F1000
G0Z10
X-2Y-68.584
G1Z-0.6F500
Y-68.581Z-0.7
Y68.402F1000
G0Z10
X-1Y-68.584
G1Z-0.6F500
Y-68.581Z-0.7
Y68.402F1000
G0Z10
X0Y-68.584
G1Z-0.6F500
Y-68.581Z-0.7
Y68.402F1000
G0Z10
X1Y-68.584
G1Z-0.6F500
Y-68.581Z-0.7
Y68.402F1000
G0Z10
X2Y-68.584
G1Z-0.6F500
Y-68.581Z-0.7
Y68.402F1000
G0Z10
X3Y-68.584
G1Z-0.6F500
Y-68.581Z-0.7
Y68.402F1000
G0Z10
X4Y-68.397
G1Z-0.7F500
Y68.402F1000
G0Z10
X5Y-68.384
G1Z-0.6F500
Y-68.381Z-0.7
Y68.202F1000
G0Z10
X6Y-68.197
G1Z-0.7F500
Y68.202F1000
G0Z10
X7Y-68.184
G1Z-0.6F500
Y-68.181Z-0.7
Y68.002F1000
G0Z10
X8Y-67.997
G1Z-0.7F500
Y68.002F1000
G0Z10
X9Y-67.984
G1Z-0.6F500
Y-67.981Z-0.7
Y67.802F1000
G0Z10
X10Y-67.797
G1Z-0.7F500
Y67.802F1000
G0Z10
X11Y-67.597
G1Z-0.7F500
Y67.602F1000
G0Z10
X12Y-67.397
G1Z-0.7F500
Y67.402F1000
G0Z10
X13Y-67.197
G1Z-0.7F500
Y67.202F1000
G0Z10
X14Y-66.997
G1Z-0.7F500
Y67.002F1000
G0Z10
X15Y-66.797
G1Z-0.7F500
Y66.802F1000
G0Z10
X16Y-66.597
G1Z-0.7F500
Y66.602F1000
G0Z10
X17Y-66.384
G1Z-0.6F500
Y-66.381Z-0.7
Y66.202F1000
G0Z10
X18Y-65.997
G1Z-0.7F500
Y66.002F1000
G0Z10
X19Y-65.797
G1Z-0.7F500
Y65.802F1000
G0Z10
X20Y-65.584
G1Z-0.6F500
Y-65.581Z-0.7
Y65.402F1000
G0Z10
X21Y-65.184
G1Z-0.6F500
Y-65.181Z-0.7
Y65.002F1000
G0Z10
X22Y-64.797
G1Z-0.7F500
Y64.802F1000
G0Z10
X23Y-64.584
G1Z-0.6F500
Y-64.581Z-0.7
Y64.402F1000
G0Z10
X24Y-64.184
G1Z-0.6F500
Y-64.181Z-0.7
Y64.002F1000
G0Z10
X25Y-63.784
G1Z-0.6F500
Y-63.781Z-0.7
Y63.602F1000
G0Z10
X26Y-63.384
G1Z-0.6F500
Y-63.381Z-0.7
Y63.202F1000
G0Z10
X27Y-62.984
G1Z-0.6F500
Y-62.981Z-0.7
Y62.802F1000
G0Z10
X28Y-62.584
G1Z-0.6F500
Y-62.581Z-0.7
Y62.402F1000
G0Z10
X29Y-61.997
G1Z-0.7F500
Y62.002F1000
G0Z10
X30Y-61.584
G1Z-0.6F500
Y-61.581Z-0.7
Y61.402F1000
G0Z10
X31Y-60.997
G1Z-0.7F500
Y61.002F1000
G0Z10
X32Y-60.584
G1Z-0.6F500
Y-60.581Z-0.7
Y60.402F1000
G0Z10
X33Y-59.997
G1Z-0.7F500
Y60.002F1000
G0Z10
X34Y-59.397
G1Z-0.7F500
Y59.402F1000
G0Z10
X35Y-58.797
G1Z-0.7F500
Y58.802F1000
G0Z10
X36Y-58.197
G1Z-0.7F500
Y58.202F1000
G0Z10
X37Y-57.597
G1Z-0.7F500
Y57.602F1000
G0Z10
X38Y-56.984
G1Z-0.6F500
Y-56.981Z-0.7
Y56.802F1000
G0Z10
X39Y-56.197
G1Z-0.7F500
Y56.202F1000
G0Z10
X40Y-55.584
G1Z-0.6F500
Y-55.581Z-0.7
Y55.402F1000
G0Z10
X41Y-54.797
G1Z-0.7F500
Y54.802F1000
G0Z10
X42Y-53.997
G1Z-0.7F500
Y54.002F1000
G0Z10
X43Y-53.384
G1Z-0.6F500
Y-53.381Z-0.7
Y53.202F1000
G0Z10
X44Y-52.397
G1Z-0.7F500
Y52.402F1000
G0Z10
X45Y-51.597
G1Z-0.7F500
Y51.602F1000
G0Z10
X46Y-50.784
G1Z-0.6F500
Y-50.781Z-0.7
Y50.602F1000
G0Z10
X47Y-49.797
G1Z-0.7F500
Y49.802F1000
G0Z10
X48Y-48.797
G1Z-0.7F500
Y48.802F1000
G0Z10
X49Y-47.797
G1Z-0.7F500
Y47.802F1000
G0Z10
X50Y-46.797
G1Z-0.7F500
Y46.802F1000
G0Z10
X51Y-45.784
G1Z-0.6F500
Y-45.781Z-0.7
Y45.602F1000
G0Z10
X52Y-44.584
G1Z-0.6F500
Y-44.581Z-0.7
Y44.402F1000
G0Z10
X53Y-43.384
G1Z-0.6F500
Y-43.381Z-0.7
Y43.202F1000
G0Z10
X54Y-42.184
G1Z-0.6F500
Y-42.181Z-0.7
Y42.002F1000
G0Z10
X55Y-40.797
G1Z-0.7F500
Y40.802F1000
G0Z10
X56Y-39.397
G1Z-0.7F500
Y39.402F1000
G0Z10
X57Y-37.984
G1Z-0.6F500
Y-37.981Z-0.7
Y37.802F1000
G0Z10
X58Y-36.397
G1Z-0.7F500
Y36.402F1000
G0Z10
X59Y-34.797
G1Z-0.7F500
Y34.802F1000
G0Z10
X60Y-32.997
G1Z-0.7F500
Y33.002F1000
G0Z10
X61Y-31.184
G1Z-0.6F500
Y-31.181Z-0.7
Y31.002F1000
G0Z10
X62Y-29.184
G1Z-0.6F500
Y-29.181Z-0.7
Y29.002F1000
G0Z10
X63Y-26.984
G1Z-0.6F500
Y-26.981Z-0.7
Y26.802F1000
G0Z10
X64Y-24.384
G1Z-0.6F500
Y-24.381Z-0.7
Y24.202F1000
G0Z10
X65Y-21.584
G1Z-0.6F500
Y-21.581Z-0.7
Y21.402F1000
G0Z10
X66Y-18.384
G1Z-0.6F500
Y-18.381Z-0.7
Y18.202F1000
G0Z10
X67Y-14.197
G1Z-0.7F500
Y14.202F1000
G0Z10
X68Y-8.397
G1Z-0.7F500
Y8.402F1000
G0Z10
X-68Y-8.397
G1Z-0.8F500
Y8.402F1000
G0Z10
X-67Y-14.377
G1Z-0.7F500
Y-14.374Z-0.8
Y14.378F1000
Y14.381Z-0.7
G0Z10
X-66Y-18.381
G1Z-0.7F500
Y-18.378Z-0.8
Y18.379F1000
Y18.381Z-0.7
G0Z10
X-65Y-21.581
G1Z-0.7F500
Y-21.578Z-0.8
Y21.402F1000
G0Z10
X-64Y-24.381
G1Z-0.7F500
Y-24.378Z-0.8
Y24.202F1000
G0Z10
X-63Y-26.981
G1Z-0.7F500
Y-26.978Z-0.8
Y26.979F1000
Y26.981Z-0.7
G0Z10
X-62Y-29.181
G1Z-0.7F500
Y-29.178Z-0.8
Y29.002F1000
G0Z10
X-61Y-31.181
G1Z-0.7F500
Y-31.178Z-0.8
Y31.002F1000
G0Z10
X-60Y-32.997
G1Z-0.8F500
Y33.002F1000
G0Z10
X-59Y-34.797
G1Z-0.8F500
Y34.802F1000
G0Z10
X-58Y-36.397
G1Z-0.8F500
Y36.402F1000
G0Z10
X-57Y-37.981
G1Z-0.7F500
Y-37.978Z-0.8
Y37.802F1000
G0Z10
X-56Y-39.397
G1Z-0.8F500
Y39.402F1000
G0Z10
X-55Y-40.797
G1Z-0.8F500
Y40.802F1000
G0Z10
X-54Y-42.181
G1Z-0.7F500
Y-42.178Z-0.8
Y42.179F1000
Y42.181Z-0.7
G0Z10
X-53Y-43.381
G1Z-0.7F500
Y-43.378Z-0.8
Y43.202F1000
G0Z10
X-52Y-44.581
G1Z-0.7F500
Y-44.578Z-0.8
Y44.579F1000
Y44.581Z-0.7
G0Z10
X-51Y-45.781
G1Z-0.7F500
Y-45.778Z-0.8
Y45.602F1000
G0Z10
X-50Y-46.797
G1Z-0.8F500
Y46.802F1000
G0Z10
X-49Y-47.797
G1Z-0.8F500
Y47.802F1000
G0Z10
X-48Y-48.797
G1Z-0.8F500
Y48.802F1000
G0Z10
X-47Y-49.797
G1Z-0.8F500
Y49.802F1000
G0Z10
X-46Y-50.781
G1Z-0.7F500
Y-50.778Z-0.8
Y50.602F1000
G0Z10
X-45Y-51.597
G1Z-0.8F500
Y51.602F1000
G0Z10
X-44Y-52.397
G1Z-0.8F500
Y52.402F1000
G0Z10
X-43Y-53.381
G1Z-0.7F500
Y-53.378Z-0.8
Y53.202F1000
G0Z10
X-42Y-53.997
G1Z-0.8F500
Y54.002F1000
G0Z10
X-41Y-54.797
G1Z-0.8F500
Y54.802F1000
G0Z10
X-40Y-55.581
G1Z-0.7F500
Y-55.578Z-0.8
Y55.402F1000
G0Z10
X-39Y-56.197
G1Z-0.8F500
Y56.202F1000
G0Z10
X-38Y-56.981
G1Z-0.7F500
Y-56.978Z-0.8
Y56.979F1000
Y56.981Z-0.7
G0Z10
X-37Y-57.597
G1Z-0.8F500
Y57.602F1000
G0Z10
X-36Y-58.197
G1Z-0.8F500
Y58.202F1000
G0Z10
X-35Y-58.797
G1Z-0.8F500
Y58.802F1000
G0Z10
X-34Y-59.397
G1Z-0.8F500
Y59.402F1000
G0Z10
X-33Y-59.997
G1Z-0.8F500
Y60.002F1000
G0Z10
X-32Y-60.581
G1Z-0.7F500
Y-60.578Z-0.8
Y60.579F1000
Y60.581Z-0.7
G0Z10
X-31Y-60.997
G1Z-0.8F500
Y61.002F1000
G0Z10
X-30Y-61.581
G1Z-0.7F500
Y-61.578Z-0.8
Y61.579F1000
Y61.581Z-0.7
G0Z10
X-29Y-61.997
G1Z-0.8F500
Y62.002F1000
G0Z10
X-28Y-62.581
G1Z-0.7F500
Y-62.578Z-0.8
Y62.402F1000
G0Z10
X-27Y-62.981
G1Z-0.7F500
Y-62.978Z-0.8
Y62.979F1000
Y62.981Z-0.7
G0Z10
X-26Y-63.381
G1Z-0.7F500
Y-63.378Z-0.8
Y63.379F1000
Y63.381Z-0.7
G0Z10
X-25Y-63.781
G1Z-0.7F500
Y-63.778Z-0.8
Y63.779F1000
Y63.781Z-0.7
G0Z10
X-24Y-64.181
G1Z-0.7F500
Y-64.178Z-0.8
Y64.002F1000
G0Z10
X-23Y-64.581
G1Z-0.7F500
Y-64.578Z-0.8
Y64.402F1000
G0Z10
X-22Y-64.797
G1Z-0.8F500
Y64.802F1000
G0Z10
X-21Y-65.181
G1Z-0.7F500
Y-65.178Z-0.8
Y65.179F1000
Y65.181Z-0.7
G0Z10
X-20Y-65.581
G1Z-0.7F500
Y-65.578Z-0.8
Y65.402F1000
G0Z10
X-19Y-65.797
G1Z-0.8F500
Y65.802F1000
G0Z10
X-18Y-65.997
G1Z-0.8F500
Y66.002F1000
G0Z10
X-17Y-66.381
G1Z-0.7F500
Y-66.378Z-0.8
Y66.202F1000
G0Z10
X-16Y-66.597
G1Z-0.8F500
Y66.602F1000
G0Z10
X-15Y-66.797
G1Z-0.8F500
Y66.802F1000
G0Z10
X-14Y-66.997
G1Z-0.8F500
Y67.002F1000
G0Z10
X-13Y-67.197
G1Z-0.8F500
Y67.202F1000
G0Z10
X-12Y-67.397
G1Z-0.8F500
Y67.402F1000
G0Z10
X-11Y-67.597
G1Z-0.8F500
Y67.602F1000
G0Z10
X-10Y-67.797
G1Z-0.8F500
Y67.802F1000
G0Z10
X-9Y-67.981
G1Z-0.7F500
Y-67.978Z-0.8
Y67.802F1000
G0Z10
X-8Y-67.997
G1Z-0.8F500
Y68.002F1000
G0Z10
X-7Y-68.181
G1Z-0.7F500
Y-68.178Z-0.8
Y68.002F1000
G0Z10
X-6Y-68.197
G1Z-0.8F500
Y68.202F1000
G0Z10
X-5Y-68.381
G1Z-0.7F500
Y-68.378Z-0.8
Y68.202F1000
G0Z10
X-4Y-68.397
G1Z-0.8F500
Y68.402F1000
G0Z10
X-3Y-68.581
G1Z-0.7F500
Y-68.578Z-0.8
Y68.402F1000
G0Z10
X-2Y-68.581
G1Z-0.7F500
Y-68.578Z-0.8
Y68.402F1000
G0Z10
X-1Y-68.581
G1Z-0.7F500
Y-68.578Z-0.8
Y68.402F1000
G0Z10
X0Y-68.581
G1Z-0.7F500
Y-68.578Z-0.8
Y68.402F1000
G0Z10
X1Y-68.581
G1Z-0.7F500
Y-68.578Z-0.8
Y68.402F1000
G0Z10
X2Y-68.581
G1Z-0.7F500
Y-68.578Z-0.8
Y68.402F1000
G0Z10
X3Y-68.581
G1Z-0.7F500
Y-68.578Z-0.8
Y68.402F1000
G0Z10
X4Y-68.397
G1Z-0.8F500
Y68.402F1000
G0Z10
X5Y-68.381
G1Z-0.7F500
Y-68.378Z-0.8
Y68.202F1000
G0Z10
X6Y-68.197
G1Z-0.8F500
Y68.202F1000
G0Z10
X7Y-68.181
G1Z-0.7F500
Y-68.178Z-0.8
Y68.002F1000
G0Z10
X8Y-67.997
G1Z-0.8F500
Y68.002F1000
G0Z10
X9Y-67.981
G1Z-0.7F500
Y-67.978Z-0.8
Y67.802F1000
G0Z10
X10Y-67.797
G1Z-0.8F500
Y67.802F1000
G0Z10
X11Y-67.597
G1Z-0.8F500
Y67.602F1000
G0Z10
X12Y-67.397
G1Z-0.8F500
Y67.402F1000
G0Z10
X13Y-67.197
G1Z-0.8F500
Y67.202F1000
G0Z10
X14Y-66.997
G1Z-0.8F500
Y67.002F1000
G0Z10
X15Y-66.797
G1Z-0.8F500
Y66.802F1000
G0Z10
X16Y-66.597
G1Z-0.8F500
Y66.602F1000
G0Z10
X17Y-66.381
G1Z-0.7F500
Y-66.378Z-0.8
Y66.202F1000
G0Z10
X18Y-65.997
G1Z-0.8F500
Y66.002F1000
G0Z10
X19Y-65.797
G1Z-0.8F500
Y65.802F1000
G0Z10
X20Y-65.581
G1Z-0.7F500
Y-65.578Z-0.8
Y65.402F1000
G0Z10
X21Y-65.181
G1Z-0.7F500
Y-65.178Z-0.8
Y65.002F1000
G0Z10
X22Y-64.797
G1Z-0.8F500
Y64.802F1000
G0Z10
X23Y-64.581
G1Z-0.7F500
Y-64.578Z-0.8
Y64.402F1000
G0Z10
X24Y-64.181
G1Z-0.7F500
Y-64.178Z-0.8
Y64.002F1000
G0Z10
X25Y-63.781
G1Z-0.7F500
Y-63.778Z-0.8
Y63.602F1000
G0Z10
X26Y-63.381
G1Z-0.7F500
Y-63.378Z-0.8
Y63.202F1000
G0Z10
X27Y-62.981
G1Z-0.7F500
Y-62.978Z-0.8
Y62.802F1000
G0Z10
X28Y-62.581
G1Z-0.7F500
Y-62.578Z-0.8
Y62.402F1000
G0Z10
X29Y-61.997
G1Z-0.8F500
Y62.002F1000
G0Z10
X30Y-61.581
G1Z-0.7F500
Y-61.578Z-0.8
Y61.402F1000
G0Z10
X31Y-60.997
G1Z-0.8F500
Y61.002F1000
G0Z10
X32Y-60.581
G1Z-0.7F500
Y-60.578Z-0.8
Y60.402F1000
G0Z10
X33Y-59.997
G1Z-0.8F500
Y60.002F1000
G0Z10
X34Y-59.397
G1Z-0.8F500
Y59.402F1000
G0Z10
X35Y-58.797
G1Z-0.8F500
Y58.802F1000
G0Z10
X36Y-58.197
G1Z-0.8F500
Y58.202F1000
G0Z10
X37Y-57.597
G1Z-0.8F500
Y57.602F1000
G0Z10
X38Y-56.981
G1Z-0.7F500
Y-56.978Z-0.8
Y56.802F1000
G0Z10
X39Y-56.197
G1Z-0.8F500
Y56.202F1000
G0Z10
X40Y-55.581
G1Z-0.7F500
Y-55.578Z-0.8
Y55.402F1000
G0Z10
X41Y-54.797
G1Z-0.8F500
Y54.802F1000
G0Z10
X42Y-53.997
G1Z-0.8F500
Y54.002F1000
G0Z10
X43Y-53.381
G1Z-0.7F500
Y-53.378Z-0.8
Y53.202F1000
G0Z10
X44Y-52.397
G1Z-0.8F500
Y52.402F1000
G0Z10
X45Y-51.597
G1Z-0.8F500
Y51.602F1000
G0Z10
X46Y-50.781
G1Z-0.7F500
Y-50.778Z-0.8
Y50.602F1000
G0Z10
X47Y-49.797
G1Z-0.8F500
Y49.802F1000
G0Z10
X48Y-48.797
G1Z-0.8F500
Y48.802F1000
G0Z10
X49Y-47.797
G1Z-0.8F500
Y47.802F1000
G0Z10
X50Y-46.797
G1Z-0.8F500
Y46.802F1000
G0Z10
X51Y-45.781
G1Z-0.7F500
Y-45.778Z-0.8
Y45.602F1000
G0Z10
X52Y-44.581
G1Z-0.7F500
Y-44.578Z-0.8
Y44.402F1000
G0Z10
X53Y-43.381
G1Z-0.7F500
Y-43.378Z-0.8
Y43.202F1000
G0Z10
X54Y-42.181
G1Z-0.7F500
Y-42.178Z-0.8
Y42.002F1000
G0Z10
X55Y-40.797
G1Z-0.8F500
Y40.802F1000
G0Z10
X56Y-39.397
G1Z-0.8F500
Y39.402F1000
G0Z10
X57Y-37.981
G1Z-0.7F500
Y-37.978Z-0.8
Y37.802F1000
G0Z10
X58Y-36.397
G1Z-0.8F500
Y36.402F1000
G0Z10
X59Y-34.797
G1Z-0.8F500
Y34.802F1000
G0Z10
X60Y-32.997
G1Z-0.8F500
Y33.002F1000
G0Z10
X61Y-31.181
G1Z-0.7F500
Y-31.178Z-0.8
Y31.002F1000
G0Z10
X62Y-29.181
G1Z-0.7F500
Y-29.178Z-0.8
Y29.002F1000
G0Z10
X63Y-26.981
G1Z-0.7F500
Y-26.978Z-0.8
Y26.802F1000
G0Z10
X64Y-24.381
G1Z-0.7F500
Y-24.378Z-0.8
Y24.202F1000
G0Z10
X65Y-21.581
G1Z-0.7F500
Y-21.578Z-0.8
Y21.402F1000
G0Z10
X66Y-18.381
G1Z-0.7F500
Y-18.378Z-0.8
Y18.202F1000
G0Z10
X67Y-14.197
G1Z-0.8F500
Y14.202F1000
G0Z10
X68Y-8.397
G1Z-0.8F500
Y8.402F1000
G0Z10
X-68Y-8.397
G1Z-0.9F500
Y8.402F1000
G0Z10
X-67Y-14.374
G1Z-0.8F500
Y-14.371Z-0.9
Y14.375F1000
Y14.378Z-0.8
G0Z10
X-66Y-18.378
G1Z-0.8F500
Y-18.375Z-0.9
Y18.376F1000
Y18.379Z-0.8
G0Z10
X-65Y-21.578
G1Z-0.8F500
Y-21.575Z-0.9
Y21.402F1000
G0Z10
X-64Y-24.378
G1Z-0.8F500
Y-24.375Z-0.9
Y24.202F1000
G0Z10
X-63Y-26.978
G1Z-0.8F500
Y-26.975Z-0.9
Y26.976F1000
Y26.979Z-0.8
G0Z10
X-62Y-29.178
G1Z-0.8F500
Y-29.175Z-0.9
Y29.002F1000
G0Z10
X-61Y-31.178
G1Z-0.8F500
Y-31.175Z-0.9
Y31.002F1000
G0Z10
X-60Y-32.997
G1Z-0.9F500
Y33.002F1000
G0Z10
X-59Y-34.797
G1Z-0.9F500
Y34.802F1000
G0Z10
X-58Y-36.397
G1Z-0.9F500
Y36.402F1000
G0Z10
X-57Y-37.978
G1Z-0.8F500
Y-37.975Z-0.9
Y37.802F1000
G0Z10
X-56Y-39.397
G1Z-0.9F500
Y39.402F1000
G0Z10
X-55Y-40.797
G1Z-0.9F500
Y40.802F1000
G0Z10
X-54Y-42.178
G1Z-0.8F500
Y-42.175Z-0.9
Y42.176F1000
Y42.179Z-0.8
G0Z10
X-53Y-43.378
G1Z-0.8F500
Y-43.375Z-0.9
Y43.202F1000
G0Z10
X-52Y-44.578
G1Z-0.8F500
Y-44.575Z-0.9
Y44.576F1000
Y44.579Z-0.8
G0Z10
X-51Y-45.778
G1Z-0.8F500
Y-45.775Z-0.9
Y45.602F1000
G0Z10
X-50Y-46.797
G1Z-0.9F500
Y46.802F1000
G0Z10
X-49Y-47.797
G1Z-0.9F500
Y47.802F1000
G0Z10
X-48Y-48.797
G1Z-0.9F500
Y48.802F1000
G0Z10
X-47Y-49.797
G1Z-0.9F500
Y49.802F1000
G0Z10
X-46Y-50.778
G1Z-0.8F500
Y-50.775Z-0.9
Y50.602F1000
G0Z10
X-45Y-51.597
G1Z-0.9F500
Y51.602F1000
G0Z10
X-44Y-52.397
G1Z-0.9F500
Y52.402F1000
G0Z10
X-43Y-53.378
G1Z-0.8F500
Y-53.375Z-0.9
Y53.202F1000
G0Z10
X-42Y-53.997
G1Z-0.9F500
Y54.002F1000
G0Z10
X-41Y-54.797
G1Z-0.9F500
Y54.802F1000
G0Z10
X-40Y-55.578
G1Z-0.8F500
Y-55.575Z-0.9
Y55.402F1000
G0Z10
X-39Y-56.197
G1Z-0.9F500
Y56.202F1000
G0Z10
X-38Y-56.978
G1Z-0.8F500
Y-56.975Z-0.9
Y56.976F1000
Y56.979Z-0.8
G0Z10
X-37Y-57.597
G1Z-0.9F500
Y57.602F1000
G0Z10
X-36Y-58.197
G1Z-0.9F500
Y58.202F1000
G0Z10
X-35Y-58.797
G1Z-0.9F500
Y58.802F1000
G0Z10
X-34Y-59.397
G1Z-0.9F500
Y59.402F1000
G0Z10
X-33Y-59.997
G1Z-0.9F500
Y60.002F1000
G0Z10
X-32Y-60.578
G1Z-0.8F500
Y-60.575Z-0.9
Y60.576F1000
Y60.579Z-0.8
G0Z10
X-31Y-60.997
G1Z-0.9F500
Y61.002F1000
G0Z10
X-30Y-61.578
G1Z-0.8F500
Y-61.575Z-0.9
Y61.576F1000
Y61.579Z-0.8
G0Z10
X-29Y-61.997
G1Z-0.9F500
Y62.002F1000
G0Z10
X-28Y-62.578
G1Z-0.8F500
Y-62.575Z-0.9
Y62.402F1000
G0Z10
X-27Y-62.978
G1Z-0.8F500
Y-62.975Z-0.9
Y62.976F1000
Y62.979Z-0.8
G0Z10
X-26Y-63.378
G1Z-0.8F500
Y-63.375Z-0.9
Y63.376F1000
Y63.379Z-0.8
G0Z10
X-25Y-63.778
G1Z-0.8F500
Y-63.775Z-0.9
Y63.776F1000
Y63.779Z-0.8
G0Z10
X-24Y-64.178
G1Z-0.8F500
Y-64.175Z-0.9
Y64.002F1000
G0Z10
X-23Y-64.578
G1Z-0.8F500
Y-64.575Z-0.9
Y64.402F1000
G0Z10
X-22Y-64.797
G1Z-0.9F500
Y64.802F1000
G0Z10
X-21Y-65.178
G1Z-0.8F500
Y-65.175Z-0.9
Y65.176F1000
Y65.179Z-0.8
G0Z10
X-20Y-65.578
G1Z-0.8F500
Y-65.575Z-0.9
Y65.402F1000
G0Z10
X-19Y-65.797
G1Z-0.9F500
Y65.802F1000
G0Z10
X-18Y-65.997
G1Z-0.9F500
Y66.002F1000
G0Z10
X-17Y-66.378
G1Z-0.8F500
Y-66.375Z-0.9
Y66.202F1000
G0Z10
X-16Y-66.597
G1Z-0.9F500
Y66.602F1000
G0Z10
X-15Y-66.797
G1Z-0.9F500
Y66.802F1000
G0Z10
X-14Y-66.997
G1Z-0.9F500
Y67.002F1000
G0Z10
X-13Y-67.197
G1Z-0.9F500
Y67.202F1000
G0Z10
X-12Y-67.397
G1Z-0.9F500
Y67.402F1000
G0Z10
X-11Y-67.597
G1Z-0.9F500
Y67.602F1000
G0Z10
X-10Y-67.797
G1Z-0.9F500
Y67.802F1000
G0Z10
X-9Y-67.978
G1Z-0.8F500
Y-67.975Z-0.9
Y67.802F1000
G0Z10
X-8Y-67.997
G1Z-0.9F500
Y68.002F1000
G0Z10
X-7Y-68.178
G1Z-0.8F500
Y-68.175Z-0.9
Y68.002F1000
G0Z10
X-6Y-68.197
G1Z-0.9F500
Y68.202F1000
G0Z10
X-5Y-68.378
G1Z-0.8F500
Y-68.375Z-0.9
Y68.202F1000
G0Z10
X-4Y-68.397
G1Z-0.9F500
Y68.402F1000
G0Z10
X-3Y-68.578
G1Z-0.8F500
Y-68.575Z-0.9
Y68.402F1000
G0Z10
X-2Y-68.578
G1Z-0.8F500
Y-68.575Z-0.9
Y68.402F1000
G0Z10
X-1Y-68.578
G1Z-0.8F500
Y-68.575Z-0.9
Y68.402F1000
G0Z10
X0Y-68.578
G1Z-0.8F500
Y-68.575Z-0.9
Y68.402F1000
G0Z10
X1Y-68.578
G1Z-0.8F500
Y-68.575Z-0.9
Y68.402F1000
G0Z10
X2Y-68.578
G1Z-0.8F500
Y-68.575Z-0.9
Y68.402F1000
G0Z10
X3Y-68.578
G1Z-0.8F500
Y-68.575Z-0.9
Y68.402F1000
G0Z10
X4Y-68.397
G1Z-0.9F500
Y68.402F1000
G0Z10
X5Y-68.378
G1Z-0.8F500
Y-68.375Z-0.9
Y68.202F1000
G0Z10
X6Y-68.197
G1Z-0.9F500
Y68.202F1000
G0Z10
X7Y-68.178
G1Z-0.8F500
Y-68.175Z-0.9
Y68.002F1000
G0Z10
X8Y-67.997
G1Z-0.9F500
Y68.002F1000
G0Z10
X9Y-67.978
G1Z-0.8F500
Y-67.975Z-0.9
Y67.802F1000
G0Z10
X10Y-67.797
G1Z-0.9F500
Y67.802F1000
G0Z10
X11Y-67.597
G1Z-0.9F500
Y67.602F1000
G0Z10
X12Y-67.397
G1Z-0.9F500
Y67.402F1000
G0Z10
X13Y-67.197
G1Z-0.9F500
Y67.202F1000
G0Z10
X14Y-66.997
G1Z-0.9F500
Y67.002F1000
G0Z10
X15Y-66.797
G1Z-0.9F500
Y66.802F1000
G0Z10
X16Y-66.597
G1Z-0.9F500
Y66.602F1000
G0Z10
X17Y-66.378
G1Z-0.8F500
Y-66.375Z-0.9
Y66.202F1000
G0Z10
X18Y-65.997
G1Z-0.9F500
Y66.002F1000
G0Z10
X19Y-65.797
G1Z-0.9F500
Y65.802F1000
G0Z10
X20Y-65.578
G1Z-0.8F500
Y-65.575Z-0.9
Y65.402F1000
G0Z10
X21Y-65.178
G1Z-0.8F500
Y-65.175Z-0.9
Y65.002F1000
G0Z10
X22Y-64.797
G1Z-0.9F500
Y64.802F1000
G0Z10
X23Y-64.578
G1Z-0.8F500
Y-64.575Z-0.9
Y64.402F1000
G0Z10
X24Y-64.178
G1Z-0.8F500
Y-64.175Z-0.9
Y64.002F1000
G0Z10
X25Y-63.778
G1Z-0.8F500
Y-63.775Z-0.9
Y63.602F1000
G0Z10
X26Y-63.378
G1Z-0.8F500
Y-63.375Z-0.9
Y63.202F1000
G0Z10
X27Y-62.978
G1Z-0.8F500
Y-62.975Z-0.9
Y62.802F1000
G0Z10
X28Y-62.578
G1Z-0.8F500
Y-62.575Z-0.9
Y62.402F1000
G0Z10
X29Y-61.997
G1Z-0.9F500
Y62.002F1000
G0Z10
X30Y-61.578
G1Z-0.8F500
Y-61.575Z-0.9
Y61.402F1000
G0Z10
X31Y-60.997
G1Z-0.9F500
Y61.002F1000
G0Z10
X32Y-60.578
G1Z-0.8F500
Y-60.575Z-0.9
Y60.402F1000
G0Z10
X33Y-59.997
G1Z-0.9F500
Y60.002F1000
G0Z10
X34Y-59.397
G1Z-0.9F500
Y59.402F1000
G0Z10
X35Y-58.797
G1Z-0.9F500
Y58.802F1000
G0Z10
X36Y-58.197
G1Z-0.9F500
Y58.202F1000
G0Z10
X37Y-57.597
G1Z-0.9F500
Y57.602F1000
G0Z10
X38Y-56.978
G1Z-0.8F500
Y-56.975Z-0.9
Y56.802F1000
G0Z10
X39Y-56.197
G1Z-0.9F500
Y56.202F1000
G0Z10
X40Y-55.578
G1Z-0.8F500
Y-55.575Z-0.9
Y55.402F1000
G0Z10
X41Y-54.797
G1Z-0.9F500
Y54.802F1000
G0Z10
X42Y-53.997
G1Z-0.9F500
Y54.002F1000
G0Z10
X43Y-53.378
G1Z-0.8F500
Y-53.375Z-0.9
Y53.202F1000
G0Z10
X44Y-52.397
G1Z-0.9F500
Y52.402F1000
G0Z10
X45Y-51.597
G1Z-0.9F500
Y51.602F1000
G0Z10
X46Y-50.778
G1Z-0.8F500
Y-50.775Z-0.9
Y50.602F1000
G0Z10
X47Y-49.797
G1Z-0.9F500
Y49.802F1000
G0Z10
X48Y-48.797
G1Z-0.9F500
Y48.802F1000
G0Z10
X49Y-47.797
G1Z-0.9F500
Y47.802F1000
G0Z10
X50Y-46.797
G1Z-0.9F500
Y46.802F1000
G0Z10
X51Y-45.778
G1Z-0.8F500
Y-45.775Z-0.9
Y45.602F1000
G0Z10
X52Y-44.578
G1Z-0.8F500
Y-44.575Z-0.9
Y44.402F1000
G0Z10
X53Y-43.378
G1Z-0.8F500
Y-43.375Z-0.9
Y43.202F1000
G0Z10
X54Y-42.178
G1Z-0.8F500
Y-42.175Z-0.9
Y42.002F1000
G0Z10
X55Y-40.797
G1Z-0.9F500
Y40.802F1000
G0Z10
X56Y-39.397
G1Z-0.9F500
Y39.402F1000
G0Z10
X57Y-37.978
G1Z-0.8F500
Y-37.975Z-0.9
Y37.802F1000
G0Z10
X58Y-36.397
G1Z-0.9F500
Y36.402F1000
G0Z10
X59Y-34.797
G1Z-0.9F500
Y34.802F1000
G0Z10
X60Y-32.997
G1Z-0.9F500
Y33.002F1000
G0Z10
X61Y-31.178
G1Z-0.8F500
Y-31.175Z-0.9
Y31.002F1000
G0Z10
X62Y-29.178
G1Z-0.8F500
Y-29.175Z-0.9
Y29.002F1000
G0Z10
X63Y-26.978
G1Z-0.8F500
Y-26.975Z-0.9
Y26.802F1000
G0Z10
X64Y-24.378
G1Z-0.8F500
Y-24.375Z-0.9
Y24.202F1000
G0Z10
X65Y-21.578
G1Z-0.8F500
Y-21.575Z-0.9
Y21.402F1000
G0Z10
X66Y-18.378
G1Z-0.8F500
Y-18.375Z-0.9
Y18.202F1000
G0Z10
X67Y-14.197
G1Z-0.9F500
Y14.202F1000
G0Z10
X68Y-8.397
G1Z-0.9F500
Y8.402F1000
G0Z10
X-68Y-8.397
G1Z-1F500
Y8.402F1000
G0Z10
X-67Y-14.371
G1Z-0.9F500
Y-14.368Z-1
Y14.372F1000
Y14.375Z-0.9
G0Z10
X-66Y-18.375
G1Z-0.9F500
Y-18.372Z-1
Y18.373F1000
Y18.376Z-0.9
G0Z10
X-65Y-21.575
G1Z-0.9F500
Y-21.572Z-1
Y21.402F1000
G0Z10
X-64Y-24.375
G1Z-0.9F500
Y-24.372Z-1
Y24.202F1000
G0Z10
X-63Y-26.975
G1Z-0.9F500
Y-26.972Z-1
Y26.973F1000
Y26.976Z-0.9
G0Z10
X-62Y-29.175
G1Z-0.9F500
Y-29.172Z-1
Y29.002F1000
G0Z10
X-61Y-31.175
G1Z-0.9F500
Y-31.172Z-1
Y31.002F1000
G0Z10
X-60Y-32.997
G1Z-1F500
Y33.002F1000
G0Z10
X-59Y-34.797
G1Z-1F500
Y34.802F1000
G0Z10
X-58Y-36.397
G1Z-1F500
Y36.402F1000
G0Z10
X-57Y-37.975
G1Z-0.9F500
Y-37.972Z-1
Y37.802F1000
G0Z10
X-56Y-39.397
G1Z-1F500
Y39.402F1000
G0Z10
X-55Y-40.797
G1Z-1F500
Y40.802F1000
G0Z10
X-54Y-42.175
G1Z-0.9F500
Y-42.172Z-1
Y42.173F1000
Y42.176Z-0.9
G0Z10
X-53Y-43.375
G1Z-0.9F500
Y-43.372Z-1
Y43.202F1000
G0Z10
X-52Y-44.575
G1Z-0.9F500
Y-44.572Z-1
Y44.573F1000
Y44.576Z-0.9
G0Z10
X-51Y-45.775
G1Z-0.9F500
Y-45.772Z-1
Y45.602F1000
G0Z10
X-50Y-46.797
G1Z-1F500
Y46.802F1000
G0Z10
X-49Y-47.797
G1Z-1F500
Y47.802F1000
G0Z10
X-48Y-48.797
G1Z-1F500
Y48.802F1000
G0Z10
X-47Y-49.797
G1Z-1F500
Y49.802F1000
G0Z10
X-46Y-50.775
G1Z-0.9F500
Y-50.772Z-1
Y50.602F1000
G0Z10
X-45Y-51.597
G1Z-1F500
Y51.602F1000
G0Z10
X-44Y-52.397
G1Z-1F500
Y52.402F1000
G0Z10
X-43Y-53.375
G1Z-0.9F500
Y-53.372Z-1
Y53.202F1000
G0Z10
X-42Y-53.997
G1Z-1F500
Y54.002F1000
G0Z10
X-41Y-54.797
G1Z-1F500
Y54.802F1000
G0Z10
X-40Y-55.575
G1Z-0.9F500
Y-55.572Z-1
Y55.402F1000
G0Z10
X-39Y-56.197
G1Z-1F500
Y56.202F1000
G0Z10
X-38Y-56.975
G1Z-0.9F500
Y-56.972Z-1
Y56.973F1000
Y56.976Z-0.9
G0Z10
X-37Y-57.597
G1Z-1F500
Y57.602F1000
G0Z10
X-36Y-58.197
G1Z-1F500
Y58.202F1000
G0Z10
X-35Y-58.797
G1Z-1F500
Y58.802F1000
G0Z10
X-34Y-59.397
G1Z-1F500
Y59.402F1000
G0Z10
X-33Y-59.997
G1Z-1F500
Y60.002F1000
G0Z10
X-32Y-60.575
G1Z-0.9F500
Y-60.572Z-1
Y60.573F1000
Y60.576Z-0.9
G0Z10
X-31Y-60.997
G1Z-1F500
Y61.002F1000
G0Z10
X-30Y-61.575
G1Z-0.9F500
Y-61.572Z-1
Y61.573F1000
Y61.576Z-0.9
G0Z10
X-29Y-61.997
G1Z-1F500
Y62.002F1000
G0Z10
X-28Y-62.575
G1Z-0.9F500
Y-62.572Z-1
Y62.402F1000
G0Z10
X-27Y-62.975
G1Z-0.9F500
Y-62.972Z-1
Y62.973F1000
Y62.976Z-0.9
G0Z10
X-26Y-63.375
G1Z-0.9F500
Y-63.372Z-1
Y63.373F1000
Y63.376Z-0.9
G0Z10
X-25Y-63.775
G1Z-0.9F500
Y-63.772Z-1
Y63.773F1000
Y63.776Z-0.9
G0Z10
X-24Y-64.175
G1Z-0.9F500
Y-64.172Z-1
Y64.002F1000
G0Z10
X-23Y-64.575
G1Z-0.9F500
Y-64.572Z-1
Y64.402F1000
G0Z10
X-22Y-64.797
G1Z-1F500
Y64.802F1000
G0Z10
X-21Y-65.175
G1Z-0.9F500
Y-65.172Z-1
Y65.173F1000
Y65.176Z-0.9
G0Z10
X-20Y-65.575
G1Z-0.9F500
Y-65.572Z-1
Y65.402F1000
G0Z10
X-19Y-65.797
G1Z-1F500
Y65.802F1000
G0Z10
X-18Y-65.997
G1Z-1F500
Y66.002F1000
G0Z10
X-17Y-66.375
G1Z-0.9F500
Y-66.372Z-1
Y66.202F1000
G0Z10
X-16Y-66.597
G1Z-1F500
Y66.602F1000
G0Z10
X-15Y-66.797
G1Z-1F500
Y66.802F1000
G0Z10
X-14Y-66.997
G1Z-1F500
Y67.002F1000
G0Z10
X-13Y-67.197
G1Z-1F500
Y67.202F1000
G0Z10
X-12Y-67.397
G1Z-1F500
Y67.402F1000
G0Z10
X-11Y-67.597
G1Z-1F500
Y67.602F1000
G0Z10
X-10Y-67.797
G1Z-1F500
Y67.802F1000
G0Z10
X-9Y-67.975
G1Z-0.9F500
Y-67.972Z-1
Y67.802F1000
G0Z10
X-8Y-67.997
G1Z-1F500
Y68.002F1000
G0Z10
X-7Y-68.175
G1Z-0.9F500
Y-68.172Z-1
Y68.002F1000
G0Z10
X-6Y-68.197
G1Z-1F500
Y68.202F1000
G0Z10
X-5Y-68.375
G1Z-0.9F500
Y-68.372Z-1
Y68.202F1000
G0Z10
X-4Y-68.397
G1Z-1F500
Y68.402F1000
G0Z10
X-3Y-68.575
G1Z-0.9F500
Y-68.572Z-1
Y68.402F1000
G0Z10
X-2Y-68.575
G1Z-0.9F500
Y-68.572Z-1
Y68.402F1000
G0Z10
X-1Y-68.575
G1Z-0.9F500
Y-68.572Z-1
Y68.402F1000
G0Z10
X0Y-68.575
G1Z-0.9F500
Y-68.572Z-1
Y68.402F1000
G0Z10
X1Y-68.575
G1Z-0.9F500
Y-68.572Z-1
Y68.402F1000
G0Z10
X2Y-68.575
G1Z-0.9F500
Y-68.572Z-1
Y68.402F1000
G0Z10
X3Y-68.575
G1Z-0.9F500
Y-68.572Z-1
Y68.402F1000
G0Z10
X4Y-68.397
G1Z-1F500
Y68.402F1000
G0Z10
X5Y-68.375
G1Z-0.9F500
Y-68.372Z-1
Y68.202F1000
G0Z10
X6Y-68.197
G1Z-1F500
Y68.202F1000
G0Z10
X7Y-68.175
G1Z-0.9F500
Y-68.172Z-1
Y68.002F1000
G0Z10
X8Y-67.997
G1Z-1F500
Y68.002F1000
G0Z10
X9Y-67.975
G1Z-0.9F500
Y-67.972Z-1
Y67.802F1000
G0Z10
X10Y-67.797
G1Z-1F500
Y67.802F1000
G0Z10
X11Y-67.597
G1Z-1F500
Y67.602F1000
G0Z10
X12Y-67.397
G1Z-1F500
Y67.402F1000
G0Z10
X13Y-67.197
G1Z-1F500
Y67.202F1000
G0Z10
X14Y-66.997
G1Z-1F500
Y67.002F1000
G0Z10
X15Y-66.797
G1Z-1F500
Y66.802F1000
G0Z10
X16Y-66.597
G1Z-1F500
Y66.602F1000
G0Z10
X17Y-66.375
G1Z-0.9F500
Y-66.372Z-1
Y66.202F1000
G0Z10
X18Y-65.997
G1Z-1F500
Y66.002F1000
G0Z10
X19Y-65.797
G1Z-1F500
Y65.802F1000
G0Z10
X20Y-65.575
G1Z-0.9F500
Y-65.572Z-1
Y65.402F1000
G0Z10
X21Y-65.175
G1Z-0.9F500
Y-65.172Z-1
Y65.002F1000
G0Z10
X22Y-64.797
G1Z-1F500
Y64.802F1000
G0Z10
X23Y-64.575
G1Z-0.9F500
Y-64.572Z-1
Y64.402F1000
G0Z10
X24Y-64.175
G1Z-0.9F500
Y-64.172Z-1
Y64.002F1000
G0Z10
X25Y-63.775
G1Z-0.9F500
Y-63.772Z-1
Y63.602F1000
G0Z10
X26Y-63.375
G1Z-0.9F500
Y-63.372Z-1
Y63.202F1000
G0Z10
X27Y-62.975
G1Z-0.9F500
Y-62.972Z-1
Y62.802F1000
G0Z10
X28Y-62.575
G1Z-0.9F500
Y-62.572Z-1
Y62.402F1000
G0Z10
X29Y-61.997
G1Z-1F500
Y62.002F1000
G0Z10
X30Y-61.575
G1Z-0.9F500
Y-61.572Z-1
Y61.402F1000
G0Z10
X31Y-60.997
G1Z-1F500
Y61.002F1000
G0Z10
X32Y-60.575
G1Z-0.9F500
Y-60.572Z-1
Y60.402F1000
G0Z10
X33Y-59.997
G1Z-1F500
Y60.002F1000
G0Z10
X34Y-59.397
G1Z-1F500
Y59.402F1000
G0Z10
X35Y-58.797
G1Z-1F500
Y58.802F1000
G0Z10
X36Y-58.197
G1Z-1F500
Y58.202F1000
G0Z10
X37Y-57.597
G1Z-1F500
Y57.602F1000
G0Z10
X38Y-56.975
G1Z-0.9F500
Y-56.972Z-1
Y56.802F1000
G0Z10
X39Y-56.197
G1Z-1F500
Y56.202F1000
G0Z10
X40Y-55.575
G1Z-0.9F500
Y-55.572Z-1
Y55.402F1000
G0Z10
X41Y-54.797
G1Z-1F500
Y54.802F1000
G0Z10
X42Y-53.997
G1Z-1F500
Y54.002F1000
G0Z10
X43Y-53.375
G1Z-0.9F500
Y-53.372Z-1
Y53.202F1000
G0Z10
X44Y-52.397
G1Z-1F500
Y52.402F1000
G0Z10
X45Y-51.597
G1Z-1F500
Y51.602F1000
G0Z10
X46Y-50.775
G1Z-0.9F500
Y-50.772Z-1
Y50.602F1000
G0Z10
X47Y-49.797
G1Z-1F500
Y49.802F1000
G0Z10
X48Y-48.797
G1Z-1F500
Y48.802F1000
G0Z10
X49Y-47.797
G1Z-1F500
Y47.802F1000
G0Z10
X50Y-46.797
G1Z-1F500
Y46.802F1000
G0Z10
X51Y-45.775
G1Z-0.9F500
Y-45.772Z-1
Y45.602F1000
G0Z10
X52Y-44.575
G1Z-0.9F500
Y-44.572Z-1
Y44.402F1000
G0Z10
X53Y-43.375
G1Z-0.9F500
Y-43.372Z-1
Y43.202F1000
G0Z10
X54Y-42.175
G1Z-0.9F500
Y-42.172Z-1
Y42.002F1000
G0Z10
X55Y-40.797
G1Z-1F500
Y40.802F1000
G0Z10
X56Y-39.397
G1Z-1F500
Y39.402F1000
G0Z10
X57Y-37.975
G1Z-0.9F500
Y-37.972Z-1
Y37.802F1000
G0Z10
X58Y-36.397
G1Z-1F500
Y36.402F1000
G0Z10
X59Y-34.797
G1Z-1F500
Y34.802F1000
G0Z10
X60Y-32.997
G1Z-1F500
Y33.002F1000
G0Z10
X61Y-31.175
G1Z-0.9F500
Y-31.172Z-1
Y31.002F1000
G0Z10
X62Y-29.175
G1Z-0.9F500
Y-29.172Z-1
Y29.002F1000
G0Z10
X63Y-26.975
G1Z-0.9F500
Y-26.972Z-1
Y26.802F1000
G0Z10
X64Y-24.375
G1Z-0.9F500
Y-24.372Z-1
Y24.202F1000
G0Z10
X65Y-21.575
G1Z-0.9F500
Y-21.572Z-1
Y21.402F1000
G0Z10
X66Y-18.375
G1Z-0.9F500
Y-18.372Z-1
Y18.202F1000
G0Z10
X67Y-14.197
G1Z-1F500
Y14.202F1000
G0Z10
X68Y-8.397
G1Z-1F500
Y8.402F1000
G0Z10
X-68Y-8.397
G1Z-1.1F500
Y8.402F1000
G0Z10
X-67Y-14.368
G1Z-1F500
Y-14.365Z-1.1
Y14.369F1000
Y14.372Z-1
G0Z10
X-66Y-18.372
G1Z-1F500
Y-18.369Z-1.1
Y18.37F1000
Y18.373Z-1
G0Z10
X-65Y-21.572
G1Z-1F500
Y-21.569Z-1.1
Y21.402F1000
G0Z10
X-64Y-24.372
G1Z-1F500
Y-24.369Z-1.1
Y24.202F1000
G0Z10
X-63Y-26.972
G1Z-1F500
Y-26.969Z-1.1
Y26.97F1000
Y26.973Z-1
G0Z10
X-62Y-29.172
G1Z-1F500
Y-29.169Z-1.1
Y29.002F1000
G0Z10
X-61Y-31.172
G1Z-1F500
Y-31.169Z-1.1
Y31.002F1000
G0Z10
X-60Y-32.997
G1Z-1.1F500
Y33.002F1000
G0Z10
X-59Y-34.797
G1Z-1.1F500
Y34.802F1000
G0Z10
X-58Y-36.397
G1Z-1.1F500
Y36.402F1000
G0Z10
X-57Y-37.972
G1Z-1F500
Y-37.969Z-1.1
Y37.802F1000
G0Z10
X-56Y-39.397
G1Z-1.1F500
Y39.402F1000
G0Z10
X-55Y-40.797
G1Z-1.1F500
Y40.802F1000
G0Z10
X-54Y-42.172
G1Z-1F500
Y-42.169Z-1.1
Y42.17F1000
Y42.173Z-1
G0Z10
X-53Y-43.372
G1Z-1F500
Y-43.369Z-1.1
Y43.202F1000
G0Z10
X-52Y-44.572
G1Z-1F500
Y-44.569Z-1.1
Y44.57F1000
Y44.573Z-1
G0Z10
X-51Y-45.772
G1Z-1F500
Y-45.769Z-1.1
Y45.602F1000
G0Z10
X-50Y-46.797
G1Z-1.1F500
Y46.802F1000
G0Z10
X-49Y-47.797
G1Z-1.1F500
Y47.802F1000
G0Z10
X-48Y-48.797
G1Z-1.1F500
Y48.802F1000
G0Z10
X-47Y-49.797
G1Z-1.1F500
Y49.802F1000
G0Z10
X-46Y-50.772
G1Z-1F500
Y-50.769Z-1.1
Y50.602F1000
G0Z10
X-45Y-51.597
G1Z-1.1F500
Y51.602F1000
G0Z10
X-44Y-52.397
G1Z-1.1F500
Y52.402F1000
G0Z10
X-43Y-53.372
G1Z-1F500
Y-53.369Z-1.1
Y53.202F1000
G0Z10
X-42Y-53.997
G1Z-1.1F500
Y54.002F1000
G0Z10
X-41Y-54.797
G1Z-1.1F500
Y54.802F1000
G0Z10
X-40Y-55.572
G1Z-1F500
Y-55.569Z-1.1
Y55.402F1000
G0Z10
X-39Y-56.197
G1Z-1.1F500
Y56.202F1000
G0Z10
X-38Y-56.972
G1Z-1F500
Y-56.969Z-1.1
Y56.97F1000
Y56.973Z-1
G0Z10
X-37Y-57.597
G1Z-1.1F500
Y57.602F1000
G0Z10
X-36Y-58.197
G1Z-1.1F500
Y58.202F1000
G0Z10
X-35Y-58.797
G1Z-1.1F500
Y58.802F1000
G0Z10
X-34Y-59.397
G1Z-1.1F500
Y59.402F1000
G0Z10
X-33Y-59.997
G1Z-1.1F500
Y60.002F1000
G0Z10
X-32Y-60.572
G1Z-1F500
Y-60.569Z-1.1
Y60.57F1000
Y60.573Z-1
G0Z10
X-31Y-60.997
G1Z-1.1F500
Y61.002F1000
G0Z10
X-30Y-61.572
G1Z-1F500
Y-61.569Z-1.1
Y61.57F1000
Y61.573Z-1
G0Z10
X-29Y-61.997
G1Z-1.1F500
Y62.002F1000
G0Z10
X-28Y-62.572
G1Z-1F500
Y-62.569Z-1.1
Y62.402F1000
G0Z10
X-27Y-62.972
G1Z-1F500
Y-62.969Z-1.1
Y62.97F1000
Y62.973Z-1
G0Z10
X-26Y-63.372
G1Z-1F500
Y-63.369Z-1.1
Y63.37F1000
Y63.373Z-1
G0Z10
X-25Y-63.772
G1Z-1F500
Y-63.769Z-1.1
Y63.77F1000
Y63.773Z-1
G0Z10
X-24Y-64.172
G1Z-1F500
Y-64.169Z-1.1
Y64.002F1000
G0Z10
X-23Y-64.572
G1Z-1F500
Y-64.569Z-1.1
Y64.402F1000
G0Z10
X-22Y-64.797
G1Z-1.1F500
Y64.802F1000
G0Z10
X-21Y-65.172
G1Z-1F500
Y-65.169Z-1.1
Y65.17F1000
Y65.173Z-1
G0Z10
X-20Y-65.572
G1Z-1F500
Y-65.569Z-1.1
Y65.402F1000
G0Z10
X-19Y-65.797
G1Z-1.1F500
Y65.802F1000
G0Z10
X-18Y-65.997
G1Z-1.1F500
Y66.002F1000
G0Z10
X-17Y-66.372
G1Z-1F500
Y-66.369Z-1.1
Y66.202F1000
G0Z10
X-16Y-66.597
G1Z-1.1F500
Y66.602F1000
G0Z10
X-15Y-66.797
G1Z-1.1F500
Y66.802F1000
G0Z10
X-14Y-66.997
G1Z-1.1F500
Y67.002F1000
G0Z10
X-13Y-67.197
G1Z-1.1F500
Y67.202F1000
G0Z10
X-12Y-67.397
G1Z-1.1F500
Y67.402F1000
G0Z10
X-11Y-67.597
G1Z-1.1F500
Y67.602F1000
G0Z10
X-10Y-67.797
G1Z-1.1F500
Y67.802F1000
G0Z10
X-9Y-67.972
G1Z-1F500
Y-67.969Z-1.1
Y67.802F1000
G0Z10
X-8Y-67.997
G1Z-1.1F500
Y68.002F1000
G0Z10
X-7Y-68.172
G1Z-1F500
Y-68.169Z-1.1
Y68.002F1000
G0Z10
X-6Y-68.197
G1Z-1.1F500
Y68.202F1000
G0Z10
X-5Y-68.372
G1Z-1F500
Y-68.369Z-1.1
Y68.202F1000
G0Z10
X-4Y-68.397
G1Z-1.1F500
Y68.402F1000
G0Z10
X-3Y-68.572
G1Z-1F500
Y-68.569Z-1.1
Y68.402F1000
G0Z10
X-2Y-68.572
G1Z-1F500
Y-68.569Z-1.1
Y68.402F1000
G0Z10
X-1Y-68.572
G1Z-1F500
Y-68.569Z-1.1
Y68.402F1000
G0Z10
X0Y-68.572
G1Z-1F500
Y-68.569Z-1.1
Y68.402F1000
G0Z10
X1Y-68.572
G1Z-1F500
Y-68.569Z-1.1
Y68.402F1000
G0Z10
X2Y-68.572
G1Z-1F500
Y-68.569Z-1.1
Y68.402F1000
G0Z10
X3Y-68.572
G1Z-1F500
Y-68.569Z-1.1
Y68.402F1000
G0Z10
X4Y-68.397
G1Z-1.1F500
Y68.402F1000
G0Z10
X5Y-68.372
G1Z-1F500
Y-68.369Z-1.1
Y68.202F1000
G0Z10
X6Y-68.197
G1Z-1.1F500
Y68.202F1000
G0Z10
X7Y-68.172
G1Z-1F500
Y-68.169Z-1.1
Y68.002F1000
G0Z10
X8Y-67.997
G1Z-1.1F500
Y68.002F1000
G0Z10
X9Y-67.972
G1Z-1F500
Y-67.969Z-1.1
Y67.802F1000
G0Z10
X10Y-67.797
G1Z-1.1F500
Y67.802F1000
G0Z10
X11Y-67.597
G1Z-1.1F500
Y67.602F1000
G0Z10
X12Y-67.397
G1Z-1.1F500
Y67.402F1000
G0Z10
X13Y-67.197
G1Z-1.1F500
Y67.202F1000
G0Z10
X14Y-66.997
G1Z-1.1F500
Y67.002F1000
G0Z10
X15Y-66.797
G1Z-1.1F500
Y66.802F1000
G0Z10
X16Y-66.597
G1Z-1.1F500
Y66.602F1000
G0Z10
X17Y-66.372
G1Z-1F500
Y-66.369Z-1.1
Y66.202F1000
G0Z10
X18Y-65.997
G1Z-1.1F500
Y66.002F1000
G0Z10
X19Y-65.797
G1Z-1.1F500
Y65.802F1000
G0Z10
X20Y-65.572
G1Z-1F500
Y-65.569Z-1.1
Y65.402F1000
G0Z10
X21Y-65.172
G1Z-1F500
Y-65.169Z-1.1
Y65.002F1000
G0Z10
X22Y-64.797
G1Z-1.1F500
Y64.802F1000
G0Z10
X23Y-64.572
G1Z-1F500
Y-64.569Z-1.1
Y64.402F1000
G0Z10
X24Y-64.172
G1Z-1F500
Y-64.169Z-1.1
Y64.002F1000
G0Z10
X25Y-63.772
G1Z-1F500
Y-63.769Z-1.1
Y63.602F1000
G0Z10
X26Y-63.372
G1Z-1F500
Y-63.369Z-1.1
Y63.202F1000
G0Z10
X27Y-62.972
G1Z-1F500
Y-62.969Z-1.1
Y62.802F1000
G0Z10
X28Y-62.572
G1Z-1F500
Y-62.569Z-1.1
Y62.402F1000
G0Z10
X29Y-61.997
G1Z-1.1F500
Y62.002F1000
G0Z10
X30Y-61.572
G1Z-1F500
Y-61.569Z-1.1
Y61.402F1000
G0Z10
X31Y-60.997
G1Z-1.1F500
Y61.002F1000
G0Z10
X32Y-60.572
G1Z-1F500
Y-60.569Z-1.1
Y60.402F1000
G0Z10
X33Y-59.997
G1Z-1.1F500
Y60.002F1000
G0Z10
X34Y-59.397
G1Z-1.1F500
Y59.402F1000
G0Z10
X35Y-58.797
G1Z-1.1F500
Y58.802F1000
G0Z10
X36Y-58.197
G1Z-1.1F500
Y58.202F1000
G0Z10
X37Y-57.597
G1Z-1.1F500
Y57.602F1000
G0Z10
X38Y-56.972
G1Z-1F500
Y-56.969Z-1.1
Y56.802F1000
G0Z10
X39Y-56.197
G1Z-1.1F500
Y56.202F1000
G0Z10
X40Y-55.572
G1Z-1F500
Y-55.569Z-1.1
Y55.402F1000
G0Z10
X41Y-54.797
G1Z-1.1F500
Y54.802F1000
G0Z10
X42Y-53.997
G1Z-1.1F500
Y54.002F1000
G0Z10
X43Y-53.372
G1Z-1F500
Y-53.369Z-1.1
Y53.202F1000
G0Z10
X44Y-52.397
G1Z-1.1F500
Y52.402F1000
G0Z10
X45Y-51.597
G1Z-1.1F500
Y51.602F1000
G0Z10
X46Y-50.772
G1Z-1F500
Y-50.769Z-1.1
Y50.602F1000
G0Z10
X47Y-49.797
G1Z-1.1F500
Y49.802F1000
G0Z10
X48Y-48.797
G1Z-1.1F500
Y48.802F1000
G0Z10
X49Y-47.797
G1Z-1.1F500
Y47.802F1000
G0Z10
X50Y-46.797
G1Z-1.1F500
Y46.802F1000
G0Z10
X51Y-45.772
G1Z-1F500
Y-45.769Z-1.1
Y45.602F1000
G0Z10
X52Y-44.572
G1Z-1F500
Y-44.569Z-1.1
Y44.402F1000
G0Z10
X53Y-43.372
G1Z-1F500
Y-43.369Z-1.1
Y43.202F1000
G0Z10
X54Y-42.172
G1Z-1F500
Y-42.169Z-1.1
Y42.002F1000
G0Z10
X55Y-40.797
G1Z-1.1F500
Y40.802F1000
G0Z10
X56Y-39.397
G1Z-1.1F500
Y39.402F1000
G0Z10
X57Y-37.972
G1Z-1F500
Y-37.969Z-1.1
Y37.802F1000
G0Z10
X58Y-36.397
G1Z-1.1F500
Y36.402F1000
G0Z10
X59Y-34.797
G1Z-1.1F500
Y34.802F1000
G0Z10
X60Y-32.997
G1Z-1.1F500
Y33.002F1000
G0Z10
X61Y-31.172
G1Z-1F500
Y-31.169Z-1.1
Y31.002F1000
G0Z10
X62Y-29.172
G1Z-1F500
Y-29.169Z-1.1
Y29.002F1000
G0Z10
X63Y-26.972
G1Z-1F500
Y-26.969Z-1.1
Y26.802F1000
G0Z10
X64Y-24.372
G1Z-1F500
Y-24.369Z-1.1
Y24.202F1000
G0Z10
X65Y-21.572
G1Z-1F500
Y-21.569Z-1.1
Y21.402F1000
G0Z10
X66Y-18.372
G1Z-1F500
Y-18.369Z-1.1
Y18.202F1000
G0Z10
X67Y-14.197
G1Z-1.1F500
Y14.202F1000
G0Z10
X68Y-8.397
G1Z-1.1F500
Y8.402F1000
G0Z10
X-68Y-8.397
G1Z-1.2F500
Y8.402F1000
G0Z10
X-67Y-14.365
G1Z-1.1F500
Y-14.363Z-1.2
Y14.366F1000
Y14.369Z-1.1
G0Z10
X-66Y-18.369
G1Z-1.1F500
Y-18.366Z-1.2
Y18.367F1000
Y18.37Z-1.1
G0Z10
X-65Y-21.569
G1Z-1.1F500
Y-21.566Z-1.2
Y21.402F1000
G0Z10
X-64Y-24.369
G1Z-1.1F500
Y-24.366Z-1.2
Y24.202F1000
G0Z10
X-63Y-26.969
G1Z-1.1F500
Y-26.966Z-1.2
Y26.967F1000
Y26.97Z-1.1
G0Z10
X-62Y-29.169
G1Z-1.1F500
Y-29.166Z-1.2
Y29.002F1000
G0Z10
X-61Y-31.169
G1Z-1.1F500
Y-31.166Z-1.2
Y31.002F1000
G0Z10
X-60Y-32.997
G1Z-1.2F500
Y33.002F1000
G0Z10
X-59Y-34.797
G1Z-1.2F500
Y34.802F1000
G0Z10
X-58Y-36.397
G1Z-1.2F500
Y36.402F1000
G0Z10
X-57Y-37.969
G1Z-1.1F500
Y-37.966Z-1.2
Y37.802F1000
G0Z10
X-56Y-39.397
G1Z-1.2F500
Y39.402F1000
G0Z10
X-55Y-40.797
G1Z-1.2F500
Y40.802F1000
G0Z10
X-54Y-42.169
G1Z-1.1F500
Y-42.166Z-1.2
Y42.167F1000
Y42.17Z-1.1
G0Z10
X-53Y-43.369
G1Z-1.1F500
Y-43.366Z-1.2
Y43.202F1000
G0Z10
X-52Y-44.569
G1Z-1.1F500
Y-44.566Z-1.2
Y44.567F1000
Y44.57Z-1.1
G0Z10
X-51Y-45.769
G1Z-1.1F500
Y-45.766Z-1.2
Y45.602F1000
G0Z10
X-50Y-46.797
G1Z-1.2F500
Y46.802F1000
G0Z10
X-49Y-47.797
G1Z-1.2F500
Y47.802F1000
G0Z10
X-48Y-48.797
G1Z-1.2F500
Y48.802F1000
G0Z10
X-47Y-49.797
G1Z-1.2F500
Y49.802F1000
G0Z10
X-46Y-50.769
G1Z-1.1F500
Y-50.766Z-1.2
Y50.602F1000
G0Z10
X-45Y-51.597
G1Z-1.2F500
Y51.602F1000
G0Z10
X-44Y-52.397
G1Z-1.2F500
Y52.402F1000
G0Z10
X-43Y-53.369
G1Z-1.1F500
Y-53.366Z-1.2
Y53.202F1000
G0Z10
X-42Y-53.997
G1Z-1.2F500
Y54.002F1000
G0Z10
X-41Y-54.797
G1Z-1.2F500
Y54.802F1000
G0Z10
X-40Y-55.569
G1Z-1.1F500
Y-55.566Z-1.2
Y55.402F1000
G0Z10
X-39Y-56.197
G1Z-1.2F500
Y56.202F1000
G0Z10
X-38Y-56.969
G1Z-1.1F500
Y-56.966Z-1.2
Y56.967F1000
Y56.97Z-1.1
G0Z10
X-37Y-57.597
G1Z-1.2F500
Y57.602F1000
G0Z10
X-36Y-58.197
G1Z-1.2F500
Y58.202F1000
G0Z10
X-35Y-58.797
G1Z-1.2F500
Y58.802F1000
G0Z10
X-34Y-59.397
G1Z-1.2F500
Y59.402F1000
G0Z10
X-33Y-59.997
G1Z-1.2F500
Y60.002F1000
G0Z10
X-32Y-60.569
G1Z-1.1F500
Y-60.566Z-1.2
Y60.567F1000
Y60.57Z-1.1
G0Z10
X-31Y-60.997
G1Z-1.2F500
Y61.002F1000
G0Z10
X-30Y-61.569
G1Z-1.1F500
Y-61.566Z-1.2
Y61.567F1000
Y61.57Z-1.1
G0Z10
X-29Y-61.997
G1Z-1.2F500
Y62.002F1000
G0Z10
X-28Y-62.569
G1Z-1.1F500
Y-62.566Z-1.2
Y62.402F1000
G0Z10
X-27Y-62.969
G1Z-1.1F500
Y-62.966Z-1.2
Y62.967F1000
Y62.97Z-1.1
G0Z10
X-26Y-63.369
G1Z-1.1F500
Y-63.366Z-1.2
Y63.367F1000
Y63.37Z-1.1
G0Z10
X-25Y-63.769
G1Z-1.1F500
Y-63.766Z-1.2
Y63.767F1000
Y63.77Z-1.1
G0Z10
X-24Y-64.169
G1Z-1.1F500
Y-64.166Z-1.2
Y64.002F1000
G0Z10
X-23Y-64.569
G1Z-1.1F500
Y-64.566Z-1.2
Y64.402F1000
G0Z10
X-22Y-64.797
G1Z-1.2F500
Y64.802F1000
G0Z10
X-21Y-65.169
G1Z-1.1F500
Y-65.166Z-1.2
Y65.167F1000
Y65.17Z-1.1
G0Z10
X-20Y-65.569
G1Z-1.1F500
Y-65.566Z-1.2
Y65.402F1000
G0Z10
X-19Y-65.797
G1Z-1.2F500
Y65.802F1000
G0Z10
X-18Y-65.997
G1Z-1.2F500
Y66.002F1000
G0Z10
X-17Y-66.369
G1Z-1.1F500
Y-66.366Z-1.2
Y66.202F1000
G0Z10
X-16Y-66.597
G1Z-1.2F500
Y66.602F1000
G0Z10
X-15Y-66.797
G1Z-1.2F500
Y66.802F1000
G0Z10
X-14Y-66.997
G1Z-1.2F500
Y67.002F1000
G0Z10
X-13Y-67.197
G1Z-1.2F500
Y67.202F1000
G0Z10
X-12Y-67.397
G1Z-1.2F500
Y67.402F1000
G0Z10
X-11Y-67.597
G1Z-1.2F500
Y67.602F1000
G0Z10
X-10Y-67.797
G1Z-1.2F500
Y67.802F1000
G0Z10
X-9Y-67.969
G1Z-1.1F500
Y-67.966Z-1.2
Y67.802F1000
G0Z10
X-8Y-67.997
G1Z-1.2F500
Y68.002F1000
G0Z10
X-7Y-68.169
G1Z-1.1F500
Y-68.166Z-1.2
Y68.002F1000
G0Z10
X-6Y-68.197
G1Z-1.2F500
Y68.202F1000
G0Z10
X-5Y-68.369
G1Z-1.1F500
Y-68.366Z-1.2
Y68.202F1000
G0Z10
X-4Y-68.397
G1Z-1.2F500
Y68.402F1000
G0Z10
X-3Y-68.569
G1Z-1.1F500
Y-68.566Z-1.2
Y68.402F1000
G0Z10
X-2Y-68.569
G1Z-1.1F500
Y-68.566Z-1.2
Y68.402F1000
G0Z10
X-1Y-68.569
G1Z-1.1F500
Y-68.566Z-1.2
Y68.402F1000
G0Z10
X0Y-68.569
G1Z-1.1F500
Y-68.566Z-1.2
Y68.402F1000
G0Z10
X1Y-68.569
G1Z-1.1F500
Y-68.566Z-1.2
Y68.402F1000
G0Z10
X2Y-68.569
G1Z-1.1F500
Y-68.566Z-1.2
Y68.402F1000
G0Z10
X3Y-68.569
G1Z-1.1F500
Y-68.566Z-1.2
Y68.402F1000
G0Z10
X4Y-68.397
G1Z-1.2F500
Y68.402F1000
G0Z10
X5Y-68.369
G1Z-1.1F500
Y-68.366Z-1.2
Y68.202F1000
G0Z10
X6Y-68.197
G1Z-1.2F500
Y68.202F1000
G0Z10
X7Y-68.169
G1Z-1.1F500
Y-68.166Z-1.2
Y68.002F1000
G0Z10
X8Y-67.997
G1Z-1.2F500
Y68.002F1000
G0Z10
X9Y-67.969
G1Z-1.1F500
Y-67.966Z-1.2
Y67.802F1000
G0Z10
X10Y-67.797
G1Z-1.2F500
Y67.802F1000
G0Z10
X11Y-67.597
G1Z-1.2F500
Y67.602F1000
G0Z10
X12Y-67.397
G1Z-1.2F500
Y67.402F1000
G0Z10
X13Y-67.197
G1Z-1.2F500
Y67.202F1000
G0Z10
X14Y-66.997
G1Z-1.2F500
Y67.002F1000
G0Z10
X15Y-66.797
G1Z-1.2F500
Y66.802F1000
G0Z10
X16Y-66.597
G1Z-1.2F500
Y66.602F1000
G0Z10
X17Y-66.369
G1Z-1.1F500
Y-66.366Z-1.2
Y66.202F1000
G0Z10
X18Y-65.997
G1Z-1.2F500
Y66.002F1000
G0Z10
X19Y-65.797
G1Z-1.2F500
Y65.802F1000
G0Z10
X20Y-65.569
G1Z-1.1F500
Y-65.566Z-1.2
Y65.402F1000
G0Z10
X21Y-65.169
G1Z-1.1F500
Y-65.166Z-1.2
Y65.002F1000
G0Z10
X22Y-64.797
G1Z-1.2F500
Y64.802F1000
G0Z10
X23Y-64.569
G1Z-1.1F500
Y-64.566Z-1.2
Y64.402F1000
G0Z10
X24Y-64.169
G1Z-1.1F500
Y-64.166Z-1.2
Y64.002F1000
G0Z10
X25Y-63.769
G1Z-1.1F500
Y-63.766Z-1.2
Y63.602F1000
G0Z10
X26Y-63.369
G1Z-1.1F500
Y-63.366Z-1.2
Y63.202F1000
G0Z10
X27Y-62.969
G1Z-1.1F500
Y-62.966Z-1.2
Y62.802F1000
G0Z10
X28Y-62.569
G1Z-1.1F500
Y-62.566Z-1.2
Y62.402F1000
G0Z10
X29Y-61.997
G1Z-1.2F500
Y62.002F1000
G0Z10
X30Y-61.569
G1Z-1.1F500
Y-61.566Z-1.2
Y61.402F1000
G0Z10
X31Y-60.997
G1Z-1.2F500
Y61.002F1000
G0Z10
X32Y-60.569
G1Z-1.1F500
Y-60.566Z-1.2
Y60.402F1000
G0Z10
X33Y-59.997
G1Z-1.2F500
Y60.002F1000
G0Z10
X34Y-59.397
G1Z-1.2F500
Y59.402F1000
G0Z10
X35Y-58.797
G1Z-1.2F500
Y58.802F1000
G0Z10
X36Y-58.197
G1Z-1.2F500
Y58.202F1000
G0Z10
X37Y-57.597
G1Z-1.2F500
Y57.602F1000
G0Z10
X38Y-56.969
G1Z-1.1F500
Y-56.966Z-1.2
Y56.802F1000
G0Z10
X39Y-56.197
G1Z-1.2F500
Y56.202F1000
G0Z10
X40Y-55.569
G1Z-1.1F500
Y-55.566Z-1.2
Y55.402F1000
G0Z10
X41Y-54.797
G1Z-1.2F500
Y54.802F1000
G0Z10
X42Y-53.997
G1Z-1.2F500
Y54.002F1000
G0Z10
X43Y-53.369
G1Z-1.1F500
Y-53.366Z-1.2
Y53.202F1000
G0Z10
X44Y-52.397
G1Z-1.2F500
Y52.402F1000
G0Z10
X45Y-51.597
G1Z-1.2F500
Y51.602F1000
G0Z10
X46Y-50.769
G1Z-1.1F500
Y-50.766Z-1.2
Y50.602F1000
G0Z10
X47Y-49.797
G1Z-1.2F500
Y49.802F1000
G0Z10
X48Y-48.797
G1Z-1.2F500
Y48.802F1000
G0Z10
X49Y-47.797
G1Z-1.2F500
Y47.802F1000
G0Z10
X50Y-46.797
G1Z-1.2F500
Y46.802F1000
G0Z10
X51Y-45.769
G1Z-1.1F500
Y-45.766Z-1.2
Y45.602F1000
G0Z10
X52Y-44.569
G1Z-1.1F500
Y-44.566Z-1.2
Y44.402F1000
G0Z10
X53Y-43.369
G1Z-1.1F500
Y-43.366Z-1.2
Y43.202F1000
G0Z10
X54Y-42.169
G1Z-1.1F500
Y-42.166Z-1.2
Y42.002F1000
G0Z10
X55Y-40.797
G1Z-1.2F500
Y40.802F1000
G0Z10
X56Y-39.397
G1Z-1.2F500
Y39.402F1000
G0Z10
X57Y-37.969
G1Z-1.1F500
Y-37.966Z-1.2
Y37.802F1000
G0Z10
X58Y-36.397
G1Z-1.2F500
Y36.402F1000
G0Z10
X59Y-34.797
G1Z-1.2F500
Y34.802F1000
G0Z10
X60Y-32.997
G1Z-1.2F500
Y33.002F1000
G0Z10
X61Y-31.169
G1Z-1.1F500
Y-31.166Z-1.2
Y31.002F1000
G0Z10
X62Y-29.169
G1Z-1.1F500
Y-29.166Z-1.2
Y29.002F1000
G0Z10
X63Y-26.969
G1Z-1.1F500
Y-26.966Z-1.2
Y26.802F1000
G0Z10
X64Y-24.369
G1Z-1.1F500
Y-24.366Z-1.2
Y24.202F1000
G0Z10
X65Y-21.569
G1Z-1.1F500
Y-21.566Z-1.2
Y21.402F1000
G0Z10
X66Y-18.369
G1Z-1.1F500
Y-18.366Z-1.2
Y18.202F1000
G0Z10
X67Y-14.197
G1Z-1.2F500
Y14.202F1000
G0Z10
X68Y-8.397
G1Z-1.2F500
Y8.402F1000
G0Z10
X-68Y-8.397
G1Z-1.3F500
Y8.402F1000
G0Z10
X-67Y-14.363
G1Z-1.2F500
Y-14.36Z-1.3
Y14.363F1000
Y14.366Z-1.2
G0Z10
X-66Y-18.366
G1Z-1.2F500
Y-18.363Z-1.3
Y18.364F1000
Y18.367Z-1.2
G0Z10
X-65Y-21.566
G1Z-1.2F500
Y-21.563Z-1.3
Y21.402F1000
G0Z10
X-64Y-24.366
G1Z-1.2F500
Y-24.363Z-1.3
Y24.202F1000
G0Z10
X-63Y-26.966
G1Z-1.2F500
Y-26.963Z-1.3
Y26.964F1000
Y26.967Z-1.2
G0Z10
X-62Y-29.166
G1Z-1.2F500
Y-29.163Z-1.3
Y29.002F1000
G0Z10
X-61Y-31.166
G1Z-1.2F500
Y-31.163Z-1.3
Y31.002F1000
G0Z10
X-60Y-32.997
G1Z-1.3F500
Y33.002F1000
G0Z10
X-59Y-34.797
G1Z-1.3F500
Y34.802F1000
G0Z10
X-58Y-36.397
G1Z-1.3F500
Y36.402F1000
G0Z10
X-57Y-37.966
G1Z-1.2F500
Y-37.963Z-1.3
Y37.802F1000
G0Z10
X-56Y-39.397
G1Z-1.3F500
Y39.402F1000
G0Z10
X-55Y-40.797
G1Z-1.3F500
Y40.802F1000
G0Z10
X-54Y-42.166
G1Z-1.2F500
Y-42.163Z-1.3
Y42.164F1000
Y42.167Z-1.2
G0Z10
X-53Y-43.366
G1Z-1.2F500
Y-43.363Z-1.3
Y43.202F1000
G0Z10
X-52Y-44.566
G1Z-1.2F500
Y-44.563Z-1.3
Y44.564F1000
Y44.567Z-1.2
G0Z10
X-51Y-45.766
G1Z-1.2F500
Y-45.763Z-1.3
Y45.602F1000
G0Z10
X-50Y-46.797
G1Z-1.3F500
Y46.802F1000
G0Z10
X-49Y-47.797
G1Z-1.3F500
Y47.802F1000
G0Z10
X-48Y-48.797
G1Z-1.3F500
Y48.802F1000
G0Z10
X-47Y-49.797
G1Z-1.3F500
Y49.802F1000
G0Z10
X-46Y-50.766
G1Z-1.2F500
Y-50.763Z-1.3
Y50.602F1000
G0Z10
X-45Y-51.597
G1Z-1.3F500
Y51.602F1000
G0Z10
X-44Y-52.397
G1Z-1.3F500
Y52.402F1000
G0Z10
X-43Y-53.366
G1Z-1.2F500
Y-53.363Z-1.3
Y53.202F1000
G0Z10
X-42Y-53.997
G1Z-1.3F500
Y54.002F1000
G0Z10
X-41Y-54.797
G1Z-1.3F500
Y54.802F1000
G0Z10
X-40Y-55.566
G1Z-1.2F500
Y-55.563Z-1.3
Y55.402F1000
G0Z10
X-39Y-56.197
G1Z-1.3F500
Y56.202F1000
G0Z10
X-38Y-56.966
G1Z-1.2F500
Y-56.963Z-1.3
Y56.964F1000
Y56.967Z-1.2
G0Z10
X-37Y-57.597
G1Z-1.3F500
Y57.602F1000
G0Z10
X-36Y-58.197
G1Z-1.3F500
Y58.202F1000
G0Z10
X-35Y-58.797
G1Z-1.3F500
Y58.802F1000
G0Z10
X-34Y-59.397
G1Z-1.3F500
Y59.402F1000
G0Z10
X-33Y-59.997
G1Z-1.3F500
Y60.002F1000
G0Z10
X-32Y-60.566
G1Z-1.2F500
Y-60.563Z-1.3
Y60.564F1000
Y60.567Z-1.2
G0Z10
X-31Y-60.997
G1Z-1.3F500
Y61.002F1000
G0Z10
X-30Y-61.566
G1Z-1.2F500
Y-61.563Z-1.3
Y61.564F1000
Y61.567Z-1.2
G0Z10
X-29Y-61.997
G1Z-1.3F500
Y62.002F1000
G0Z10
X-28Y-62.566
G1Z-1.2F500
Y-62.563Z-1.3
Y62.402F1000
G0Z10
X-27Y-62.966
G1Z-1.2F500
Y-62.963Z-1.3
Y62.964F1000
Y62.967Z-1.2
G0Z10
X-26Y-63.366
G1Z-1.2F500
Y-63.363Z-1.3
Y63.364F1000
Y63.367Z-1.2
G0Z10
X-25Y-63.766
G1Z-1.2F500
Y-63.763Z-1.3
Y63.764F1000
Y63.767Z-1.2
G0Z10
X-24Y-64.166
G1Z-1.2F500
Y-64.163Z-1.3
Y64.002F1000
G0Z10
X-23Y-64.566
G1Z-1.2F500
Y-64.563Z-1.3
Y64.402F1000
G0Z10
X-22Y-64.797
G1Z-1.3F500
Y64.802F1000
G0Z10
X-21Y-65.166
G1Z-1.2F500
Y-65.163Z-1.3
Y65.164F1000
Y65.167Z-1.2
G0Z10
X-20Y-65.566
G1Z-1.2F500
Y-65.563Z-1.3
Y65.402F1000
G0Z10
X-19Y-65.797
G1Z-1.3F500
Y65.802F1000
G0Z10
X-18Y-65.997
G1Z-1.3F500
Y66.002F1000
G0Z10
X-17Y-66.366
G1Z-1.2F500
Y-66.363Z-1.3
Y66.202F1000
G0Z10
X-16Y-66.597
G1Z-1.3F500
Y66.602F1000
G0Z10
X-15Y-66.797
G1Z-1.3F500
Y66.802F1000
G0Z10
X-14Y-66.997
G1Z-1.3F500
Y67.002F1000
G0Z10
X-13Y-67.197
G1Z-1.3F500
Y67.202F1000
G0Z10
X-12Y-67.397
G1Z-1.3F500
Y67.402F1000
G0Z10
X-11Y-67.597
G1Z-1.3F500
Y67.602F1000
G0Z10
X-10Y-67.797
G1Z-1.3F500
Y67.802F1000
G0Z10
X-9Y-67.966
G1Z-1.2F500
Y-67.963Z-1.3
Y67.802F1000
G0Z10
X-8Y-67.997
G1Z-1.3F500
Y68.002F1000
G0Z10
X-7Y-68.166
G1Z-1.2F500
Y-68.163Z-1.3
Y68.002F1000
G0Z10
X-6Y-68.197
G1Z-1.3F500
Y68.202F1000
G0Z10
X-5Y-68.366
G1Z-1.2F500
Y-68.363Z-1.3
Y68.202F1000
G0Z10
X-4Y-68.397
G1Z-1.3F500
Y68.402F1000
G0Z10
X-3Y-68.566
G1Z-1.2F500
Y-68.563Z-1.3
Y68.402F1000
G0Z10
X-2Y-68.566
G1Z-1.2F500
Y-68.563Z-1.3
Y68.402F1000
G0Z10
X-1Y-68.566
G1Z-1.2F500
Y-68.563Z-1.3
Y68.402F1000
G0Z10
X0Y-68.566
G1Z-1.2F500
Y-68.563Z-1.3
Y68.402F1000
G0Z10
X1Y-68.566
G1Z-1.2F500
Y-68.563Z-1.3
Y68.402F1000
G0Z10
X2Y-68.566
G1Z-1.2F500
Y-68.563Z-1.3
Y68.402F1000
G0Z10
X3Y-68.566
G1Z-1.2F500
Y-68.563Z-1.3
Y68.402F1000
G0Z10
X4Y-68.397
G1Z-1.3F500
Y68.402F1000
G0Z10
X5Y-68.366
G1Z-1.2F500
Y-68.363Z-1.3
Y68.202F1000
G0Z10
X6Y-68.197
G1Z-1.3F500
Y68.202F1000
G0Z10
X7Y-68.166
G1Z-1.2F500
Y-68.163Z-1.3
Y68.002F1000
G0Z10
X8Y-67.997
G1Z-1.3F500
Y68.002F1000
G0Z10
X9Y-67.966
G1Z-1.2F500
Y-67.963Z-1.3
Y67.802F1000
G0Z10
X10Y-67.797
G1Z-1.3F500
Y67.802F1000
G0Z10
X11Y-67.597
G1Z-1.3F500
Y67.602F1000
G0Z10
X12Y-67.397
G1Z-1.3F500
Y67.402F1000
G0Z10
X13Y-67.197
G1Z-1.3F500
Y67.202F1000
G0Z10
X14Y-66.997
G1Z-1.3F500
Y67.002F1000
G0Z10
X15Y-66.797
G1Z-1.3F500
Y66.802F1000
G0Z10
X16Y-66.597
G1Z-1.3F500
Y66.602F1000
G0Z10
X17Y-66.366
G1Z-1.2F500
Y-66.363Z-1.3
Y66.202F1000
G0Z10
X18Y-65.997
G1Z-1.3F500
Y66.002F1000
G0Z10
X19Y-65.797
G1Z-1.3F500
Y65.802F1000
G0Z10
X20Y-65.566
G1Z-1.2F500
Y-65.563Z-1.3
Y65.402F1000
G0Z10
X21Y-65.166
G1Z-1.2F500
Y-65.163Z-1.3
Y65.002F1000
G0Z10
X22Y-64.797
G1Z-1.3F500
Y64.802F1000
G0Z10
X23Y-64.566
G1Z-1.2F500
Y-64.563Z-1.3
Y64.402F1000
G0Z10
X24Y-64.166
G1Z-1.2F500
Y-64.163Z-1.3
Y64.002F1000
G0Z10
X25Y-63.766
G1Z-1.2F500
Y-63.763Z-1.3
Y63.602F1000
G0Z10
X26Y-63.366
G1Z-1.2F500
Y-63.363Z-1.3
Y63.202F1000
G0Z10
X27Y-62.966
G1Z-1.2F500
Y-62.963Z-1.3
Y62.802F1000
G0Z10
X28Y-62.566
G1Z-1.2F500
Y-62.563Z-1.3
Y62.402F1000
G0Z10
X29Y-61.997
G1Z-1.3F500
Y62.002F1000
G0Z10
X30Y-61.566
G1Z-1.2F500
Y-61.563Z-1.3
Y61.402F1000
G0Z10
X31Y-60.997
G1Z-1.3F500
Y61.002F1000
G0Z10
X32Y-60.566
G1Z-1.2F500
Y-60.563Z-1.3
Y60.402F1000
G0Z10
X33Y-59.997
G1Z-1.3F500
Y60.002F1000
G0Z10
X34Y-59.397
G1Z-1.3F500
Y59.402F1000
G0Z10
X35Y-58.797
G1Z-1.3F500
Y58.802F1000
G0Z10
X36Y-58.197
G1Z-1.3F500
Y58.202F1000
G0Z10
X37Y-57.597
G1Z-1.3F500
Y57.602F1000
G0Z10
X38Y-56.966
G1Z-1.2F500
Y-56.963Z-1.3
Y56.802F1000
G0Z10
X39Y-56.197
G1Z-1.3F500
Y56.202F1000
G0Z10
X40Y-55.566
G1Z-1.2F500
Y-55.563Z-1.3
Y55.402F1000
G0Z10
X41Y-54.797
G1Z-1.3F500
Y54.802F1000
G0Z10
X42Y-53.997
G1Z-1.3F500
Y54.002F1000
G0Z10
X43Y-53.366
G1Z-1.2F500
Y-53.363Z-1.3
Y53.202F1000
G0Z10
X44Y-52.397
G1Z-1.3F500
Y52.402F1000
G0Z10
X45Y-51.597
G1Z-1.3F500
Y51.602F1000
G0Z10
X46Y-50.766
G1Z-1.2F500
Y-50.763Z-1.3
Y50.602F1000
G0Z10
X47Y-49.797
G1Z-1.3F500
Y49.802F1000
G0Z10
X48Y-48.797
G1Z-1.3F500
Y48.802F1000
G0Z10
X49Y-47.797
G1Z-1.3F500
Y47.802F1000
G0Z10
X50Y-46.797
G1Z-1.3F500
Y46.802F1000
G0Z10
X51Y-45.766
G1Z-1.2F500
Y-45.763Z-1.3
Y45.602F1000
G0Z10
X52Y-44.566
G1Z-1.2F500
Y-44.563Z-1.3
Y44.402F1000
G0Z10
X53Y-43.366
G1Z-1.2F500
Y-43.363Z-1.3
Y43.202F1000
G0Z10
X54Y-42.166
G1Z-1.2F500
Y-42.163Z-1.3
Y42.002F1000
G0Z10
X55Y-40.797
G1Z-1.3F500
Y40.802F1000
G0Z10
X56Y-39.397
G1Z-1.3F500
Y39.402F1000
G0Z10
X57Y-37.966
G1Z-1.2F500
Y-37.963Z-1.3
Y37.802F1000
G0Z10
X58Y-36.397
G1Z-1.3F500
Y36.402F1000
G0Z10
X59Y-34.797
G1Z-1.3F500
Y34.802F1000
G0Z10
X60Y-32.997
G1Z-1.3F500
Y33.002F1000
G0Z10
X61Y-31.166
G1Z-1.2F500
Y-31.163Z-1.3
Y31.002F1000
G0Z10
X62Y-29.166
G1Z-1.2F500
Y-29.163Z-1.3
Y29.002F1000
G0Z10
X63Y-26.966
G1Z-1.2F500
Y-26.963Z-1.3
Y26.802F1000
G0Z10
X64Y-24.366
G1Z-1.2F500
Y-24.363Z-1.3
Y24.202F1000
G0Z10
X65Y-21.566
G1Z-1.2F500
Y-21.563Z-1.3
Y21.402F1000
G0Z10
X66Y-18.366
G1Z-1.2F500
Y-18.363Z-1.3
Y18.202F1000
G0Z10
X67Y-14.197
G1Z-1.3F500
Y14.202F1000
G0Z10
X68Y-8.397
G1Z-1.3F500
Y8.402F1000
G0Z10
X-68Y-8.397
G1Z-1.4F500
Y8.402F1000
G0Z10
X-67Y-14.36
G1Z-1.3F500
Y-14.357Z-1.4
Y14.36F1000
Y14.363Z-1.3
G0Z10
X-66Y-18.363
G1Z-1.3F500
Y-18.36Z-1.4
Y18.361F1000
Y18.364Z-1.3
G0Z10
X-65Y-21.563
G1Z-1.3F500
Y-21.56Z-1.4
Y21.402F1000
G0Z10
X-64Y-24.363
G1Z-1.3F500
Y-24.36Z-1.4
Y24.202F1000
G0Z10
X-63Y-26.963
G1Z-1.3F500
Y-26.96Z-1.4
Y26.961F1000
Y26.964Z-1.3
G0Z10
X-62Y-29.163
G1Z-1.3F500
Y-29.16Z-1.4
Y29.002F1000
G0Z10
X-61Y-31.163
G1Z-1.3F500
Y-31.16Z-1.4
Y31.002F1000
G0Z10
X-60Y-32.997
G1Z-1.4F500
Y33.002F1000
G0Z10
X-59Y-34.797
G1Z-1.4F500
Y34.802F1000
G0Z10
X-58Y-36.397
G1Z-1.4F500
Y36.402F1000
G0Z10
X-57Y-37.963
G1Z-1.3F500
Y-37.96Z-1.4
Y37.802F1000
G0Z10
X-56Y-39.397
G1Z-1.4F500
Y39.402F1000
G0Z10
X-55Y-40.797
G1Z-1.4F500
Y40.802F1000
G0Z10
X-54Y-42.163
G1Z-1.3F500
Y-42.16Z-1.4
Y42.161F1000
Y42.164Z-1.3
G0Z10
X-53Y-43.363
G1Z-1.3F500
Y-43.36Z-1.4
Y43.202F1000
G0Z10
X-52Y-44.563
G1Z-1.3F500
Y-44.56Z-1.4
Y44.561F1000
Y44.564Z-1.3
G0Z10
X-51Y-45.763
G1Z-1.3F500
Y-45.76Z-1.4
Y45.602F1000
G0Z10
X-50Y-46.797
G1Z-1.4F500
Y46.802F1000
G0Z10
X-49Y-47.797
G1Z-1.4F500
Y47.802F1000
G0Z10
X-48Y-48.797
G1Z-1.4F500
Y48.802F1000
G0Z10
X-47Y-49.797
G1Z-1.4F500
Y49.802F1000
G0Z10
X-46Y-50.763
G1Z-1.3F500
Y-50.76Z-1.4
Y50.602F1000
G0Z10
X-45Y-51.597
G1Z-1.4F500
Y51.602F1000
G0Z10
X-44Y-52.397
G1Z-1.4F500
Y52.402F1000
G0Z10
X-43Y-53.363
G1Z-1.3F500
Y-53.36Z-1.4
Y53.202F1000
G0Z10
X-42Y-53.997
G1Z-1.4F500
Y54.002F1000
G0Z10
X-41Y-54.797
G1Z-1.4F500
Y54.802F1000
G0Z10
X-40Y-55.563
G1Z-1.3F500
Y-55.56Z-1.4
Y55.402F1000
G0Z10
X-39Y-56.197
G1Z-1.4F500
Y56.202F1000
G0Z10
X-38Y-56.963
G1Z-1.3F500
Y-56.96Z-1.4
Y56.961F1000
Y56.964Z-1.3
G0Z10
X-37Y-57.597
G1Z-1.4F500
Y57.602F1000
G0Z10
X-36Y-58.197
G1Z-1.4F500
Y58.202F1000
G0Z10
X-35Y-58.797
G1Z-1.4F500
Y58.802F1000
G0Z10
X-34Y-59.397
G1Z-1.4F500
Y59.402F1000
G0Z10
X-33Y-59.997
G1Z-1.4F500
Y60.002F1000
G0Z10
X-32Y-60.563
G1Z-1.3F500
Y-60.56Z-1.4
Y60.561F1000
Y60.564Z-1.3
G0Z10
X-31Y-60.997
G1Z-1.4F500
Y61.002F1000
G0Z10
X-30Y-61.563
G1Z-1.3F500
Y-61.56Z-1.4
Y61.561F1000
Y61.564Z-1.3
G0Z10
X-29Y-61.997
G1Z-1.4F500
Y62.002F1000
G0Z10
X-28Y-62.563
G1Z-1.3F500
Y-62.56Z-1.4
Y62.402F1000
G0Z10
X-27Y-62.963
G1Z-1.3F500
Y-62.96Z-1.4
Y62.961F1000
Y62.964Z-1.3
G0Z10
X-26Y-63.363
G1Z-1.3F500
Y-63.36Z-1.4
Y63.361F1000
Y63.364Z-1.3
G0Z10
X-25Y-63.763
G1Z-1.3F500
Y-63.76Z-1.4
Y63.761F1000
Y63.764Z-1.3
G0Z10
X-24Y-64.163
G1Z-1.3F500
Y-64.16Z-1.4
Y64.002F1000
G0Z10
X-23Y-64.563
G1Z-1.3F500
Y-64.56Z-1.4
Y64.402F1000
G0Z10
X-22Y-64.797
G1Z-1.4F500
Y64.802F1000
G0Z10
X-21Y-65.163
G1Z-1.3F500
Y-65.16Z-1.4
Y65.161F1000
Y65.164Z-1.3
G0Z10
X-20Y-65.563
G1Z-1.3F500
Y-65.56Z-1.4
Y65.402F1000
G0Z10
X-19Y-65.797
G1Z-1.4F500
Y65.802F1000
G0Z10
X-18Y-65.997
G1Z-1.4F500
Y66.002F1000
G0Z10
X-17Y-66.363
G1Z-1.3F500
Y-66.36Z-1.4
Y66.202F1000
G0Z10
X-16Y-66.597
G1Z-1.4F500
Y66.602F1000
G0Z10
X-15Y-66.797
G1Z-1.4F500
Y66.802F1000
G0Z10
X-14Y-66.997
G1Z-1.4F500
Y67.002F1000
G0Z10
X-13Y-67.197
G1Z-1.4F500
Y67.202F1000
G0Z10
X-12Y-67.397
G1Z-1.4F500
Y67.402F1000
G0Z10
X-11Y-67.597
G1Z-1.4F500
Y67.602F1000
G0Z10
X-10Y-67.797
G1Z-1.4F500
Y67.802F1000
G0Z10
X-9Y-67.963
G1Z-1.3F500
Y-67.96Z-1.4
Y67.802F1000
G0Z10
X-8Y-67.997
G1Z-1.4F500
Y68.002F1000
G0Z10
X-7Y-68.163
G1Z-1.3F500
Y-68.16Z-1.4
Y68.002F1000
G0Z10
X-6Y-68.197
G1Z-1.4F500
Y68.202F1000
G0Z10
X-5Y-68.363
G1Z-1.3F500
Y-68.36Z-1.4
Y68.202F1000
G0Z10
X-4Y-68.397
G1Z-1.4F500
Y68.402F1000
G0Z10
X-3Y-68.563
G1Z-1.3F500
Y-68.56Z-1.4
Y68.402F1000
G0Z10
X-2Y-68.563
G1Z-1.3F500
Y-68.56Z-1.4
Y68.402F1000
G0Z10
X-1Y-68.563
G1Z-1.3F500
Y-68.56Z-1.4
Y68.402F1000
G0Z10
X0Y-68.563
G1Z-1.3F500
Y-68.56Z-1.4
Y68.402F1000
G0Z10
X1Y-68.563
G1Z-1.3F500
Y-68.56Z-1.4
Y68.402F1000
G0Z10
X2Y-68.563
G1Z-1.3F500
Y-68.56Z-1.4
Y68.402F1000
G0Z10
X3Y-68.563
G1Z-1.3F500
Y-68.56Z-1.4
Y68.402F1000
G0Z10
X4Y-68.397
G1Z-1.4F500
Y68.402F1000
G0Z10
X5Y-68.363
G1Z-1.3F500
Y-68.36Z-1.4
Y68.202F1000
G0Z10
X6Y-68.197
G1Z-1.4F500
Y68.202F1000
G0Z10
X7Y-68.163
G1Z-1.3F500
Y-68.16Z-1.4
Y68.002F1000
G0Z10
X8Y-67.997
G1Z-1.4F500
Y68.002F1000
G0Z10
X9Y-67.963
G1Z-1.3F500
Y-67.96Z-1.4
Y67.802F1000
G0Z10
X10Y-67.797
G1Z-1.4F500
Y67.802F1000
G0Z10
X11Y-67.597
G1Z-1.4F500
Y67.602F1000
G0Z10
X12Y-67.397
G1Z-1.4F500
Y67.402F1000
G0Z10
X13Y-67.197
G1Z-1.4F500
Y67.202F1000
G0Z10
X14Y-66.997
G1Z-1.4F500
Y67.002F1000
G0Z10
X15Y-66.797
G1Z-1.4F500
Y66.802F1000
G0Z10
X16Y-66.597
G1Z-1.4F500
Y66.602F1000
G0Z10
X17Y-66.363
G1Z-1.3F500
Y-66.36Z-1.4
Y66.202F1000
G0Z10
X18Y-65.997
G1Z-1.4F500
Y66.002F1000
G0Z10
X19Y-65.797
G1Z-1.4F500
Y65.802F1000
G0Z10
X20Y-65.563
G1Z-1.3F500
Y-65.56Z-1.4
Y65.402F1000
G0Z10
X21Y-65.163
G1Z-1.3F500
Y-65.16Z-1.4
Y65.002F1000
G0Z10
X22Y-64.797
G1Z-1.4F500
Y64.802F1000
G0Z10
X23Y-64.563
G1Z-1.3F500
Y-64.56Z-1.4
Y64.402F1000
G0Z10
X24Y-64.163
G1Z-1.3F500
Y-64.16Z-1.4
Y64.002F1000
G0Z10
X25Y-63.763
G1Z-1.3F500
Y-63.76Z-1.4
Y63.602F1000
G0Z10
X26Y-63.363
G1Z-1.3F500
Y-63.36Z-1.4
Y63.202F1000
G0Z10
X27Y-62.963
G1Z-1.3F500
Y-62.96Z-1.4
Y62.802F1000
G0Z10
X28Y-62.563
G1Z-1.3F500
Y-62.56Z-1.4
Y62.402F1000
G0Z10
X29Y-61.997
G1Z-1.4F500
Y62.002F1000
G0Z10
X30Y-61.563
G1Z-1.3F500
Y-61.56Z-1.4
Y61.402F1000
G0Z10
X31Y-60.997
G1Z-1.4F500
Y61.002F1000
G0Z10
X32Y-60.563
G1Z-1.3F500
Y-60.56Z-1.4
Y60.402F1000
G0Z10
X33Y-59.997
G1Z-1.4F500
Y60.002F1000
G0Z10
X34Y-59.397
G1Z-1.4F500
Y59.402F1000
G0Z10
X35Y-58.797
G1Z-1.4F500
Y58.802F1000
G0Z10
X36Y-58.197
G1Z-1.4F500
Y58.202F1000
G0Z10
X37Y-57.597
G1Z-1.4F500
Y57.602F1000
G0Z10
X38Y-56.963
G1Z-1.3F500
Y-56.96Z-1.4
Y56.802F1000
G0Z10
X39Y-56.197
G1Z-1.4F500
Y56.202F1000
G0Z10
X40Y-55.563
G1Z-1.3F500
Y-55.56Z-1.4
Y55.402F1000
G0Z10
X41Y-54.797
G1Z-1.4F500
Y54.802F1000
G0Z10
X42Y-53.997
G1Z-1.4F500
Y54.002F1000
G0Z10
X43Y-53.363
G1Z-1.3F500
Y-53.36Z-1.4
Y53.202F1000
G0Z10
X44Y-52.397
G1Z-1.4F500
Y52.402F1000
G0Z10
X45Y-51.597
G1Z-1.4F500
Y51.602F1000
G0Z10
X46Y-50.763
G1Z-1.3F500
Y-50.76Z-1.4
Y50.602F1000
G0Z10
X47Y-49.797
G1Z-1.4F500
Y49.802F1000
G0Z10
X48Y-48.797
G1Z-1.4F500
Y48.802F1000
G0Z10
X49Y-47.797
G1Z-1.4F500
Y47.802F1000
G0Z10
X50Y-46.797
G1Z-1.4F500
Y46.802F1000
G0Z10
X51Y-45.763
G1Z-1.3F500
Y-45.76Z-1.4
Y45.602F1000
G0Z10
X52Y-44.563
G1Z-1.3F500
Y-44.56Z-1.4
Y44.402F1000
G0Z10
X53Y-43.363
G1Z-1.3F500
Y-43.36Z-1.4
Y43.202F1000
G0Z10
X54Y-42.163
G1Z-1.3F500
Y-42.16Z-1.4
Y42.002F1000
G0Z10
X55Y-40.797
G1Z-1.4F500
Y40.802F1000
G0Z10
X56Y-39.397
G1Z-1.4F500
Y39.402F1000
G0Z10
X57Y-37.963
G1Z-1.3F500
Y-37.96Z-1.4
Y37.802F1000
G0Z10
X58Y-36.397
G1Z-1.4F500
Y36.402F1000
G0Z10
X59Y-34.797
G1Z-1.4F500
Y34.802F1000
G0Z10
X60Y-32.997
G1Z-1.4F500
Y33.002F1000
G0Z10
X61Y-31.163
G1Z-1.3F500
Y-31.16Z-1.4
Y31.002F1000
G0Z10
X62Y-29.163
G1Z-1.3F500
Y-29.16Z-1.4
Y29.002F1000
G0Z10
X63Y-26.963
G1Z-1.3F500
Y-26.96Z-1.4
Y26.802F1000
G0Z10
X64Y-24.363
G1Z-1.3F500
Y-24.36Z-1.4
Y24.202F1000
G0Z10
X65Y-21.563
G1Z-1.3F500
Y-21.56Z-1.4
Y21.402F1000
G0Z10
X66Y-18.363
G1Z-1.3F500
Y-18.36Z-1.4
Y18.202F1000
G0Z10
X67Y-14.197
G1Z-1.4F500
Y14.202F1000
G0Z10
X68Y-8.397
G1Z-1.4F500
Y8.402F1000
G0Z10
X-68Y-8.397
G1Z-1.5F500
Y8.402F1000
G0Z10
X-67Y-14.357
G1Z-1.4F500
Y-14.354Z-1.5
Y14.357F1000
Y14.36Z-1.4
G0Z10
X-66Y-18.36
G1Z-1.4F500
Y-18.357Z-1.5
Y18.358F1000
Y18.361Z-1.4
G0Z10
X-65Y-21.56
G1Z-1.4F500
Y-21.557Z-1.5
Y21.402F1000
G0Z10
X-64Y-24.36
G1Z-1.4F500
Y-24.357Z-1.5
Y24.202F1000
G0Z10
X-63Y-26.96
G1Z-1.4F500
Y-26.957Z-1.5
Y26.958F1000
Y26.961Z-1.4
G0Z10
X-62Y-29.16
G1Z-1.4F500
Y-29.157Z-1.5
Y29.002F1000
G0Z10
X-61Y-31.16
G1Z-1.4F500
Y-31.157Z-1.5
Y31.002F1000
G0Z10
X-60Y-32.997
G1Z-1.5F500
Y33.002F1000
G0Z10
X-59Y-34.797
G1Z-1.5F500
Y34.802F1000
G0Z10
X-58Y-36.397
G1Z-1.5F500
Y36.402F1000
G0Z10
X-57Y-37.96
G1Z-1.4F500
Y-37.957Z-1.5
Y37.802F1000
G0Z10
X-56Y-39.397
G1Z-1.5F500
Y39.402F1000
G0Z10
X-55Y-40.797
G1Z-1.5F500
Y40.802F1000
G0Z10
X-54Y-42.16
G1Z-1.4F500
Y-42.158Z-1.5
Y42.158F1000
Y42.161Z-1.4
G0Z10
X-53Y-43.36
G1Z-1.4F500
Y-43.358Z-1.5
Y43.202F1000
G0Z10
X-52Y-44.56
G1Z-1.4F500
Y-44.558Z-1.5
Y44.558F1000
Y44.561Z-1.4
G0Z10
X-51Y-45.76
G1Z-1.4F500
Y-45.758Z-1.5
Y45.602F1000
G0Z10
X-50Y-46.797
G1Z-1.5F500
Y46.802F1000
G0Z10
X-49Y-47.797
G1Z-1.5F500
Y47.802F1000
G0Z10
X-48Y-48.797
G1Z-1.5F500
Y48.802F1000
G0Z10
X-47Y-49.797
G1Z-1.5F500
Y49.802F1000
G0Z10
X-46Y-50.76
G1Z-1.4F500
Y-50.758Z-1.5
Y50.602F1000
G0Z10
X-45Y-51.597
G1Z-1.5F500
Y51.602F1000
G0Z10
X-44Y-52.397
G1Z-1.5F500
Y52.402F1000
G0Z10
X-43Y-53.36
G1Z-1.4F500
Y-53.358Z-1.5
Y53.202F1000
G0Z10
X-42Y-53.997
G1Z-1.5F500
Y54.002F1000
G0Z10
X-41Y-54.797
G1Z-1.5F500
Y54.802F1000
G0Z10
X-40Y-55.56
G1Z-1.4F500
Y-55.558Z-1.5
Y55.402F1000
G0Z10
X-39Y-56.197
G1Z-1.5F500
Y56.202F1000
G0Z10
X-38Y-56.96
G1Z-1.4F500
Y-56.958Z-1.5
Y56.958F1000
Y56.961Z-1.4
G0Z10
X-37Y-57.597
G1Z-1.5F500
Y57.602F1000
G0Z10
X-36Y-58.197
G1Z-1.5F500
Y58.202F1000
G0Z10
X-35Y-58.797
G1Z-1.5F500
Y58.802F1000
G0Z10
X-34Y-59.397
G1Z-1.5F500
Y59.402F1000
G0Z10
X-33Y-59.997
G1Z-1.5F500
Y60.002F1000
G0Z10
X-32Y-60.56
G1Z-1.4F500
Y-60.558Z-1.5
Y60.558F1000
Y60.561Z-1.4
G0Z10
X-31Y-60.997
G1Z-1.5F500
Y61.002F1000
G0Z10
X-30Y-61.56
G1Z-1.4F500
Y-61.558Z-1.5
Y61.558F1000
Y61.561Z-1.4
G0Z10
X-29Y-61.997
G1Z-1.5F500
Y62.002F1000
G0Z10
X-28Y-62.56
G1Z-1.4F500
Y-62.558Z-1.5
Y62.402F1000
G0Z10
X-27Y-62.96
G1Z-1.4F500
Y-62.958Z-1.5
Y62.958F1000
Y62.961Z-1.4
G0Z10
X-26Y-63.36
G1Z-1.4F500
Y-63.358Z-1.5
Y63.358F1000
Y63.361Z-1.4
G0Z10
X-25Y-63.76
G1Z-1.4F500
Y-63.758Z-1.5
Y63.758F1000
Y63.761Z-1.4
G0Z10
X-24Y-64.16
G1Z-1.4F500
Y-64.158Z-1.5
Y64.002F1000
G0Z10
X-23Y-64.56
G1Z-1.4F500
Y-64.557Z-1.5
Y64.402F1000
G0Z10
X-22Y-64.797
G1Z-1.5F500
Y64.802F1000
G0Z10
X-21Y-65.16
G1Z-1.4F500
Y-65.157Z-1.5
Y65.158F1000
Y65.161Z-1.4
G0Z10
X-20Y-65.56
G1Z-1.4F500
Y-65.557Z-1.5
Y65.402F1000
G0Z10
X-19Y-65.797
G1Z-1.5F500
Y65.802F1000
G0Z10
X-18Y-65.997
G1Z-1.5F500
Y66.002F1000
G0Z10
X-17Y-66.36
G1Z-1.4F500
Y-66.357Z-1.5
Y66.202F1000
G0Z10
X-16Y-66.597
G1Z-1.5F500
Y66.602F1000
G0Z10
X-15Y-66.797
G1Z-1.5F500
Y66.802F1000
G0Z10
X-14Y-66.997
G1Z-1.5F500
Y67.002F1000
G0Z10
X-13Y-67.197
G1Z-1.5F500
Y67.202F1000
G0Z10
X-12Y-67.397
G1Z-1.5F500
Y67.402F1000
G0Z10
X-11Y-67.597
