(Created with grbl post processor 2025/12/06 10:41)
G20
(G-code Generated with Fabex and NC library)
G17G90
S12000M03
G00 Z0.39

G0X0Y0Z0.3937
X1.7003Y0.0456
G1Z0F19.68
X1.7217Y0.0498Z-0.0764
X1.7218Y0.0502Z-0.0787
X1.7388Y0.0563F39.37
X1.8185Y0.0748
X1.8194Y0.075
X1.8203Y0.0753
X1.845Y0.0842
X1.835Y0.0773
X1.814Y0.0668
X1.806Y0.0635
X1.8051Y0.0631
X1.8042Y0.0626
X1.8033Y0.0621
X1.8024Y0.0615
X1.8016Y0.0609
X1.8008Y0.0603
X1.8Y0.0596
X1.7993Y0.0589
X1.7986Y0.0581
X1.7979Y0.0573
X1.7973Y0.0565
X1.7967Y0.0557
X1.7962Y0.0548
X1.7957Y0.0539
X1.7952Y0.053
X1.7948Y0.052
X1.7945Y0.0511
X1.7942Y0.0501
X1.7939Y0.0491
X1.7937Y0.0481
X1.7935Y0.0472
X1.7929Y0.0475
X1.7919Y0.048
X1.791Y0.0484
X1.79Y0.0487
X1.789Y0.049
X1.7773Y0.0523
X1.7763Y0.0526
X1.7753Y0.0527
X1.7743Y0.0529
X1.7733Y0.053
X1.7723
X1.7712
X1.7702Y0.0529
X1.7692Y0.0528
X1.7232Y0.0467
X1.722Y0.0473
X1.7216Y0.0484
X1.7218Y0.0502
X1.7203Y0.0508Z-0.0733
X1.7218Y0.0502Z-0.0771F19.68
X1.7209Y0.0456Z-0.0709F39.37
X1.7221Y0.0473Z-0.0743F19.68
X1.7205Y0.0443Z-0.0661F39.37
X1.722Y0.0328Z-0.028
X1.7166Y0.0373Z-0.0361F19.68
X1.7205Y0.0443Z-0.0661
X1.7209Y0.0456Z-0.0709
G0Z0.3937
X1.7103Y0.0419
G1Z-0.0309
X1.7192Y0.045Z-0.066
X1.7209Y0.0456Z-0.0709
G0Z0.3937
X1.7084Y0.0516
G1Z-0.0285
X1.7203Y0.0508Z-0.0733
G0Z0.3937
X1.7254Y0.0599
G1Z-0.0492
X1.728Y0.0524Z-0.0755
G0Z0.3937
X1.7107Y0.0588
G1Z-0.0268
X1.7197Y0.0513Z-0.0709
X1.7203Y0.0508Z-0.0733
G0Z0.3937
X1.7849Y0.0281
G1Z-0.0028
X1.7899Y0.0331Z-0.0291
X1.796Y0.0391Z-0.0556
X1.7962Y0.04Z-0.0572
X1.8012Y0.0354Z-0.0319F39.37
X1.795Y0.0324Z-0.0345
X1.7958Y0.0377Z-0.0526F19.68
X1.796Y0.0391Z-0.0556
X1.7955Y0.0431Z-0.0671
X1.7962Y0.04Z-0.0572F39.37
X1.7935Y0.0472Z-0.0701F19.68
X1.7955Y0.0431Z-0.0671F39.37
G0Z0.3937
X1.7918Y0.0291
G1Z-0.0231F19.68
X1.795Y0.0324Z-0.0345
G0Z0.3937
X1.7855Y0.0265
G1Z0
X1.7899Y0.0331Z-0.0291
G0Z0.3937
X1.7855Y0.0265
G1Z0
X1.787Y0.0302Z-0.014
G0Z0.3937
X1.8248Y0.0722
G1Z-0.0767
X1.8284Y0.0649Z-0.0484F39.37
G0Z0.3937
X1.8371Y0.0788
G1Z-0.075F19.68
X1.8466Y0.0648Z-0.0155F39.37
G0Z0.3937
X1.8446Y0.0839
G1Z-0.0785F19.68
X1.8493Y0.0865Z-0.076F39.37
X1.8506Y0.0869Z-0.0753
X1.8564Y0.0901Z-0.0722
X1.8577Y0.0905Z-0.0715
X1.8634Y0.0937Z-0.0684
X1.8647Y0.0941Z-0.0678
X1.8705Y0.0973Z-0.0646
X1.8718Y0.0977Z-0.064
X1.878Y0.1012Z-0.0617
X1.8834Y0.1057Z-0.0586
X1.8884Y0.1123Z-0.0473
X1.8901Y0.1158Z-0.0393
X1.8953Y0.1161Z-0.0485F19.68
X1.9034Y0.1182Z-0.0575
X1.9104Y0.1219Z-0.0574F39.37
X1.9118Y0.1232Z-0.0584
X1.9131Y0.1244Z-0.0576
X1.9175Y0.1311Z-0.0529
X1.9186Y0.1341Z-0.0477
X1.9233Y0.1365Z-0.0536F19.68
X1.9293Y0.1417Z-0.0535F39.37
X1.9323Y0.1463Z-0.0552
X1.9328Y0.1473Z-0.0549
X1.9347Y0.1494Z-0.0564
X1.9369Y0.1527Z-0.0574
X1.9375Y0.1537Z-0.0572
X1.9404Y0.1569Z-0.0584
X1.9421Y0.1601Z-0.0595
X1.945Y0.1633Z-0.0607
X1.9454Y0.1639Z-0.0612F19.68
X1.9475Y0.1672Z-0.0624F39.37
X1.9496Y0.1696Z-0.0629
X1.9593Y0.1615Z-0.0158
G0Z0.3937
X1.9496Y0.1696
G1Z-0.0629F19.68
X1.95Y0.1703Z-0.0635
X1.9511Y0.1721Z-0.0632F39.37
X1.9527Y0.1745Z-0.0616
X1.9562Y0.178Z-0.0551
X1.9566Y0.1813Z-0.0586F19.68
X1.9595Y0.1888Z-0.0584F39.37
X1.964Y0.1953Z-0.0589
X1.9706Y0.201Z-0.0507
X1.9751Y0.2036Z-0.0422
X1.9753Y0.2074Z-0.0498F19.68
X1.9773Y0.2154Z-0.0606
X1.9801Y0.2211Z-0.0633F39.37
X1.9808Y0.2225Z-0.0629
X1.9817Y0.2236Z-0.0628
X1.9846Y0.2294Z-0.0623
X1.9855Y0.2305Z-0.0622
X1.9884Y0.2362Z-0.0617
X1.9893Y0.2374Z-0.0616
X1.9922Y0.2431Z-0.0612
X1.9931Y0.2442Z-0.061
X1.996Y0.25Z-0.0606
X1.997Y0.2511Z-0.0605
X1.9991Y0.2554Z-0.0604
X2.0008Y0.258Z-0.0595
X2.0019Y0.2609Z-0.0593
X2.0047Y0.2649Z-0.0589
X2.0057Y0.2678Z-0.0587
X2.0073Y0.27Z-0.0593
X2.0091Y0.2735Z-0.0589
X2.0095Y0.2746Z-0.0581
X2.0111Y0.2769Z-0.0587
X2.0135Y0.2815Z-0.0581
X2.0139Y0.2819
X2.0173Y0.2883Z-0.0575
X2.0177Y0.2888
X2.0211Y0.2952Z-0.057
X2.0215Y0.2957Z-0.0569
X2.0249Y0.3021Z-0.0564
X2.0253Y0.3026Z-0.0563
X2.0287Y0.309Z-0.0558
X2.0292Y0.3095Z-0.0557
X2.0325Y0.3159Z-0.0552
X2.033Y0.3164Z-0.0551
X2.0373Y0.3247Z-0.0569
X2.043Y0.3309Z-0.0527
X2.0466Y0.3335Z-0.0468
X2.0468Y0.3378Z-0.0554F19.68
X2.0479Y0.3421Z-0.0612
X2.049Y0.3464Z-0.0665
X2.0527Y0.3534Z-0.0697F39.37
X2.0578Y0.3596Z-0.0785F19.68
X2.0582Y0.3594Z-0.0787F39.37
X2.0577Y0.3592
X2.0626Y0.3713
X2.0629Y0.3723
X2.0904Y0.46
X2.0907Y0.461
X2.0909Y0.462
X2.0911Y0.463
X2.0912Y0.464
X2.0913Y0.4651
Y0.4661
X2.0912Y0.4671
X2.0911Y0.4682
X2.091Y0.4692
X2.0908Y0.4702
X2.0906Y0.4712
X2.0903Y0.4722
X2.0899Y0.4732
X2.0895Y0.4742
X2.0891Y0.4751
X2.0886Y0.476
X2.0881Y0.4769
X2.0875Y0.4778
X2.0869Y0.4786
X2.0863Y0.4794
X2.0856Y0.4802
X2.0849Y0.4809
X2.0841Y0.4816
X2.0833Y0.4823
X2.0825Y0.4829
X2.0816Y0.4835
X2.0808Y0.484
X2.0955Y0.5062
X2.096Y0.507
X2.1139Y0.54
X2.1144Y0.541
X2.1148Y0.5419
X2.1151Y0.5429
X2.1225Y0.5648
X2.1398Y0.6096
X2.1343Y0.5804
X2.1145Y0.4978
X2.0882Y0.4188
X2.0647Y0.3609
X2.0637Y0.3608
X2.0626Y0.3607
X2.0616Y0.3605
X2.0606Y0.3602
X2.0596Y0.3599
X2.0587Y0.3596
X2.0582Y0.3594
X2.0648Y0.3611Z-0.0744
X2.0662Y0.3595Z-0.0716
X2.0802Y0.3537Z-0.0149
G0Z0.3937
X2.0695Y0.3532
G1Z-0.0463F19.68
X2.0696Y0.3503Z-0.0381F39.37
G0Z0.3937
X2.0662Y0.3595
G1Z-0.0716F19.68
X2.0695Y0.3532Z-0.0463F39.37
G0Z0.3937
X2.1195Y0.3126
G1Z-0.0099F19.68
X2.1271Y0.3178Z-0.0281
X2.1301Y0.3226Z-0.0305F39.37
X2.1312Y0.3246Z-0.0296
X2.132Y0.3329Z-0.0187
G0Z0.3937
X2.1378Y0.3454
G1Z-0.0145F19.68
X2.142Y0.3487Z-0.0224
X2.1448Y0.3508Z-0.0252
X2.1458Y0.3535Z-0.0254F39.37
X2.1477Y0.3581Z-0.0194
X2.1473Y0.3616Z-0.0097
G0Z0.3937
X2.1577Y0.3736
G1Z-0.0057F19.68
X2.1599Y0.3763Z-0.0002F39.37
Z0
Z-0F19.68
Z0F39.37
G0Z0.3937
X2.1637Y0.3865
G1Z-0.0043F19.68
Y0.3863Z-0.0038F39.37
X2.1643Y0.386Z-0.0051F19.68
X2.1637Y0.3865Z-0.0043F39.37
X2.1646Y0.3877Z-0.0056F19.68
X2.1651Y0.3884Z-0.0027F39.37
X2.1653Y0.3886Z-0.0015
X2.1663Y0.3883Z-0.0014
X2.1668Y0.3885Z0
X2.1641Y0.3895Z-0.0002
X2.1646Y0.3877Z-0.0056F19.68
X2.1611Y0.3882Z0F39.37
X2.1631Y0.3877Z-0.0048F19.68
X2.1634Y0.387Z-0.0047F39.37
X2.1637Y0.3865Z-0.0043
G0Z0.3937
X2.1696Y0.395
G1Z0F19.68
Y0.3976Z-0.0078
X2.1699Y0.3979Z-0.0083
Y0.398Z-0.0085
X2.17F39.37
X2.1699Y0.3981Z-0.0089F19.68
X2.1712Y0.4005Z-0.0005F39.37
X2.1713Y0.4007Z0
X2.171Y0.4001Z-0.0019F19.68
X2.1713Y0.4007Z0F39.37
X2.1694Y0.3983Z-0.008F19.68
X2.1697Y0.3982Z-0.0082
X2.1698Y0.3981Z-0.0089
X2.1699F39.37
X2.169Y0.3967Z-0.0039
X2.1696Y0.3976Z-0.0078F19.68
G0Z0.3937
X2.193Y0.3613
G1Z-0.0276
X2.1947Y0.3602Z-0.0353
X2.1949Y0.3604F39.37
X2.1983Y0.3652Z-0.0312
X2.2017Y0.3697Z-0.0214
X2.1988Y0.376Z-0.0168
X2.2012Y0.3788Z-0.0186
X2.2073Y0.386Z-0.0112
X2.2084Y0.3874Z-0.008
X2.2078Y0.3883Z-0.0109F19.68
X2.2123Y0.395Z-0.0001F39.37
G0Z0.3937
X2.2383Y0.4122
G1Z0F19.68
X2.2395Y0.418Z-0.0195
X2.2407Y0.4178Z-0.0175F39.37
X2.2411Y0.418Z-0.0178F19.68
X2.2415Y0.4182Z-0.0161F39.37
X2.2418Y0.4192Z-0.0149
X2.2425Y0.4211Z-0.0075
X2.2376Y0.4184Z-0.0193F19.68
X2.2383Y0.4122Z0F39.37
G0Z0.3937
X2.2169Y0.4421
G1Z-0.0298F19.68
X2.2183Y0.4398Z-0.0306F39.37
X2.2206Y0.436Z-0.0273
X2.2213Y0.4279Z-0.0088
X2.2311Y0.4269Z-0.0195F19.68
X2.2325Y0.424Z-0.0225
X2.235Y0.4189Z-0.0166F39.37
X2.2376Y0.4184Z-0.0193F19.68
G0Z0.3937
X2.2135Y0.4403
G1Z-0.0154
X2.2169Y0.4421Z-0.0298
G0Z0.3937
X2.1722Y0.4481
G1Z-0.0198
X2.1726Y0.448Z-0.0182F39.37
X2.1745Y0.4489Z-0.0151
X2.1747Z-0.0144
X2.1722Y0.4481Z-0.0198F19.68
X2.1733Y0.4414Z0F39.37
G0Z0.3937
X2.1562Y0.4568
G1Z-0F19.68
X2.1563Z-0.0002
X2.1611Y0.4545Z-0.01
X2.1612Y0.4532Z-0.0075F39.37
X2.1648Y0.4523Z-0.0164F19.68
X2.1669Y0.4517Z-0.0183
X2.1696Y0.451Z-0.017F39.37
X2.1702Y0.4496Z-0.0209F19.68
X2.1706Y0.4487Z-0.0185F39.37
X2.1722Y0.4481Z-0.0198F19.68
G0Z0.3937
X2.1562Y0.4568
G1Z-0
Z0F39.37
Z-0F19.68
G0Z0.3937
X2.1571Y0.4763
G1Z0
X2.1572Z-0
Y0.4764Z-0.0001
X2.1604Y0.5083Z-0.0086F39.37
X2.1603Y0.5089Z-0.0082
X2.1616Y0.5127Z-0.0069
X2.1603Y0.5139Z-0.0076
X2.1623Y0.5205Z-0.0095
X2.1612Y0.5218Z-0.0101
X2.163Y0.5284Z-0.012
X2.1621Y0.5296Z-0.0125
X2.1638Y0.5369Z-0.0165
X2.1635Y0.5375Z-0.017F19.68
X2.1652Y0.5447Z-0.021F39.37
X2.1649Y0.5453Z-0.0214F19.68
X2.1656Y0.5482Z-0.0234
X2.1665Y0.5526Z-0.0211F39.37
X2.165Y0.5575Z-0.0092
G0Z0.3937
X2.1678Y0.5648
G1Z-0.0096F19.68
X2.1722Y0.5678Z-0.0209
X2.174Y0.572Z-0.0205F39.37
X2.1753Y0.5751Z-0.0163
X2.1747Y0.5781Z-0.0066
X2.1794Y0.5825Z-0.0084
X2.1816Y0.588Z-0.0001
Y0.5881Z0
Z-0F19.68
G0Z0.3937
X2.2128Y0.6008
G1Z-0.0096
X2.2166Y0.6043Z-0.0166
X2.2193Y0.6068Z-0.0164F39.37
X2.2194Y0.6072Z-0.0167F19.68
X2.2201Y0.6149Z-0.0005F39.37
G0Z0.3937
X2.2278Y0.6205
G1Z-0.0039F19.68
X2.2301Y0.6238Z-0.0001F39.37
G0Z0.3937
X2.2592Y0.6081
G1Z-0.0458F19.68
X2.266Y0.6026Z-0.0557
X2.2612Y0.5966Z-0.0787
X2.2713Y0.6092F39.37
X2.2753Y0.6119
X2.2928Y0.6101
X2.2938Y0.61
X2.2948
X2.2959
X2.2969Y0.6101
X2.2979Y0.6103
X2.2989Y0.6104
X2.2999Y0.6107
X2.3009Y0.611
X2.3019Y0.6113
X2.3029Y0.6117
X2.3038Y0.6121
X2.3047Y0.6126
X2.3056Y0.6131
X2.3065Y0.6137
X2.3073Y0.6143
X2.3081Y0.6149
X2.3089Y0.6156
X2.3096Y0.6163
X2.3103Y0.6171
X2.311Y0.6179
X2.3116Y0.6187
X2.3122Y0.6196
X2.3127Y0.6204
X2.3132Y0.6213
X2.3137Y0.6223
X2.3181Y0.6324
X2.3184Y0.6334
X2.3187Y0.6343
X2.319Y0.6353
X2.3192Y0.6363
X2.3194Y0.6374
X2.3195Y0.6384
X2.3196Y0.6394
Y0.6404
X2.3195Y0.6415
Y0.6425
X2.3193Y0.6435
X2.3191Y0.6445
X2.3189Y0.6455
X2.314Y0.6647
X2.3137Y0.6657
X2.3133Y0.6667
X2.3128Y0.6678
X2.3213Y0.66
X2.3221Y0.6593
X2.3229Y0.6587
X2.3237Y0.6581
X2.3245Y0.6576
X2.3254Y0.6571
X2.3263Y0.6567
X2.3272Y0.6563
X2.3282Y0.6559
X2.3467Y0.6493
X2.3477Y0.649
X2.3487Y0.6488
X2.3498Y0.6485
X2.3508Y0.6484
X2.3519Y0.6483
X2.353
X2.354
X2.3533Y0.6481
X2.3523Y0.6478
X2.3513Y0.6474
X2.3503Y0.6471
X2.3494Y0.6466
X2.3485Y0.6461
X2.3476Y0.6456
X2.3467Y0.645
X2.3459Y0.6444
X2.3451Y0.6438
X2.3443Y0.6431
X2.3435Y0.6423
X2.3428Y0.6416
X2.3422Y0.6408
X2.3415Y0.6399
X2.3317Y0.6261
X2.3312Y0.6253
X2.3307Y0.6244
X2.3302Y0.6235
X2.3298Y0.6226
X2.3294Y0.6217
X2.3291Y0.6207
X2.3288Y0.6198
X2.3286Y0.6188
X2.3159Y0.5529
X2.2991Y0.4817
X2.2989Y0.4807
X2.2988Y0.4798
X2.2987Y0.4788
Y0.4778
X2.2979Y0.4454
X2.298Y0.4444
Y0.4434
X2.2982Y0.4424
X2.2983Y0.4414
X2.2993Y0.437
X2.2983Y0.4368
X2.2973Y0.4366
X2.2963Y0.4363
X2.2953Y0.436
X2.2943Y0.4357
X2.2933Y0.4353
X2.2924Y0.4348
X2.2915Y0.4343
X2.2906Y0.4338
X2.2898Y0.4332
X2.2889Y0.4325
X2.2883Y0.4333
X2.2916Y0.4396
X2.292Y0.4405
X2.2924Y0.4414
X2.2927Y0.4424
X2.293Y0.4433
X2.2932Y0.4443
X2.2962Y0.458
X2.2963Y0.459
X2.2965Y0.46
Y0.4611
Y0.4621
Y0.4631
X2.2964Y0.4641
X2.2963Y0.4651
X2.2961Y0.4661
X2.2959Y0.4671
X2.2956Y0.4681
X2.2953Y0.4691
X2.295Y0.47
X2.2918Y0.4772
X2.2913Y0.4781
X2.2908Y0.479
X2.2903Y0.4799
X2.2897Y0.4807
X2.2891Y0.4816
X2.2884Y0.4824
X2.2877Y0.4831
X2.2869Y0.4838
X2.2861Y0.4845
X2.2853Y0.4851
X2.2845Y0.4857
X2.2836Y0.4863
X2.2827Y0.4868
X2.2818Y0.4873
X2.2808Y0.4877
X2.2799Y0.4881
X2.2786Y0.4885
X2.2701Y0.4999
X2.2699Y0.5016
X2.275Y0.5147
X2.2753Y0.5157
X2.2756Y0.5167
X2.2758Y0.5177
X2.276Y0.5187
X2.2761Y0.5198
X2.2762Y0.5208
Y0.5219
Y0.5229
X2.2761Y0.524
X2.2759Y0.525
X2.2757Y0.5261
X2.2733Y0.5363
X2.273Y0.5373
X2.2727Y0.5383
X2.2723Y0.5393
X2.2719Y0.5403
X2.2714Y0.5412
X2.2708Y0.5421
X2.2703Y0.543
X2.2696Y0.5439
X2.2588Y0.5572
X2.2569Y0.5834
X2.2612Y0.5966
G0Z0.3937
X2.252Y0.5921
G1Z-0.0513F19.68
X2.259Y0.5898Z-0.0613
G0Z0.3937
X2.2576Y0.5691
G1Z-0.0776
X2.2579Z-0.0777F39.37
G0Z0.3937
X2.2682Y0.6222
G1Z-0.0322F19.68
X2.2752Y0.6119Z-0.0615
G0Z0.3937
X2.354Y0.6483
G1Z-0.075
X2.3682Y0.6501Z-0.0723F39.37
X2.3768Y0.6452Z-0.0642
X2.3901Y0.6492Z-0.073F19.68
X2.3879Z-0.0787
X2.4018Y0.6525F39.37
X2.3986Y0.6491
X2.3977Y0.6492
X2.3967Y0.6493
X2.3957
X2.3879Y0.6492
G0Z0.3937
X2.3964Y0.6512
G1Z-0.0772F19.68
X2.398Y0.6517Z-0.0783
X2.3996Y0.653Z-0.0749F39.37
X2.4174Y0.655Z-0.0428
X2.4225Y0.6665Z-0.0529F19.68
X2.4289Y0.6702Z-0.0495F39.37
X2.4332Y0.6728Z-0.0397
X2.4351Y0.6726Z-0.0337
X2.4385Y0.6751Z-0.0245
X2.441Y0.6771Z-0.0125
G0Z0.3937
X2.4332Y0.6728
G1Z-0.0397F19.68
Y0.6753Z-0.0304F39.37
G0Z0.3937
X2.3987Y0.6492
G1Z-0.0724F19.68
X2.405Y0.6268Z-0.0192F39.37
X2.4057Y0.6258Z-0.0153
X2.3984Y0.6117Z-0.0102
G0Z0.3937
X2.3964Y0.5721
G1Z-0.0151F19.68
X2.4Y0.5802Z-0.0308
Y0.5843Z-0.032F39.37
Y0.5881Z-0.0298
X2.3964Y0.5958Z-0.0122
G0Z0.3937
X2.3965Y0.5643
G1Z-0.0135F19.68
X2.4014Y0.5566Z-0.0296
X2.4026Y0.5488Z-0.0298F39.37
X2.4019Y0.5468Z-0.03
X2.4028Y0.541Z-0.0305
X2.4022Y0.539Z-0.0307
X2.403Y0.5331Z-0.0313
X2.4024Y0.5311Z-0.0315
X2.4032Y0.5252Z-0.032
X2.4026Y0.5232Z-0.0322
X2.4034Y0.5173Z-0.0327
X2.4029Y0.5153Z-0.0329
X2.4037Y0.5095Z-0.0335
X2.4031Y0.5075Z-0.0337
X2.4038Y0.502Z-0.0343
X2.4033Y0.4996Z-0.0342
X2.4036Y0.498Z-0.0352F19.68
X2.4041Y0.4941Z-0.0351F39.37
X2.4035Y0.4917Z-0.0349
X2.4044Y0.4866Z-0.0354
X2.4038Y0.4839Z-0.0357
X2.4046Y0.4791Z-0.0363
Y0.4788Z-0.036
X2.4041Y0.4752Z-0.0369
X2.4048Y0.4712Z-0.037
X2.4049Y0.4709Z-0.0368
X2.4043Y0.4665Z-0.0372
X2.4051Y0.463Z-0.0375
X2.4045Y0.4586Z-0.0379
X2.4053Y0.4551Z-0.0382
X2.4047Y0.4507Z-0.0387
X2.4055Y0.4473Z-0.039
X2.405Y0.4429Z-0.0394
X2.4058Y0.4394Z-0.0397
X2.4052Y0.435Z-0.0401
X2.406Y0.4315Z-0.0405
X2.4054Y0.4271Z-0.0409
X2.4062Y0.4236Z-0.0412
X2.4057Y0.4192Z-0.0416
X2.4064Y0.4158Z-0.0419
X2.4059Y0.4114Z-0.0423
X2.4066Y0.4084Z-0.043
X2.4067Y0.4079Z-0.0427
X2.4063Y0.4048Z-0.0423
X2.4074Y0.4Z-0.0417
X2.407Y0.397Z-0.0413
X2.4081Y0.3922Z-0.0407
X2.4077Y0.3891Z-0.0403
X2.4087Y0.3844Z-0.0397
X2.4083Y0.3813Z-0.0393
X2.4094Y0.3766Z-0.0387
Y0.3765Z-0.0386
X2.4091Y0.3718Z-0.038
X2.4103Y0.3681
X2.4101Y0.364Z-0.0379
X2.4112Y0.3602
X2.411Y0.3562Z-0.0378
X2.412Y0.353Z-0.0382
X2.4122Y0.3524Z-0.0378
X2.412Y0.3497Z-0.0371
X2.4129Y0.3467Z-0.0373
X2.4135Y0.3428Z-0.0361
X2.4134Y0.3419Z-0.035
X2.4144Y0.339Z-0.0353
X2.415Y0.3342Z-0.0337
X2.4155Y0.3333Z-0.0334
X2.4164Y0.3264Z-0.0317
X2.417Y0.3255Z-0.0314
X2.4174Y0.322Z-0.0312
X2.4182Y0.3181Z-0.03
X2.4184Y0.3178Z-0.0293
X2.4188Y0.3142Z-0.0292
X2.4197Y0.31Z-0.0279
X2.4196Y0.3097Z-0.0278
X2.4211Y0.302Z-0.0264
X2.4268Y0.2953
X2.4294Y0.2938Z-0.0215
X2.4292Y0.2901Z-0.03F19.68
X2.4321Y0.2862Z-0.0292F39.37
G0Z0.3937
X2.4441Y0.2799
G1Z-0.0105F19.68
X2.4513Y0.2767Z-0.0001F39.37
X2.4514Y0.2766Z0
Z-0F19.68
Z0F39.37
G0Z0.3937
X2.4663Y0.2565
G1Z-0.0238F19.68
X2.4717Y0.254Z-0.0435
X2.4711Y0.2504Z-0.0357F39.37
X2.4737Y0.247Z-0.0383F19.68
X2.4749Y0.243Z-0.0355F39.37
X2.4761Y0.239Z-0.0286
X2.4748Y0.2311Z-0.0054
G0Z0.3937
X2.4823Y0.223
G1Z-0.006F19.68
X2.4838Y0.2191Z-0.0001F39.37
Z-0
Y0.219Z0
Y0.2191Z-0F19.68
G0Z0.3937
X2.4717Y0.254
G1Z-0.0435
X2.4721Y0.2547Z-0.0461
X2.4723Y0.2549Z-0.0456F39.37
X2.4728Y0.257Z-0.0394
X2.4783Y0.2627Z-0.0197
X2.4786Y0.2642Z-0.0136
G0Z0.3937
X2.4714Y0.2601
G1Z-0.0266F19.68
X2.4728Y0.257Z-0.0394
G0Z0.3937
X2.5275Y0.2499
G1Z-0.0001
X2.5291Y0.2487Z-0.0065
G0Z0.3937
X2.5336Y0.2218
G1Z-0.0089
X2.5311Y0.2177Z-0.0208
X2.5312Y0.2148Z-0.022F39.37
X2.5315Y0.2098Z-0.0181
X2.532Y0.209Z-0.0157
X2.5318Y0.2084Z-0.0163F19.68
X2.5317Y0.2061Z-0.0151F39.37
X2.5352Y0.2019Z0
X2.5317Y0.2057Z-0.0141F19.68
Y0.2061Z-0.0151
X2.5318Y0.2084Z-0.0163F39.37
X2.5296Y0.2066Z-0.0168
X2.5298Y0.2067Z-0.0177F19.68
X2.5318Y0.2084Z-0.0163F39.37
X2.5291Y0.2099Z-0.0152
X2.5311Y0.2098Z-0.0198F19.68
X2.5315Z-0.0181F39.37
X2.528Y0.2045Z-0.0071
X2.5296Y0.2066Z-0.0168F19.68
X2.5258Y0.2052Z-0.0021F39.37
X2.5274Y0.2058Z-0.0085F19.68
X2.5296Y0.2066Z-0.0168
G0Z0.3937
X2.5863Y0.2258
G1Z-0.0045
X2.5866Y0.2255Z-0.0059
X2.5871Y0.2283Z0F39.37
G0Z0.3937
X2.591Y0.2167
G1Z-0.0034F19.68
X2.5912Y0.215Z-0.0051
G0Z0.3937
X2.5933Y0.179
G1Z0
Y0.1789Z-0.0002
X2.5943Y0.1735Z-0.015
X2.5949Y0.1731Z-0.0152F39.37
Z-0.0151
X2.5951Y0.1729Z-0.0153
X2.5957Y0.1726Z-0.015
X2.5979Y0.1715Z-0.0059
X2.5951Y0.1729Z-0.0153F19.68
X2.5959Y0.169Z-0.0063F39.37
X2.5936Y0.1691Z-0.0065
X2.5943Y0.1725Z-0.0171F19.68
X2.5948Y0.1731Z-0.0156F39.37
X2.5949Z-0.0152
X2.5937Y0.1722Z-0.015
X2.5942Y0.1724Z-0.0169F19.68
X2.5943Y0.1725Z-0.0171
X2.5933Y0.1789Z-0.0002F39.37
Y0.179Z0
X2.5932
X2.5933Z-0.0001F19.68
G0Z0.3937
X2.5841Y0.1586
G1Z-0.0142
X2.5837Y0.1572Z-0.0197
X2.5833Y0.1552Z-0.0182F39.37
X2.5865Y0.1522Z-0.0303F19.68
X2.5889Y0.1499Z-0.0326
X2.5898Y0.1443F39.37
X2.5905Y0.1395Z-0.026
X2.5886Y0.1336Z-0.009
X2.6038Y0.1262Z-0.0332F19.68
X2.6076Y0.1243Z-0.0274F39.37
X2.6082Y0.1178Z-0.0281
X2.6084Y0.1159Z-0.0227
X2.6139Y0.1138Z-0.0279F19.68
X2.6163Y0.1128Z-0.028F39.37
X2.6179Y0.1122Z-0.0234
X2.6181
G0Z0.3937
X2.6151Y0.1043
G1Z-0.0016F19.68
X2.6164Y0.1128Z-0.028
G0Z0.3937
X2.615Y0.1038
G1Z0
X2.6151Y0.1043Z-0.0016
G0Z0.3937
X2.5889Y0.1499
G1Z-0.0326
X2.5899Y0.1507Z-0.0278F39.37
G0Z0.3937
X2.6372Y0.209
G1Z-0.0095F19.68
X2.6454Y0.2047Z-0.0209
X2.6462Y0.2031Z-0.0213F39.37
X2.6491Y0.1977Z-0.0133
G0Z0.3937
X2.6592Y0.187
G1Z-0.0053F19.68
X2.661Y0.1838Z-0.0001F39.37
X2.6611Z-0
Z0
Z-0F19.68
G0Z0.3937
X2.6311Y0.2145
G1Z-0.0043
Y0.2235Z-0.0251
X2.6278Y0.2307Z-0.0285F39.37
X2.6234Y0.2341Z-0.0175
X2.6196Y0.237Z-0.0078
X2.6221Y0.2418Z-0.0229F19.68
X2.6226Y0.2458Z-0.0297
X2.6231Y0.2497Z-0.0341
X2.6217Y0.2547Z-0.0298F39.37
X2.6209Y0.2574Z-0.0263
X2.621Y0.2575Z-0.0266F19.68
X2.6225Y0.2622Z-0.0313
X2.623Y0.2643Z-0.0329
X2.6237Y0.2668Z-0.0294F39.37
X2.6226Y0.2725Z-0.0134
X2.6259Y0.2747Z-0.0187F19.68
G0Z0.3937
X2.6302Y0.289
G1Z-0.0069
X2.6321Y0.2976Z-0.0001F39.37
G0Z0.3937
X2.6701Y0.3334
G1Z-0.0377F19.68
X2.6697Y0.3315Z-0.033F39.37
X2.6708Y0.3299Z-0.034
X2.6758Y0.3229Z-0.0361
X2.676Y0.3225Z-0.0359
X2.6774Y0.3168Z-0.0297
X2.6778Y0.3152Z-0.0275
X2.6784Y0.3149Z-0.0288F19.68
X2.6822Y0.3112Z-0.0324
X2.6842Y0.3087Z-0.0322F39.37
X2.6847Y0.3081Z-0.0317
X2.686Y0.3043Z-0.0285
X2.6872Y0.2993Z-0.0203
X2.6871Y0.2991Z-0.0198
X2.69Y0.2969Z-0.0232F19.68
X2.694Y0.2939Z-0.0242F39.37
X2.6956Y0.2901Z-0.0203
X2.697Y0.2866Z-0.013
X2.6967Y0.2841Z-0.0047
X2.7011Y0.2828Z-0.0111F19.68
X2.697Y0.2866Z-0.013F39.37
X2.7015Y0.2889Z-0.0078
G0Z0.3937
X2.6749Y0.3353
G1Z-0.0279F19.68
X2.6758Y0.336Z-0.024F39.37
X2.6701Y0.3334Z-0.0377F19.68
X2.6749Y0.3353Z-0.0279F39.37
X2.6689Y0.3364Z-0.0388F19.68
X2.6706Y0.3408Z-0.0215F39.37
X2.668Y0.3373Z-0.0351F19.68
X2.6687Y0.3367Z-0.0384
X2.6689Y0.3364Z-0.0388
X2.6655Y0.3383Z-0.0252F39.37
X2.668Y0.3373Z-0.0351F19.68
X2.6662Y0.3424Z-0.017F39.37
X2.6679Y0.3374Z-0.0349F19.68
X2.668Y0.3373Z-0.0351
G0Z0.3937
X2.6731Y0.3617
G1Z-0
X2.673Z-0.0001
X2.6731Z-0F39.37
X2.6718Y0.364Z-0.001
X2.6719Y0.3624Z-0.003F19.68
X2.673Y0.3617Z-0.0001F39.37
G0Z0.3937
X2.6596Y0.3859
G1Z-0.0001F19.68
Y0.3858Z-0.0002
X2.6605Y0.3829Z-0.0065
X2.6612Y0.3827Z-0.0055F39.37
X2.6614Y0.3811Z-0.0099F19.68
X2.6616Y0.3797Z-0.0107F39.37
X2.662Y0.3771Z-0.0089
X2.664Y0.3765Z-0.0099
G0Z0.3937
X2.6596Y0.3859
G1Z-0.0001F19.68
Z0F39.37
Z-0.0001F19.68
G0Z0.3937
X2.7291Y0.4047
G1Z-0.0149
X2.7431Y0.4125Z-0.0749
X2.7446Y0.4099Z-0.0733F39.37
X2.746Y0.4051Z-0.0708
X2.7489Y0.3998Z-0.0695
X2.7495Y0.398Z-0.0692
X2.7524Y0.3927Z-0.0679
X2.7529Y0.391Z-0.0675
X2.7557Y0.3859Z-0.0664
X2.7559Y0.3856Z-0.0662
X2.7573Y0.3822Z-0.0659
X2.7592Y0.3788Z-0.0648
X2.7594Y0.3785Z-0.0645
X2.7614Y0.3735Z-0.0635
X2.7615Y0.3734Z-0.0634
X2.7642Y0.3688Z-0.0623
X2.7649Y0.3663Z-0.0617
X2.7676Y0.3617Z-0.0606
X2.7684Y0.3592Z-0.0601
X2.77Y0.3564
X2.7711Y0.3546Z-0.059
X2.7734Y0.347Z-0.0509
X2.7738Y0.3403Z-0.0381
X2.7755Y0.3394Z-0.0415F19.68
X2.783Y0.3328Z-0.0506
X2.7872Y0.3261Z-0.049F39.37
X2.788Y0.3233Z-0.0492
X2.7907Y0.319Z-0.0496
X2.7915Y0.3163Z-0.0498
X2.7923Y0.315Z-0.0505
X2.7943Y0.3116
X2.795Y0.3092Z-0.0504
X2.7958Y0.3079Z-0.0511
X2.798Y0.3042
X2.7985Y0.3022Z-0.0512
X2.8015Y0.2971Z-0.0517
X2.802Y0.2952Z-0.0518
X2.8048Y0.2905Z-0.0524
X2.8051Y0.2901Z-0.0521
X2.8063Y0.2868Z-0.0529
X2.8083Y0.2834Z-0.053
X2.8086Y0.283Z-0.0527
X2.8103Y0.2784Z-0.0531
X2.8151Y0.2719Z-0.0547
X2.8177Y0.2698Z-0.0515
X2.8188Y0.265Z-0.0584F19.68
X2.8224Y0.258Z-0.0614F39.37
X2.8247Y0.2553Z-0.0649F19.68
X2.827Y0.2527Z-0.0676
X2.8322Y0.2487Z-0.0776
X2.8323Y0.2466Z-0.0742F39.37
X2.8343Y0.2387Z-0.0665
X2.8362Y0.235Z-0.0659
X2.838Y0.2315Z-0.0655
X2.8406Y0.2284Z-0.0664
X2.8433Y0.2251Z-0.0656
X2.8481Y0.2214Z-0.0599
X2.8485Y0.219Z-0.0641F19.68
X2.8507Y0.2132Z-0.0706
X2.8549Y0.2066Z-0.0719F39.37
X2.8604Y0.2008Z-0.0769F19.68
X2.862Y0.1997Z-0.0774F39.37
X2.8616Y0.1999Z-0.0787F19.68
X2.8675Y0.1965F39.37
X2.8671Y0.1959
X2.8666Y0.195
X2.8662Y0.194
X2.8659Y0.1934
X2.8616Y0.1999
X2.8661Y0.1973Z-0.0773
X2.8694Y0.1988Z-0.0677
X2.8895Y0.1972Z-0.0229
X2.8936Y0.2032Z-0.0268
X2.8955Y0.2039Z-0.0255
X2.8994Y0.2055Z-0.0162
X2.8996Z-0.0156
Y0.2056
X2.9053Y0.2081Z0
G0Z0.3937
X2.8927Y0.2078
G1Z-0.0092F19.68
X2.8936Y0.2032Z-0.0268
G0Z0.3937
X2.8658Y0.1936
G1Z-0.0773
X2.8664Y0.1905Z-0.0738F39.37
X2.8671Y0.1862Z-0.0672
X2.8686Y0.1825Z-0.0628
X2.8694Y0.1805Z-0.0595
X2.8695Y0.1783Z-0.0583
X2.872Y0.1705Z-0.0495
X2.8764Y0.164
X2.8769Y0.1635
X2.8784Y0.1613Z-0.05
X2.8803Y0.1586Z-0.049
X2.8818Y0.1573Z-0.0488
X2.8851Y0.1524Z-0.0482
X2.8866Y0.1511Z-0.048
X2.8895Y0.1469Z-0.0478
X2.8899Y0.1461Z-0.0472
X2.893Y0.1431Z-0.0468
X2.8948Y0.1399Z-0.0464
X2.8979Y0.1369Z-0.046
X2.8992Y0.1345Z-0.0463
X2.9018Y0.1316Z-0.0461
X2.9028Y0.1307Z-0.0453
X2.904Y0.1283Z-0.0456
X2.9075Y0.1245Z-0.0449
X2.9083Y0.1228Z-0.0447
X2.9135Y0.1171Z-0.046
X2.9136Y0.1169
X2.9188Y0.1112Z-0.0473
X2.9189Y0.1111
X2.9219Y0.1077Z-0.0481
X2.9249Y0.1041Z-0.0497
Y0.104
X2.9298Y0.0979Z-0.0525
X2.9299
X2.9326Y0.0946Z-0.0541
X2.9321Y0.09Z-0.043
X2.9339Y0.0817Z-0.0316
X2.9359Y0.0791Z-0.0306
X2.9373Y0.0748Z-0.0278
X2.9427Y0.0693Z-0.0284
X2.949Y0.0668Z-0.0166
X2.9489Y0.064Z-0.0235F19.68
X2.9509Y0.0578Z-0.0327
X2.9514Y0.0562Z-0.0331F39.37
X2.9517Y0.056Z-0.0332
X2.9536Y0.0538Z-0.0269
X2.9544Y0.0537Z-0.027
X2.9555Y0.0535Z-0.0244
X2.9577Y0.0532Z-0.0171
X2.959Y0.0507Z-0.0151
X2.9601Y0.0486Z-0.0063
X2.958Y0.0455Z0
X2.9591Y0.0505Z-0.0144F19.68
X2.9563Y0.0534Z-0.0217
X2.9579Y0.0455Z0F39.37
G0Z0.3937
X2.9693Y0.0843
G1Z-0.0046F19.68
X2.9718Y0.0841Z-0.0002F39.37
Z0
Z-0.0001F19.68
Z0F39.37
G0Z0.3937
X2.9326Y0.0946
G1Z-0.0541F19.68
X2.9378Z-0.0401F39.37
X2.9459Y0.0917Z-0.0263
G0Z0.3937
X2.8378Y0.2046
G1Z-0.015F19.68
X2.8507Y0.2132Z-0.0706
G0Z0.3937
X2.8339Y0.2109
G1Z-0.0149
X2.8485Y0.219Z-0.0641
G0Z0.3937
X2.8322Y0.2487
G1Z-0.0776
X2.8449Y0.2569Z-0.0542F39.37
X2.8505Y0.2594Z-0.0435
X2.8514Y0.2622Z-0.0469F19.68
X2.8558Y0.2638Z-0.0376F39.37
X2.8578Y0.2645Z-0.0297
X2.8513Y0.268Z-0.0395F19.68
X2.8553Y0.2737Z-0.0137F39.37
G0Z0.3937
X2.8456Y0.274
G1Z-0.0216F19.68
X2.8473Y0.2736Z-0.0243
X2.8474Y0.2735Z-0.0248
X2.8513Y0.268Z-0.0395
G0Z0.3937
X2.7529Y0.179
G1Z0
Y0.1788Z-0.0003
X2.7554Y0.1714Z-0.0199
X2.7558Y0.1712Z-0.0197F39.37
X2.7567Y0.168Z-0.0285F19.68
X2.7569Y0.1673Z-0.029
X2.7611Y0.1535Z-0.023F39.37
X2.7655Y0.1534Z-0.0131
X2.767Y0.1437Z-0.0173
X2.7677Y0.1391Z-0.0192
X2.7687Y0.1326Z-0.0094
Y0.1324Z-0.009
X2.7699Y0.1321Z-0.011F19.68
G0Z0.3937
X2.737Y0.1531
G1Z-0
Z0F39.37
X2.7347Y0.1548Z-0.006F19.68
X2.7369Y0.1532Z-0.0002F39.37
X2.737Y0.1531Z-0
X2.7347Y0.1548Z-0.006F19.68
X2.7348Y0.1539Z-0.0033F39.37
X2.7344Y0.1566Z-0.0052F19.68
X2.7346Y0.1565Z-0.0044F39.37
X2.7347Y0.1548Z-0.006F19.68
G0Z0.3937
X2.7219Y0.1747
G1Z-0.0116
X2.7242Y0.1727Z-0.0163
X2.7267Y0.1705Z-0.0162F39.37
Y0.1702Z-0.0165F19.68
X2.7271Y0.1666Z-0.0143F39.37
X2.7275Y0.1624Z-0.0063
G0Z0.3937
X2.7159Y0.1869
G1Z-0.0094F19.68
X2.7161Y0.189Z-0.0133
X2.7167Y0.1948Z-0.0195
X2.7169Y0.1971Z-0.0143F39.37
G0Z0.3937
X2.7097Y0.2125
G1Z-0.0066F19.68
X2.7121Y0.2114Z-0.0015F39.37
G0Z0.3937
X2.7528Y0.1789
G1Z0F19.68
X2.7529Z-0.0001
Y0.179Z0F39.37
G0Z0.3937
X2.6983Y0.1206
G1Z0F19.68
Z-0.0001
Z0F39.37
Z-0.0001F19.68
G0Z0.3937
X2.696Y0.1041
G1Z-0.0125
X2.6968Y0.1064Z-0.0155
X2.699Y0.1128Z-0.016F39.37
X2.6993Y0.1137Z-0.013
X2.6978Y0.1154Z-0.0134
X2.6983Y0.1206Z-0.0001
G0Z0.3937
X2.6971Y0.0962
G1Z-0.0162F19.68
X2.7006Y0.0911Z-0.0294
X2.7031Y0.0857Z-0.0362
X2.7034Y0.0794Z-0.0311F39.37
Y0.0776Z-0.029
X2.7032Y0.0768Z-0.027
X2.708Y0.0707Z-0.0342F19.68
X2.7083Y0.0693Z-0.0343F39.37
X2.7108Y0.0602Z-0.0216
X2.7141Y0.0593Z-0.0295F19.68
X2.7238Y0.0568Z-0.0049F39.37
X2.7233Y0.0537Z-0.0124F19.68
X2.7256Y0.0478Z-0.0158F39.37
X2.7284Y0.0456Z-0.0109
X2.7298Y0.0445Z-0.0044
X2.7256Y0.0478Z-0.0158F19.68
X2.7258Y0.0462Z-0.0157F39.37
X2.7215Y0.051Z-0.0232F19.68
X2.7233Y0.0537Z-0.0124F39.37
G0Z0.3937
X2.5277Y0.062
G1Z-0.0208F19.68
X2.5287Y0.0606Z-0.021F39.37
X2.5302Y0.0586Z-0.0186
X2.5308Y0.0578Z-0.0152
X2.5323Y0.0576Z-0.0138
X2.5347Y0.0573Z-0.0046
G0Z0.3937
X2.5277Y0.062
G1Z-0.0208F19.68
X2.5294Y0.0624Z-0.023
X2.5315Y0.0629Z-0.0149F39.37
G0Z0.3937
X2.4768Y0.0668
G1Z-0.0411F19.68
X2.4774Y0.0661Z-0.0394F39.37
X2.4789Y0.0644Z-0.031
X2.4768Y0.0668Z-0.0411F19.68
X2.4796Y0.0541Z0F39.37
G0Z0.3937
X2.4744Y0.0615
G1Z-0.0251F19.68
X2.4752Y0.0677Z-0.0464
X2.4764Y0.0674Z-0.0424F39.37
X2.478Y0.0677Z-0.036
X2.476Y0.0675Z-0.0436F19.68
X2.4796Y0.0541Z0F39.37
G0Z0.3937
X2.4758Y0.0675
G1Z-0.0445F19.68
X2.4796Y0.0541Z0F39.37
G0Z0.3937
X2.4659Y0.0653
G1Z-0.0274F19.68
X2.4689Y0.0702Z-0.0467
X2.4721Y0.0703Z-0.0419F39.37
X2.4727Y0.0698Z-0.0429F19.68
X2.4752Y0.0677Z-0.0464
G0Z0.3937
X2.4522Y0.0919
G1Z-0.0347
X2.4549Y0.089Z-0.0305F39.37
X2.4545Y0.0843Z-0.0334F19.68
X2.4539Y0.0769Z-0.0181F39.37
X2.4645Y0.0722Z-0.044F19.68
X2.4689Y0.0702Z-0.0467F39.37
G0Z0.3937
X2.4464Y0.0911
G1Z-0.0152F19.68
X2.4522Y0.0919Z-0.0347
G0Z0.3937
X2.4404Y0.153
G1Z-0.0073
X2.4405Y0.1528Z-0.008
X2.441Y0.1511Z-0.0081F39.37
X2.4406Y0.1506Z-0.01F19.68
X2.4371Y0.1472Z-0.003F39.37
X2.4406Y0.1427Z-0.0181F19.68
Y0.1403Z-0.0208
Y0.1373Z-0.0196F39.37
X2.4423Y0.135Z-0.0204
X2.4424Y0.1299Z-0.0219
X2.4423Y0.1296Z-0.0216
X2.4444Y0.1254Z-0.0228
X2.4441Y0.1219Z-0.0238
X2.4461Y0.1177Z-0.025
X2.4458Y0.1145Z-0.0262
X2.4474Y0.1108Z-0.0277
X2.4478Y0.11Z-0.0272
X2.4476Y0.1068Z-0.0284
X2.4494Y0.1023Z-0.0294
X2.4492Y0.0994Z-0.0302
X2.4522Y0.0919Z-0.0347
G0Z0.3937
X2.512Y0.1183
G1Z-0.0189F19.68
X2.5155Y0.1163Z-0.0226
X2.5149Y0.1143Z-0.0276
X2.5139Y0.1112Z-0.0281F39.37
X2.513Y0.1084Z-0.0236
X2.5156Y0.1052Z-0.0317F19.68
X2.517Y0.1007Z-0.0347
X2.5179Y0.0977Z-0.0343F39.37
X2.5174Y0.0935Z-0.0287
X2.5171Y0.0906Z-0.0244
X2.5155Y0.0862Z-0.0138
X2.5141Y0.083Z-0.0051
X2.5156Y0.0822Z-0.0096F19.68
X2.522Y0.0768Z-0.0266
X2.5253Y0.0707Z-0.0306F39.37
X2.5259Y0.0697Z-0.0294
X2.5262Y0.0628Z-0.0179
X2.5277Y0.062Z-0.0208F19.68
G0Z0.3937
X2.5155Y0.1163
G1Z-0.0226
X2.5162Y0.1171Z-0.0193F39.37
X2.5151Y0.1207Z-0.0178
X2.515Y0.121Z-0.0177
X2.5177Y0.1264Z-0.001
X2.5178Y0.1267Z0
G0Z0.3937
X2.4293Y0.1914
G1Z-0.0028F19.68
X2.4322Y0.1845Z-0.0001F39.37
G0Z0.3937
X2.4066Y0.2434
G1Z-0.0094F19.68
X2.4049Y0.2427Z-0.0065F39.37
X2.4052Y0.2393Z-0.0158F19.68
X2.4057Y0.2345Z-0.0221
X2.404Y0.2307Z-0.0158F39.37
X2.4067Y0.2274Z-0.0263F19.68
X2.4081Y0.2237Z-0.0317
X2.4082Y0.2235Z-0.0319
X2.4091Y0.2198Z-0.0298F39.37
X2.4086Y0.2121Z-0.0166
X2.408Y0.2104Z-0.0119
X2.4145Y0.206Z-0.0278F19.68
X2.4147Y0.2058Z-0.028
X2.4184Y0.2002Z-0.0263F39.37
X2.419Y0.1993Z-0.0246
X2.4224Y0.2007Z-0.0162
G0Z0.3937
X2.3521Y0.2573
G1Z-0.0198F19.68
X2.3524Y0.2556Z-0.0182F39.37
X2.3529Y0.2525Z-0.0066
X2.3506Y0.2562Z-0.0168F19.68
X2.3521Y0.2573Z-0.0198
X2.3515Y0.2602Z-0.0232
X2.3525Y0.2582Z-0.0186F39.37
X2.3521Y0.2573Z-0.0198F19.68
X2.3445Y0.2572Z-0.0007F39.37
X2.3448Y0.2574Z-0.0018F19.68
X2.3463Y0.258Z-0.0079
X2.3515Y0.2602Z-0.0232
G0Z0.3937
X2.3429Y0.2622
G1Z-0.002
X2.346Y0.2664Z-0.0188
X2.348Y0.2673Z-0.027
G0Z0.3937
X2.3445Y0.2871
G1Z0
X2.3439Y0.2822Z-0.0147
X2.3445Y0.2811Z-0.0164
X2.3448Y0.2806Z-0.017
X2.3438Y0.2775Z-0.0183F39.37
X2.3448Y0.2761Z-0.0224F19.68
X2.3491Y0.2702Z-0.0225F39.37
X2.3483Y0.2679Z-0.0286F19.68
X2.3482Y0.2677Z-0.0282F39.37
X2.348Y0.2673Z-0.027
G0Z0.3937
X2.3785Y0.3294
G1Z-0F19.68
Z0F39.37
G0Z0.3937
X2.3697Y0.3391
G1Z-0.0065F19.68
X2.3743Y0.3349Z-0.0091F39.37
X2.3765Y0.3329Z-0.0033
X2.3761Y0.3323Z-0.0052F19.68
X2.3785Y0.3294Z-0.0001F39.37
Z-0
G0Z0.3937
X2.3576Y0.3638
G1Z-0.0367F19.68
X2.3589Y0.3604Z-0.0309F39.37
X2.3626Y0.3574Z-0.0258
X2.3648Y0.3519Z-0.022
X2.3653Y0.346Z-0.0097
G0Z0.3937
X2.3423Y0.3604
G1Z-0.0186F19.68
X2.3421Y0.3596Z-0.0157F39.37
X2.3458Y0.3564Z-0.0126
X2.3423Y0.3604Z-0.0186F19.68
X2.3576Y0.3638Z-0.0367
G0Z0.3937
X2.3505Y0.3797
G1Z-0.0228
X2.3515Y0.3789Z-0.0256
X2.3562Y0.3721Z-0.0329
X2.3577Y0.3641Z-0.0361F39.37
X2.3576Y0.3638Z-0.0367F19.68
G0Z0.3937
X2.3392Y0.3663
G1Z-0.0238
X2.3411Y0.3626Z-0.0234F39.37
X2.3423Y0.3604Z-0.0186
X2.3392Y0.3663Z-0.0238F19.68
X2.3505Y0.3797Z-0.0228F39.37
G0Z0.3937
X2.3253Y0.3802
G1Z-0.0301F19.68
X2.3229Y0.3723Z-0.0034F39.37
X2.3341Y0.3682Z-0.0232F19.68
X2.3383Y0.3667Z-0.025F39.37
X2.3392Y0.3663Z-0.0238
G0Z0.3937
X2.3253Y0.3802
G1Z-0.0301F19.68
X2.3333Y0.3838Z-0.0054F39.37
X2.3495Y0.3818Z-0.0213F19.68
G0Z0.3937
X2.3158Y0.4038
G1Z-0.0452
X2.3162Y0.4027Z-0.0446F39.37
X2.3164Y0.3959Z-0.0363
X2.3174Y0.3949Z-0.0383F19.68
X2.3207Y0.3888Z-0.0396F39.37
X2.3253Y0.3802Z-0.0301
G0Z0.3937
X2.3137Y0.4096
G1Z-0.0405F19.68
X2.3158Y0.4038Z-0.0452
G0Z0.3937
X2.2909Y0.407
G1Z-0.0234
X2.3137Y0.4096Z-0.0405
G0Z0.3937
X2.2892Y0.3989
G1Z-0.0163
X2.2909Y0.3972Z-0.0082F39.37
X2.3158Y0.4038Z-0.0452F19.68
G0Z0.3937
X2.2892Y0.3989
G1Z-0.0163
X2.2897Y0.4039Z-0.0226
X2.2909Y0.407Z-0.0234F39.37
G0Z0.3937
X2.2889Y0.4325
G1Z-0.0756F19.68
X2.2875Y0.4239Z-0.0578F39.37
X2.2909Y0.407Z-0.0234
G0Z0.3937
X2.2757Y0.4322
G1Z-0.0387F19.68
X2.2788Y0.4345Z-0.045
X2.2887Y0.434Z-0.0775
G0Z0.3937
X2.2992Y0.4373
G1Z-0.0778
X2.2995Y0.4371F39.37
X2.307Y0.4307Z-0.0557
X2.3111Y0.4247Z-0.0454
X2.3126Y0.421Z-0.0431
X2.3137Y0.4172Z-0.0422
X2.3139Y0.4103Z-0.0415
X2.3137Y0.4096Z-0.0405
G0Z0.3937
X2.3458Y0.4317
G1Z0F19.68
X2.3506Y0.4252Z-0.0265
X2.3493Y0.4231Z-0.0268F39.37
X2.3485Y0.4219Z-0.0265
X2.3495Y0.4181Z-0.0275
X2.3487Y0.4167Z-0.0294F19.68
X2.3417Y0.4055Z-0.0071F39.37
X2.342Y0.4045Z-0.0079F19.68
X2.3453Y0.4019Z-0.0195
X2.3476Y0.3981Z-0.0273
X2.3496Y0.395Z-0.0329
X2.3501Y0.3918Z-0.034F39.37
X2.3502Y0.3909Z-0.0335
X2.3507Y0.3869Z-0.0312
X2.3495Y0.3818Z-0.0213
G0Z0.3937
X2.3458Y0.4317
G1Z0F19.68
X2.3508Y0.4257Z-0.025
G0Z0.3937
X2.3985Y0.4113
G1Z-0.0148
X2.4059Y0.4114Z-0.0423
G0Z0.3937
X2.3991Y0.404
G1Z-0.0152
X2.4063Y0.4048Z-0.0423
G0Z0.3937
X2.4974Y0.3983
G1Z0
X2.4999Y0.3957Z-0.0067
X2.5Y0.3962Z-0.0053F39.37
X2.4991Y0.3925Z-0.001
X2.4999Y0.3957Z-0.0067F19.68
G0Z0.3937
X2.5046Y0.4074
G1Z-0.0001
X2.5059Y0.4111Z-0.0055
X2.5048Y0.4122Z-0.0013F39.37
X2.506Y0.4138Z-0.0059F19.68
G0Z0.3937
X2.5267Y0.4075
G1Z-0.0046
X2.5288Y0.4135Z-0.0129
X2.5295Y0.4156Z-0.0116F39.37
X2.5299Y0.4167Z-0.009
X2.5298Y0.4169Z-0.0094F19.68
G0Z0.3937
X2.529Y0.4008
G1Z-0.0131
X2.5328Y0.3946Z-0.0232
Y0.3943Z-0.0236
X2.5327Y0.3914Z-0.0228F39.37
X2.5353Y0.3871Z-0.0222
X2.5352Y0.384Z-0.0218
X2.5379Y0.3797Z-0.0212
X2.5378Y0.3765Z-0.0208
X2.5407Y0.3719
Y0.3715Z-0.0214F19.68
X2.5415Y0.3677Z-0.0222F39.37
X2.5435Y0.3646Z-0.0209
Y0.3642Z-0.0215F19.68
X2.5447Y0.3586Z-0.0213F39.37
X2.5462Y0.3572
X2.5475Y0.3512
X2.548Y0.3508Z-0.0224F19.68
X2.5507Y0.3447Z-0.0213F39.37
X2.5506Y0.3441Z-0.0198
G0Z0.3937
X2.546Y0.3507
G1Z-0.0155F19.68
X2.5475Y0.3512Z-0.0213
G0Z0.3937
X2.5602Y0.323
G1Z-0.0114
X2.5578Y0.3221Z-0.0021F39.37
X2.5617Y0.3193Z-0.0094F19.68
G0Z0.3937
X2.5104Y0.3719
G1Z-0.0001
X2.5097Y0.3776Z-0.0154
X2.5104Y0.372Z-0.0004F39.37
Y0.3719Z-0.0001
X2.5097Y0.3776Z-0.0154F19.68
X2.5091Y0.3781Z-0.0156F39.37
Z-0.0157F19.68
Y0.3819Z-0.0115F39.37
Y0.3871Z-0.0011
X2.5005Y0.3874Z-0.0008
G0Z0.3937
X2.505Y0.4531
G1Z-0.0064F19.68
X2.5072Y0.4489Z-0.0001F39.37
G0Z0.3937
X2.5006Y0.4611
G1Z-0.0107F19.68
X2.5029Y0.4601Z-0.0109F39.37
G0Z0.3937
X2.4706Y0.475
G1Z0F19.68
Z-0.0001
Z0F39.37
Z-0.0001F19.68
Z0F39.37
G0Z0.3937
X2.4748Y0.5103
G1Z-0.0617F19.68
X2.4777Y0.5118Z-0.0514F39.37
X2.487Y0.4974Z-0.0293
X2.4872Y0.4951Z-0.0265
X2.491Y0.4904Z-0.0227
X2.4915Y0.4862Z-0.0217
X2.4918Y0.4821Z-0.016
G0Z0.3937
X2.4748Y0.5103
G1Z-0.0617F19.68
X2.4643Y0.4931Z-0.0088F39.37
X2.466Y0.4916Z-0.0138F19.68
X2.4683Y0.4855Z-0.017F39.37
X2.4698Y0.4817Z-0.0158
X2.4703Y0.4803Z-0.0114
X2.4697Y0.4793Z-0.0115
X2.4706Y0.475Z-0.0001
G0Z0.3937
X2.4777Y0.5118
G1Z-0.0514F19.68
X2.478Y0.5123Z-0.0502F39.37
X2.4858Y0.5206Z-0.0158
X2.4723Y0.5409Z-0.0087
X2.4831Y0.551Z-0.0116
X2.4821Y0.5528Z-0.015F19.68
X2.4779Y0.5606Z-0.0148F39.37
X2.4795Y0.5631Z-0.017F19.68
X2.4804Y0.5645Z-0.0156F39.37
X2.4812Y0.5658Z-0.0108
X2.4805Y0.5672Z-0.0107
X2.4819Y0.5711Z0
X2.4802Y0.568Z-0.0079F19.68
X2.4805Y0.5672Z-0.0107
G0Z0.3937
X2.4578Y0.5196
G1Z-0.0123
X2.4573Y0.5155Z-0.0057F39.37
X2.4748Y0.5103Z-0.0617F19.68
G0Z0.3937
X2.5454Y0.4396
G1Z0
X2.5493Y0.4355Z-0.0148
X2.5494Y0.4343Z-0.0151F39.37
X2.5504Y0.4336Z-0.0119
X2.5499Y0.4305Z-0.0151F19.68
X2.5492Y0.4259Z-0.0104F39.37
X2.5485Y0.4209Z-0.0013
X2.5506Y0.4205Z-0.0084F19.68
X2.5514Y0.4122Z-0.0001F39.37
G0Z0.3937
X2.5492Y0.4379
G1Z-0.0071F19.68
X2.5493Y0.4359Z-0.0147
Y0.4355Z-0.0148F39.37
G0Z0.3937
X2.6396Y0.4992
G1Z-0.0142F19.68
X2.6417Y0.4967Z-0.0136F39.37
X2.6423Y0.496Z-0.0102
X2.6414Y0.4971Z-0.0137F19.68
Y0.4917Z0F39.37
G0Z0.3937
X2.6653Y0.4899
G1Z-0.0052F19.68
X2.6661Y0.4901Z-0.0042F39.37
G0Z0.3937
X2.6802Y0.5023
G1Z-0.0248F19.68
X2.6926Y0.5115Z-0.059
X2.6982Y0.5122Z-0.0664
Z-0.0787
X2.6996Y0.5176F39.37
X2.6998Y0.5186
X2.7Y0.5196
X2.7001Y0.5206
Y0.5216
Y0.5226
Y0.5237
X2.7Y0.5247
X2.6949Y0.5642
X2.6947Y0.5649
X2.6896Y0.5956
X2.6901Y0.595
X2.6909Y0.5942
X2.6917Y0.5935
X2.6925Y0.5929
X2.6933Y0.5923
X2.6942Y0.5917
X2.695Y0.5912
X2.6951Y0.5905
X2.6952Y0.5895
X2.6954Y0.5885
X2.6956Y0.5875
X2.7031Y0.5586
X2.7033Y0.558
X2.7035Y0.5574
X2.7189Y0.5097
X2.7403Y0.4212
X2.7098Y0.4959
X2.7094Y0.4968
X2.7089Y0.4978
X2.7083Y0.4987
X2.7021Y0.5081
X2.7015Y0.5089
X2.7008Y0.5097
X2.7001Y0.5105
X2.6994Y0.5112
X2.6986Y0.5119
X2.6982Y0.5122
G0Z0.3937
X2.622Y0.522
G1Z-0.0151F19.68
X2.6279Y0.516Z-0.0108F39.37
X2.6299Y0.5162Z-0.0045
G0Z0.3937
X2.6108Y0.5483
G1Z-0.0021F19.68
X2.613Y0.5534Z-0.0148
X2.6141Y0.556Z-0.0164F39.37
X2.6135Y0.5575Z-0.0185F19.68
X2.6118Y0.5625Z-0.0092F39.37
X2.6136Y0.5639Z-0.0147F19.68
X2.6147Y0.5682Z-0.0158F39.37
X2.6154Y0.5725Z-0.0095
G0Z0.3937
X2.6184Y0.5802
G1Z-0.004F19.68
X2.6196Y0.5841Z-0.0001F39.37
G0Z0.3937
X2.6317Y0.5919
G1Z-0.0062F19.68
X2.6319Z-0.0057F39.37
X2.632Y0.592Z-0.0058F19.68
G0Z0.3937
X2.6498Y0.6272
G1Z-0.0308
X2.6508Y0.6275Z-0.0348
X2.6513Y0.6276Z-0.0355
X2.6539Y0.6307Z-0.0476
X2.654Y0.6308Z-0.0479
X2.6563Y0.632Z-0.0475F39.37
X2.6704Y0.6315Z-0.0722F19.68
X2.6719Y0.6318Z-0.0758
X2.6857Y0.6158Z-0.055F39.37
X2.6854Y0.6115Z-0.0631F19.68
X2.6865Y0.6037Z-0.0722
X2.6891Y0.5962Z-0.0773
X2.6896Y0.5952Z-0.0775F39.37
X2.695Y0.5912Z-0.0715
X2.7067Y0.5987Z-0.032
X2.709Y0.5984Z-0.0283
G0Z0.3937
X2.6478Y0.6332
G1Z-0.0232F19.68
X2.6539Y0.6307Z-0.0476
G0Z0.3937
X2.5717Y0.6221
G1Z-0.0139
X2.5729Y0.6204Z-0.0064F39.37
X2.5713Y0.6171Z0
X2.5717Y0.6221Z-0.0139F19.68
G0Z0.3937
X2.5548Y0.6115
G1Z0
Z-0.0001
Y0.6062Z-0.0129
X2.5535Y0.605Z-0.0118F39.37
X2.554Y0.6026Z-0.019F19.68
X2.5547Y0.5992Z-0.0225
X2.5563Y0.5916Z-0.0197F39.37
X2.5581Y0.5902Z-0.0134
X2.5553Y0.5838Z-0.0263F19.68
X2.553Y0.5784Z-0.0287F39.37
X2.5493Y0.57Z-0.0096
X2.5508Y0.569Z-0.0146F19.68
X2.5566Y0.5622Z-0.0314
X2.5583Y0.5572Z-0.0339F39.37
X2.5591Y0.5547Z-0.033
X2.559Y0.5541Z-0.0328
X2.5601Y0.5507Z-0.0325
X2.5613Y0.5469Z-0.0315
X2.5612Y0.5465Z-0.0311
X2.5623Y0.5431Z-0.0307
X2.5635Y0.5392Z-0.0296
Y0.5389
X2.5648Y0.5347Z-0.0288
X2.5659Y0.5317Z-0.0271
X2.5658Y0.5309Z-0.0277F19.68
X2.567Y0.5272Z-0.027F39.37
X2.5682Y0.5241Z-0.0253
X2.568Y0.5228Z-0.025
X2.5704Y0.5165Z-0.0235
X2.5702Y0.5153Z-0.0231
X2.5708Y0.5136Z-0.0234
X2.5743Y0.5048Z-0.0092
X2.5728Y0.5037Z-0.0145F19.68
X2.5721Y0.4993Z-0.0159F39.37
X2.5718Y0.4972Z-0.0145
X2.5717Y0.4966Z-0.0126
X2.5718Y0.4963Z-0.0125
G0Z0.3937
X2.5558Y0.5917
G1Z-0.0214F19.68
X2.5563Y0.5916Z-0.0197F39.37
G0Z0.3937
X2.5548Y0.6115
G1Z-0.0001F19.68
Z0F39.37
Z-0.0001F19.68
Z0F39.37
G0Z0.3937
X2.5653Y0.6865
G1Z-0.0001F19.68
X2.5652Y0.6864Z-0.0002
X2.564Y0.6807Z-0.012
X2.5621Y0.68Z-0.0089F39.37
X2.5622Y0.6758Z-0.0203F19.68
Y0.6729Z-0.025
X2.5624Y0.663Z-0.0262F39.37
X2.5677Y0.6581Z-0.0072
X2.5612Y0.6494Z-0.0332F19.68
X2.5601Y0.6479Z-0.0337F39.37
X2.5618Y0.6401Z-0.0322
X2.5643Y0.628Z-0.0085
X2.5676Y0.6281Z-0.0179F19.68
X2.5717Y0.6221Z-0.0139F39.37
G0Z0.3937
X2.5653Y0.6865
G1Z-0.0001F19.68
Z0F39.37
Z-0.0001F19.68
Z0F39.37
X2.5652
X2.5653Z-0.0001F19.68
G0Z0.3937
X2.4945Y0.7218
G1Z-0.0406
X2.4961Y0.7216Z-0.0367F39.37
X2.4996Y0.7212Z-0.0236
X2.4945Y0.7218Z-0.0406F19.68
X2.4929Y0.7276Z-0.0394F39.37
X2.4922Y0.7302Z-0.0369
X2.4855Y0.7347Z-0.012
X2.4892Y0.7438Z-0.026F19.68
X2.4912Y0.7488Z-0.0313
X2.4916Y0.7498Z-0.0304F39.37
X2.4908Y0.7549Z-0.022
X2.4925Y0.7566Z-0.0249F19.68
X2.4985Y0.7628Z-0.0264F39.37
X2.5Y0.7644Z-0.0251
G0Z0.3937
X2.5117Y0.7807
G1Z-0.0024F19.68
X2.5156Y0.7825Z-0.0057
G0Z0.3937
X2.5228Y0.7956
G1Z-0.0039
X2.523Y0.7964Z-0.0062
X2.5232Y0.7972Z-0.0076
X2.5235Y0.7973Z-0.0085
X2.5237Z-0.0077F39.37
X2.5239Y0.7964Z-0.0062
X2.5241Y0.7956Z-0.0039
X2.5237Y0.7973Z-0.0077F19.68
X2.5239Z-0.0069F39.37
X2.5242Y0.798Z-0.0065
X2.5246Y0.799Z-0.0025
X2.5234Y0.8001Z0
X2.5235Y0.7973Z-0.0085F19.68
X2.5223Y0.799Z-0.0024F39.37
X2.5227Y0.798Z-0.0064F19.68
X2.523Y0.7973Z-0.0069
X2.5232Y0.7972Z-0.0076
G0Z0.3937
X2.554Y0.8246
G1Z-0.0116
X2.553Y0.8252Z-0.0086F39.37
X2.5536Y0.8275Z-0.013F19.68
X2.5556Y0.8344Z-0.022
X2.5574Y0.8339Z-0.0149F39.37
G0Z0.3937
X2.5527Y0.8431
G1Z-0.0081F19.68
X2.5549Y0.8366Z-0.0199
X2.5556Y0.8344Z-0.022
G0Z0.3937
X2.556Y0.8585
G1Z-0.0105
X2.5616Y0.8653Z-0.0264
X2.5621Y0.8682Z-0.0269F39.37
X2.5624Y0.8693Z-0.0262
X2.5627Y0.8714Z-0.0245
X2.5641Y0.8731Z-0.0239
X2.565Y0.8789Z-0.0223
X2.5665Y0.8806Z-0.0216
X2.5669Y0.8831Z-0.0225
X2.568Y0.8876Z-0.0206
X2.5686Y0.8882Z-0.0204
X2.5703Y0.8952Z-0.0184
X2.571Y0.8957Z-0.0181
X2.5717Y0.8988
X2.5725Y0.9023Z-0.0141
X2.5721Y0.9029Z-0.0142
Z-0.014
X2.5722Y0.9034Z-0.0137
X2.5723Y0.904Z-0.0128
X2.5759Y0.9068Z0
G0Z0.3937
X2.5957Y0.9049
G1Z-0.0149F19.68
X2.5954Y0.9045Z-0.0141F39.37
X2.5955Y0.9043
X2.5968Y0.8983Z-0.0087
X2.5977Y0.8941Z-0.0021
X2.5963Y0.8937Z-0.0067F19.68
X2.5966Y0.8866Z-0.0001F39.37
G0Z0.3937
X2.5907Y0.9421
G1Z-0.0199F19.68
X2.5908Y0.9352Z-0.0254
Y0.9341Z-0.0244F39.37
X2.5947Y0.9278Z-0.014
X2.5986Y0.9247Z-0.0002
G0Z0.3937
X2.5799Y0.9613
G1Z-0.0025F19.68
X2.585Y0.9577Z-0.0209
X2.5913Y0.9533Z-0.0047F39.37
G0Z0.3937
X2.5784Y0.9777
G1Z-0F19.68
Y0.9776Z-0.0001
X2.5816Y0.9695Z-0.0103
G0Z0.3937
X2.5784Y0.9777
G1Z-0
Z0F39.37
Z-0F19.68
G0Z0.3937
X2.5445Y0.9883
G1Z-0
Y0.9884Z-0.0001
X2.5457Y0.9929Z-0.0064
X2.5445Y0.9883Z0F39.37
Z-0F19.68
G0Z0.3937
X2.5417Y1.0165
G1Z-0.0416
X2.5469Y1.0089Z-0.0181F39.37
G0Z0.3937
X2.5417Y1.0165
G1Z-0.0416F19.68
X2.5425Y1.0198Z-0.0386F39.37
X2.5488Y1.0199Z-0.0151
G0Z0.3937
X2.5405Y1.0457
G1Z-0.0069F19.68
X2.5433Y1.0407Z-0.0193
X2.5453Y1.0356Z-0.0273
X2.5444Y1.0277Z-0.0312F39.37
X2.542Y1.0239Z-0.0314
X2.5425Y1.0198Z-0.0386F19.68
G0Z0.3937
X2.5168Y1.005
G1Z-0.0557
X2.5269Y1.0094Z-0.0383F39.37
X2.5282Y1.0109Z-0.0361
X2.5417Y1.0165Z-0.0416
G0Z0.3937
X2.5446Y1.0537
G1Z-0.0187F19.68
X2.5455Y1.0567Z-0.0207
X2.546Y1.0584Z-0.0215F39.37
X2.5472Y1.0623Z-0.0131
X2.547Y1.0624Z-0.0134F19.68
X2.5488Y1.0688Z-0.0002F39.37
Y1.0689Z-0.0001
Z0
Z-0.0001F19.68
Z0F39.37
Z-0F19.68
G0Z0.3937
X2.5057Y1.034
G1Z-0.0471
X2.5066Y1.0315Z-0.0428F39.37
X2.5054Y1.0256Z-0.035
X2.5119Y1.0135Z-0.0405
X2.5125Y1.0115Z-0.0423F19.68
X2.5168Y1.005Z-0.0557
G0Z0.3937
X2.5057Y1.034
G1Z-0.0471
X2.5075Y1.0378Z-0.0399F39.37
X2.5218Y1.0534Z-0.0029
X2.5192Y1.0561Z-0.0146F19.68
X2.5264Y1.0687Z-0.0001F39.37
G0Z0.3937
X2.4796Y1.0559
G1Z-0.0614F19.68
X2.4836Y1.048Z-0.0441F39.37
X2.4841Y1.0421Z-0.0262
X2.5057Y1.034Z-0.0471F19.68
G0Z0.3937
X2.4796Y1.0559
G1Z-0.0614
X2.4807Y1.0583Z-0.0573F39.37
X2.4854Y1.0658Z-0.0343
X2.4808Y1.0862Z-0.0206
G0Z0.3937
X2.4792Y1.0969
G1Z-0.0119F19.68
X2.4827Y1.1035Z-0.0122F39.37
X2.4842Y1.1063Z-0.0029
X2.4814Y1.1082Z-0.0098F19.68
X2.482Y1.1137Z-0.0002F39.37
Z-0
Z0
Z-0F19.68
Z0F39.37
Z-0F19.68
Z0F39.37
G0Z0.3937
X2.4612Y1.0776
G1Z0F19.68
X2.4616Y1.0735Z-0.0115
X2.4641Y1.0712Z-0.0131F39.37
X2.4638Y1.0701Z-0.017F19.68
X2.4626Y1.0645Z-0.0137F39.37
X2.4697Y1.0598Z-0.0377F19.68
X2.4745Y1.0566Z-0.0484
X2.4787Y1.056Z-0.06
X2.4796Y1.0559Z-0.0614
G0Z0.3937
X2.4698Y1.0533
G1Z-0.0271
X2.4745Y1.0566Z-0.0484
G0Z0.3937
X2.4609Y1.0742
G1Z-0.0078
X2.4616Y1.0735Z-0.0115
G0Z0.3937
X2.4117Y1.0974
G1Z-0.035
X2.4163Y1.0939Z-0.0318F39.37
X2.4184Y1.0936Z-0.0263
X2.4216Y1.093Z-0.0141
G0Z0.3937
X2.4112Y1.1011
G1Z-0.0278F19.68
X2.4117Y1.0974Z-0.035
G0Z0.3937
X2.4175Y1.1214
G1Z-0.0162
X2.4227Y1.1235Z-0.0036F39.37
X2.4224Y1.1245Z-0.0065F19.68
X2.4207Y1.1303Z-0.0052F39.37
X2.4226Y1.1313Z-0.0067F19.68
X2.4248Y1.1324Z-0.0085
X2.426Y1.133Z-0.0043F39.37
G0Z0.3937
X2.4473Y1.1729
G1Z-0.0787F19.68
X2.4467Y1.1733F39.37
X2.4458Y1.1738
X2.4448Y1.1743
X2.4288Y1.1819
X2.439Y1.1818
X2.4505Y1.1773
X2.45Y1.1767
X2.4493Y1.1759
X2.4487Y1.1751
X2.4481Y1.1742
X2.4475Y1.1733
X2.4473Y1.1729
Z-0.0721
X2.4511Y1.157Z-0.0417
X2.4479Y1.1462Z-0.003
X2.4569Y1.143Z-0.0151F19.68
X2.4574Y1.1428Z-0.0154
X2.4594Y1.1358Z0F39.37
G0Z0.3937
X2.4505Y1.1773
G1Z-0.075F19.68
X2.4535Y1.178Z-0.0722F39.37
X2.4608Y1.1786Z-0.0603
X2.4611Y1.1787Z-0.0596
X2.4696Z-0.0478
X2.4772Y1.1765Z-0.0453
X2.488Y1.1691Z-0.0361
X2.4959Y1.1723Z-0.0579F19.68
X2.4988Y1.1721Z-0.0612
X2.5031Y1.1718Z-0.0632F39.37
X2.5033Y1.161Z-0.0229
G0Z0.3937
X2.5031Y1.1718
G1Z-0.0632F19.68
X2.5052Y1.1723Z-0.0649
X2.5162Y1.175Z-0.0586F39.37
X2.517Y1.1762Z-0.0615F19.68
X2.5225Y1.1818Z-0.0732
X2.5268Y1.1848Z-0.0726F39.37
X2.535Y1.1766Z-0.0293
G0Z0.3937
X2.5268Y1.1848
G1Z-0.0726F19.68
X2.5284Y1.187Z-0.0743
X2.53Y1.1885Z-0.0741F39.37
X2.5325Y1.191Z-0.0707
X2.5356Y1.1935Z-0.0656
X2.539Y1.1956Z-0.059
X2.5429Y1.1977Z-0.0503
X2.5433Y1.1994Z-0.0526F19.68
X2.5466Y1.2076Z-0.0578
X2.5513Y1.2142Z-0.0538F39.37
X2.5574Y1.2191Z-0.0526
X2.5633Y1.2218Z-0.0444
X2.5711Y1.2232Z-0.0279
X2.5713Y1.224Z-0.0296F19.68
X2.5734Y1.229Z-0.0372
X2.5757Y1.2337Z-0.0439
X2.5812Y1.2397Z-0.0434F39.37
X2.5859Y1.2423Z-0.0433
X2.5876Y1.2442
X2.5924Y1.2468Z-0.0432
X2.595Y1.2497Z-0.044
X2.5986Y1.2517Z-0.0448
X2.6012Y1.2545Z-0.0455
X2.602Y1.255Z-0.0462F19.68
X2.6053Y1.2572Z-0.0469F39.37
X2.6072Y1.2592Z-0.0472
X2.6082Y1.2598Z-0.048F19.68
X2.6105Y1.2614Z-0.0486F39.37
X2.6121Y1.2625Z-0.0484
X2.6134Y1.264Z-0.049
X2.6183Y1.2674Z-0.0501
X2.6236Y1.2598Z-0.0156
G0Z0.3937
X2.6183Y1.2674
G1Z-0.0501F19.68
X2.6193Y1.2687Z-0.0504F39.37
X2.6208Y1.2697Z-0.0512
X2.6258Y1.2732Z-0.0489
X2.6338Y1.276Z-0.0371
X2.6344Y1.2761Z-0.0357
X2.6385Y1.2848Z-0.0499F19.68
X2.6421Y1.2891Z-0.0527F39.37
X2.6436Y1.2908Z-0.0522
X2.6502Y1.2953Z-0.0442
X2.6545Y1.2969Z-0.0357
X2.6586Y1.2984Z-0.0273
X2.6589Z-0.0266
X2.6598Y1.3027Z-0.0341F19.68
X2.6608Y1.3073Z-0.0422
X2.6645Y1.3146Z-0.048
X2.6699Y1.3203Z-0.0482F39.37
X2.6771Y1.3244Z-0.0447
X2.6849Y1.3265Z-0.0325
X2.687Y1.3323Z-0.0446F19.68
X2.7083Y1.3282Z-0.0108F39.37
X2.7119Y1.3275Z-0.0075
X2.7197Y1.3435Z-0.0653F19.68
X2.7341Y1.3397Z-0.0737F39.37
X2.7344Y1.336Z-0.0673
X2.7349Y1.3289Z-0.0538
X2.7418Y1.3255Z-0.0253
G0Z0.3937
X2.7331Y1.3239
G1Z-0.0423F19.68
X2.7343Y1.3193Z-0.0349F39.37
X2.7358Y1.3178Z-0.0273
X2.7336Y1.3169Z-0.0262
X2.7342Y1.3189Z-0.0342F19.68
X2.7343Y1.3193Z-0.0349
X2.7318Y1.3232Z-0.0368F39.37
X2.7331Y1.3239Z-0.0423F19.68
X2.7349Y1.3289Z-0.0538
G0Z0.3937
X2.7341Y1.3397
G1Z-0.0737
X2.7342Z-0.0734F39.37
X2.7397Y1.3459Z-0.0632
X2.7436Y1.3529Z-0.06
X2.7452Y1.3588Z-0.0606
X2.7461Y1.3603Z-0.0619F19.68
X2.7476Y1.3646Z-0.0629F39.37
X2.749Y1.369Z-0.0644
X2.7497Y1.3772Z-0.0654
X2.7496Y1.3776Z-0.0651
X2.7527Y1.3845Z-0.074F19.68
X2.7528Y1.3847Z-0.0741
X2.753Y1.3855Z-0.074F39.37
X2.7562Y1.3926Z-0.0746
Y1.3927
X2.7595Y1.3998Z-0.0752
Y1.3999
X2.7617Y1.4047Z-0.0757
X2.7629Y1.4069Z-0.0752
X2.7633Y1.4083Z-0.076
X2.7649Y1.4119Z-0.0763
X2.7661Y1.4141Z-0.0759
X2.767Y1.4168Z-0.0761
X2.7694Y1.4212Z-0.0765
X2.7702Y1.424Z-0.0767
X2.7726Y1.4284Z-0.0772
X2.7735Y1.4312Z-0.0774
X2.7758Y1.4356Z-0.0778
X2.7767Y1.4383Z-0.078
X2.7777Y1.4401Z-0.0785
X2.778Y1.441Z-0.0787
X2.7792Y1.4433
X2.777Y1.4386
X2.778Y1.441
X2.7784Y1.4415Z-0.0786
X2.7791Y1.4428Z-0.0784
X2.7794Y1.4437Z-0.0783
X2.7824Y1.4493Z-0.0779
X2.7829Y1.4508Z-0.0774
X2.7841Y1.4528Z-0.0777
X2.7859Y1.4563Z-0.0772
X2.7865Y1.4578Z-0.0768
X2.7893Y1.4628Z-0.0763
X2.79Y1.4648Z-0.0761
X2.7929Y1.4698Z-0.0756
X2.7932Y1.4708Z-0.0761
X2.795Y1.4743Z-0.0757
X2.7964Y1.4768Z-0.0749
X2.7968Y1.4778Z-0.0754
X2.7998Y1.4839Z-0.0748
X2.7999
X2.8034Y1.4909Z-0.0741
X2.8069Y1.4979Z-0.0735
X2.807Y1.498
X2.8105Y1.5049Z-0.0728
Y1.505
X2.8141Y1.512Z-0.0721
X2.8154Y1.5137Z-0.0724
X2.8159Y1.5145Z-0.0727
X2.819Y1.5207Z-0.0707
X2.8198Y1.5236Z-0.0674
X2.8235Y1.5272Z-0.0717F19.68
X2.828Y1.5337Z-0.0716F39.37
X2.8305Y1.5395Z-0.0752
X2.8318Y1.5439Z-0.0785F19.68
Y1.5441Z-0.0787
X2.8322Y1.5442F39.37
X2.8317Y1.5433
X2.8318Y1.5441
X2.8319Z-0.0785
X2.8336Y1.5449Z-0.0757
X2.8407Y1.5498Z-0.0629
X2.8461Y1.5557Z-0.0574
X2.8513Y1.5656Z-0.0495
X2.8516Y1.5669Z-0.0473
X2.8577Y1.5703Z-0.0559F19.68
X2.8634Y1.5758Z-0.0569F39.37
X2.8663Y1.5803Z-0.0591
X2.8681Y1.5821Z-0.0602
X2.871Y1.5867Z-0.0625
X2.8728Y1.5884Z-0.0635
X2.8757Y1.5931Z-0.0658
X2.8775Y1.5948Z-0.0668
X2.8782Y1.5959Z-0.0676F19.68
X2.8804Y1.5994Z-0.0691F39.37
X2.8862Y1.6052Z-0.069
X2.8898Y1.6077Z-0.0652
X2.891Y1.6115Z-0.0717F19.68
X2.8933Y1.6161Z-0.0767
X2.894Y1.6189Z-0.0763F39.37
X2.8962Y1.6234Z-0.0747
X2.898Y1.6269Z-0.0742
X2.9004Y1.6301Z-0.0755
X2.9011Y1.6309Z-0.0754
X2.9031Y1.6344Z-0.0765
X2.9051Y1.6367Z-0.0779
Z-0.0787F19.68
X2.9065Y1.6391F39.37
X2.9066Y1.6379
X2.9058Y1.6373
X2.9051Y1.6367
X2.9066Y1.6382Z-0.078
X2.9188Y1.6337Z-0.0355
X2.9212Y1.629Z-0.0285
X2.9223Y1.6281Z-0.0249
X2.9244Y1.6263Z-0.0145
X2.9212Y1.629Z-0.0285F19.68
X2.9217Y1.6253Z-0.0155F39.37
G0Z0.3937
X2.9065Y1.6391
G1Z-0.0778F19.68
X2.9068Y1.6413Z-0.0754F39.37
X2.9092Y1.649Z-0.0688
X2.9131Y1.6559Z-0.0639
X2.9184Y1.6619Z-0.0512
X2.9193Y1.6625Z-0.049
X2.9196Y1.6703Z-0.0562F19.68
X2.9218Y1.6781Z-0.0549F39.37
X2.9253Y1.684Z-0.0543
X2.9256Y1.685Z-0.0542
X2.9291Y1.691Z-0.0535
X2.9312Y1.6987Z-0.0513
X2.9314Y1.7047Z-0.0431
X2.9336Y1.7063Z-0.0483F19.68
X2.9389Y1.7125Z-0.0574
X2.9424Y1.7195Z-0.0585F39.37
X2.9434Y1.7242Z-0.0631F19.68
X2.9441Y1.7282Z-0.0676
Y1.7284Z-0.0677F39.37
X2.9443Y1.7288Z-0.0672
X2.9462Y1.7315Z-0.0663
X2.9522Y1.7407Z-0.0622
X2.9533Y1.7419Z-0.0607
X2.9555Y1.7462Z-0.0589
X2.9576Y1.7485Z-0.0577
X2.9598Y1.7528Z-0.0558
X2.9619Y1.7551Z-0.0546
X2.9642Y1.7595Z-0.0528
X2.9663Y1.7618Z-0.0516
X2.9692Y1.7675Z-0.0506
X2.9709Y1.7693Z-0.0505
X2.9734Y1.7742Z-0.0504
X2.975Y1.776Z-0.0503
X2.9775Y1.7809Z-0.0502
X2.9792Y1.7827Z-0.0501
X2.9817Y1.7876Z-0.0499
X2.9833Y1.7894
X2.9855Y1.7938Z-0.05
X2.9858Y1.7943Z-0.0496
X2.9879Y1.7969Z-0.05
X2.9897Y1.8005Z-0.0498
X2.9899Y1.801Z-0.0494
X2.9927Y1.8043Z-0.0493
X2.9941Y1.8077Z-0.0492
X2.9968Y1.811Z-0.0491
X2.9978Y1.8134Z-0.0496
X3.0001Y1.8167
X3.001Y1.8177Z-0.0489
X3.002Y1.8201Z-0.0494
X3.0059Y1.8258Z-0.0507
X3.0061Y1.8259Z-0.0508
X3.0105Y1.8322Z-0.0525
X3.0107Y1.8323Z-0.0526
X3.0151Y1.8386Z-0.0543
X3.0153Y1.8387Z-0.0544
X3.0198Y1.845Z-0.0561
X3.0199Y1.8451Z-0.0562
X3.0244Y1.8514Z-0.0579
X3.0245Y1.8515Z-0.058
X3.0277Y1.856Z-0.0593
X3.0288Y1.8579Z-0.0589
X3.031Y1.8603Z-0.0597
X3.0334Y1.8643Z-0.0608
X3.0356Y1.8667Z-0.0615
X3.038Y1.8707Z-0.0626
X3.0391Y1.8719Z-0.0637F19.68
X3.0402Y1.8731Z-0.0633F39.37
X3.0406Y1.8737Z-0.0632
X3.0455Y1.8789Z-0.0617
X3.0459Y1.8795Z-0.0616
X3.0496Y1.8834Z-0.061
X3.0517Y1.8852Z-0.0599
X3.0532Y1.8875Z-0.0597
X3.0571Y1.8909Z-0.0592
X3.0586Y1.8931Z-0.0589
X3.0626Y1.8966Z-0.0584
X3.0641Y1.8988Z-0.0581
X3.0666Y1.901Z-0.0585
X3.068Y1.9023Z-0.0576
X3.0688Y1.9034Z-0.0573
X3.0737Y1.9077Z-0.0556
X3.0745Y1.9088Z-0.0552
X3.0785Y1.9123Z-0.0541
X3.0795Y1.9131Z-0.0531
X3.0812Y1.9152
X3.0842Y1.9178Z-0.0521
X3.0853Y1.9185Z-0.051
X3.0878Y1.9217Z-0.05
X3.091Y1.924Z-0.049
X3.0935Y1.9271Z-0.0479
X3.0951Y1.9283Z-0.0485
X3.0979Y1.931Z-0.0475
X3.0992Y1.9326Z-0.0458
X3.1008Y1.9337Z-0.0465
X3.1051Y1.9379Z-0.045
X3.1058Y1.9392Z-0.0449
X3.1104Y1.9436Z-0.0448
X3.1112Y1.945Z-0.0447
X3.1158Y1.9494Z-0.0446
X3.1161Y1.95Z-0.0451F19.68
X3.1207Y1.9551Z-0.0449F39.37
X3.121Y1.9553
X3.1261Y1.9609Z-0.0447
X3.1264Y1.9611
X3.1314Y1.9667Z-0.0445
X3.1317Y1.9669
X3.137Y1.9727Z-0.0447
X3.1375Y1.9739Z-0.045
X3.139Y1.9755Z-0.0459
X3.1413Y1.9781Z-0.0454
X3.1422Y1.9802Z-0.0456
X3.146Y1.9844Z-0.046
X3.1469Y1.9865Z-0.0461
X3.1507Y1.9907Z-0.0465
X3.1516Y1.9928Z-0.0468
X3.1554Y1.9971Z-0.0471
X3.1563Y1.999Z-0.0473
X3.1598Y2.003Z-0.0478
X3.1609Y2.0054Z-0.0477
X3.1619Y2.0064Z-0.0484
X3.1645Y2.0094
X3.1656Y2.0117Z-0.0482
X3.169Y2.0153Z-0.0486
X3.1703Y2.018Z-0.0488
X3.1737Y2.0216Z-0.0491
X3.1756Y2.0253Z-0.0501
X3.1781Y2.0281Z-0.051
X3.18Y2.0318Z-0.052
X3.1834Y2.0356Z-0.0545
X3.1864Y2.0384Z-0.0542
X3.1901Y2.0408Z-0.051
X3.1947Y2.0435Z-0.046
Y2.0438Z-0.0468F19.68
X3.1971Y2.0516Z-0.0611
X3.2009Y2.0585Z-0.0682
X3.2085Y2.0672Z-0.076
X3.2079Y2.0668Z-0.0787
X3.2114Y2.0774F39.37
X3.2115Y2.0777
X3.2297Y2.0807
X3.2275Y2.0789
X3.2079Y2.0668
G0Z0.3937
X3.2293Y2.0807
G1Z-0.0781F19.68
X3.2336Y2.093Z-0.0319F39.37
X3.2369Y2.0958Z-0.02
G0Z0.3937
X3.2295Y2.0805
G1Z-0.0781F19.68
X3.2414Y2.0796Z-0.0478F39.37
X3.2508Y2.0789Z-0.0235
X3.2537Y2.0859Z-0.037F19.68
X3.2622Y2.0955Z-0.0427F39.37
X3.2623Y2.0957Z-0.0426
X3.2655Y2.0975Z-0.0423
X3.2684Y2.1008Z-0.0421
X3.2715Y2.1026Z-0.0419
X3.2744Y2.1059Z-0.0416
X3.2775Y2.1076Z-0.0414
X3.2804Y2.111Z-0.0411
X3.2835Y2.1127Z-0.0409
X3.2864Y2.116Z-0.0406
X3.2895Y2.1178Z-0.0404
X3.2914Y2.1199Z-0.0411
X3.2933Y2.1214Z-0.0412
X3.2944Y2.1224Z-0.0411
X3.2975Y2.1246Z-0.0401
X3.2976Y2.1248Z-0.0403F19.68
X3.3022Y2.1292Z-0.0399F39.37
X3.3035Y2.1297Z-0.0398
X3.3082Y2.1342Z-0.0394
X3.3095Y2.1348Z-0.0393
X3.3142Y2.1393Z-0.0389
X3.3155Y2.1399Z-0.0388
X3.3202Y2.1444Z-0.0384
X3.3278Y2.1476Z-0.047F19.68
X3.3372Y2.1485Z-0.0666
X3.3385Y2.1484Z-0.0701
X3.3391Y2.1483Z-0.0717
X3.3405Y2.1493Z-0.0708F39.37
X3.3445Y2.1533Z-0.0706
X3.3463Y2.1546Z-0.0705
X3.3503Y2.1586Z-0.0703
X3.3521Y2.1599Z-0.0702
X3.3561Y2.1639Z-0.07
X3.358Y2.1652Z-0.0699
X3.3619Y2.1692Z-0.0696
X3.3638Y2.1705Z-0.0695
X3.3672Y2.174
X3.3677Y2.1746Z-0.0692
X3.371Y2.177Z-0.069
X3.3735Y2.1799Z-0.0688
X3.3769Y2.1823Z-0.0687
X3.3775Y2.1831Z-0.069
X3.3803Y2.1859Z-0.0689
X3.3827Y2.1876Z-0.0684
X3.3833Y2.1884Z-0.0687
X3.3869Y2.192Z-0.0683
X3.3885Y2.193Z-0.0682
X3.3927Y2.1973Z-0.068
X3.3943Y2.1983Z-0.0679
X3.3985Y2.2026Z-0.0677
X3.4052Y2.2069Z-0.0685
X3.413Y2.21Z-0.0616
X3.4157Y2.2105Z-0.0576
X3.4186Y2.2156Z-0.0673F19.68
X3.4236Y2.2217Z-0.0756
X3.4258Y2.2235Z-0.0766F39.37
X3.428Y2.2254Z-0.0762
X3.433Y2.2281Z-0.078
X3.4331Z-0.0787F19.68
X3.4328Y2.228F39.37
X3.4677Y2.2529
X3.5187Y2.2933
X3.5194Y2.294
X3.647Y2.4108
X3.6747Y2.4266
X3.7027Y2.4358
X3.7037Y2.4362
X3.7047Y2.4366
X3.7057Y2.4371
X3.7265Y2.449
X3.7274Y2.4496
X3.7283Y2.4502
X3.7291Y2.4509
X3.7299Y2.4516
X3.7405Y2.4619
X3.7772Y2.4707
X3.7742Y2.4688
X3.7735Y2.4685
X3.6324Y2.3762
X3.6315Y2.3755
X3.6307Y2.3749
X3.6051Y2.353
X3.6044Y2.3523
X3.6037Y2.3516
X3.603Y2.3508
X3.6024Y2.35
X3.6018Y2.3492
X3.6012Y2.3483
X3.6007Y2.3475
X3.6002Y2.3466
X3.5998Y2.3456
X3.5973Y2.3394
X3.5791Y2.3271
X3.5783Y2.3265
X3.5775Y2.3259
X3.5768Y2.3252
X3.5475Y2.2977
X3.5263Y2.2828
X3.4962Y2.2643
X3.4954Y2.2637
X3.4946Y2.2631
X3.4938Y2.2625
X3.493Y2.2618
X3.4923Y2.261
X3.4815Y2.2495
X3.4667Y2.2377
X3.4522Y2.2315
X3.4352Y2.2286
X3.4342Y2.2284
X3.4331Y2.2281
G0Z0.3937
X3.4596Y2.2347
G1Z-0.0682F19.68
X3.4633Y2.2262Z-0.0441F39.37
G0Z0.3937
X3.4736Y2.2432
G1Z-0.0676F19.68
X3.4793Y2.2361Z-0.0447F39.37
G0Z0.3937
X3.5373Y2.2905
G1Z-0.0674F19.68
X3.541Y2.2852Z-0.0545F39.37
G0Z0.3937
X3.6183Y2.2856
G1Z-0.008F19.68
X3.6185Y2.2858Z-0.0083
X3.6186Z-0.0084
Y2.2857Z-0.0087
X3.6188Y2.2856Z-0.0086F39.37
Y2.2855
X3.6189Y2.2845Z-0.0047
X3.6185Y2.2886Z-0.0006
X3.6187Y2.2861Z-0.0082F19.68
X3.6186Y2.2858Z-0.0084
X3.6185Y2.2886Z-0.0006F39.37
Y2.2888Z0
Y2.2886Z-0.0005F19.68
X3.6184Y2.2888Z0F39.37
X3.6185Y2.2886Z-0.0006F19.68
G0Z0.3937
X3.6464Y2.3188
G1Z-0.0053
X3.6466Y2.3193Z-0.007
X3.6468Y2.3198Z-0.0076
X3.6471Y2.32Z-0.009
X3.6472Z-0.0091
X3.6476Y2.3198Z-0.0077F39.37
X3.6477Y2.3194Z-0.0071
X3.6479Y2.3187Z-0.0052
X3.6472Y2.32Z-0.0091F19.68
X3.6473Y2.3202Z-0.0088F39.37
X3.6475Y2.3205Z-0.0074
X3.6469Z-0.0075
X3.647Y2.3202Z-0.0086F19.68
X3.6471Y2.32Z-0.009
G0Z0.3937
X3.6576Y2.3233
G1Z-0.0001
X3.66Y2.3267Z-0.0047
X3.6645Y2.3323Z-0.0107
X3.6653Y2.3326Z-0.0097F39.37
X3.6658Y2.3345Z-0.0126F19.68
G0Z0.3937
X3.6878Y2.3535
G1Z-0.0156
X3.6945Y2.3578Z-0.0174F39.37
X3.6963Y2.3638Z-0.0173
X3.7048Y2.3663Z-0.0244F19.68
X3.7117Y2.3683Z-0.0187F39.37
Y2.3689Z-0.0206F19.68
X3.7143Y2.3742Z-0.0332
X3.7198Y2.3801Z-0.0415
X3.7199Y2.3802F39.37
X3.7259Y2.3833Z-0.0375
X3.7265Y2.3844Z-0.039F19.68
X3.7288Y2.3864Z-0.0388F39.37
X3.73Y2.3875Z-0.0361
X3.7323Y2.3893Z-0.0307
X3.7327Y2.3907Z-0.0313
X3.7351Y2.3942Z-0.0279
X3.7383Y2.3979Z-0.0225
X3.7429Y2.3993Z-0.0256F19.68
X3.7454Y2.4014Z-0.0262F39.37
X3.7512Y2.4023Z-0.0301F19.68
X3.7531Y2.4039Z-0.0336
X3.7533Y2.404Z-0.0337
X3.761Y2.4063Z-0.0237F39.37
X3.7668Y2.4061Z-0.0091
X3.7685Y2.4141Z-0.028F19.68
X3.77Y2.4208Z-0.0091F39.37
X3.7776Z-0.0217F19.68
X3.7799Y2.4203Z-0.0216F39.37
X3.7872Y2.4235Z-0.0184
X3.788Y2.4252Z-0.0187
X3.7938Y2.4278Z-0.0196
X3.7947Y2.4294Z-0.0199
X3.8004Y2.4321Z-0.0209
X3.8013Y2.4336Z-0.0212
X3.8071Y2.4363Z-0.0221
X3.808Y2.4379Z-0.0224
X3.8126Y2.4401Z-0.0237
X3.8145Y2.4422Z-0.0229
X3.8157Y2.4426Z-0.0244F19.68
X3.8182Y2.4438Z-0.0253F39.37
X3.8193Y2.4443Z-0.0249
X3.8212Y2.4464Z-0.0242
X3.8251Y2.4476Z-0.0247
X3.8278Y2.4506Z-0.0254
X3.8317Y2.4519Z-0.026
X3.8344Y2.4548Z-0.0266
X3.8383Y2.4561Z-0.0272
X3.8411Y2.4591Z-0.0278
X3.845Y2.4604Z-0.0285
X3.8473Y2.4628Z-0.0296
X3.8477Y2.4633Z-0.0291
X3.8554Y2.466Z-0.0213
X3.8571Y2.4659Z-0.0172
X3.8647Y2.4814Z-0.0129
X3.8819Y2.4782Z-0.0005
X3.8874Y2.5064Z-0.0731F19.68
Z-0.0787
X3.8866Y2.5072F39.37
X3.8858Y2.5079
X3.8856Y2.5081
X3.9035Y2.5209
X3.9043Y2.5215
X3.905Y2.5222
X3.9058Y2.5229
X3.9064Y2.5236
X3.9071Y2.5244
X3.9228Y2.5444
X3.9234Y2.5452
X3.924Y2.5461
X3.9245Y2.547
X3.9249Y2.5479
X3.9407Y2.5807
X3.9578Y2.6094
X3.9544Y2.5731
Y2.5724
X3.9509Y2.5124
Y2.5113
X3.951Y2.5103
Y2.5092
X3.9512Y2.5082
X3.9514Y2.5072
X3.9516Y2.5062
X3.9519Y2.5052
X3.9523Y2.5042
X3.9527Y2.5032
X3.9531Y2.5023
X3.9534Y2.5017
X3.9523Y2.5014
X3.9394Y2.4958
X3.9392Y2.4967
X3.939Y2.4977
X3.9388Y2.4987
X3.9385Y2.4997
X3.9381Y2.5007
X3.9377Y2.5016
X3.9373Y2.5026
X3.9368Y2.5035
X3.9363Y2.5044
X3.9357Y2.5052
X3.9351Y2.506
X3.9344Y2.5068
X3.9337Y2.5076
X3.933Y2.5083
X3.9322Y2.509
X3.9314Y2.5097
X3.9306Y2.5103
X3.9297Y2.5109
X3.9288Y2.5114
X3.9279Y2.5119
X3.927Y2.5123
X3.926Y2.5127
X3.9251Y2.5131
X3.9241Y2.5134
X3.9231Y2.5136
X3.9221Y2.5138
X3.921Y2.514
X3.92Y2.5141
X3.919
X3.918
X3.906Y2.5135
X3.905Y2.5134
X3.904Y2.5133
X3.903Y2.5131
X3.902Y2.5129
X3.901Y2.5126
X3.9001Y2.5122
X3.8991Y2.5119
X3.8874Y2.5064
G0Z0.3937
X3.8531Y2.4959
G1Z-0.0338F19.68
X3.8647Y2.4814Z-0.0129F39.37
G0Z0.3937
X3.8531Y2.4959
G1Z-0.0338F19.68
X3.8569Y2.5Z-0.0449
X3.8637Y2.5046Z-0.0545
X3.8711Y2.5072Z-0.0557F39.37
X3.8861Y2.5085Z-0.0764F19.68
G0Z0.3937
X3.9131Y2.471
G1Z-0.0365
X3.9153Y2.4697Z-0.0364F39.37
X3.9164Z-0.0342
X3.9205Y2.4764Z-0.0454F19.68
X3.9227Y2.4799Z-0.0456F39.37
X3.94Y2.49Z-0.0579F19.68
X3.9419Y2.4969Z-0.0672
G0Z0.3937
X3.9534Y2.5017
G1Z-0.0657
X3.9742Y2.4935Z-0.0365F39.37
X3.9841Y2.5007Z-0.0583F19.68
X3.9896Y2.5029Z-0.0636
X3.9957Y2.4974Z-0.0444F39.37
X4.0033Y2.4939Z-0.034
X4.0097Y2.4938Z-0.0297
X4.0111Y2.4928Z-0.0317F19.68
X4.0188Y2.4911Z-0.0281F39.37
X4.0211Y2.4917Z-0.0282
X4.0228Y2.4913Z-0.0291
X4.0267Y2.4904Z-0.0282
X4.0289Y2.491
X4.0307Y2.4906Z-0.0291
X4.0346Y2.4898Z-0.0282
X4.0368Y2.4904
X4.0424Y2.4892
X4.0445Y2.4897Z-0.0284
X4.0503Y2.4885Z-0.0283
X4.0522Y2.4891Z-0.0284
X4.06Y2.4875Z-0.0319
X4.0675Y2.4821Z-0.0499F19.68
X4.0683Y2.4809Z-0.0539
X4.0732Y2.4767Z-0.049F39.37
X4.0749Y2.476Z-0.0465
X4.0767Y2.4749Z-0.042
X4.0913Y2.4813Z-0.0574F19.68
X4.0925Y2.4818Z-0.0565F39.37
X4.0947Y2.4815Z-0.0594F19.68
X4.1003Y2.478Z-0.0442F39.37
X4.1009Y2.477Z-0.0401
X4.101Y2.4769Z-0.0398
X4.0947Y2.4815Z-0.0594F19.68
X4.0993Y2.4881Z-0.0389F39.37
X4.1025Y2.4955Z-0.0205
X4.1029Y2.5047Z-0.0149
X4.1012Y2.5078Z-0.0061
X4.1086Y2.5137Z-0.0235F19.68
X4.114Y2.5179Z-0.016F39.37
X4.1158Y2.5176Z-0.0099
G0Z0.3937
X4.1206Y2.526
G1Z-0.0131F19.68
Y2.5263Z-0.0136
X4.1212Y2.5305Z-0.0038F39.37
X4.125Y2.5307Z-0.0063F19.68
G0Z0.3937
X4.1425Y2.563
G1Z-0.0194
X4.143Y2.5634Z-0.0215
X4.145Y2.5607Z-0.0199F39.37
X4.1441Y2.5533Z0
G0Z0.3937
X4.143Y2.5634
G1Z-0.0215F19.68
X4.1444Y2.568Z-0.037
X4.1486Y2.5666Z-0.0218F39.37
G0Z0.3937
X4.1378Y2.5825
G1Z-0.0646F19.68
X4.1438Y2.5719Z-0.043F39.37
X4.144Y2.5706Z-0.0423
X4.1444Y2.568Z-0.037
G0Z0.3937
X4.1378Y2.5825
G1Z-0.0646F19.68
X4.1401Y2.5855Z-0.0589F39.37
X4.1464Y2.5905Z-0.0542
X4.1523Y2.5931Z-0.0477
X4.1531Y2.5945Z-0.0493F19.68
X4.1558Y2.597F39.37
X4.1586Y2.5995Z-0.0472
X4.1651Y2.6025Z-0.0471
X4.1656Y2.603
X4.1721Y2.6061Z-0.047
X4.1722Z-0.0471F19.68
X4.1787Y2.6095F39.37
X4.1791Y2.6096
X4.1833Y2.6118Z-0.0472
X4.1856Y2.6132Z-0.0464
X4.1869Y2.6135Z-0.047
X4.1904Y2.6154Z-0.0471
X4.1927Y2.6168Z-0.0463
X4.1947Y2.6173
X4.1958Y2.6179Z-0.0467
X4.1983Y2.6194Z-0.0452
X4.202Y2.6203Z-0.0442
X4.2055Y2.6225Z-0.0431
X4.2113Y2.6238
X4.2153Y2.6241Z-0.0394
X4.2196Y2.6237Z-0.0331
X4.2252Y2.6225Z-0.0224
X4.2258Y2.6235Z-0.0252F19.68
X4.232Y2.6298Z-0.0404
X4.239Y2.6337Z-0.0438F39.37
X4.2502Y2.6358Z-0.0427
X4.2589Y2.6411Z-0.0265
X4.2672Y2.6346Z-0.0543F19.68
X4.2683Y2.6295Z-0.0448F39.37
X4.2685Y2.6292Z-0.0438
X4.2659Y2.6254Z-0.0359
X4.2683Y2.6295Z-0.0448F19.68
X4.2672Y2.6346Z-0.0543
X4.2755Y2.6372Z-0.0479F39.37
X4.2835Y2.6397Z-0.0281
X4.2836Y2.6396Z-0.0283F19.68
X4.2952Y2.6432Z-0.0001F39.37
Z0
Z-0.0001F19.68
G0Z0.3937
X4.2366Y2.6409
G1Z-0.0155
X4.239Y2.6337Z-0.0438
G0Z0.3937
X4.1889Y2.6243
G1Z-0.0149
X4.1927Y2.6168Z-0.0463
G0Z0.3937
X4.2225Y2.5652
G1Z-0.0149
X4.227Y2.5618Z-0.0359
X4.2282Y2.5629Z-0.037
X4.2327Y2.5671Z-0.0317F39.37
X4.2361Y2.5702Z-0.0275
X4.2355Y2.5727Z-0.0253
X4.2418Y2.5782Z-0.0232
X4.2419Y2.5785Z-0.0226
X4.2438Y2.5824Z-0.0063
X4.2478Y2.5823Z-0.0002
X4.2422Y2.5783Z-0.0228F19.68
X4.2445Y2.5787Z-0.015F39.37
X4.2418Y2.5782Z-0.0232F19.68
X4.2422Y2.5783Z-0.0228F39.37
G0Z0.3937
X4.251Y2.5407
G1Z-0.0128F19.68
X4.2602Y2.5403Z-0.035
X4.2681Y2.5419Z-0.0479
X4.2751Y2.5456Z-0.0514F39.37
X4.2768Y2.5472Z-0.0526
X4.28Y2.549Z-0.0552F19.68
X4.2835Y2.5515Z-0.0571F39.37
X4.2851Y2.5522Z-0.058
X4.2902Y2.5558Z-0.0613
X4.2917Y2.5565Z-0.0623
X4.2969Y2.5602Z-0.0656
X4.3012Y2.562Z-0.0695F19.68
X4.3029Y2.5632Z-0.0719
X4.3065Y2.5651Z-0.0753
X4.3083Y2.5658Z-0.0763F39.37
X4.31Y2.567Z-0.0786F19.68
X4.3101Y2.5671F39.37
X4.3099Y2.5669Z-0.0787
X4.3409Y2.5939
X4.3716Y2.6159
X4.3876Y2.6186
X4.3886Y2.6188
X4.3896Y2.6191
X4.3906Y2.6194
X4.4319Y2.634
X4.521Y2.6447
X4.5221Y2.6449
X4.5231Y2.6451
X4.5642Y2.6566
X4.5651Y2.6569
X4.566Y2.6572
X4.567Y2.6576
X4.5913Y2.669
X4.5918Y2.6681
X4.5923Y2.6672
X4.5928Y2.6663
X4.5934Y2.6654
X4.594Y2.6646
X4.5947Y2.6638
X4.5954Y2.6631
X4.5961Y2.6623
X4.5969Y2.6617
X4.5977Y2.661
X4.5985Y2.6604
X4.5994Y2.6599
X4.6002Y2.6593
X4.6012Y2.6589
X4.6019Y2.6585
X4.583Y2.6486
X4.5824Y2.6483
X4.5819Y2.6479
X4.5384Y2.6216
X4.4999Y2.5962
X4.4993Y2.5958
X4.4547Y2.5644
X4.4543Y2.564
X4.4538Y2.5637
X4.3561Y2.4863
X4.3431Y2.4782
X4.3409Y2.4774
X4.3404Y2.4779
X4.3397Y2.4786
X4.3389Y2.4792
X4.338Y2.4799
X4.3372Y2.4804
X4.3363Y2.481
X4.3354Y2.4815
X4.3344Y2.4819
X4.3335Y2.4823
X4.3325Y2.4827
X4.3315Y2.483
X4.3305Y2.4832
X4.3295Y2.4834
X4.3285Y2.4836
X4.3275Y2.4837
X4.3264Y2.4838
X4.3254
X4.3244Y2.4837
X4.3233Y2.4836
X4.3223Y2.4835
X4.3213Y2.4833
X4.3203Y2.4831
X4.3193Y2.4828
X4.2938Y2.4738
X4.2935Y2.4748
X4.2932Y2.4758
X4.2928Y2.4767
X4.2923Y2.4777
X4.2918Y2.4786
X4.2856Y2.4896
X4.2851Y2.4905
X4.2848Y2.4909
X4.3708Y2.5225
X4.3718Y2.5229
X4.3932Y2.5332
X4.3941Y2.5337
X4.395Y2.5343
X4.3958Y2.5348
X4.3967Y2.5355
X4.3975Y2.5361
X4.3982Y2.5368
X4.399Y2.5376
X4.3996Y2.5384
X4.4003Y2.5392
X4.4009Y2.54
X4.4015Y2.5409
X4.402Y2.5418
X4.4025Y2.5427
X4.4029Y2.5436
X4.4033Y2.5446
X4.4036Y2.5456
X4.4039Y2.5466
X4.4042Y2.5476
X4.4044Y2.5486
X4.4045Y2.5496
X4.4046Y2.5506
Y2.5517
Y2.5527
Y2.5537
X4.4045Y2.5548
X4.4043Y2.5558
X4.4041Y2.5568
X4.4038Y2.5578
X4.4035Y2.5588
X4.4032Y2.5598
X4.4027Y2.5607
X4.4023Y2.5617
X4.4018Y2.5626
X4.4013Y2.5635
X4.4007Y2.5643
X4.4Y2.5651
X4.3964Y2.5695
X4.3957Y2.5703
X4.395Y2.571
X4.3942Y2.5717
X4.3934Y2.5723
X4.3926Y2.5729
X4.3917Y2.5735
X4.3908Y2.574
X4.3899Y2.5745
X4.389Y2.5749
X4.388Y2.5753
X4.3871Y2.5756
X4.3861Y2.5759
X4.3851Y2.5762
X4.3841Y2.5764
X4.3831Y2.5765
X4.382Y2.5766
X4.381Y2.5767
X4.3473Y2.5766
X4.3463Y2.5765
X4.3453Y2.5764
X4.3443Y2.5763
X4.3433Y2.5761
X4.3423Y2.5758
X4.3099Y2.5669
G0Z0.3937
X4.3641Y2.5766
G1Z-0.0503F19.68
X4.3642Y2.5587Z-0.0119F39.37
X4.3735Y2.5466Z-0.0017
X4.3825Y2.528Z-0.0589F19.68
G0Z0.3937
X4.3735Y2.5466
G1Z-0.0017
X4.3982Y2.5673Z-0.0369
G0Z0.3937
X4.3624Y2.6303
G1Z-0.0151
X4.3717Y2.6174Z-0.0732
X4.3726Y2.6161Z-0.074F39.37
G0Z0.3937
X4.4249Y2.6492
G1Z-0.0163F19.68
X4.4304Y2.6334Z-0.0494
X4.4332Y2.6372Z-0.0674
X4.4336Y2.6342Z-0.0694
G0Z0.3937
X4.5907Y2.6688
G1Z-0.0717
X4.5927Y2.6726Z-0.0688F39.37
X4.5963Y2.6795Z-0.0468
X4.5965Y2.6821Z-0.0375
X4.6004Y2.6862Z-0.024
X4.6033Y2.6893Z-0.0081
G0Z0.3937
X4.5961Y2.6837
G1Z-0.0312F19.68
X4.5965Y2.6821Z-0.0375
X4.5963Y2.6795Z-0.0468
X4.6038Y2.6815Z-0.0205F39.37
G0Z0.3937
X4.5995Y2.6573
G1Z-0.0754F19.68
X4.6084Y2.6592Z-0.0689F39.37
X4.6206Y2.6599Z-0.0523
X4.6325Y2.6691Z-0.0441
X4.6401Y2.6676Z-0.0554F19.68
X4.6422Y2.6683Z-0.0548F39.37
X4.643Y2.6686Z-0.0518
X4.6435Z-0.05
X4.6444Y2.668Z-0.048
X4.6472Y2.6662Z-0.0358
X4.6435Y2.6686Z-0.05F19.68
X4.6462Y2.6699Z-0.0389F39.37
X4.643Y2.6686Z-0.0518F19.68
X4.6452Y2.6767Z-0.025F39.37
X4.652Y2.6818Z0
G0Z0.3937
X4.3491Y2.4819
G1Z-0.0579F19.68
X4.3551Y2.4724Z-0.0367F39.37
G0Z0.3937
X4.34Y2.4678
G1Z-0.0461F19.68
X4.3414Y2.4775Z-0.0745
G0Z0.3937
X4.3062Y2.4782
G1Z-0.0577
X4.312Y2.4616Z-0.013F39.37
X4.3289Y2.4597Z-0.0128
X4.3322Y2.4594Z-0.0162F19.68
X4.3335Y2.4608Z-0.0228
X4.34Y2.4678Z-0.0461
G0Z0.3937
X4.2482Y2.4916
G1Z0
X4.256Y2.4903Z-0.0227
X4.2563Y2.4905Z-0.0229
X4.2613Y2.4933Z-0.0272
X4.2636Y2.4922Z-0.0359
X4.2725Y2.493Z-0.0552
X4.2738Y2.4932Z-0.0564
X4.2827Y2.4918Z-0.0729
X4.2849Y2.4909Z-0.0742F39.37
G0Z0.3937
X4.226Y2.5168
G1Z-0.0365F19.68
X4.2326Y2.5178Z-0.0443
X4.2398Y2.5213Z-0.043F39.37
X4.2429Y2.5244Z-0.0432
X4.2459Y2.5275Z-0.0406
X4.2498Y2.5353Z-0.0262
X4.251Y2.5407Z-0.0128
G0Z0.3937
X4.2228Y2.5448
G1Z-0.0118F19.68
X4.2498Y2.5424Z-0.0051F39.37
X4.251Y2.5407Z-0.0128F19.68
G0Z0.3937
X4.2228Y2.5448
G1Z-0.0118
X4.2227Y2.5453Z-0.0133
X4.2236Y2.5545Z-0.0318
X4.2268Y2.5612Z-0.0364
X4.227Y2.5618Z-0.0359F39.37
G0Z0.3937
X4.2204Y2.5417
G1Z-0.0118F19.68
X4.226Y2.5168Z-0.0365
G0Z0.3937
X4.2081Y2.5005
G1Z-0.0694
X4.2106Y2.5015Z-0.0643F39.37
X4.2175Y2.5062Z-0.0551
X4.2249Y2.5148Z-0.0411
X4.2258Y2.5166Z-0.0368
G0Z0.3937
X4.2204Y2.5417
G1Z-0.0118F19.68
X4.2228Y2.5448F39.37
G0Z0.3937
X4.2023Y2.5271
G1Z-0.0363F19.68
X4.2258Y2.5166Z-0.0368F39.37
G0Z0.3937
X4.2023Y2.5271
G1Z-0.0363F19.68
X4.2033Y2.5305Z-0.0353F39.37
X4.2082Y2.5365Z-0.0355
X4.2158Y2.5407Z-0.0229
X4.2204Y2.5417Z-0.0118
G0Z0.3937
X4.1963Y2.5045
G1Z-0.0727F19.68
X4.2081Y2.5005Z-0.0694F39.37
G0Z0.3937
X4.1963Y2.5045
G1Z-0.0727F19.68
X4.196Y2.5067Z-0.0666F39.37
X4.1965Y2.5162Z-0.047
X4.1994Y2.5239Z-0.0384
X4.2023Y2.5271Z-0.0363
G0Z0.3937
X4.1958Y2.4736
G1Z-0.0104F19.68
X4.1997Y2.475Z-0.0213
X4.2056Y2.4803Z-0.03
X4.2086Y2.488Z-0.0389
X4.2087Y2.4955Z-0.0559
X4.2081Y2.5005Z-0.0694
G0Z0.3937
X4.1631Y2.4855
G1Z-0.0001
X4.1683Y2.4877Z-0.0138
X4.1709Y2.4957Z-0.0087F39.37
X4.1728Y2.4954Z-0.0154F19.68
X4.1838Y2.494Z-0.0379
X4.1906Y2.5009Z-0.0615
X4.1963Y2.5045Z-0.0727
G0Z0.3937
X4.1631Y2.4855
G1Z-0.0001
X4.163Z0F39.37
Z-0F19.68
Z0F39.37
Z-0.0001F19.68
Z0F39.37
X4.1631Z-0.0001F19.68
X4.163F39.37
G0Z0.3937
X4.1875Y2.4522
G1Z-0.0106F19.68
X4.1886Y2.4533Z-0.0104F39.37
X4.1942Y2.4587Z-0.009
G0Z0.3937
X4.1866Y2.4514
G1Z-0.0063F19.68
X4.1875Y2.4522Z-0.0106
X4.1874Y2.4481Z-0.0001F39.37
Y2.448Z0
Y2.4481Z-0.0001F19.68
X4.1875Y2.4522Z-0.0106
G0Z0.3937
X4.1682Y2.4103
G1Z-0.0423
X4.1751Y2.4144Z-0.0479
X4.1757Y2.415Z-0.0475F39.37
X4.1831Y2.4155Z-0.0426
X4.1888Y2.4179Z-0.0346
X4.1908Y2.4173Z-0.0366F19.68
X4.1977Y2.4177Z-0.0328F39.37
X4.2014Y2.4191Z-0.0331
X4.2049Y2.421Z-0.0311
X4.2101Y2.4261Z-0.0203
X4.2135Y2.4323Z-0.0033
X4.2169Y2.4306Z-0.0136F19.68
X4.2258Y2.4289Z-0.0313
X4.2291Y2.4295Z-0.0336
X4.2325Y2.4302Z-0.0329F39.37
X4.2373Y2.4334Z-0.0335
X4.2395Y2.4339Z-0.0338
X4.2443Y2.4371Z-0.0344
X4.2464Y2.4375Z-0.0347
X4.248Y2.4386Z-0.0356
X4.2513Y2.4408Z-0.0353
X4.2534Y2.4412Z-0.0356
X4.2582Y2.4445Z-0.0362
X4.2603Y2.4449Z-0.0365
X4.2652Y2.4482Z-0.0371
X4.2657Y2.4483Z-0.0377F19.68
X4.2714Y2.4509Z-0.0383F39.37
X4.2761Y2.4557Z-0.0402
X4.2776Y2.4561Z-0.0432F19.68
X4.2843Y2.4602Z-0.0481
X4.29Y2.4666Z-0.0601
X4.2938Y2.4738Z-0.0673
G0Z0.3937
X4.1036Y2.3968
G1Z-0.0343
X4.1067Y2.3984Z-0.0273F39.37
X4.1116Y2.3967Z-0.0304F19.68
X4.1194Y2.3976Z-0.0287F39.37
X4.1266Y2.4024Z-0.0187
X4.128Y2.4043Z-0.0127
X4.133Y2.4023Z-0.0238F19.68
X4.1371Y2.4018Z-0.0291
X4.1411Y2.4019Z-0.0305F39.37
X4.1472Y2.4039Z-0.0335
X4.1541Y2.4101Z-0.0235
X4.1542Z-0.0234
X4.1623Y2.4091Z-0.0396F19.68
X4.1649Y2.4096Z-0.0418
X4.1682Y2.4103Z-0.0423F39.37
G0Z0.3937
X4.046Y2.4632
G1Z-0.0115F19.68
X4.0732Y2.4767Z-0.049
G0Z0.3937
X4.0269Y2.4449
G1Z-0
X4.027Y2.445Z-0.0002
X4.0311Y2.4488Z-0.0079
X4.0331Y2.4479Z-0.0019F39.37
X4.0352Y2.4517Z-0.0121F19.68
X4.0371Y2.4549Z-0.0127F39.37
G0Z0.3937
X4.0269Y2.4449
G1Z-0F19.68
Z0F39.37
Z-0F19.68
G0Z0.3937
X4.0035Y2.4178
G1Z-0.0153
X4.0051Y2.4131Z-0.0338
X4.0084Y2.4133Z-0.0343F39.37
X4.0138Y2.416Z-0.032
X4.0188Y2.4198Z-0.0223
X4.0215Y2.4235Z-0.0111
X4.0266Y2.4211Z-0.0241F19.68
X4.0363Y2.42Z-0.0361
X4.0421Y2.4193Z-0.0353F39.37
X4.0433Y2.4201Z-0.0325
X4.0441Y2.4199Z-0.0327
X4.0515Y2.4183Z-0.0338
X4.053Y2.418Z-0.0325
X4.0595Y2.4133Z-0.0234
X4.0599Y2.4126Z-0.0215
X4.0658Y2.4129Z-0.0273F19.68
X4.0682Y2.4124Z-0.0276F39.37
X4.0697Y2.4121Z-0.0255
X4.0732Y2.4103Z-0.0168
X4.074Y2.4096Z-0.0136
X4.0804Y2.4119Z-0.0107
X4.0871Y2.4075Z-0.0155F19.68
X4.0882Y2.4026Z-0.0202
X4.0914Y2.4009Z-0.0301
X4.0925Y2.4003Z-0.03F39.37
X4.0956Y2.3961Z-0.0213
X4.0991Y2.3964Z-0.0284F19.68
X4.1036Y2.3968Z-0.0343
G0Z0.3937
X3.9896Y2.5029
G1Z-0.0636
X3.9906Y2.5051Z-0.0589F39.37
X3.9938Y2.5091Z-0.0531
X3.9971Y2.5128Z-0.0485
X4.0034Y2.5166Z-0.0448
X4.0037Y2.5171Z-0.0454F19.68
X4.0095Y2.5226Z-0.0437F39.37
X4.0125Y2.524Z-0.0452
X4.0156Y2.5255Z-0.0447
X4.0239Y2.5266Z-0.0341
X4.0302Y2.5258Z-0.021
X4.0304Y2.5264Z-0.0225F19.68
X4.0337Y2.5323Z-0.0363
X4.0395Y2.5382Z-0.0462
X4.0464Y2.542Z-0.0465F39.37
X4.047Y2.5421Z-0.0466
X4.0498Y2.5436Z-0.0471
X4.0526Y2.5451Z-0.0462
X4.0542Y2.5454Z-0.0461
X4.0597Y2.5484Z-0.0458
X4.0613Y2.5487Z-0.0457
X4.0662Y2.5514Z-0.0455
X4.0685Y2.552Z-0.0448
X4.0699Y2.5528Z-0.0455
X4.0733Y2.5547Z-0.0451
X4.0756Y2.5553Z-0.0444
X4.0797Y2.5578Z-0.0441
X4.0815Y2.5583Z-0.0449
X4.085Y2.56Z-0.0448
X4.0869Y2.5612Z-0.0437
X4.0886Y2.5616Z-0.0445
X4.0941Y2.5643Z-0.044
X4.0946Y2.5644
X4.1017Y2.5679Z-0.0442
X4.1022Y2.5683Z-0.0443
X4.1087Y2.5715Z-0.0452
X4.1091Y2.572Z-0.0453
X4.1156Y2.5752Z-0.0463
X4.1161Y2.5757Z-0.0464
X4.1206Y2.5779Z-0.0475
X4.1243Y2.5794Z-0.0496
X4.1285Y2.58Z-0.0532F19.68
X4.1288Y2.5801Z-0.0533F39.37
X4.1332Y2.5818Z-0.058F19.68
X4.1378Y2.5825Z-0.0646
G0Z0.3937
X4.0424Y2.5494
G1Z-0.015
X4.0464Y2.542Z-0.0465
G0Z0.3937
X3.9577Y2.6093
G1Z-0.0781
X3.9578Y2.6101Z-0.0777F39.37
X3.9597Y2.6151Z-0.0734
X3.9603Y2.6178Z-0.0707
X3.962Y2.6218Z-0.0671
X3.9628Y2.6255Z-0.064
X3.9629Y2.6258Z-0.0638
X3.9645Y2.6295Z-0.0604
X3.966Y2.6372Z-0.0446
X3.9657Y2.6413Z-0.0335
X3.9702Y2.6448Z-0.0369F19.68
X3.9721Y2.6476Z-0.0349F39.37
X3.973Y2.649Z-0.0297
Z-0.0296
X3.9787Y2.6566Z-0.0002
Z0
G0Z0.3937
X3.973Y2.649
G1Z-0.0297F19.68
X3.975Y2.6498Z-0.0227F39.37
G0Z0.3937
X3.9515Y2.6322
G1Z-0.0149F19.68
X3.9628Y2.6255Z-0.064
G0Z0.3937
X3.893Y2.4456
G1Z-0
Y2.4457Z-0.0002
X3.9002Y2.4542Z-0.0164
X3.8992Y2.4561Z-0.0106F39.37
X3.9067Y2.4625Z-0.0304F19.68
X3.9089Y2.4643Z-0.034
X3.9153Y2.4697Z-0.0364F39.37
G0Z0.3937
X3.893Y2.4456
G1Z-0F19.68
Z0F39.37
Z-0F19.68
Z0F39.37
Z-0F19.68
Z0F39.37
G0Z0.3937
X3.8778Y2.4308
G1Z-0F19.68
Z0F39.37
X3.8738Y2.4263Z-0.0058F19.68
X3.8778Y2.4308Z-0.0001F39.37
Z-0
G0Z0.3937
X3.8635Y2.408
G1Z-0.0001F19.68
Y2.4079Z0F39.37
X3.8634Z-0F19.68
X3.8635Y2.408Z-0.0003
X3.864Y2.4117Z-0.0079
X3.8654Y2.4124Z-0.0056F39.37
X3.8653Y2.4133Z-0.0083F19.68
X3.8647Y2.4182Z-0.0027F39.37
X3.8646Y2.4188Z-0.0011
X3.8693Y2.4196Z-0.0094F19.68
G0Z0.3937
X3.8634Y2.4079
G1Z0
Z-0
G0Z0.3937
X3.9288Y2.3834
G1Z-0.0148
X3.9316Y2.3794Z-0.0331
X3.9343Y2.3811Z-0.0336F39.37
X3.9375Y2.3831Z-0.0329
X3.9376
X3.9442Y2.3871Z-0.0315
X3.9458Y2.3873Z-0.0317
X3.9496Y2.3897Z-0.0329
X3.9529Y2.3908Z-0.0323
X3.9548Y2.3925Z-0.0326
X3.9599Y2.3943Z-0.0332
X3.9618Y2.3961Z-0.0335
X3.9648Y2.3971Z-0.035
X3.9683Y2.3991Z-0.0352
X3.9688Y2.3996Z-0.0345
X3.9719Y2.4007Z-0.0359
X3.9746Y2.4023Z-0.0343
X3.9772Y2.4025Z-0.0338
X3.9819Y2.4052Z-0.0328
X3.9845Y2.4055Z-0.0323
X3.9861Y2.4064Z-0.0329
X3.9901Y2.4085Z-0.0315
X3.9933Y2.4086Z-0.0319
X3.9976Y2.4108Z-0.0326
X4.0008Y2.4109Z-0.0331
X4.0051Y2.4131Z-0.0338
G0Z0.3937
X3.9352Y2.3872
G1Z-0.0152F19.68
X3.9375Y2.3831Z-0.0329
G0Z0.3937
X3.7776Y2.4208
G1Z-0.0217
X3.7796Y2.4251Z-0.0104F39.37
G0Z0.3937
X3.7572Y2.4122
G1Z-0.0156F19.68
X3.761Y2.4063Z-0.0237
G0Z0.3937
X3.7055Y2.3735
G1Z-0.0261
X3.7117Y2.3689Z-0.0206F39.37
G0Z0.3937
X3.6597Y2.4205
G1Z-0.0711F19.68
X3.6608Y2.4187Z-0.0727
G0Z0.3937
X3.7371Y2.4681
G1Z-0.0535
X3.739Y2.4604Z-0.0701
G0Z0.3937
X3.7767Y2.4704
G1Z-0.0781
X3.7776Y2.4707Z-0.078F39.37
X3.7791Y2.4716Z-0.077
X3.785Y2.4737Z-0.0734
X3.7917Y2.4778Z-0.0664
X3.7977Y2.4833Z-0.0526
X3.7998Y2.4861Z-0.0445
X3.8032Y2.4858Z-0.0489F19.68
X3.8102Y2.4859Z-0.0553
X3.8182Y2.4878Z-0.0541F39.37
X3.8237Y2.4909Z-0.0519
X3.8254Y2.4913Z-0.0512
X3.8308Y2.4943Z-0.049
X3.8385Y2.496Z-0.0492
X3.8444Y2.4957Z-0.0422
X3.8492Y2.4951Z-0.035
X3.8502Y2.4954Z-0.0353
X3.8531Y2.4959Z-0.0338
G0Z0.3937
X3.7752Y2.3105
G1Z-0.0001F19.68
Z0F39.37
X3.7751Y2.3104Z-0.0002F19.68
X3.7727Y2.3086Z-0.0082
X3.7731Y2.3078Z-0.0072F39.37
X3.7732Y2.3076Z-0.0062
X3.7722Y2.3082Z-0.0075F19.68
X3.7724Y2.3085Z-0.0077
X3.7726Y2.3086Z-0.0084
X3.7727Z-0.0082F39.37
X3.7728Y2.3087Z-0.0079
X3.7729
X3.7751Y2.3104Z-0.0002
X3.7717Y2.3071Z-0.0034F19.68
X3.772Y2.3077Z-0.006
X3.7722Y2.3082Z-0.0075
G0Z0.3937
X3.7553Y2.2602
G1Z-0.0158
X3.7707Y2.2404Z-0.0061F39.37
X3.7702Y2.2375Z-0.0164F19.68
X3.7727Y2.2261Z-0.06
X3.7778Y2.2257Z-0.0655
X3.7813Y2.2261Z-0.0667F39.37
X3.7858Y2.2266Z-0.0662
X3.7877Y2.2269Z-0.0641
X3.7956Y2.2261Z-0.05
X3.802Y2.2296Z-0.0524
X3.8084Y2.2318Z-0.0485
X3.8162Y2.2321Z-0.0373
X3.8201Y2.2311Z-0.0271
X3.8241Y2.2348Z-0.0322F19.68
X3.8256Y2.2354Z-0.0314F39.37
X3.8272Y2.236Z-0.0282
X3.8292Y2.2368Z-0.0215
X3.8302Y2.2364Z-0.0206
X3.8366Y2.2382Z-0.0013
X3.837Y2.2384Z0
X3.8369Y2.2383Z-0.0004F19.68
X3.837Z0F39.37
X3.8367Z-0.001F19.68
X3.8369Z-0.0004F39.37
G0Z0.3937
X3.7553Y2.2602
G1Z-0.0158F19.68
X3.7563Y2.2656Z-0.0011F39.37
X3.7618Y2.2647Z-0.0152F19.68
X3.769Y2.266Z-0.0258
X3.7725Y2.2679Z-0.0267F39.37
X3.7756Y2.2703Z-0.027
X3.7786Y2.2753Z-0.0268
X3.7797Y2.2756Z-0.0294F19.68
X3.7829Y2.2783Z-0.0332
X3.7848Y2.2799Z-0.0323F39.37
X3.7861Y2.2802Z-0.0321
X3.7912Y2.2845Z-0.0313
X3.793Y2.285
X3.7977Y2.2889
X3.7996Y2.2894
X3.8042Y2.2933Z-0.0314
X3.8061Y2.2938
X3.8107Y2.2977
X3.8126Y2.2982
X3.8147Y2.2999Z-0.0324
X3.8178Y2.3023Z-0.0321
X3.8191Y2.3026Z-0.0314
X3.8212Y2.3044Z-0.0324
X3.8248Y2.307Z-0.0321
X3.8256Y2.3072
X3.8313Y2.3114
X3.8321Y2.3116
X3.8379Y2.3158
X3.8386Y2.316
X3.8444Y2.3202
X3.8451Y2.3204
X3.8509Y2.3247
X3.8516Y2.3248
X3.8574Y2.3291Z-0.0322
X3.8582Y2.3292
X3.864Y2.3335
X3.8647Y2.3336Z-0.0323
X3.8685Y2.3364Z-0.0327
X3.8704Y2.3381Z-0.0315
X3.8726Y2.3387Z-0.0316
X3.8769Y2.3425
X3.8791Y2.3432
X3.8834Y2.3469Z-0.0317
X3.8856Y2.3476
X3.8899Y2.3514Z-0.0318
X3.8921Y2.352
X3.8946Y2.3542Z-0.033
X3.8985Y2.3566Z-0.0326
X3.899Y2.3573
X3.905Y2.361Z-0.0327
X3.9055Y2.3617
X3.9115Y2.3654Z-0.0328
X3.912Y2.3661
X3.9181Y2.3699Z-0.0329
X3.9185Y2.3705
X3.9246Y2.3743Z-0.033
X3.925Y2.375
X3.9311Y2.3787Z-0.0331
X3.9316Y2.3794
G0Z0.3937
X3.7522Y2.2177
G1Z-0.0787F19.68
X3.7209Y2.2064F39.37
X3.7142Y2.2041
X3.7165Y2.2074
X3.7282Y2.2193
X3.7375Y2.2265
X3.738Y2.2259
X3.7387Y2.225
X3.7393Y2.2243
X3.7401Y2.2235
X3.7408Y2.2228
X3.7416Y2.2222
X3.7425Y2.2215
X3.7433Y2.221
X3.7442Y2.2204
X3.7451Y2.2199
X3.746Y2.2195
X3.747Y2.2191
X3.748Y2.2187
X3.7489Y2.2184
X3.75Y2.2181
X3.751Y2.2179
X3.7522Y2.2177
Z-0.0778
X3.7548Y2.218Z-0.0762
X3.7586Y2.219Z-0.0748
X3.763Y2.2203Z-0.0736
X3.77Y2.2239Z-0.0657
X3.7727Y2.2261Z-0.06
G0Z0.3937
X3.7355Y2.2249
G1Z-0.0663F19.68
X3.7346Y2.235Z-0.0468F39.37
X3.7335Y2.24Z-0.0294
X3.7419Y2.2461Z-0.0305
X3.7484Y2.2507Z-0.0314
X3.7512Y2.2527Z-0.0308
X3.7553Y2.2602Z-0.0158
G0Z0.3937
X3.7146Y2.2208
G1Z-0.0387F19.68
X3.7223Y2.2133Z-0.0718
X3.7244Y2.2076Z-0.0677F39.37
X3.7302Y2.1915Z-0.0148
G0Z0.3937
X3.7125Y2.2037
G1Z-0.0746F19.68
X3.7147Y2.2049Z-0.0765
G0Z0.3937
X3.7024Y2.2108
G1Z-0.0285
X3.7125Y2.2037Z-0.0746
G0Z0.3937
X3.6048Y2.1487
G1Z-0.0345
X3.6081Y2.1503Z-0.0352F39.37
X3.6108Y2.1516Z-0.0345
X3.6119Z-0.0344
X3.618Y2.1546Z-0.0342
X3.6192Y2.1547Z-0.0341
X3.6253Y2.1576Z-0.0339
X3.6265Y2.1577Z-0.0338
X3.6326Y2.1607Z-0.0336
X3.6337Z-0.0335
X3.6379Y2.1627Z-0.0339
X3.6388Y2.1633Z-0.0333
X3.6417Y2.1639Z-0.0329
X3.6449Y2.166Z-0.0323
X3.645Y2.1661Z-0.0324F19.68
X3.6496Y2.1671Z-0.0321F39.37
X3.6522Y2.1691Z-0.032
X3.6569Y2.1701Z-0.0318
X3.6595Y2.1721Z-0.0317
X3.6641Y2.1731Z-0.0315
X3.6667Y2.1751Z-0.0314
X3.6714Y2.1762Z-0.0312
X3.674Y2.1782Z-0.0311
X3.6794Y2.1793Z-0.0317
X3.686Y2.1844Z-0.0339
X3.6867Y2.1854Z-0.0323
X3.6935Y2.1867Z-0.0413F19.68
X3.6992Y2.1901Z-0.0466
X3.7024Y2.193Z-0.053
X3.7054Y2.1963Z-0.0608
X3.7071Y2.1989Z-0.0644
X3.71Y2.201Z-0.0726
X3.7105Y2.2014Z-0.0733
X3.7125Y2.2037Z-0.0746F39.37
G0Z0.3937
X3.6022Y2.1532
G1Z-0.0152F19.68
X3.6048Y2.1487Z-0.0345
G0Z0.3937
X3.5553Y2.1115
G1Z-0.0507
X3.5611Y2.1051Z-0.0191F39.37
G0Z0.3937
X3.5537Y2.1125
G1Z-0.0546F19.68
X3.5538Y2.1127Z-0.0553
X3.559Y2.1195Z-0.0451F39.37
X3.5652Y2.1237Z-0.0392
X3.5662Y2.124Z-0.037
X3.5681Y2.1265
X3.5709Y2.1296Z-0.034
X3.5774Y2.1331Z-0.0337
X3.586Y2.1339Z-0.02
X3.59Y2.133Z-0.0098
X3.5923Y2.1387Z-0.024F19.68
X3.5977Y2.1452Z-0.0329
X3.6047Y2.1485Z-0.0345F39.37
X3.6048Y2.1487
G0Z0.3937
X3.5092Y2.0836
G1Z-0.0037F19.68
X3.5123Y2.0927Z-0.025
X3.5177Y2.0987Z-0.0284F39.37
X3.5253Y2.1016Z-0.0332F19.68
X3.5302Y2.1015Z-0.0279F39.37
X3.5327Y2.1048Z-0.0373F19.68
X3.5354Y2.1066Z-0.0411
X3.5381Y2.1084Z-0.0425F39.37
X3.546Y2.1105Z-0.0492F19.68
X3.5509Y2.1104Z-0.0476F39.37
X3.5537Y2.1125Z-0.0546F19.68
G0Z0.3937
X3.4133Y2.1205
G1Z-0.0078
X3.4134Y2.1206F39.37
X3.4144Y2.1213Z-0.0034
X3.4132Y2.1201Z-0.0072F19.68
X3.4134Y2.1199Z-0.0073F39.37
X3.414Y2.1193Z-0.004
X3.4132Y2.1201Z-0.0072F19.68
X3.4133Y2.1205Z-0.0078
X3.4125Y2.1195Z-0.0038F39.37
X3.4132Y2.1201Z-0.0072F19.68
X3.4102Y2.1209Z-0F39.37
X3.4132Y2.1205Z-0.0075F19.68
X3.4133Z-0.0078
G0Z0.3937
X3.4216Y2.1715
G1Z0
X3.4243Y2.1713Z-0.0071
X3.4246Y2.1716Z-0.0077
X3.4248Y2.1717Z-0.007F39.37
X3.4251Y2.1712Z-0.0065
X3.4277Y2.1705Z-0
X3.4248Y2.1717Z-0.007F19.68
Y2.1718Z-0.0068F39.37
X3.4253Y2.1721Z-0.0045
X3.4242Y2.1724Z-0.0047
X3.4247Y2.172Z-0.007F19.68
X3.4248Y2.1718Z-0.0068F39.37
G0Z0.3937
X3.3311Y2.1216
G1Z-0.0161F19.68
X3.3337Y2.1213Z-0.0091F39.37
X3.338Y2.1351Z-0.0385F19.68
X3.3392Y2.1391Z-0.0464
X3.3391Y2.1483Z-0.0717
G0Z0.3937
X3.3269Y2.122
G1Z-0.0001
X3.3311Y2.1216Z-0.0161
G0Z0.3937
X3.3257Y2.1115
G1Z-0
X3.3258Y2.1116Z-0.0001
X3.3311Y2.1216Z-0.0161
G0Z0.3937
X3.3257Y2.1115
G1Z0
Z-0
Z0F39.37
G0Z0.3937
X3.3264Y2.0836
G1Z-0.0173F19.68
X3.3267Z-0.0176
X3.327Y2.0835Z-0.0185
X3.3293Y2.0824Z-0.0191F39.37
X3.3309Y2.0848Z-0.0083
X3.327Y2.0835Z-0.0184F19.68
X3.3276Y2.0896Z0F39.37
G0Z0.3937
X3.3493Y2.0918
G1Z0F19.68
X3.3513Y2.0928Z-0.0053
X3.3526Y2.0927Z-0.0057F39.37
X3.3532Y2.0911Z-0.0054
X3.3502Y2.093Z-0.003
X3.3508Y2.0929Z-0.0052F19.68
X3.3513Y2.0928Z-0.0053F39.37
G0Z0.3937
X3.362Y2.0856
G1Z-0.0044F19.68
X3.3641Y2.0831Z-0.0001F39.37
G0Z0.3937
X3.3193Y2.0655
G1Z-0.0212F19.68
X3.3199Y2.0675Z-0.0241
X3.3228Y2.0706Z-0.0231F39.37
X3.3282Y2.0764Z-0.0183
X3.3305Y2.0789Z-0.0139
X3.3296Y2.0816Z-0.021F19.68
X3.3293Y2.0824Z-0.0191F39.37
G0Z0.3937
X3.3133Y2.0711
G1Z-0.0169F19.68
X3.3188Y2.066Z-0.0235
X3.3193Y2.0655Z-0.0212F39.37
G0Z0.3937
X3.2765Y2.0472
G1Z-0.0001F19.68
Z0F39.37
Z-0.0002F19.68
Z-0.0001F39.37
G0Z0.3937
X3.2604Y2.0305
G1Z-0.0179F19.68
X3.2651Y2.0382Z-0.0226F39.37
X3.2663Y2.0403Z-0.0207
X3.2681Y2.0431Z-0.0144
X3.2717Z-0.0101
X3.273Y2.0459Z-0.0099
X3.2765Y2.0472Z-0.0002
G0Z0.3937
X3.2908Y2.022
G1Z-0.0094F19.68
X3.2965Y2.0214Z-0.0098F39.37
X3.2998Y2.03Z-0.0168F19.68
X3.3022Y2.0365Z-0.0141F39.37
G0Z0.3937
X3.2761Y1.9988
G1Z-0.008F19.68
X3.2765Y2Z-0.0082F39.37
X3.2771Y2.0023Z-0.0085
X3.2758Y1.9976Z-0.0037
X3.2761Y1.9988Z-0.008F19.68
X3.2736Y1.9972Z-0.0001F39.37
X3.2737Y1.9973Z-0.0005F19.68
X3.2761Y1.9988Z-0.008
X3.2735Y1.9972Z0F39.37
X3.2736Z-0.0001F19.68
G0Z0.3937
X3.2456Y2.0103
G1Z-0.0066
X3.2471Y2.0137Z-0.0137
X3.2486Y2.0171Z-0.011F39.37
X3.2511Y2.0174Z-0.0135F19.68
G0Z0.3937
X3.2448Y2.0107
G1Z-0.0095
X3.2456Y2.0103Z-0.0066F39.37
X3.242Y2.0081Z-0.0073
X3.2421Z-0.0078F19.68
X3.2457Y2.0099Z-0.0055F39.37
X3.2456Y2.0103Z-0.0066F19.68
G0Z0.3937
X3.2303Y1.989
G1Z-0.0047
Y1.9885Z-0.0066
Y1.9881F39.37
X3.2321Y1.9903Z0
G0Z0.3937
X3.229Y1.9814
G1Z-0.0001F19.68
Y1.9815Z-0.0002
X3.2302Y1.984Z-0.0054
X3.229Y1.9858Z-0.0012F39.37
X3.2303Y1.9869Z-0.0064F19.68
Y1.9881Z-0.0066F39.37
X3.229Y1.9814Z0
Z-0.0001F19.68
G0Z0.3937
X3.2031Y1.9969
G1Z-0
Z0F39.37
G0Z0.3937
X3.2146Y2.0123
G1Z-0.0046F19.68
X3.2159Z-0.0095
X3.2164Y2.0122Z-0.0094F39.37
X3.2171Y2.0131Z-0.0127F19.68
X3.218Y2.0141Z-0.0123F39.37
X3.2182Y2.0144Z-0.0119
X3.2179Y2.0163Z-0.0078
X3.2192Y2.0172Z-0.0087F19.68
X3.2197Y2.0176Z-0.0064F39.37
G0Z0.3937
X3.1874Y1.9817
G1Z-0.0127F19.68
X3.1903Y1.9837Z-0.0155
X3.1919Y1.9849Z-0.015F39.37
X3.198Y1.9893Z-0.0029
X3.1971Y1.9908Z-0.0084F19.68
X3.203Y1.9969Z-0.0001F39.37
X3.2031Z-0
G0Z0.3937
X3.206Y1.9529
G1Z-0.0001F19.68
X3.2075Y1.9567Z-0.0054
X3.2064Y1.9577Z-0.0015F39.37
X3.2077Y1.9593Z-0.006F19.68
G0Z0.3937
X3.1669Y1.9043
G1Z-0.0096
X3.1684Y1.9036Z-0.0077F39.37
X3.1696Y1.9031Z-0.0029
X3.1669Y1.9043Z-0.0096F19.68
X3.167Y1.9035Z-0.0091F39.37
X3.1645Y1.9052Z-0.0133F19.68
X3.1663Y1.9053Z-0.0084F39.37
X3.1669Y1.9043Z-0.0096F19.68
X3.1639Y1.903Z-0.0072F39.37
X3.1644Y1.905Z-0.0132F19.68
X3.1645Y1.9052Z-0.0133
X3.1623Y1.9078Z-0.0063F39.37
X3.1624Y1.9073Z-0.0084F19.68
X3.1625Y1.906Z-0.0074F39.37
X3.1645Y1.9052Z-0.0133F19.68
G0Z0.3937
X3.1544Y1.8899
G1Z-0.0128
X3.1557Y1.8909Z-0.0067F39.37
X3.1525Y1.8884Z-0.0148F19.68
X3.1544Y1.8899Z-0.0128F39.37
G0Z0.3937
X3.125Y1.8977
G1Z-0F19.68
X3.1251Z0F39.37
X3.1236Y1.892Z-0.0127F19.68
X3.125Y1.8976Z-0.0002F39.37
Y1.8977Z-0
X3.1236Y1.892Z-0.0127F19.68
X3.1242Y1.8923Z-0.0131
X3.1253Y1.893Z-0.0083F39.37
X3.1235Y1.8919Z-0.0126F19.68
X3.1236Y1.892Z-0.0127
G0Z0.3937
X3.1219Y1.8719
G1Z-0.0335
X3.1236Y1.8724Z-0.0312F39.37
X3.1242Y1.8726Z-0.0303
X3.1317Y1.8711Z-0.021
X3.1328Y1.8722Z-0.0236F19.68
X3.1392Y1.878Z-0.0259F39.37
X3.1409Y1.8795Z-0.0239
G0Z0.3937
X3.1219Y1.8719
G1Z-0.0335F19.68
X3.1131Y1.881Z-0.0024F39.37
X3.1152Y1.8833Z-0.0103F19.68
X3.1159Y1.8868Z-0.0136
G0Z0.3937
X3.1046Y1.8681
G1Z-0.021
X3.1062Y1.8651Z-0.0337
X3.1065Y1.8653Z-0.0335F39.37
X3.1194Y1.8685Z-0.0232
X3.1219Y1.8719Z-0.0335F19.68
G0Z0.3937
X3.1031Y1.8623
G1Z-0.0328
X3.106Y1.8647Z-0.0346F39.37
X3.1062Y1.8651Z-0.0337
X3.1004Y1.8638Z-0.0216
X3.1031Y1.8623Z-0.0328F19.68
G0Z0.3937
X3.083Y1.8413
G1Z-0.0342
X3.0921Y1.8433Z-0.0203F39.37
X3.0948Y1.8464Z-0.0184
X3.0955Y1.8466Z-0.0185
X3.0997Y1.8492Z-0.0139
X3.1017Y1.858Z-0.0287F19.68
X3.1015Y1.8585Z-0.0286F39.37
X3.1025Y1.8608Z-0.0336F19.68
X3.1031Y1.8623Z-0.0328F39.37
G0Z0.3937
X3.0772Y1.8448
G1Z-0.0184F19.68
X3.0811Y1.8401Z-0.0393
X3.0829Y1.8411Z-0.035F39.37
X3.083Y1.8413Z-0.0342
G0Z0.3937
X3.0699Y1.8316
G1Z-0.0075F19.68
X3.0771Y1.8357Z-0.0305
X3.0811Y1.8401Z-0.0394
Z-0.0393F39.37
G0Z0.3937
X3.1039Y1.8204
G1Z-0.0001F19.68
X3.1058Y1.8237Z-0.004
X3.1093Y1.8269Z-0.0035F39.37
X3.1089Y1.8292Z-0.0032
X3.1088Y1.83Z-0.0006
X3.1109Y1.8304Z-0.0045F19.68
G0Z0.3937
X3.0959Y1.8075
G1Z-0
Z0F39.37
Z-0.0001F19.68
Z-0F39.37
G0Z0.3937
X3.0781Y1.7789
G1Z-0.014F19.68
X3.0782Y1.7797Z-0.0125F39.37
X3.0813Y1.7809Z-0.0155F19.68
X3.0834Y1.7817Z-0.0105F39.37
X3.0839Y1.7855Z-0.0165F19.68
X3.0841Y1.7871Z-0.0143F39.37
X3.0816Y1.7908Z-0.0046
X3.0847Y1.7943Z-0.013F19.68
X3.0866Y1.7963Z-0.0137F39.37
X3.0885Y1.7984Z-0.0138
X3.0891Y1.7983Z-0.013
X3.0921Y1.8018Z-0.0145
X3.0938Y1.8038Z-0.0081
X3.0936Y1.8043Z-0.0086F19.68
X3.0959Y1.8075Z-0.0002F39.37
Z-0.0001
G0Z0.3937
X3.0566Y1.8036
G1Z-0F19.68
Y1.8037Z-0.0001
X3.0591Y1.8063Z-0.0024
X3.0566Y1.8036Z0F39.37
Z-0F19.68
G0Z0.3937
X3.043Y1.7973
G1Z-0.0066
X3.0436Y1.7977Z-0.0041F39.37
X3.038Y1.8076Z-0.0098
X3.0393Y1.8114Z-0.0001
Z0
Z-0.0001F19.68
Z0F39.37
Z-0.0001F19.68
Z0F39.37
G0Z0.3937
X3.0428Y1.793
G1Z-0.0133F19.68
X3.0476Y1.7856Z-0.007F39.37
X3.048Y1.785Z-0.0043
X3.0418Y1.7881Z-0.0143F19.68
X3.0428Y1.793Z-0.0133F39.37
X3.043Y1.7973Z-0.0066
G0Z0.3937
X3.0192Y1.7711
G1Z-0.0001F19.68
Z0F39.37
Z-0.0001F19.68
X3.0195Y1.7738Z-0.0067
X3.0214Y1.7751Z-0.0053F39.37
X3.0268Y1.7786Z-0.0016
X3.0264Y1.7793Z-0.0046F19.68
X3.0267Y1.7805Z-0.007
X3.0295Y1.7907Z-0.0201
X3.0312Y1.7969Z-0.0135F39.37
X3.043Y1.7973Z-0.0066
G0Z0.3937
X3.0565Y1.7625
G1Z0F19.68
X3.0603Y1.7639Z-0.0104
X3.0606Y1.7646Z-0.0103F39.37
X3.0622Y1.7649Z-0.0137F19.68
X3.0709Y1.7668Z-0F39.37
G0Z0.3937
X3.0599Y1.7631
G1Z-0.0073F19.68
X3.0603Y1.7639Z-0.0104
G0Z0.3937
X3.0467Y1.7509
G1Z-0
Y1.7508Z-0.0001
X3.0477Y1.7472Z-0.004
X3.0467Y1.7509Z-0F39.37
Z0
Z-0F19.68
G0Z0.3937
X3.0481Y1.7382
G1Z-0.0045
X3.0491Y1.7366Z0F39.37
X3.048Y1.7378Z-0.0031F19.68
X3.0481Y1.7382Z-0.0045
X3.0483Y1.7389Z-0.0041F39.37
X3.049Y1.7408Z-0.0029
G0Z0.3937
X3.0144Y1.6998
G1Z-0.0001F19.68
X3.0145Z0F39.37
X3.0144Z-0.0001F19.68
G0Z0.3937
X2.9985Y1.6778
G1Z-0.0001
Y1.6777Z0F39.37
Y1.6778Z-0.0003F19.68
X2.9996Y1.6812Z-0.0076
X3.0037Y1.6824Z-0.0019F39.37
X3.0036Y1.6828Z-0.0032F19.68
X3.0026Y1.6875Z-0.0122
X3.005Y1.6895Z-0.0167
X3.0068Y1.691Z-0.0156F39.37
X3.01Y1.6937Z-0.0079
X3.0102Z-0.0072
X3.011Y1.6965Z-0.0079
X3.0116Y1.6983Z-0.0082
X3.0144Y1.6998Z-0.0001
G0Z0.3937
X2.9985Y1.6777
G1Z0F19.68
Y1.6778Z-0
G0Z0.3937
X2.9764Y1.6463
G1Z-0.0157
Y1.6465Z-0.016
X2.977Y1.649Z-0.0178
X2.9773Y1.6505Z-0.0137F39.37
X2.977Y1.6508
X2.9759Y1.6524Z-0.0066
X2.975Y1.6461Z-0.0106F19.68
X2.9764Y1.6463Z-0.0157
X2.9767Y1.6415Z-0.0066F39.37
X2.9771Y1.6439Z-0.0157F19.68
X2.9773Y1.6451Z-0.0161F39.37
X2.9764Y1.6463Z-0.0157
G0Z0.3937
X3.0254Y1.6221
G1Z-0.0303F19.68
Y1.6223F39.37
X3.0307Y1.6279Z-0.0296
X3.031Y1.6292Z-0.0298
X3.0356Y1.6341Z-0.0308
X3.036Y1.6354Z-0.0311
X3.0388Y1.6385Z-0.0324
X3.0408Y1.6416Z-0.032
X3.0411Y1.6417Z-0.0324F19.68
X3.0437Y1.6446Z-0.0336F39.37
X3.0457Y1.6477Z-0.0333
X3.0473Y1.6487Z-0.0336
X3.0497Y1.6525Z-0.0349
X3.0522Y1.6548Z-0.0345
X3.0534Y1.6574Z-0.035
X3.054Y1.658Z-0.0355F19.68
X3.0566Y1.6605Z-0.0351F39.37
X3.0581Y1.6638
X3.0613Y1.6668Z-0.0352
X3.0628Y1.6701Z-0.0353
X3.066Y1.6732Z-0.0354
X3.0674Y1.6764Z-0.0355
X3.0707Y1.6795
X3.0721Y1.6828Z-0.0356
X3.0747Y1.6852Z-0.0363
X3.0753Y1.6858Z-0.0357
X3.0764Y1.6883Z-0.0353
X3.08Y1.6917Z-0.0347
X3.0814Y1.6944Z-0.0339
X3.0849Y1.6975Z-0.0331
X3.0863Y1.7005Z-0.0326
X3.0899Y1.7036Z-0.0319
X3.0913Y1.7067Z-0.0313
X3.0948Y1.7097Z-0.0306
X3.0962Y1.7128Z-0.0301
X3.0998Y1.7158Z-0.0293
X3.1012Y1.7189Z-0.0288
X3.1054Y1.7223Z-0.0289
X3.1065Y1.7248Z-0.029
X3.1106Y1.7282Z-0.0291
X3.1117Y1.7306Z-0.0292
X3.1159Y1.7341Z-0.0293
X3.117Y1.7365Z-0.0294
X3.1211Y1.7399Z-0.0295
X3.1222Y1.7424Z-0.0296
X3.1264Y1.7458Z-0.0297
X3.1275Y1.7482Z-0.0298
X3.1312Y1.7513Z-0.0302
X3.1317Y1.7516Z-0.0297
X3.1334Y1.7546Z-0.0305
X3.1365Y1.7572Z-0.0304
X3.1369Y1.7575Z-0.0299
X3.1391Y1.7613Z-0.03
X3.1422Y1.7634Z-0.0301
X3.1444Y1.7671Z-0.0302
X3.1474Y1.7692Z-0.0303
X3.1496Y1.773Z-0.0304
X3.1527Y1.7751Z-0.0305
X3.1549Y1.7789Z-0.0306
X3.1579Y1.781Z-0.0307
X3.1601Y1.7847Z-0.0308
X3.1632Y1.7868Z-0.0309
X3.1653Y1.7905Z-0.0311
X3.1654Y1.7906Z-0.0309
X3.1685Y1.7929Z-0.0312
X3.1706Y1.7963Z-0.0313
Y1.7965Z-0.0311
X3.1739Y1.7988Z-0.0312
X3.1759Y1.8023Z-0.0313
X3.1792Y1.8047Z-0.0314
X3.1811Y1.8082Z-0.0315
X3.1844Y1.8106Z-0.0316
X3.1864Y1.8141Z-0.0317
X3.1897Y1.8164Z-0.0318
X3.1917Y1.8199Z-0.0319
X3.1949Y1.8223Z-0.032
X3.1969Y1.8258Z-0.0321
X3.2002Y1.8282Z-0.0322
X3.2019Y1.8312Z-0.0319
X3.2056Y1.8339Z-0.0316
X3.2073Y1.837Z-0.0313
X3.211Y1.8396Z-0.031
X3.2127Y1.8427Z-0.0307
X3.2164Y1.8453Z-0.0304
X3.2181Y1.8484Z-0.0301
X3.2218Y1.8511Z-0.0298
X3.2235Y1.8542Z-0.0295
X3.2272Y1.8568Z-0.0292
X3.2289Y1.8599Z-0.0289
X3.2331Y1.8628Z-0.0291
X3.2345Y1.8655Z-0.0293
X3.2386Y1.8683Z-0.0295
X3.2395Y1.87Z-0.0308F19.68
X3.244Y1.8741Z-0.0309F39.37
X3.2443Y1.8748
X3.2496Y1.8797Z-0.0312
X3.2499Y1.8803Z-0.0313
X3.2552Y1.8852Z-0.0316
X3.2554Y1.8859
X3.2591Y1.8893Z-0.0321
X3.2608Y1.8916Z-0.0309
X3.2618Y1.8922Z-0.0322F19.68
X3.2647Y1.8949Z-0.0325F39.37
X3.2664Y1.8972Z-0.0313
X3.269Y1.8986Z-0.0314
X3.272Y1.9027Z-0.0316
X3.2746Y1.9042Z-0.0317
X3.2776Y1.9083Z-0.0319
X3.2802Y1.9097Z-0.0321
X3.2831Y1.9138Z-0.0323
X3.2857Y1.9153Z-0.0324
X3.2861Y1.9158Z-0.0328F19.68
X3.2882Y1.9186Z-0.0318F39.37
X3.2921Y1.9208Z-0.0316
X3.2942Y1.9237Z-0.0315
X3.2982Y1.9259Z-0.0313
X3.3003Y1.9287Z-0.0312
X3.3042Y1.9309Z-0.0311
X3.3063Y1.9337Z-0.0309
X3.3103Y1.9359Z-0.0308
X3.3124Y1.9388Z-0.0307
X3.3164Y1.941Z-0.0305
X3.3184Y1.9438Z-0.0304
X3.3221Y1.9458Z-0.0305
X3.3244Y1.9489Z-0.0301
X3.3246Z-0.0303F19.68
X3.3281Y1.9509F39.37
X3.3305Y1.9539Z-0.0298
X3.334Y1.9556Z-0.0297
X3.3365Y1.959Z-0.0296
X3.34Y1.9607Z-0.0294
X3.3426Y1.964Z-0.0293
X3.3461Y1.9657Z-0.0292
X3.3462Y1.9659Z-0.0294F19.68
X3.3487Y1.9691Z-0.0291F39.37
X3.3521Y1.9707Z-0.0289
X3.3523Y1.9709Z-0.0291F19.68
X3.3548Y1.9741Z-0.0288F39.37
X3.3585Y1.9759Z-0.0289
X3.3609Y1.9791Z-0.0291
X3.3646Y1.9808Z-0.0293
X3.3671Y1.984Z-0.0295
X3.3708Y1.9857Z-0.0296
X3.3732Y1.9889Z-0.0298
X3.3769Y1.9907Z-0.03
X3.3794Y1.9938Z-0.0302
X3.3831Y1.9956Z-0.0303
X3.3855Y1.9987Z-0.0305
X3.3892Y2.0005Z-0.0307
X3.3917Y2.0036Z-0.0308
X3.3954Y2.0054Z-0.031
X3.3978Y2.0085Z-0.0312
X3.4015Y2.0103Z-0.0314
X3.404Y2.0135Z-0.0315
X3.4076Y2.0153Z-0.0317
X3.4101Y2.0184Z-0.0319
X3.4138Y2.0202Z-0.0321
X3.4163Y2.0233Z-0.0322
X3.4197Y2.025Z-0.0326
X3.4199Y2.0251Z-0.0324
X3.4221Y2.0278Z-0.0322
X3.4237Y2.0286Z-0.0332F19.68
X3.4279Y2.0314Z-0.0325F39.37
X3.4285Y2.0324Z-0.0324
X3.4342Y2.0361Z-0.032
X3.4348Y2.0371Z-0.0319
X3.4405Y2.0408Z-0.0315
X3.4411Y2.0419Z-0.0314
X3.4467Y2.0456Z-0.031
X3.4474Y2.0466Z-0.0309
X3.453Y2.0503Z-0.0305
X3.4537Y2.0514Z-0.0304
X3.4593Y2.0551Z-0.03
X3.46Y2.0561Z-0.0299
X3.4656Y2.0598Z-0.0295
X3.4662Y2.0609Z-0.0294
X3.4699Y2.0632Z-0.0297
X3.472Y2.0645Z-0.0285
X3.4729Y2.0658Z-0.029
X3.4762Y2.068Z-0.0292
X3.4783Y2.0692Z-0.028
X3.4794Y2.071Z-0.0278
X3.4846Y2.0739Z-0.0275
X3.4857Y2.0757Z-0.0273
X3.4926Y2.0796Z-0.0271
X3.5018Y2.0803Z-0.0094
G0Z0.3937
X3.4194Y2.0315
G1Z-0.015F19.68
X3.4221Y2.0278Z-0.0322
G0Z0.3937
X3.4134Y2.0269
G1Z-0.015
X3.4163Y2.0233Z-0.0322
G0Z0.3937
X3.175Y2.0945
G1Z-0.0123
X3.1767Y2.0938Z-0.0149
X3.1785Y2.0931Z-0.0134F39.37
X3.1846Y2.0969Z-0.0021
X3.1896Y2.0901Z-0.018F19.68
X3.2134Y2.0866Z-0.0472
X3.2172Y2.0787Z-0.075
G0Z0.3937
X3.1741Y2.0942
G1Z-0.0086
X3.175Y2.0945Z-0.0123
X3.171Y2.0967Z0F39.37
X3.1749Y2.0949Z-0.0119F19.68
X3.175Y2.0945Z-0.0123
G0Z0.3937
X3.1459Y1.9259
G1Z-0.0152
X3.148Y1.9282Z-0.0191
X3.1499Y1.9304Z-0.0171F39.37
X3.1544Y1.9329Z-0.0061
X3.1537Y1.935Z-0.0117F19.68
X3.1557Y1.9431Z-0.0123F39.37
X3.1593Y1.9449Z-0.013
X3.1606Y1.9494Z-0.0139
X3.1641Y1.9512Z-0.0147
X3.1654Y1.9556Z-0.0155
X3.1656Y1.9557Z-0.0159F19.68
X3.1688Y1.9575Z-0.0163F39.37
X3.1691Y1.9584Z-0.0176F19.68
X3.1701Y1.9614Z-0.0158F39.37
X3.1713Y1.965Z-0.0101
G0Z0.3937
X3.1305Y1.9126
G1Z-0.0001F19.68
X3.1335Y1.9153Z-0.0035
G0Z0.3937
X3.1987Y1.8344
G1Z-0.0151
X3.2019Y1.8312Z-0.0319
G0Z0.3937
X3.1934Y1.8288
G1Z-0.0148
X3.1969Y1.8258Z-0.0321
G0Z0.3937
X3.0315Y1.8829
G1Z-0.015
X3.0406Y1.8737Z-0.0632
G0Z0.3937
X2.9329Y1.7294
G1Z-0.0308
X2.9399Y1.7287Z-0.0544
X2.9441Y1.7284Z-0.0677
G0Z0.3937
X2.9316Y1.7289
G1Z-0.026
X2.9329Y1.7294Z-0.0308
G0Z0.3937
X2.9659Y1.5486
G1Z-0.0359
X2.9671Y1.5507Z-0.0373
X2.9678Y1.5518Z-0.0376F39.37
X2.9698Y1.5547Z-0.0372
X2.9768Y1.5595Z-0.025
X2.9828Y1.5614Z-0.01
X2.9822Y1.5653Z-0.0198F19.68
X2.9832Y1.5741Z-0.0346
X2.9846Y1.5769Z-0.0358F39.37
X2.9861Y1.5798Z-0.034
X2.9901Y1.5831Z-0.0335
X2.9914Y1.5856Z-0.0333
X2.9955Y1.5889Z-0.0328
X2.9967Y1.5914Z-0.0326
X3.0008Y1.5947Z-0.0321
Y1.5948Z-0.0322F19.68
X3.0031Y1.5981Z-0.0325F39.37
X3.0051Y1.5997Z-0.0322
X3.0059Y1.6009Z-0.0328
X3.0076Y1.6028Z-0.0326
X3.0092Y1.6051Z-0.031
X3.0103Y1.6057Z-0.0323F19.68
X3.0147Y1.6105Z-0.0317F39.37
X3.0148Y1.6106
X3.0201Y1.6163Z-0.031
Y1.6165
X3.0226Y1.6191Z-0.0308
X3.0254Y1.6221Z-0.0303
G0Z0.3937
X2.8269Y1.5487
G1Z-0.0586F19.68
X2.8274Y1.5485Z-0.0606
X2.8318Y1.5441Z-0.0786
G0Z0.3937
X2.8239Y1.549
G1Z-0.0473
X2.8269Y1.5487Z-0.0586
G0Z0.3937
X2.8181Y1.5577
G1Z-0.0175
X2.8225Y1.5532Z-0.0406
X2.8269Y1.5487Z-0.0586
G0Z0.3937
X2.7644Y1.4518
G1Z-0.0148
X2.7794Y1.4437Z-0.0783
G0Z0.3937
X2.7612Y1.445
G1Z-0.0152
X2.7767Y1.4383Z-0.078
G0Z0.3937
X2.8251Y1.3715
G1Z-0.063
X2.8249Y1.3729Z-0.0609F39.37
X2.8256Y1.3824Z-0.0408
X2.829Y1.3898Z-0.0332
X2.8349Y1.3952Z-0.0272
X2.8382Y1.3964Z-0.0188
X2.8383Y1.3976Z-0.0208F19.68
X2.8387Y1.4024Z-0.0285
X2.8406Y1.4059Z-0.0289F39.37
X2.8426Y1.4094Z-0.027
X2.8454Y1.4112Z-0.0275
X2.8478Y1.4154Z-0.0282
X2.8506Y1.4171Z-0.0287
X2.8531Y1.4213Z-0.0295
X2.8558Y1.4231Z-0.03
X2.8582Y1.4272Z-0.0307
X2.861Y1.429Z-0.0312
X2.8634Y1.4331Z-0.0319
X2.8661Y1.435Z-0.0324
X2.8666Y1.4357Z-0.0331F19.68
X2.8683Y1.4385Z-0.0325F39.37
X2.8715Y1.4407Z-0.0326
X2.8737Y1.4443Z-0.0327
X2.8769Y1.4465Z-0.0328
X2.8791Y1.45
X2.8823Y1.4522Z-0.0329
X2.8845Y1.4558Z-0.033
X2.8855Y1.4565Z-0.0341F19.68
X2.8884Y1.4592Z-0.0342F39.37
X2.8899Y1.4615Z-0.0332
X2.8909Y1.4622Z-0.0342F19.68
X2.8948Y1.4659Z-0.034F39.37
X2.8954Y1.4671
X2.9002Y1.4716Z-0.0342
X2.9008Y1.4729
X2.9043Y1.4762Z-0.0348
X2.9057Y1.4773Z-0.0338
X2.9072Y1.48
X2.9111Y1.483Z-0.0339
X2.9126Y1.4857Z-0.034
X2.9164Y1.4888Z-0.0341
X2.918Y1.4915Z-0.0342
X2.9218Y1.4945Z-0.0343
X2.9233Y1.4972Z-0.0344
X2.9272Y1.5003Z-0.0345
X2.9287Y1.503
X2.9291Y1.5033Z-0.0348F19.68
X2.932Y1.5055Z-0.034F39.37
X2.9339Y1.509Z-0.0334
X2.9371Y1.5115Z-0.0329
X2.939Y1.5149Z-0.0324
X2.9423Y1.5175Z-0.0318
X2.9441Y1.5209Z-0.0313
X2.9474Y1.5234Z-0.0307
X2.9499Y1.5281Z-0.0315
X2.952Y1.5297Z-0.0321
X2.9546Y1.5344Z-0.0329
X2.9566Y1.5359Z-0.0333
X2.9592Y1.5407Z-0.0342
X2.9612Y1.5423Z-0.0346
X2.9624Y1.5444Z-0.0361F19.68
X2.9646Y1.5476Z-0.0365F39.37
X2.9659Y1.5486Z-0.0359
G0Z0.3937
X2.86Y1.4359
G1Z-0.0152F19.68
X2.8634Y1.4331Z-0.0319
G0Z0.3937
X2.831Y1.3718
G1Z-0.0434
X2.8335Y1.3732Z-0.0327F39.37
G0Z0.3937
X2.8251Y1.3715
G1Z-0.063F19.68
X2.831Y1.3718Z-0.0434F39.37
X2.8247Y1.3709Z-0.062F19.68
X2.83Y1.362Z-0.0233F39.37
G0Z0.3937
X2.8247Y1.3709
G1Z-0.062F19.68
X2.8251Y1.3715Z-0.063
G0Z0.3937
X2.7019Y1.3531
G1Z-0.0787
X2.7013Y1.3529F39.37
X2.7002Y1.3527
X2.6993Y1.3524
X2.6983Y1.352
X2.6973Y1.3516
X2.6964Y1.3511
X2.6955Y1.3506
X2.6946Y1.3501
X2.6938Y1.3495
X2.6929Y1.3489
X2.6914Y1.3476
Y1.3487
Y1.3497
Y1.3507
X2.6912Y1.3518
X2.6911Y1.3528
X2.6909Y1.3538
X2.6906Y1.3549
X2.6839Y1.3757
X2.6865Y1.3712
X2.6871Y1.3704
X2.6878Y1.3695
X2.6884Y1.3687
X2.7019Y1.3531
X2.7014Y1.3537Z-0.074
X2.7156Y1.3469Z-0.0625
X2.7197Y1.3435Z-0.0653
G0Z0.3937
X2.687Y1.3323
G1Z-0.0446F19.68
X2.6881Y1.3403Z-0.0652
X2.6915Y1.3477Z-0.0714
G0Z0.3937
X2.6547Y1.362
G1Z-0.0074
X2.6549Y1.3619Z-0.0069F39.37
X2.6552Y1.3615Z-0.007
X2.6557Y1.3607Z-0.0036
X2.6547Y1.362Z-0.0074F19.68
X2.655Y1.365Z-0.0001F39.37
Z0
Z-0.0001F19.68
X2.6536Y1.361Z-0.004
X2.6541Y1.3616Z-0.0068
X2.6544Y1.362Z-0.0065F39.37
X2.6547Z-0.0074F19.68
G0Z0.3937
X2.6548Y1.4351
G1Z-0.0155
X2.6573Y1.4354Z-0.022
X2.6622Y1.4334Z-0.0188F39.37
X2.6626Y1.4281Z-0.0351F19.68
X2.666Y1.4206Z-0.0476
X2.6706Y1.4152Z-0.0439F39.37
X2.6728Y1.4132Z-0.0412
X2.6722Y1.4094Z-0.0505F19.68
X2.6727Y1.4015Z-0.0646
X2.6733Y1.3994Z-0.0669
X2.6739Y1.3974Z-0.068F39.37
X2.6747Y1.3958Z-0.0692F19.68
X2.6777Y1.3903Z-0.0708F39.37
X2.6821Y1.3849Z-0.0668
X2.6822Y1.3835Z-0.0693F19.68
X2.6832Y1.3788Z-0.0749
X2.6842Y1.3751Z-0.0786
G0Z0.3937
X2.6542Y1.4394
G1Z-0.0066
X2.6564Y1.4365Z-0.02
X2.6573Y1.4354Z-0.022
G0Z0.3937
X2.6575Y1.1204
G1Z-0.0787
X2.6581Y1.12F39.37
X2.6589Y1.1194
X2.671Y1.1126
X2.6719Y1.1121
X2.6729Y1.1117
X2.6739Y1.1113
X2.6749Y1.111
X2.6759Y1.1107
X2.6769Y1.1105
X2.6779Y1.1103
X2.679Y1.1102
X2.68Y1.1101
X2.6811
X2.6821
X2.752Y1.1141
X2.7629Y1.1127
X2.7636Y1.1121
X2.7645Y1.1115
X2.7653Y1.1109
X2.7662Y1.1104
X2.7671Y1.1099
X2.768Y1.1095
X2.769Y1.1091
X2.8013Y1.0969
X2.8215Y1.0865
X2.834Y1.077
X2.8349Y1.0764
X2.8357Y1.0758
X2.8366Y1.0753
X2.8376Y1.0749
X2.8565Y1.0662
X2.8575Y1.0658
X2.8584Y1.0655
X2.8365Y1.0434
X2.8358Y1.0426
X2.8352Y1.0418
X2.8346Y1.041
X2.834Y1.0402
X2.8335Y1.0393
X2.8259Y1.0253
X2.8255Y1.0244
X2.8251Y1.0234
X2.8247Y1.0225
X2.8244Y1.0215
X2.8242Y1.0205
X2.824Y1.0194
X2.8238Y1.0184
X2.8237Y1.0174
Y1.0163
Y1.0154
X2.8224Y1.0159
X2.8214Y1.0161
X2.8204Y1.0164
X2.8194Y1.0166
X2.8184Y1.0167
X2.8174Y1.0168
X2.8163
X2.8153
X2.8143Y1.0167
X2.8133Y1.0166
X2.8122Y1.0165
X2.8112Y1.0162
X2.8017Y1.0137
X2.8078Y1.0199
X2.8085Y1.0207
X2.8092Y1.0215
X2.8098Y1.0223
X2.8103Y1.0232
X2.8109Y1.0241
X2.8113Y1.025
X2.8118Y1.0259
X2.8122Y1.0269
X2.8125Y1.0278
X2.8128Y1.0288
X2.8131Y1.0298
X2.8133Y1.0308
X2.8134Y1.0318
X2.8135Y1.0328
X2.8136Y1.0339
Y1.0349
X2.8135Y1.0359
X2.8134Y1.0369
X2.8133Y1.038
X2.8131Y1.039
X2.8128Y1.04
X2.8125Y1.0409
X2.8122Y1.0419
X2.8118Y1.0429
X2.8114Y1.0438
X2.8109Y1.0447
X2.7988Y1.0651
X2.7983Y1.0659
X2.7977Y1.0667
X2.797Y1.0675
X2.7964Y1.0683
X2.7957Y1.069
X2.7709Y1.0933
X2.7701Y1.094
X2.7693Y1.0946
X2.7685Y1.0953
X2.7676Y1.0958
X2.7666Y1.0964
X2.7657Y1.0969
X2.7647Y1.0973
X2.7466Y1.1044
X2.7456Y1.1047
X2.7446Y1.105
X2.7437Y1.1052
X2.7427Y1.1054
X2.7417Y1.1056
X2.7407
X2.7397Y1.1057
X2.7099Y1.1062
X2.7088Y1.1061
X2.7077Y1.106
X2.6739Y1.1021
X2.6729Y1.1019
X2.6719Y1.1017
X2.671Y1.1015
X2.67Y1.1012
X2.6467Y1.0926
X2.6457Y1.0922
X2.6447Y1.0918
X2.6438Y1.0913
X2.6429Y1.0907
X2.642Y1.0901
X2.6406Y1.089
X2.6495Y1.1097
X2.6575Y1.1204
Z-0.0712
X2.6567Y1.1259Z-0.0638
X2.6573Y1.1352Z-0.0449
X2.6604Y1.1428Z-0.0373
X2.6638Y1.1463Z-0.0368
X2.6649Y1.1492Z-0.0365
X2.6683Y1.1527Z-0.036
X2.6692Y1.155Z-0.0364
X2.6718Y1.158Z-0.0363
X2.6729Y1.1591Z-0.0352
X2.6738Y1.1614Z-0.0356
X2.6774Y1.1656Z-0.0349
X2.6779Y1.1673Z-0.0347
X2.6819Y1.1721Z-0.0341
X2.6824Y1.1737Z-0.0339
X2.6863Y1.1783Z-0.0335
X2.6869Y1.1802Z-0.0329
X2.6908Y1.1844Z-0.0324
X2.6915Y1.1866Z-0.0322
X2.6953Y1.1909Z-0.0316
X2.696Y1.1931Z-0.0314
X2.6999Y1.1973Z-0.0308
X2.7006Y1.1995Z-0.0306
X2.7044Y1.2037Z-0.0301
X2.7051Y1.2059Z-0.0298
X2.7093Y1.2104Z-0.0299
X2.7099Y1.2125Z-0.03
X2.7139Y1.2168Z-0.0303
X2.7145Y1.2188Z-0.0305
X2.7185Y1.2232Z-0.0308
X2.7192Y1.2252Z-0.0309
X2.7232Y1.2296Z-0.0313
X2.7238Y1.2316Z-0.0314
X2.7267Y1.2348Z-0.0323
X2.727Y1.2352Z-0.0327F19.68
X2.7288Y1.2381F39.37
X2.729Y1.2386Z-0.0323
X2.7313Y1.2411Z-0.0328
X2.7316Y1.2416Z-0.0331F19.68
X2.7342Y1.2456Z-0.033F39.37
X2.7351Y1.2462
X2.7388Y1.252Z-0.0335
X2.7397Y1.2526
X2.7435Y1.2584Z-0.0339
X2.7443Y1.2589Z-0.034
X2.7463Y1.2619Z-0.0348
X2.7481Y1.2647Z-0.0344
X2.7483Y1.2649
X2.7525Y1.2713Z-0.0337
X2.7527Y1.2714
X2.757Y1.278Z-0.0333
Y1.2783
X2.7612Y1.2847Z-0.0335
Y1.285
X2.7654Y1.2914Z-0.0336
Y1.2917
X2.7695Y1.298Z-0.0338
X2.7696Y1.2983
X2.7718Y1.3017Z-0.0341
X2.7737Y1.305Z-0.0338
X2.7739Y1.3051Z-0.034F19.68
X2.776Y1.3084Z-0.0342F39.37
X2.7779Y1.3117Z-0.0339
X2.7784Y1.312
X2.7821Y1.3184Z-0.0341
X2.7826Y1.3187
X2.7843Y1.3217Z-0.0345
X2.7863Y1.3251Z-0.0343
X2.7868Y1.3254
X2.7905Y1.3317Z-0.0344
X2.7909Y1.332
X2.7947Y1.3384Z-0.0346
X2.7951Y1.3387
X2.7989Y1.3451Z-0.0347
X2.8057Y1.3501Z-0.032
X2.8063Y1.3503Z-0.031
X2.8088Y1.3574Z-0.0419F19.68
X2.8139Y1.3636Z-0.0458F39.37
X2.8208Y1.3681Z-0.0581F19.68
X2.8211Y1.3684Z-0.0589
X2.8223Y1.3692Z-0.0612
X2.8247Y1.3709Z-0.062F39.37
G0Z0.3937
X2.7606Y1.1172
G1Z-0.063F19.68
X2.7691Y1.1255Z-0.0286F39.37
G0Z0.3937
X2.7595Y1.1131
G1Z-0.0692F19.68
X2.7606Y1.1172Z-0.063F39.37
G0Z0.3937
X2.7795Y1.0769
G1Z-0.0573F19.68
X2.7835Y1.0809Z-0.0655
G0Z0.3937
X2.7685Y1.073
G1Z-0.0183
X2.7795Y1.0769Z-0.0573
G0Z0.3937
X2.7721Y1.0511
G1Z-0
Z0F39.37
Z-0.0001F19.68
X2.772Z-0.0002
X2.7719Z-0.0007
X2.772Z-0.0002F39.37
G0Z0.3937
X2.7629Y1.0524
G1Z-0.0217F19.68
X2.7646Y1.051Z-0.0208F39.37
X2.7719Y1.0511Z-0.0007
G0Z0.3937
X2.7629Y1.0524
G1Z-0.0217F19.68
X2.7734Y1.0623Z-0.0027F39.37
X2.7795Y1.0769Z-0.0573F19.68
G0Z0.3937
X2.7564Y1.0512
G1Z-0.0409
X2.7685Y1.073Z-0.0183F39.37
G0Z0.3937
X2.7564Y1.0512
G1Z-0.0409F19.68
X2.7592Y1.0518Z-0.0336F39.37
X2.7629Y1.0524Z-0.0217
G0Z0.3937
X2.7511Y1.0503
G1Z-0.0464F19.68
X2.7564Y1.0512Z-0.0409F39.37
G0Z0.3937
X2.7412Y1.0556
G1Z-0.0377F19.68
X2.7511Y1.0503Z-0.0464
G0Z0.3937
X2.7412Y1.0556
G1Z-0.0377
X2.7428Y1.064Z-0.0059F39.37
X2.7685Y1.073Z-0.0183
G0Z0.3937
X2.7307Y1.0484
G1Z-0.0644F19.68
X2.735Y1.0514Z-0.0576F39.37
X2.7412Y1.0556Z-0.0377
G0Z0.3937
X2.7197Y1.0491
G1Z-0.0756F19.68
X2.7221Y1.049Z-0.0736F39.37
X2.7307Y1.0484Z-0.0644
G0Z0.3937
X2.7197Y1.0491
G1Z-0.0756F19.68
X2.72Y1.0651Z-0.0161F39.37
G0Z0.3937
X2.7067Y1.0485
G1Z-0.0787F19.68
X2.6939Y1.0475F39.37
X2.6929Y1.0474
X2.6919Y1.0472
X2.6909Y1.047
X2.69Y1.0467
X2.689Y1.0464
X2.6881Y1.046
X2.6871Y1.0456
X2.6862Y1.0451
X2.6853Y1.0446
X2.6845Y1.0441
X2.6832Y1.0432
X2.6854Y1.0471
X2.6871Y1.0489
X2.7067Y1.0485
X2.6999Y1.048Z-0.0775
X2.7039Y1.0476Z-0.076
X2.7072Y1.0467Z-0.0715
X2.7118Y1.0481Z-0.0756F19.68
X2.7183Y1.049Z-0.0764F39.37
X2.7197Y1.0491Z-0.0756
G0Z0.3937
X2.6895Y1.0489
G1Z-0.0765F19.68
X2.6902Y1.0828Z-0.0002F39.37
X2.693Y1.0871Z-0.0149F19.68
X2.691Y1.1041Z-0.0773
G0Z0.3937
X2.6805Y1.0581
G1Z-0.0373
X2.6818Y1.0569Z-0.0439
X2.6867Y1.0485Z-0.0747
G0Z0.3937
X2.6818Y1.0569
G1Z-0.0439
X2.6819Y1.0613Z-0.033F39.37
G0Z0.3937
X2.6699Y1.0542
G1Z-0.0154F19.68
X2.6847Y1.0458Z-0.0768
G0Z0.3937
X2.6681Y1.0203
G1Z-0.072
X2.6697Y1.0257Z-0.0674F39.37
X2.672Y1.0297Z-0.0673
X2.6743Y1.0336Z-0.0677
X2.6799Y1.0395Z-0.0743F19.68
X2.6804Y1.0398F39.37
X2.6832Y1.0432Z-0.0769F19.68
G0Z0.3937
X2.66Y1.0219
G1Z-0.0428
X2.6604Z-0.044
X2.6681Y1.0203Z-0.072
G0Z0.3937
X2.6689Y1.0099
G1Z-0.0787
X2.6715Y1.003F39.37
X2.6719Y1.0021
X2.6723Y1.0011
X2.6728Y1.0002
X2.6734Y0.9993
X2.6739Y0.9985
X2.6746Y0.9977
X2.6752Y0.9969
X2.6759Y0.9961
X2.6767Y0.9954
X2.6774Y0.9947
X2.6783Y0.9941
X2.6791Y0.9935
X2.68Y0.9929
X2.6808Y0.9924
X2.6816Y0.992
X2.6808Y0.9914
X2.68Y0.9908
X2.6792Y0.9901
X2.6785Y0.9893
X2.6778Y0.9886
X2.6772Y0.9878
X2.6765Y0.987
X2.6736Y0.9829
X2.6733Y0.9839
X2.6729Y0.9849
X2.6725Y0.9858
X2.672Y0.9867
X2.6714Y0.9877
X2.6709Y0.9885
X2.6702Y0.9894
X2.6696Y0.9902
X2.6689Y0.991
X2.6681Y0.9917
X2.6673Y0.9924
X2.6665Y0.9931
X2.66Y0.998
X2.6645Y1.0027
X2.6652Y1.0035
X2.6658Y1.0043
X2.6664Y1.0051
X2.667Y1.006
X2.6675Y1.0069
X2.668Y1.0078
X2.6684Y1.0087
X2.6688Y1.0097
X2.6689Y1.0099
X2.6691Y1.0094Z-0.078
X2.6681Y1.0203Z-0.072
G0Z0.3937
X2.6816Y0.992
G1Z-0.0728F19.68
X2.6958Y0.9931Z-0.0612F39.37
X2.7022Y0.995Z-0.0493
X2.7036Y0.9941Z-0.0513F19.68
X2.7118Y0.9914Z-0.0548F39.37
X2.7178Y0.9911Z-0.0513
X2.7217Y0.9914Z-0.0511
X2.7256Y0.9923Z-0.0508
X2.7313Y0.9944Z-0.0466
X2.7382Y0.9993Z-0.0333
X2.7387Y0.999Z-0.0347F19.68
X2.7421Y0.9979Z-0.0409
X2.7607Y0.9921Z-0.0343F39.37
X2.7652Y0.9967Z-0.0483F19.68
X2.7728Y1.0043Z-0.0504F39.37
X2.7763Z-0.0558F19.68
X2.7946Y1.004Z-0.0504F39.37
X2.8016Y1.0134Z-0.0777F19.68
X2.8024Y1.0139Z-0.0778F39.37
G0Z0.3937
X2.8237Y1.0155
G1Z-0.0672F19.68
X2.83Y1.0064Z-0.0542F39.37
X2.8363Y1.0039Z-0.0474
X2.8379Y1.0033Z-0.0429
X2.8382Y1.0029Z-0.0427
X2.8397Y1.0018Z-0.0391
X2.8403Y1.0014Z-0.0362
X2.8382Y1.0029Z-0.0427F19.68
X2.8388Y0.9953Z-0.0203F39.37
G0Z0.3937
X2.8379Y1.0033
G1Z-0.0429F19.68
X2.8428Y1.0056Z-0.0229F39.37
G0Z0.3937
X2.8583Y1.0654
G1Z-0.0758F19.68
X2.86Y1.0657Z-0.0749F39.37
X2.8681Y1.0688Z-0.0594
X2.8684Y1.069Z-0.0584
X2.8703Y1.0796Z-0.0184
G0Z0.3937
X2.8684Y1.069
G1Z-0.0584F19.68
X2.8697Y1.0693Z-0.0564F39.37
X2.8796Y1.0715Z-0.03
X2.8801Y1.0725Z-0.0298
X2.8806Y1.0733Z-0.0264
X2.881Y1.0739Z-0.0238
X2.8801Y1.0725Z-0.0298F19.68
X2.8908Y1.0757Z0F39.37
G0Z0.3937
X2.8117Y1.0915
G1Z-0.0607F19.68
X2.8152Y1.0984Z-0.0497F39.37
G0Z0.3937
X2.6437Y1.1159
G1Z-0.0473F19.68
X2.6504Y1.1109Z-0.0622
G0Z0.3937
X2.6339Y1.1148
G1Z-0.0177
X2.6489Y1.1083Z-0.0568
G0Z0.3937
X2.638Y1.0852
G1Z-0.0723
X2.6385Y1.0834Z-0.0655F39.37
X2.6387Y1.083Z-0.0643
X2.6384Y1.0829Z-0.0639
X2.6385Y1.0834Z-0.0655F19.68
X2.638Y1.0852Z-0.0723
X2.6385Y1.0861Z-0.0743
X2.6406Y1.0891Z-0.0783
G0Z0.3937
X2.6373Y1.0745
G1Z-0.0321
X2.6384Y1.0829Z-0.0639
G0Z0.3937
X2.6291Y1.0669
G1Z0
X2.6384Y1.0829Z-0.0639
G0Z0.3937
X2.6169Y1.0773
G1Z-0.0154
X2.6222Y1.075Z-0.0163F39.37
X2.6286Y1.0808Z-0.0461F19.68
X2.6343Y1.0836Z-0.0645
X2.638Y1.0852Z-0.0723
G0Z0.3937
X2.6422Y0.9981
G1Z-0.0239
X2.647Y0.9968Z-0.0421
X2.6506Y0.9976Z-0.0544
X2.6542Y0.9983Z-0.0624
X2.6559Y0.9987Z-0.066
X2.66Y0.9977Z-0.078
X2.6603Y0.9978F39.37
G0Z0.3937
X2.6429Y0.9936
G1Z-0.0228F19.68
X2.647Y0.9968Z-0.0421
G0Z0.3937
X2.6738Y0.9831
G1Z-0.0775
X2.6704Y0.9684Z-0.0564F39.37
X2.6748Y0.9582Z-0.0552
X2.6734Y0.9497Z-0.0602F19.68
X2.674Y0.9418Z-0.0645F39.37
X2.6742Y0.9411Z-0.0649F19.68
X2.6748Y0.9339Z-0.0694
X2.675Y0.9331Z-0.0699
X2.6755Y0.9266Z-0.0739
Y0.9259Z-0.074F39.37
X2.6763Y0.9202Z-0.0776F19.68
X2.6764Y0.9201F39.37
Y0.9188Z-0.078
X2.6763Y0.9193Z-0.0787F19.68
X2.6813Y0.9005F39.37
X2.682Y0.8986
X2.6813
X2.6803Y0.8984
X2.6793Y0.8982
X2.6783Y0.898
X2.6773Y0.8977
X2.6763Y0.8974
X2.6753Y0.897
X2.6748Y0.8967
X2.6763Y0.9193
G0Z0.3937
X2.6819Y0.8987
G1Z-0.0741F19.68
