(Created with grbl post processor 2024/12/13 12:46)
G21
(G-code Generated with Fabex and NC library)
G17G90
S12000M03
G00 Z10.0

G0X0Y0Z10
X10.4Y10.444
G1Z-3F500
X10.444Y10.4F1000
X10.5Y10.349
X12.8Y8.332
X12.839Y8.3
X12.9Y8.253
X12.978Y8.2
X15.5Y6.514
X15.523Y6.5
X15.6Y6.455
X15.708Y6.4
X18.4Y5.072
X18.5Y5.028
X18.575Y5
X21.4Y4.041
X21.5Y4.007
X21.524Y4
X21.6Y3.979
X21.7Y3.958
X24.6Y3.381
X24.7Y3.362
X24.8Y3.348
X24.9Y3.341
X27.9Y3.144
X28Y3.141
X28.1Y3.144
X31.1Y3.341
X31.2Y3.348
X31.3Y3.362
X31.4Y3.381
X34.299Y3.958
X34.4Y3.979
X34.475Y4
X34.5Y4.007
X37.424Y5
X37.5Y5.028
X37.599Y5.072
X40.3Y6.404
X40.4Y6.455
X40.476Y6.5
X40.5Y6.514
X43.021Y8.2
X43.1Y8.253
X43.16Y8.3
X43.2Y8.332
X45.5Y10.349
X45.555Y10.4
X45.6Y10.444
X45.65Y10.5
X47.667Y12.8
X47.7Y12.839
X47.746Y12.9
X47.8Y12.978
X49.485Y15.5
X49.5Y15.523
X49.544Y15.6
X49.6Y15.708
X50.927Y18.4
X50.971Y18.5
X51Y18.575
X51.958Y21.4
X51.992Y21.5
X52Y21.524
X52.02Y21.6
X52.041Y21.7
X52.618Y24.6
X52.637Y24.7
X52.651Y24.8
X52.658Y24.9
X52.855Y27.9
X52.858Y28
X52.855Y28.1
X52.658Y31.1
X52.651Y31.2
X52.637Y31.3
X52.618Y31.4
X52.041Y34.299
X52.02Y34.4
X52Y34.475
X51.992Y34.5
X51Y37.424
X50.971Y37.5
X50.927Y37.599
X49.595Y40.3
X49.544Y40.4
X49.5Y40.476
X49.485Y40.5
X47.8Y43.021
X47.746Y43.1
X47.7Y43.16
X47.667Y43.2
X45.65Y45.5
X45.6Y45.555
X45.555Y45.6
X45.5Y45.65
X43.2Y47.667
X43.16Y47.7
X43.1Y47.746
X43.021Y47.8
X40.5Y49.485
X40.476Y49.5
X40.4Y49.544
X40.291Y49.6
X37.599Y50.927
X37.5Y50.971
X37.424Y51
X34.6Y51.958
X34.5Y51.992
X34.475Y52
X34.4Y52.02
X34.299Y52.041
X31.4Y52.618
X31.3Y52.637
X31.2Y52.651
X31.1Y52.658
X28.1Y52.855
X28Y52.858
X27.9Y52.855
X24.9Y52.658
X24.8Y52.651
X24.7Y52.637
X24.6Y52.618
X21.7Y52.041
X21.6Y52.02
X21.524Y52
X21.5Y51.992
X18.575Y51
X18.5Y50.971
X18.4Y50.927
X15.7Y49.595
X15.6Y49.544
X15.523Y49.5
X15.5Y49.485
X12.978Y47.8
X12.9Y47.746
X12.839Y47.7
X12.8Y47.667
X10.5Y45.65
X10.444Y45.6
X10.4Y45.555
X10.349Y45.5
X8.332Y43.2
X8.3Y43.16
X8.253Y43.1
X8.2Y43.021
X6.514Y40.5
X6.5Y40.476
X6.455Y40.4
X6.4Y40.291
X5.072Y37.599
X5.028Y37.5
X5Y37.424
X4.041Y34.6
X4.007Y34.5
X4Y34.475
X3.979Y34.4
X3.958Y34.299
X3.381Y31.4
X3.362Y31.3
X3.348Y31.2
X3.341Y31.1
X3.144Y28.1
X3.141Y28
X3.144Y27.9
X3.341Y24.9
X3.348Y24.8
X3.362Y24.7
X3.381Y24.6
X3.958Y21.7
X3.979Y21.6
X4Y21.524
X4.007Y21.5
X5Y18.575
X5.028Y18.5
X5.072Y18.4
X6.404Y15.7
X6.455Y15.6
X6.5Y15.523
X6.514Y15.5
X8.2Y12.978
X8.253Y12.9
X8.3Y12.839
X8.332Y12.8
X10.349Y10.5
X10.4Y10.444
G0Z10
X17.292Y17.3
G1Z-3F500
X16Y18.773F1000
X15.979Y18.8
X14.9Y20.416
X14.856Y20.5
X14.017Y22.2
X14Y22.249
X13.4Y24.016
X13.374Y24.1
X12.996Y26
X12.986Y26.1
X12.862Y28
X12.986Y29.9
X12.996Y30
X13.374Y31.9
X13.4Y31.983
X14Y33.75
X14.017Y33.8
X14.856Y35.5
X14.9Y35.583
X15.979Y37.2
X16Y37.226
X17.292Y38.699
X17.3Y38.707
X18.773Y40
X18.8Y40.02
X20.416Y41.1
X20.5Y41.143
X22.2Y41.982
X22.249Y41.999
X24.016Y42.6
X24.1Y42.625
X26Y43.003
X26.1Y43.013
X28Y43.137
X29.9Y43.013
X30Y43.003
X31.9Y42.625
X31.983Y42.6
X33.75Y41.999
X33.8Y41.982
X35.5Y41.143
X35.583Y41.1
X37.2Y40.02
X37.226Y40
X38.699Y38.707
X38.707Y38.699
X40Y37.226
X40.02Y37.2
X41.1Y35.583
X41.143Y35.5
X41.982Y33.8
X41.999Y33.75
X42.6Y31.983
X42.625Y31.9
X43.003Y30
X43.013Y29.9
X43.137Y28
X43.013Y26.1
X43.003Y26
X42.625Y24.1
X42.6Y24.016
X41.999Y22.249
X41.982Y22.2
X41.143Y20.5
X41.1Y20.416
X40.02Y18.8
X40Y18.773
X38.707Y17.3
X38.699Y17.292
X37.226Y16
X37.2Y15.979
X35.583Y14.9
X35.5Y14.856
X33.8Y14.017
X33.75Y14
X31.983Y13.4
X31.9Y13.374
X30Y12.996
X29.9Y12.986
X28Y12.862
X26.1Y12.986
X26Y12.996
X24.1Y13.374
X24.016Y13.4
X22.249Y14
X22.2Y14.017
X20.5Y14.856
X20.416Y14.9
X18.8Y15.979
X18.773Y16
X17.3Y17.292
X17.292Y17.3
G0Z10
X18.3Y18.374
G1Z-4F500
X17.2Y19.628F1000
X17.142Y19.7
X16.2Y21.109
X16.145Y21.2
X15.4Y22.712
X15.361Y22.8
X14.8Y24.453
X14.789Y24.5
X14.451Y26.2
X14.442Y26.3
X14.331Y28
X14.442Y29.7
X14.451Y29.8
X14.789Y31.5
X14.8Y31.546
X15.361Y33.199
X15.4Y33.287
X16.145Y34.8
X16.2Y34.89
X17.142Y36.3
X17.2Y36.371
X18.3Y37.625
X18.374Y37.7
X19.628Y38.8
X19.7Y38.857
X21.109Y39.799
X21.2Y39.854
X22.712Y40.6
X22.8Y40.638
X24.453Y41.2
X24.5Y41.21
X26.2Y41.548
X26.3Y41.557
X28Y41.668
X29.7Y41.557
X29.8Y41.548
X31.5Y41.21
X31.546Y41.2
X33.199Y40.638
X33.287Y40.6
X34.8Y39.854
X34.89Y39.799
X36.3Y38.857
X36.371Y38.8
X37.625Y37.7
X37.7Y37.625
X38.8Y36.371
X38.857Y36.3
X39.799Y34.89
X39.854Y34.8
X40.6Y33.287
X40.638Y33.199
X41.2Y31.546
X41.21Y31.5
X41.548Y29.8
X41.557Y29.7
X41.668Y28
X41.557Y26.3
X41.548Y26.2
X41.21Y24.5
X41.2Y24.453
X40.638Y22.8
X40.6Y22.712
X39.854Y21.2
X39.799Y21.109
X38.857Y19.7
X38.8Y19.628
X37.7Y18.374
X37.625Y18.3
X36.371Y17.2
X36.3Y17.142
X34.89Y16.2
X34.8Y16.145
X33.287Y15.4
X33.199Y15.361
X31.546Y14.8
X31.5Y14.789
X29.8Y14.451
X29.7Y14.442
X28Y14.331
X26.3Y14.442
X26.2Y14.451
X24.5Y14.789
X24.453Y14.8
X22.8Y15.361
X22.712Y15.4
X21.2Y16.145
X21.109Y16.2
X19.7Y17.142
X19.628Y17.2
X18.374Y18.3
X18.3Y18.374
G0Z10
X8.8Y10.043
G1Z-4F500
X9.3Y9.473F1000
X9.366Y9.4
X9.4Y9.366
X9.473Y9.3
X11.9Y7.171
X11.988Y7.1
X12Y7.091
X12.1Y7.023
X14.7Y5.286
X14.8Y5.22
X14.834Y5.2
X14.9Y5.164
X17.8Y3.733
X17.869Y3.7
X17.9Y3.686
X18Y3.647
X21.1Y2.594
X21.2Y2.565
X21.3Y2.542
X24.4Y1.926
X24.5Y1.906
X24.542Y1.9
X24.6Y1.892
X24.7Y1.884
X27.9Y1.675
X28Y1.671
X28.1Y1.675
X31.3Y1.884
X31.4Y1.892
X31.457Y1.9
X31.5Y1.906
X34.7Y2.542
X34.8Y2.565
X34.9Y2.594
X38Y3.647
X38.1Y3.686
X38.13Y3.7
X38.2Y3.733
X41Y5.114
X41.1Y5.164
X41.165Y5.2
X41.2Y5.22
X41.32Y5.3
X43.9Y7.023
X44Y7.091
X44.011Y7.1
X44.1Y7.171
X46.526Y9.3
X46.6Y9.366
X46.633Y9.4
X46.7Y9.473
X48.828Y11.9
X48.9Y11.988
X48.908Y12
X48.976Y12.1
X50.713Y14.7
X50.779Y14.8
X50.8Y14.834
X50.835Y14.9
X52.266Y17.8
X52.3Y17.869
X52.313Y17.9
X52.352Y18
X53.405Y21.1
X53.434Y21.2
X53.457Y21.3
X54.073Y24.4
X54.093Y24.5
X54.1Y24.542
X54.107Y24.6
X54.115Y24.7
X54.324Y27.9
X54.328Y28
X54.324Y28.1
X54.115Y31.3
X54.107Y31.4
X54.1Y31.457
X54.093Y31.5
X53.457Y34.7
X53.434Y34.8
X53.405Y34.9
X52.352Y38
X52.313Y38.1
X52.3Y38.13
X52.266Y38.2
X50.885Y41
X50.835Y41.1
X50.8Y41.165
X50.779Y41.2
X50.7Y41.32
X48.976Y43.9
X48.908Y44
X48.9Y44.011
X48.828Y44.1
X46.7Y46.526
X46.633Y46.6
X46.6Y46.633
X46.526Y46.7
X44.1Y48.828
X44.011Y48.9
X44Y48.908
X43.9Y48.976
X41.3Y50.713
X41.2Y50.779
X41.165Y50.8
X41.1Y50.835
X38.2Y52.266
X38.13Y52.3
X38.1Y52.313
X38Y52.352
X34.9Y53.405
X34.8Y53.434
X34.7Y53.457
X31.6Y54.073
X31.5Y54.093
X31.457Y54.1
X31.4Y54.107
X31.3Y54.115
X28.1Y54.324
X28Y54.328
X27.9Y54.324
X24.7Y54.115
X24.6Y54.107
X24.542Y54.1
X24.5Y54.093
X21.3Y53.457
X21.2Y53.434
X21.1Y53.405
X18Y52.352
X17.9Y52.313
X17.869Y52.3
X17.8Y52.266
X15Y50.885
X14.9Y50.835
X14.834Y50.8
X14.8Y50.779
X14.679Y50.7
X12.1Y48.976
X12Y48.908
X11.988Y48.9
X11.9Y48.828
X9.473Y46.7
X9.4Y46.633
X9.366Y46.6
X9.3Y46.526
X7.171Y44.1
X7.1Y44.011
X7.091Y44
X7.023Y43.9
X5.286Y41.3
X5.22Y41.2
X5.2Y41.165
X5.164Y41.1
X3.733Y38.2
X3.7Y38.13
X3.686Y38.1
X3.647Y38
X2.594Y34.9
X2.565Y34.8
X2.542Y34.7
X1.926Y31.6
X1.906Y31.5
X1.9Y31.457
X1.892Y31.4
X1.884Y31.3
X1.675Y28.1
X1.671Y28
X1.675Y27.9
X1.884Y24.7
X1.892Y24.6
X1.9Y24.542
X1.906Y24.5
X2.542Y21.3
X2.565Y21.2
X2.594Y21.1
X3.647Y18
X3.686Y17.9
X3.7Y17.869
X3.733Y17.8
X5.114Y15
X5.164Y14.9
X5.2Y14.834
X5.22Y14.8
X5.3Y14.679
X7.023Y12.1
X7.091Y12
X7.1Y11.988
X7.171Y11.9
X8.8Y10.043
G0Z10
X8.036Y9.4
G1Z-5F500
X8.6Y8.757F1000
X8.652Y8.7
X8.7Y8.652
X8.757Y8.6
X11.3Y6.37
X11.389Y6.3
X11.4Y6.292
X11.5Y6.224
X14.229Y4.4
X14.3Y4.354
X14.4Y4.298
X17.437Y2.8
X17.5Y2.77
X17.6Y2.729
X17.7Y2.694
X20.8Y1.642
X20.9Y1.61
X20.938Y1.6
X21Y1.585
X24.3Y0.928
X24.4Y0.91
X24.481Y0.9
X24.5Y0.898
X27.9Y0.675
X28Y0.671
X28.1Y0.675
X31.4Y0.891
X31.5Y0.898
X31.518Y0.9
X31.6Y0.91
X31.7Y0.928
X35Y1.585
X35.061Y1.6
X35.1Y1.61
X35.2Y1.642
X38.314Y2.7
X38.4Y2.729
X38.5Y2.77
X38.562Y2.8
X41.5Y4.248
X41.603Y4.3
X41.7Y4.354
X41.77Y4.4
X44.5Y6.224
X44.6Y6.292
X44.61Y6.3
X44.7Y6.37
X47.242Y8.6
X47.3Y8.652
X47.347Y8.7
X47.4Y8.757
X49.629Y11.3
X49.7Y11.389
X49.707Y11.4
X49.775Y11.5
X51.6Y14.229
X51.645Y14.3
X51.701Y14.4
X53.2Y17.437
X53.229Y17.5
X53.27Y17.6
X53.305Y17.7
X54.357Y20.8
X54.389Y20.9
X54.4Y20.938
X54.414Y21
X55.071Y24.3
X55.089Y24.4
X55.1Y24.481
X55.101Y24.5
X55.324Y27.9
X55.328Y28
X55.324Y28.1
X55.108Y31.4
X55.101Y31.5
X55.1Y31.518
X55.089Y31.6
X55.071Y31.7
X54.414Y35
X54.4Y35.061
X54.389Y35.1
X54.357Y35.2
X53.3Y38.314
X53.27Y38.4
X53.229Y38.5
X53.2Y38.562
X51.751Y41.5
X51.7Y41.603
X51.645Y41.7
X51.6Y41.77
X49.775Y44.5
X49.707Y44.6
X49.7Y44.61
X49.629Y44.7
X47.4Y47.242
X47.347Y47.3
X47.3Y47.347
X47.242Y47.4
X44.7Y49.629
X44.61Y49.7
X44.6Y49.707
X44.5Y49.775
X41.77Y51.6
X41.7Y51.645
X41.6Y51.701
X38.562Y53.2
X38.5Y53.229
X38.4Y53.27
X38.3Y53.305
X35.2Y54.357
X35.1Y54.389
X35.061Y54.4
X35Y54.414
X31.7Y55.071
X31.6Y55.089
X31.518Y55.1
X31.5Y55.101
X28.1Y55.324
X28Y55.328
X27.9Y55.324
X24.6Y55.108
X24.5Y55.101
X24.481Y55.1
X24.4Y55.089
X24.3Y55.071
X21Y54.414
X20.938Y54.4
X20.9Y54.389
X20.8Y54.357
X17.685Y53.3
X17.6Y53.27
X17.5Y53.229
X17.437Y53.2
X14.5Y51.751
X14.396Y51.7
X14.3Y51.645
X14.229Y51.6
X11.5Y49.775
X11.4Y49.707
X11.389Y49.7
X11.3Y49.629
X8.757Y47.4
X8.7Y47.347
X8.652Y47.3
X8.6Y47.242
X6.37Y44.7
X6.3Y44.61
X6.292Y44.6
X6.224Y44.5
X4.4Y41.77
X4.354Y41.7
X4.298Y41.6
X2.8Y38.562
X2.77Y38.5
X2.729Y38.4
X2.694Y38.3
X1.642Y35.2
X1.61Y35.1
X1.6Y35.061
X1.585Y35
X0.928Y31.7
X0.91Y31.6
X0.9Y31.518
X0.898Y31.5
X0.675Y28.1
X0.671Y28
X0.675Y27.9
X0.891Y24.6
X0.898Y24.5
X0.9Y24.481
X0.91Y24.4
X0.928Y24.3
X1.585Y21
X1.6Y20.938
X1.61Y20.9
X1.642Y20.8
X2.7Y17.685
X2.729Y17.6
X2.77Y17.5
X2.8Y17.437
X4.248Y14.5
X4.3Y14.396
X4.354Y14.3
X4.4Y14.229
X6.224Y11.5
X6.292Y11.4
X6.3Y11.389
X6.37Y11.3
X8.036Y9.4
G0Z10
X19Y19.089
G1Z-5F500
X18Y20.23F1000
X17.941Y20.3
X17.072Y21.6
X17.011Y21.7
X16.3Y23.143
X16.279Y23.2
X15.77Y24.7
X15.747Y24.8
X15.449Y26.3
X15.436Y26.4
X15.331Y28
X15.436Y29.6
X15.449Y29.7
X15.747Y31.2
X15.77Y31.3
X16.279Y32.8
X16.3Y32.856
X17.011Y34.299
X17.072Y34.4
X17.941Y35.7
X18Y35.769
X19Y36.91
X19.089Y37
X20.23Y38
X20.3Y38.058
X21.6Y38.927
X21.7Y38.988
X23.143Y39.7
X23.2Y39.72
X24.7Y40.229
X24.8Y40.252
X26.3Y40.55
X26.4Y40.563
X28Y40.668
X29.6Y40.563
X29.7Y40.55
X31.2Y40.252
X31.3Y40.229
X32.8Y39.72
X32.856Y39.7
X34.299Y38.988
X34.4Y38.927
X35.7Y38.058
X35.769Y38
X36.91Y37
X37Y36.91
X38Y35.769
X38.058Y35.7
X38.927Y34.4
X38.988Y34.299
X39.7Y32.856
X39.72Y32.8
X40.229Y31.3
X40.252Y31.2
X40.55Y29.7
X40.563Y29.6
X40.668Y28
X40.563Y26.4
X40.55Y26.3
X40.252Y24.8
X40.229Y24.7
X39.72Y23.2
X39.7Y23.143
X38.988Y21.7
X38.927Y21.6
X38.058Y20.3
X38Y20.23
X37Y19.089
X36.91Y19
X35.769Y18
X35.7Y17.941
X34.4Y17.072
X34.299Y17.011
X32.856Y16.3
X32.8Y16.279
X31.3Y15.77
X31.2Y15.747
X29.7Y15.449
X29.6Y15.436
X28Y15.331
X26.4Y15.436
X26.3Y15.449
X24.8Y15.747
X24.7Y15.77
X23.2Y16.279
X23.143Y16.3
X21.7Y17.011
X21.6Y17.072
X20.3Y17.941
X20.23Y18
X19.089Y19
X19Y19.089
G0Z10
X19.704Y19.8
G1Z-6F500
X18.8Y20.831F1000
X18.74Y20.9
X17.9Y22.157
X17.877Y22.2
X17.236Y23.5
X17.2Y23.592
X16.756Y24.9
X16.725Y25
X16.446Y26.4
X16.429Y26.5
X16.331Y28
X16.429Y29.5
X16.446Y29.6
X16.725Y31
X16.756Y31.1
X17.2Y32.407
X17.236Y32.5
X17.877Y33.8
X17.9Y33.842
X18.74Y35.1
X18.827Y35.2
X19.704Y36.2
X19.8Y36.295
X20.831Y37.2
X20.9Y37.259
X22.157Y38.1
X22.2Y38.122
X23.5Y38.763
X23.592Y38.8
X24.9Y39.243
X25Y39.274
X26.4Y39.553
X26.5Y39.57
X28Y39.668
X29.5Y39.57
X29.6Y39.553
X31Y39.274
X31.1Y39.243
X32.407Y38.8
X32.5Y38.763
X33.8Y38.122
X33.842Y38.1
X35.1Y37.259
X35.2Y37.172
X36.2Y36.295
X36.295Y36.2
X37.2Y35.168
X37.259Y35.1
X38.1Y33.842
X38.122Y33.8
X38.763Y32.5
X38.8Y32.407
X39.243Y31.1
X39.274Y31
X39.553Y29.6
X39.57Y29.5
X39.668Y28
X39.57Y26.5
X39.553Y26.4
X39.274Y25
X39.243Y24.9
X38.8Y23.592
X38.763Y23.5
X38.122Y22.2
X38.1Y22.157
X37.259Y20.9
X37.172Y20.8
X36.295Y19.8
X36.2Y19.704
X35.168Y18.8
X35.1Y18.74
X33.842Y17.9
X33.8Y17.877
X32.5Y17.236
X32.407Y17.2
X31.1Y16.756
X31Y16.725
X29.6Y16.446
X29.5Y16.429
X28Y16.331
X26.5Y16.429
X26.4Y16.446
X25Y16.725
X24.9Y16.756
X23.592Y17.2
X23.5Y17.236
X22.2Y17.877
X22.157Y17.9
X20.9Y18.74
X20.8Y18.827
X19.8Y19.704
X19.704Y19.8
G0Z10
X7.2Y8.84
G1Z-6F500
X7.9Y8.042F1000
X7.938Y8
X8Y7.938
X8.042Y7.9
X10.665Y5.6
X10.7Y5.569
X10.789Y5.5
X10.8Y5.492
X13.7Y3.553
X13.781Y3.5
X13.8Y3.488
X13.9Y3.432
X17.006Y1.9
X17.1Y1.854
X17.2Y1.811
X17.232Y1.8
X20.5Y0.69
X20.6Y0.657
X20.7Y0.628
X20.8Y0.607
X24.2Y-0.068
X24.3Y-0.085
X24.4Y-0.095
X27.9Y-0.324
X28Y-0.328
X28.1Y-0.324
X31.6Y-0.095
X31.7Y-0.085
X31.8Y-0.068
X35.2Y0.607
X35.3Y0.628
X35.399Y0.657
X38.767Y1.8
X38.8Y1.811
X38.9Y1.854
X42.035Y3.4
X42.1Y3.432
X42.2Y3.488
X42.218Y3.5
X45.1Y5.424
X45.2Y5.492
X45.21Y5.5
X45.3Y5.569
X47.957Y7.9
X48Y7.938
X48.061Y8
X48.1Y8.042
X50.4Y10.665
X50.43Y10.7
X50.5Y10.789
X50.507Y10.8
X52.446Y13.7
X52.5Y13.781
X52.511Y13.8
X52.567Y13.9
X54.1Y17.006
X54.145Y17.1
X54.188Y17.2
X54.2Y17.232
X55.309Y20.5
X55.342Y20.6
X55.371Y20.7
X55.392Y20.8
X56.068Y24.2
X56.085Y24.3
X56.095Y24.4
X56.324Y27.9
X56.328Y28
X56.324Y28.1
X56.095Y31.6
X56.085Y31.7
X56.068Y31.8
X55.392Y35.2
X55.371Y35.3
X55.342Y35.399
X54.2Y38.767
X54.188Y38.8
X54.145Y38.9
X52.6Y42.035
X52.567Y42.1
X52.511Y42.2
X52.5Y42.218
X50.575Y45.1
X50.507Y45.2
X50.5Y45.21
X50.43Y45.3
X48.1Y47.957
X48.061Y48
X48Y48.061
X47.957Y48.1
X45.334Y50.4
X45.3Y50.43
X45.21Y50.5
X45.2Y50.507
X42.3Y52.446
X42.218Y52.5
X42.2Y52.511
X42.1Y52.567
X38.993Y54.1
X38.9Y54.145
X38.8Y54.188
X38.767Y54.2
X35.5Y55.309
X35.399Y55.342
X35.3Y55.371
X35.2Y55.392
X31.8Y56.068
X31.7Y56.085
X31.6Y56.095
X28.1Y56.324
X28Y56.328
X27.9Y56.324
X24.4Y56.095
X24.3Y56.085
X24.2Y56.068
X20.8Y55.392
X20.7Y55.371
X20.6Y55.342
X17.232Y54.2
X17.2Y54.188
X17.1Y54.145
X13.964Y52.6
X13.9Y52.567
X13.8Y52.511
X13.781Y52.5
X10.9Y50.575
X10.8Y50.507
X10.789Y50.5
X10.7Y50.43
X8.042Y48.1
X8Y48.061
X7.938Y48
X7.9Y47.957
X5.6Y45.334
X5.569Y45.3
X5.5Y45.21
X5.492Y45.2
X3.553Y42.3
X3.5Y42.218
X3.488Y42.2
X3.432Y42.1
X1.9Y38.993
X1.854Y38.9
X1.811Y38.8
X1.8Y38.767
X0.69Y35.5
X0.657Y35.399
X0.628Y35.3
X0.607Y35.2
X-0.068Y31.8
X-0.085Y31.7
X-0.095Y31.6
X-0.324Y28.1
X-0.328Y28
X-0.324Y27.9
X-0.095Y24.4
X-0.085Y24.3
X-0.068Y24.2
X0.607Y20.8
X0.628Y20.7
X0.657Y20.6
X1.8Y17.232
X1.811Y17.2
X1.854Y17.1
X3.4Y13.964
X3.432Y13.9
X3.488Y13.8
X3.5Y13.781
X5.424Y10.9
X5.492Y10.8
X5.5Y10.789
X5.569Y10.7
X7.2Y8.84
G0Z10
X6.958Y8.6
G1Z-7F500
X7.66Y7.8F1000
X7.7Y7.756
X7.756Y7.7
X7.8Y7.66
X10.4Y5.379
X10.5Y5.292
X10.6Y5.216
X10.623Y5.2
X13.6Y3.211
X13.618Y3.2
X13.7Y3.152
X13.803Y3.1
X16.9Y1.572
X17Y1.525
X17.061Y1.5
X17.1Y1.485
X20.5Y0.331
X20.6Y0.302
X20.609Y0.3
X20.7Y0.28
X24.12Y-0.4
X24.2Y-0.415
X24.3Y-0.429
X24.4Y-0.436
X27.9Y-0.666
X28Y-0.669
X28.1Y-0.666
X31.6Y-0.436
X31.7Y-0.429
X31.8Y-0.415
X31.9Y-0.395
X35.3Y0.28
X35.39Y0.3
X35.399Y0.302
X35.5Y0.331
X38.9Y1.485
X38.938Y1.5
X39Y1.525
X39.1Y1.572
X42.2Y3.101
X42.3Y3.152
X42.381Y3.2
X42.4Y3.211
X45.376Y5.2
X45.4Y5.216
X45.5Y5.292
X48.2Y7.66
X48.243Y7.7
X48.3Y7.756
X48.339Y7.8
X50.62Y10.4
X50.707Y10.5
X50.783Y10.6
X50.8Y10.623
X52.788Y13.6
X52.8Y13.618
X52.847Y13.7
X52.9Y13.803
X54.427Y16.9
X54.474Y17
X54.5Y17.061
X54.514Y17.1
X55.668Y20.5
X55.697Y20.6
X55.7Y20.609
X55.719Y20.7
X56.4Y24.12
X56.415Y24.2
X56.429Y24.3
X56.436Y24.4
X56.666Y27.9
X56.669Y28
X56.666Y28.1
X56.436Y31.6
X56.429Y31.7
X56.415Y31.8
X56.395Y31.9
X55.719Y35.3
X55.7Y35.39
X55.697Y35.399
X55.668Y35.5
X54.514Y38.9
X54.5Y38.938
X54.474Y39
X54.427Y39.1
X52.898Y42.2
X52.847Y42.3
X52.8Y42.381
X52.788Y42.4
X50.8Y45.376
X50.783Y45.4
X50.707Y45.5
X48.339Y48.2
X48.3Y48.243
X48.243Y48.3
X48.2Y48.339
X45.6Y50.62
X45.5Y50.707
X45.4Y50.783
X45.376Y50.8
X42.4Y52.788
X42.381Y52.8
X42.3Y52.847
X42.196Y52.9
X39.1Y54.427
X39Y54.474
X38.938Y54.5
X38.9Y54.514
X35.5Y55.668
X35.399Y55.697
X35.39Y55.7
X35.3Y55.719
X31.879Y56.4
X31.8Y56.415
X31.7Y56.429
X31.6Y56.436
X28.1Y56.666
X28Y56.669
X27.9Y56.666
X24.4Y56.436
X24.3Y56.429
X24.2Y56.415
X24.1Y56.395
X20.7Y55.719
X20.609Y55.7
X20.6Y55.697
X20.5Y55.668
X17.1Y54.514
X17.061Y54.5
X17Y54.474
X16.9Y54.427
X13.8Y52.898
X13.7Y52.847
X13.618Y52.8
X13.6Y52.788
X10.623Y50.8
X10.6Y50.783
X10.5Y50.707
X7.8Y48.339
X7.756Y48.3
X7.7Y48.243
X7.66Y48.2
X5.379Y45.6
X5.292Y45.5
X5.216Y45.4
X5.2Y45.376
X3.211Y42.4
X3.2Y42.381
X3.152Y42.3
X3.1Y42.196
X1.572Y39.1
X1.525Y39
X1.5Y38.938
X1.485Y38.9
X0.331Y35.5
X0.302Y35.399
X0.3Y35.39
X0.28Y35.3
X-0.4Y31.879
X-0.415Y31.8
X-0.429Y31.7
X-0.436Y31.6
X-0.666Y28.1
X-0.669Y28
X-0.666Y27.9
X-0.436Y24.4
X-0.429Y24.3
X-0.415Y24.2
X-0.395Y24.1
X0.28Y20.7
X0.3Y20.609
X0.302Y20.6
X0.331Y20.5
X1.485Y17.1
X1.5Y17.061
X1.525Y17
X1.572Y16.9
X3.101Y13.8
X3.152Y13.7
X3.2Y13.618
X3.211Y13.6
X5.2Y10.623
X5.216Y10.6
X5.292Y10.5
X6.958Y8.6
G0Z10
X19.981Y20
G1Z-7F500
X19.017Y21.1F1000
X19Y21.124
X18.2Y22.321
X18.158Y22.4
X17.566Y23.6
X17.523Y23.7
X17.081Y25
X17.052Y25.1
X16.773Y26.5
X16.764Y26.6
X16.672Y28
X16.764Y29.4
X16.773Y29.5
X17.052Y30.9
X17.081Y31
X17.523Y32.299
X17.566Y32.4
X18.158Y33.6
X18.2Y33.678
X19Y34.875
X19.017Y34.9
X19.981Y36
X20Y36.018
X21.1Y36.982
X21.124Y37
X22.321Y37.8
X22.4Y37.841
X23.6Y38.433
X23.7Y38.476
X25Y38.918
X25.1Y38.947
X26.5Y39.226
X26.6Y39.235
X28Y39.327
X29.4Y39.235
X29.5Y39.226
X30.9Y38.947
X31Y38.918
X32.299Y38.476
X32.4Y38.433
X33.6Y37.841
X33.678Y37.8
X34.875Y37
X34.9Y36.982
X36Y36.018
X36.018Y36
X36.982Y34.9
X37Y34.875
X37.8Y33.678
X37.841Y33.6
X38.433Y32.4
X38.476Y32.299
X38.918Y31
X38.947Y30.9
X39.226Y29.5
X39.235Y29.4
X39.327Y28
X39.235Y26.6
X39.226Y26.5
X38.947Y25.1
X38.918Y25
X38.476Y23.7
X38.433Y23.6
X37.841Y22.4
X37.8Y22.321
X37Y21.124
X36.982Y21.1
X36.018Y20
X36Y19.981
X34.9Y19.017
X34.875Y19
X33.678Y18.2
X33.6Y18.158
X32.4Y17.566
X32.299Y17.523
X31Y17.081
X30.9Y17.052
X29.5Y16.773
X29.4Y16.764
X28Y16.672
X26.6Y16.764
X26.5Y16.773
X25.1Y17.052
X25Y17.081
X23.7Y17.523
X23.6Y17.566
X22.4Y18.158
X22.321Y18.2
X21.124Y19
X21.1Y19.017
X20Y19.981
X19.981Y20
G0Z10
X20.162Y20.2
G1Z-8F500
X19.285Y21.2F1000
X19.204Y21.3
X18.469Y22.4
X18.407Y22.5
X17.8Y23.731
X17.771Y23.8
X17.33Y25.1
X17.304Y25.2
X17.046Y26.5
X17.032Y26.6
X16.94Y28
X17.032Y29.4
X17.046Y29.5
X17.304Y30.8
X17.33Y30.9
X17.771Y32.2
X17.8Y32.268
X18.407Y33.5
X18.469Y33.6
X19.204Y34.7
X19.285Y34.8
X20.162Y35.8
X20.2Y35.837
X21.2Y36.714
X21.3Y36.795
X22.4Y37.53
X22.5Y37.592
X23.731Y38.2
X23.8Y38.228
X25.1Y38.669
X25.2Y38.695
X26.5Y38.953
X26.6Y38.967
X28Y39.059
X29.4Y38.967
X29.5Y38.953
X30.8Y38.695
X30.9Y38.669
X32.2Y38.228
X32.268Y38.2
X33.5Y37.592
X33.6Y37.53
X34.7Y36.795
X34.8Y36.714
X35.8Y35.837
X35.837Y35.8
X36.714Y34.8
X36.795Y34.7
X37.53Y33.6
X37.592Y33.5
X38.2Y32.268
X38.228Y32.2
X38.669Y30.9
X38.695Y30.8
X38.953Y29.5
X38.967Y29.4
X39.059Y28
X38.967Y26.6
X38.953Y26.5
X38.695Y25.2
X38.669Y25.1
X38.228Y23.8
X38.2Y23.731
X37.592Y22.5
X37.53Y22.4
X36.795Y21.3
X36.714Y21.2
X35.837Y20.2
X35.8Y20.162
X34.8Y19.285
X34.7Y19.204
X33.6Y18.469
X33.5Y18.407
X32.268Y17.8
X32.2Y17.771
X30.9Y17.33
X30.8Y17.304
X29.5Y17.046
X29.4Y17.032
X28Y16.94
X26.6Y17.032
X26.5Y17.046
X25.2Y17.304
X25.1Y17.33
X23.8Y17.771
X23.731Y17.8
X22.5Y18.407
X22.4Y18.469
X21.3Y19.204
X21.2Y19.285
X20.2Y20.162
X20.162Y20.2
G0Z10
X6.778Y8.4
G1Z-8F500
X7.479Y7.6F1000
X7.5Y7.577
X7.577Y7.5
X7.6Y7.479
X10.313Y5.1
X10.4Y5.03
X10.442Y5
X13.435Y3
X13.5Y2.958
X13.604Y2.9
X16.848Y1.3
X16.9Y1.276
X17Y1.237
X20.4Y0.082
X20.5Y0.051
X20.6Y0.027
X24.1Y-0.668
X24.2Y-0.686
X24.3Y-0.697
X27.9Y-0.933
X28Y-0.937
X28.1Y-0.933
X31.7Y-0.697
X31.8Y-0.686
X31.9Y-0.668
X35.399Y0.027
X35.5Y0.051
X35.6Y0.082
X39Y1.237
X39.1Y1.276
X39.151Y1.3
X42.4Y2.902
X42.5Y2.958
X42.564Y3
X45.5Y4.961
X45.557Y5
X45.6Y5.03
X45.686Y5.1
X48.4Y7.479
X48.422Y7.5
X48.5Y7.577
X48.52Y7.6
X50.9Y10.313
X50.969Y10.4
X51Y10.442
X53Y13.435
X53.041Y13.5
X53.1Y13.604
X54.7Y16.848
X54.723Y16.9
X54.762Y17
X55.917Y20.4
X55.948Y20.5
X55.972Y20.6
X56.668Y24.1
X56.686Y24.2
X56.697Y24.3
X56.933Y27.9
X56.937Y28
X56.933Y28.1
X56.697Y31.7
X56.686Y31.8
X56.668Y31.9
X55.972Y35.399
X55.948Y35.5
X55.917Y35.6
X54.762Y39
X54.723Y39.1
X54.7Y39.151
X53.097Y42.4
X53.041Y42.5
X53Y42.564
X51.038Y45.5
X51Y45.557
X50.969Y45.6
X50.9Y45.686
X48.52Y48.4
X48.5Y48.422
X48.422Y48.5
X48.4Y48.52
X45.686Y50.9
X45.6Y50.969
X45.557Y51
X42.564Y53
X42.5Y53.041
X42.395Y53.1
X39.151Y54.7
X39.1Y54.723
X39Y54.762
X35.6Y55.917
X35.5Y55.948
X35.399Y55.972
X31.9Y56.668
X31.8Y56.686
X31.7Y56.697
X28.1Y56.933
X28Y56.937
X27.9Y56.933
X24.3Y56.697
X24.2Y56.686
X24.1Y56.668
X20.6Y55.972
X20.5Y55.948
X20.4Y55.917
X17Y54.762
X16.9Y54.723
X16.848Y54.7
X13.6Y53.097
X13.5Y53.041
X13.435Y53
X10.5Y51.038
X10.442Y51
X10.4Y50.969
X10.313Y50.9
X7.6Y48.52
X7.577Y48.5
X7.5Y48.422
X7.479Y48.4
X5.1Y45.686
X5.03Y45.6
X5Y45.557
X3Y42.564
X2.958Y42.5
X2.9Y42.395
X1.3Y39.151
X1.276Y39.1
X1.237Y39
X0.082Y35.6
X0.051Y35.5
X0.027Y35.399
X-0.668Y31.9
X-0.686Y31.8
X-0.697Y31.7
X-0.933Y28.1
X-0.937Y28
X-0.933Y27.9
X-0.697Y24.3
X-0.686Y24.2
X-0.668Y24.1
X0.027Y20.6
X0.051Y20.5
X0.082Y20.4
X1.237Y17
X1.276Y16.9
X1.3Y16.848
X2.902Y13.6
X2.958Y13.5
X3Y13.435
X4.961Y10.5
X5Y10.442
X5.03Y10.4
X5.1Y10.313
X6.778Y8.4
G0Z10
X6.597Y8.2
G1Z-9F500
X7.211Y7.5F1000
X7.3Y7.399
X7.4Y7.299
X10.136Y4.9
X10.2Y4.846
X10.261Y4.8
X10.3Y4.773
X13.3Y2.768
X13.4Y2.705
X13.41Y2.7
X13.5Y2.653
X16.7Y1.075
X16.8Y1.027
X16.868Y1
X16.9Y0.988
X20.3Y-0.165
X20.405Y-0.2
X20.5Y-0.224
X20.6Y-0.244
X24.1Y-0.941
X24.2Y-0.956
X24.3Y-0.965
X27.9Y-1.201
X28Y-1.205
X28.1Y-1.201
X31.7Y-0.965
X31.8Y-0.956
X31.9Y-0.941
X35.399Y-0.244
X35.5Y-0.224
X35.6Y-0.198
X35.7Y-0.165
X39.1Y0.988
X39.131Y1
X39.2Y1.027
X39.3Y1.075
X42.5Y2.653
X42.589Y2.7
X42.6Y2.705
X42.7Y2.768
X45.7Y4.773
X45.738Y4.8
X45.8Y4.846
X45.863Y4.9
X48.5Y7.211
X48.6Y7.3
X48.7Y7.4
X51.1Y10.136
X51.153Y10.2
X51.2Y10.261
X51.226Y10.3
X53.231Y13.3
X53.294Y13.4
X53.3Y13.41
X53.346Y13.5
X54.924Y16.7
X54.972Y16.8
X55Y16.868
X55.011Y16.9
X56.165Y20.3
X56.2Y20.405
X56.224Y20.5
X56.244Y20.6
X56.941Y24.1
X56.956Y24.2
X56.965Y24.3
X57.201Y27.9
X57.205Y28
X57.201Y28.1
X56.965Y31.7
X56.956Y31.8
X56.941Y31.9
X56.244Y35.399
X56.224Y35.5
X56.198Y35.6
X56.165Y35.7
X55.011Y39.1
X55Y39.131
X54.972Y39.2
X54.924Y39.3
X53.346Y42.5
X53.3Y42.589
X53.294Y42.6
X53.231Y42.7
X51.226Y45.7
X51.2Y45.738
X51.153Y45.8
X51.1Y45.863
X48.788Y48.5
X48.7Y48.6
X48.6Y48.7
X45.863Y51.1
X45.8Y51.153
X45.738Y51.2
X45.7Y51.226
X42.7Y53.231
X42.6Y53.294
X42.589Y53.3
X42.5Y53.346
X39.3Y54.924
X39.2Y54.972
X39.131Y55
X39.1Y55.011
X35.7Y56.165
X35.594Y56.2
X35.5Y56.224
X35.399Y56.244
X31.9Y56.941
X31.8Y56.956
X31.7Y56.965
X28.1Y57.201
X28Y57.205
X27.9Y57.201
X24.3Y56.965
X24.2Y56.956
X24.1Y56.941
X20.6Y56.244
X20.5Y56.224
X20.4Y56.198
X20.3Y56.165
X16.9Y55.011
X16.868Y55
X16.8Y54.972
X16.7Y54.924
X13.5Y53.346
X13.41Y53.3
X13.4Y53.294
X13.3Y53.231
X10.3Y51.226
X10.261Y51.2
X10.2Y51.153
X10.136Y51.1
X7.5Y48.788
X7.399Y48.7
X7.299Y48.6
X4.9Y45.863
X4.846Y45.8
X4.8Y45.738
X4.773Y45.7
X2.768Y42.7
X2.705Y42.6
X2.7Y42.589
X2.653Y42.5
X1.075Y39.3
X1.027Y39.2
X1Y39.131
X0.988Y39.1
X-0.165Y35.7
X-0.2Y35.594
X-0.224Y35.5
X-0.244Y35.399
X-0.941Y31.9
X-0.956Y31.8
X-0.965Y31.7
X-1.201Y28.1
X-1.205Y28
X-1.201Y27.9
X-0.965Y24.3
X-0.956Y24.2
X-0.941Y24.1
X-0.244Y20.6
X-0.224Y20.5
X-0.198Y20.4
X-0.165Y20.3
X0.988Y16.9
X1Y16.868
X1.027Y16.8
X1.075Y16.7
X2.653Y13.5
X2.7Y13.41
X2.705Y13.4
X2.768Y13.3
X4.773Y10.3
X4.8Y10.261
X4.846Y10.2
X4.9Y10.136
X6.597Y8.2
G0Z10
X20.342Y20.4
G1Z-9F500
X19.465Y21.4F1000
X19.4Y21.488
X18.657Y22.6
X18.6Y22.714
X18.064Y23.8
X18.019Y23.9
X17.578Y25.2
X17.557Y25.3
X17.318Y26.5
X17.3Y26.6
X17.208Y28
X17.3Y29.4
X17.318Y29.5
X17.557Y30.7
X17.578Y30.8
X18.019Y32.099
X18.064Y32.2
X18.607Y33.3
X18.657Y33.4
X19.4Y34.511
X19.465Y34.6
X20.342Y35.6
X20.4Y35.657
X21.4Y36.534
X21.488Y36.6
X22.6Y37.342
X22.714Y37.4
X23.8Y37.935
X23.9Y37.98
X25.2Y38.421
X25.3Y38.442
X26.5Y38.681
X26.6Y38.699
X28Y38.791
X29.4Y38.699
X29.5Y38.681
X30.7Y38.442
X30.8Y38.421
X32.099Y37.98
X32.2Y37.935
X33.3Y37.392
X33.4Y37.342
X34.511Y36.6
X34.6Y36.534
X35.6Y35.657
X35.657Y35.6
X36.534Y34.6
X36.6Y34.511
X37.342Y33.4
X37.4Y33.285
X37.935Y32.2
X37.98Y32.099
X38.421Y30.8
X38.442Y30.7
X38.681Y29.5
X38.699Y29.4
X38.791Y28
X38.699Y26.6
X38.681Y26.5
X38.442Y25.3
X38.421Y25.2
X37.98Y23.9
X37.935Y23.8
X37.392Y22.7
X37.342Y22.6
X36.6Y21.488
X36.534Y21.4
X35.657Y20.4
X35.6Y20.342
X34.6Y19.465
X34.511Y19.4
X33.4Y18.657
X33.285Y18.6
X32.2Y18.064
X32.099Y18.019
X30.8Y17.578
X30.7Y17.557
X29.5Y17.318
X29.4Y17.3
X28Y17.208
X26.6Y17.3
X26.5Y17.318
X25.3Y17.557
X25.2Y17.578
X23.9Y18.019
X23.8Y18.064
X22.7Y18.607
X22.6Y18.657
X21.488Y19.4
X21.4Y19.465
X20.4Y20.342
X20.342Y20.4
G0Z10
X20.522Y20.6
G1Z-10F500
X19.7Y21.537F1000
X19.646Y21.6
X18.9Y22.717
X18.855Y22.8
X18.3Y23.927
X18.268Y24
X17.86Y25.2
X17.83Y25.3
X17.571Y26.6
X17.561Y26.7
X17.476Y28
X17.561Y29.3
X17.571Y29.4
X17.83Y30.7
X17.86Y30.8
X18.268Y32
X18.3Y32.072
X18.855Y33.199
X18.9Y33.282
X19.646Y34.4
X19.7Y34.462
X20.522Y35.399
X20.6Y35.477
X21.537Y36.3
X21.6Y36.353
X22.717Y37.1
X22.8Y37.144
X23.927Y37.7
X24Y37.731
X25.2Y38.139
X25.3Y38.169
X26.6Y38.428
X26.7Y38.438
X28Y38.523
X29.3Y38.438
X29.4Y38.428
X30.7Y38.169
X30.8Y38.139
X32Y37.731
X32.072Y37.7
X33.199Y37.144
X33.282Y37.1
X34.4Y36.353
X34.462Y36.3
X35.399Y35.477
X35.477Y35.399
X36.3Y34.462
X36.353Y34.4
X37.1Y33.282
X37.144Y33.199
X37.7Y32.072
X37.731Y32
X38.139Y30.8
X38.169Y30.7
X38.428Y29.4
X38.438Y29.3
X38.523Y28
X38.438Y26.7
X38.428Y26.6
X38.169Y25.3
X38.139Y25.2
X37.731Y24
X37.7Y23.927
X37.144Y22.8
X37.1Y22.717
X36.353Y21.6
X36.3Y21.537
X35.477Y20.6
X35.399Y20.522
X34.462Y19.7
X34.4Y19.646
X33.282Y18.9
X33.199Y18.855
X32.072Y18.3
X32Y18.268
X30.8Y17.86
X30.7Y17.83
X29.4Y17.571
X29.3Y17.561
X28Y17.476
X26.7Y17.561
X26.6Y17.571
X25.3Y17.83
X25.2Y17.86
X24Y18.268
X23.927Y18.3
X22.8Y18.855
X22.717Y18.9
X21.6Y19.646
X21.537Y19.7
X20.6Y20.522
X20.522Y20.6
G0Z10
X6.3Y8.134
G1Z-10F500
X7.1Y7.222F1000
X7.12Y7.2
X7.2Y7.12
X7.222Y7.1
X10Y4.664
X10.08Y4.6
X10.1Y4.586
X10.227Y4.5
X13.2Y2.514
X13.222Y2.5
X13.3Y2.454
X13.409Y2.4
X16.6Y0.826
X16.654Y0.8
X16.7Y0.779
X16.8Y0.74
X20.3Y-0.447
X20.4Y-0.476
X20.511Y-0.5
X24.03Y-1.2
X24.1Y-1.213
X24.2Y-1.226
X24.3Y-1.233
X27.9Y-1.469
X28Y-1.473
X28.1Y-1.469
X31.7Y-1.233
X31.8Y-1.226
X31.9Y-1.213
X31.969Y-1.2
X35.5Y-0.497
X35.6Y-0.476
X35.7Y-0.447
X39.2Y0.74
X39.3Y0.779
X39.345Y0.8
X42.6Y2.404
X42.7Y2.454
X42.777Y2.5
X42.8Y2.514
X45.8Y4.518
X45.9Y4.586
X45.919Y4.6
X46Y4.664
X48.777Y7.1
X48.8Y7.12
X48.879Y7.2
X48.9Y7.222
X51.335Y10
X51.4Y10.08
X51.413Y10.1
X51.5Y10.227
X53.485Y13.2
X53.5Y13.222
X53.545Y13.3
X53.6Y13.409
X55.173Y16.6
X55.2Y16.654
X55.22Y16.7
X55.259Y16.8
X56.447Y20.3
X56.476Y20.4
X56.5Y20.511
X57.2Y24.03
X57.213Y24.1
X57.226Y24.2
X57.233Y24.3
X57.469Y27.9
X57.473Y28
X57.469Y28.1
X57.233Y31.7
X57.226Y31.8
X57.213Y31.9
X57.2Y31.969
X56.497Y35.5
X56.476Y35.6
X56.447Y35.7
X55.259Y39.2
X55.22Y39.3
X55.2Y39.345
X53.595Y42.6
X53.545Y42.7
X53.5Y42.777
X53.485Y42.8
X51.481Y45.8
X51.413Y45.9
X51.4Y45.919
X51.335Y46
X48.9Y48.777
X48.879Y48.8
X48.8Y48.879
X48.777Y48.9
X46Y51.335
X45.919Y51.4
X45.9Y51.413
X45.772Y51.5
X42.8Y53.485
X42.777Y53.5
X42.7Y53.545
X42.59Y53.6
X39.4Y55.173
X39.345Y55.2
X39.3Y55.22
X39.2Y55.259
X35.7Y56.447
X35.6Y56.476
X35.488Y56.5
X31.969Y57.2
X31.9Y57.213
X31.8Y57.226
X31.7Y57.233
X28.1Y57.469
X28Y57.473
X27.9Y57.469
X24.3Y57.233
X24.2Y57.226
X24.1Y57.213
X24.03Y57.2
X20.5Y56.497
X20.4Y56.476
X20.3Y56.447
X16.8Y55.259
X16.7Y55.22
X16.654Y55.2
X13.4Y53.595
X13.3Y53.545
X13.222Y53.5
X13.2Y53.485
X10.2Y51.481
X10.1Y51.413
X10.08Y51.4
X10Y51.335
X7.222Y48.9
X7.2Y48.879
X7.12Y48.8
X7.1Y48.777
X4.664Y46
X4.6Y45.919
X4.586Y45.9
X4.5Y45.772
X2.514Y42.8
X2.5Y42.777
X2.455Y42.7
X2.4Y42.59
X0.826Y39.4
X0.8Y39.345
X0.779Y39.3
X0.74Y39.2
X-0.447Y35.7
X-0.476Y35.6
X-0.5Y35.488
X-1.2Y31.969
X-1.213Y31.9
X-1.226Y31.8
X-1.233Y31.7
X-1.469Y28.1
X-1.473Y28
X-1.469Y27.9
X-1.233Y24.3
X-1.226Y24.2
X-1.213Y24.1
X-1.2Y24.03
X-0.497Y20.5
X-0.476Y20.4
X-0.447Y20.3
X0.74Y16.8
X0.779Y16.7
X0.8Y16.654
X2.404Y13.4
X2.454Y13.3
X2.5Y13.222
X2.514Y13.2
X4.518Y10.2
X4.586Y10.1
X4.6Y10.08
X4.664Y10
X6.3Y8.134
X6.294Y8.1Z-11F500
X7.083Y7.2F1000
X7.1Y7.182
X7.182Y7.1
X7.2Y7.083
X9.918Y4.7
X10Y4.629
X10.036Y4.6
X10.1Y4.553
X13.172Y2.5
X13.2Y2.482
X13.3Y2.424
X13.348Y2.4
X16.6Y0.796
X16.7Y0.75
X16.8Y0.711
X20.2Y-0.442
X20.3Y-0.475
X20.384Y-0.5
X20.4Y-0.503
X20.5Y-0.524
X24Y-1.221
X24.1Y-1.24
X24.2Y-1.253
X24.3Y-1.26
X27.9Y-1.496
X28Y-1.5
X28.1Y-1.496
X31.7Y-1.26
X31.8Y-1.253
X31.9Y-1.24
X32Y-1.221
X35.5Y-0.524
X35.6Y-0.503
X35.615Y-0.5
X35.7Y-0.475
X39.2Y0.711
X39.3Y0.75
X39.406Y0.8
X42.651Y2.4
X42.7Y2.424
X42.8Y2.482
X42.827Y2.5
X45.82Y4.5
X45.9Y4.553
X45.963Y4.6
X46Y4.629
X46.1Y4.715
X48.8Y7.083
X48.817Y7.1
X48.9Y7.182
X48.916Y7.2
X51.3Y9.918
X51.37Y10
X51.4Y10.036
X51.446Y10.1
X53.5Y13.172
X53.517Y13.2
X53.575Y13.3
X53.6Y13.348
X55.203Y16.6
X55.249Y16.7
X55.288Y16.8
X56.442Y20.2
X56.475Y20.3
X56.5Y20.384
X56.503Y20.4
X56.524Y20.5
X57.221Y24
X57.24Y24.1
X57.253Y24.2
X57.26Y24.3
X57.496Y27.9
X57.5Y28
X57.496Y28.1
X57.26Y31.7
X57.253Y31.8
X57.24Y31.9
X57.221Y32
X56.524Y35.5
X56.503Y35.6
X56.5Y35.615
X56.475Y35.7
X55.288Y39.2
X55.249Y39.3
X55.2Y39.406
X53.6Y42.651
X53.575Y42.7
X53.517Y42.8
X53.5Y42.827
X51.5Y45.82
X51.446Y45.9
X51.4Y45.963
X51.37Y46
X51.284Y46.1
X48.916Y48.8
X48.9Y48.817
X48.817Y48.9
X48.8Y48.916
X46.081Y51.3
X46Y51.37
X45.963Y51.4
X45.9Y51.446
X42.827Y53.5
X42.8Y53.517
X42.7Y53.575
X42.651Y53.6
X39.4Y55.203
X39.3Y55.249
X39.2Y55.288
X35.8Y56.442
X35.7Y56.475
X35.615Y56.5
X35.6Y56.503
X35.5Y56.524
X32Y57.221
X31.9Y57.24
X31.8Y57.253
X31.7Y57.26
X28.1Y57.496
X27.999Y57.5
X27.9Y57.496
X24.3Y57.26
X24.2Y57.253
X24.1Y57.24
X24Y57.221
X20.5Y56.524
X20.4Y56.503
X20.384Y56.5
X20.3Y56.475
X16.8Y55.288
X16.7Y55.249
X16.593Y55.2
X13.348Y53.6
X13.3Y53.575
X13.2Y53.517
X13.172Y53.5
X10.179Y51.5
X10.1Y51.446
X10.036Y51.4
X10Y51.37
X9.9Y51.284
X7.2Y48.916
X7.182Y48.9
X7.1Y48.817
X7.083Y48.8
X4.7Y46.081
X4.629Y46
X4.6Y45.963
X4.553Y45.9
X2.5Y42.827
X2.482Y42.8
X2.424Y42.7
X2.4Y42.651
X0.796Y39.4
X0.75Y39.3
X0.711Y39.2
X-0.442Y35.8
X-0.475Y35.7
X-0.5Y35.615
X-0.503Y35.6
X-0.524Y35.5
X-1.221Y32
X-1.24Y31.9
X-1.253Y31.8
X-1.26Y31.7
X-1.496Y28.1
X-1.5Y27.999
X-1.496Y27.9
X-1.26Y24.3
X-1.253Y24.2
X-1.24Y24.1
X-1.221Y24
X-0.524Y20.5
X-0.503Y20.4
X-0.5Y20.384
X-0.475Y20.3
X0.711Y16.8
X0.75Y16.7
X0.8Y16.593
X2.4Y13.348
X2.424Y13.3
X2.482Y13.2
X2.5Y13.172
X4.5Y10.179
X4.553Y10.1
X4.6Y10.036
X4.629Y10
X4.715Y9.9
X6.294Y8.1
G0Z10
X20.558Y20.6
G1Z-11F500
X19.681Y21.6F1000
X19.612Y21.7
X18.944Y22.7
X18.9Y22.77
X18.343Y23.9
X18.3Y23.989
X17.889Y25.2
X17.857Y25.3
X17.598Y26.6
X17.588Y26.7
X17.503Y28
X17.588Y29.3
X17.598Y29.4
X17.857Y30.7
X17.889Y30.8
X18.3Y32.01
X18.343Y32.099
X18.9Y33.229
X18.944Y33.3
X19.612Y34.299
X19.681Y34.4
X20.558Y35.399
X20.6Y35.441
X21.6Y36.318
X21.7Y36.387
X22.7Y37.055
X22.77Y37.1
X23.9Y37.656
X23.989Y37.7
X25.2Y38.11
X25.3Y38.142
X26.6Y38.401
X26.7Y38.411
X28Y38.496
X29.3Y38.411
X29.4Y38.401
X30.7Y38.142
X30.8Y38.11
X32.01Y37.7
X32.099Y37.656
X33.229Y37.1
X33.3Y37.055
X34.299Y36.387
X34.4Y36.318
X35.399Y35.441
X35.441Y35.399
X36.318Y34.4
X36.387Y34.299
X37.055Y33.3
X37.1Y33.229
X37.656Y32.099
X37.7Y32.01
X38.11Y30.8
X38.142Y30.7
X38.401Y29.4
X38.411Y29.3
X38.496Y28
X38.411Y26.7
X38.401Y26.6
X38.142Y25.3
X38.11Y25.2
X37.7Y23.989
X37.656Y23.9
X37.1Y22.77
X37.055Y22.7
X36.387Y21.7
X36.318Y21.6
X35.441Y20.6
X35.399Y20.558
X34.4Y19.681
X34.299Y19.612
X33.3Y18.944
X33.229Y18.9
X32.099Y18.343
X32.01Y18.3
X30.8Y17.889
X30.7Y17.857
X29.4Y17.598
X29.3Y17.588
X28Y17.503
X26.7Y17.588
X26.6Y17.598
X25.3Y17.857
X25.2Y17.889
X23.989Y18.3
X23.9Y18.343
X22.77Y18.9
X22.7Y18.944
X21.7Y19.612
X21.6Y19.681
X20.6Y20.558
X20.558Y20.6
Z-12F500
X19.681Y21.6F1000
X19.612Y21.7
X18.944Y22.7
X18.9Y22.77
X18.343Y23.9
X18.3Y23.989
X17.889Y25.2
X17.857Y25.3
X17.598Y26.6
X17.588Y26.7
X17.503Y28
X17.588Y29.3
X17.598Y29.4
X17.857Y30.7
X17.889Y30.8
X18.3Y32.01
X18.343Y32.099
X18.9Y33.229
X18.944Y33.3
X19.612Y34.299
X19.681Y34.4
X20.558Y35.399
X20.6Y35.441
X21.6Y36.318
X21.7Y36.387
X22.7Y37.055
X22.77Y37.1
X23.9Y37.656
X23.989Y37.7
X25.2Y38.11
X25.3Y38.142
X26.6Y38.401
X26.7Y38.411
X28Y38.496
X29.3Y38.411
X29.4Y38.401
X30.7Y38.142
X30.8Y38.11
X32.01Y37.7
X32.099Y37.656
X33.229Y37.1
X33.3Y37.055
X34.299Y36.387
X34.4Y36.318
X35.399Y35.441
X35.441Y35.399
X36.318Y34.4
X36.387Y34.299
X37.055Y33.3
X37.1Y33.229
X37.656Y32.099
X37.7Y32.01
X38.11Y30.8
X38.142Y30.7
X38.401Y29.4
X38.411Y29.3
X38.496Y28
X38.411Y26.7
X38.401Y26.6
X38.142Y25.3
X38.11Y25.2
X37.7Y23.989
X37.656Y23.9
X37.1Y22.77
X37.055Y22.7
X36.387Y21.7
X36.318Y21.6
X35.441Y20.6
X35.399Y20.558
X34.4Y19.681
X34.299Y19.612
X33.3Y18.944
X33.229Y18.9
X32.099Y18.343
X32.01Y18.3
X30.8Y17.889
X30.7Y17.857
X29.4Y17.598
X29.3Y17.588
X28Y17.503
X26.7Y17.588
X26.6Y17.598
X25.3Y17.857
X25.2Y17.889
X23.989Y18.3
X23.9Y18.343
X22.77Y18.9
X22.7Y18.944
X21.7Y19.612
X21.6Y19.681
X20.6Y20.558
X20.558Y20.6
G0Z10
X6.3Y8.093
G1Z-12F500
X7.083Y7.2F1000
X7.1Y7.182
X7.182Y7.1
X7.2Y7.083
X9.918Y4.7
X10Y4.629
X10.036Y4.6
X10.1Y4.553
X13.172Y2.5
X13.2Y2.482
X13.3Y2.424
X13.348Y2.4
X16.6Y0.796
X16.7Y0.75
X16.8Y0.711
X20.2Y-0.442
X20.3Y-0.475
X20.384Y-0.5
X20.4Y-0.503
X20.5Y-0.524
X24Y-1.221
X24.1Y-1.24
X24.2Y-1.253
X24.3Y-1.26
X27.9Y-1.496
X28Y-1.5
X28.1Y-1.496
X31.7Y-1.26
X31.8Y-1.253
X31.9Y-1.24
X32Y-1.221
X35.5Y-0.524
X35.6Y-0.503
X35.615Y-0.5
X35.7Y-0.475
X39.2Y0.711
X39.3Y0.75
X39.406Y0.8
X42.651Y2.4
X42.7Y2.424
X42.8Y2.482
X42.827Y2.5
X45.82Y4.5
X45.9Y4.553
X45.963Y4.6
X46Y4.629
X46.1Y4.715
X48.8Y7.083
X48.817Y7.1
X48.9Y7.182
X48.916Y7.2
X51.3Y9.918
X51.37Y10
X51.4Y10.036
X51.446Y10.1
X53.5Y13.172
X53.517Y13.2
X53.575Y13.3
X53.6Y13.348
X55.203Y16.6
X55.249Y16.7
X55.288Y16.8
X56.442Y20.2
X56.475Y20.3
X56.5Y20.384
X56.503Y20.4
X56.524Y20.5
X57.221Y24
X57.24Y24.1
X57.253Y24.2
X57.26Y24.3
X57.496Y27.9
X57.5Y28
X57.496Y28.1
X57.26Y31.7
X57.253Y31.8
X57.24Y31.9
X57.221Y32
X56.524Y35.5
X56.503Y35.6
X56.5Y35.615
X56.475Y35.7
X55.288Y39.2
X55.249Y39.3
X55.2Y39.406
X53.6Y42.651
X53.575Y42.7
X53.517Y42.8
X53.5Y42.827
X51.5Y45.82
X51.446Y45.9
X51.4Y45.963
X51.37Y46
X51.284Y46.1
X48.916Y48.8
X48.9Y48.817
X48.817Y48.9
X48.8Y48.916
X46.081Y51.3
X46Y51.37
X45.963Y51.4
X45.9Y51.446
X42.827Y53.5
X42.8Y53.517
X42.7Y53.575
X42.651Y53.6
X39.4Y55.203
X39.3Y55.249
X39.2Y55.288
X35.8Y56.442
X35.7Y56.475
X35.615Y56.5
X35.6Y56.503
X35.5Y56.524
X32Y57.221
X31.9Y57.24
X31.8Y57.253
X31.7Y57.26
X28.1Y57.496
X27.999Y57.5
X27.9Y57.496
X24.3Y57.26
X24.2Y57.253
X24.1Y57.24
X24Y57.221
X20.5Y56.524
X20.4Y56.503
X20.384Y56.5
X20.3Y56.475
X16.8Y55.288
X16.7Y55.249
X16.593Y55.2
X13.348Y53.6
X13.3Y53.575
X13.2Y53.517
X13.172Y53.5
X10.179Y51.5
X10.1Y51.446
X10.036Y51.4
X10Y51.37
X9.9Y51.284
X7.2Y48.916
X7.182Y48.9
X7.1Y48.817
X7.083Y48.8
X4.7Y46.081
X4.629Y46
X4.6Y45.963
X4.553Y45.9
X2.5Y42.827
X2.482Y42.8
X2.424Y42.7
X2.4Y42.651
X0.796Y39.4
X0.75Y39.3
X0.711Y39.2
X-0.442Y35.8
X-0.475Y35.7
X-0.5Y35.615
X-0.503Y35.6
X-0.524Y35.5
X-1.221Y32
X-1.24Y31.9
X-1.253Y31.8
X-1.26Y31.7
X-1.496Y28.1
X-1.5Y27.999
X-1.496Y27.9
X-1.26Y24.3
X-1.253Y24.2
X-1.24Y24.1
X-1.221Y24
X-0.524Y20.5
X-0.503Y20.4
X-0.5Y20.384
X-0.475Y20.3
X0.711Y16.8
X0.75Y16.7
X0.8Y16.593
X2.4Y13.348
X2.424Y13.3
X2.482Y13.2
X2.5Y13.172
X4.5Y10.179
X4.553Y10.1
X4.6Y10.036
X4.629Y10
X4.715Y9.9
X6.3Y8.093
Z-13F500
X7.083Y7.2F1000
X7.1Y7.182
X7.182Y7.1
X7.2Y7.083
X9.918Y4.7
X10Y4.629
X10.036Y4.6
X10.1Y4.553
X13.172Y2.5
X13.2Y2.482
X13.3Y2.424
X13.348Y2.4
X16.6Y0.796
X16.7Y0.75
X16.8Y0.711
X20.2Y-0.442
X20.3Y-0.475
X20.384Y-0.5
X20.4Y-0.503
X20.5Y-0.524
X24Y-1.221
X24.1Y-1.24
X24.2Y-1.253
X24.3Y-1.26
X27.9Y-1.496
X28Y-1.5
X28.1Y-1.496
X31.7Y-1.26
X31.8Y-1.253
X31.9Y-1.24
X32Y-1.221
X35.5Y-0.524
X35.6Y-0.503
X35.615Y-0.5
X35.7Y-0.475
X39.2Y0.711
X39.3Y0.75
X39.406Y0.8
X42.651Y2.4
X42.7Y2.424
X42.8Y2.482
X42.827Y2.5
X45.82Y4.5
X45.9Y4.553
X45.963Y4.6
X46Y4.629
X46.1Y4.715
X48.8Y7.083
X48.817Y7.1
X48.9Y7.182
X48.916Y7.2
X51.3Y9.918
X51.37Y10
X51.4Y10.036
X51.446Y10.1
X53.5Y13.172
X53.517Y13.2
X53.575Y13.3
X53.6Y13.348
X55.203Y16.6
X55.249Y16.7
X55.288Y16.8
X56.442Y20.2
X56.475Y20.3
X56.5Y20.384
X56.503Y20.4
X56.524Y20.5
X57.221Y24
X57.24Y24.1
X57.253Y24.2
X57.26Y24.3
X57.496Y27.9
X57.5Y28
X57.496Y28.1
X57.26Y31.7
X57.253Y31.8
X57.24Y31.9
X57.221Y32
X56.524Y35.5
X56.503Y35.6
X56.5Y35.615
X56.475Y35.7
X55.288Y39.2
X55.249Y39.3
X55.2Y39.406
X53.6Y42.651
X53.575Y42.7
X53.517Y42.8
X53.5Y42.827
X51.5Y45.82
X51.446Y45.9
X51.4Y45.963
X51.37Y46
X51.284Y46.1
X48.916Y48.8
X48.9Y48.817
X48.817Y48.9
X48.8Y48.916
X46.081Y51.3
X46Y51.37
X45.963Y51.4
X45.9Y51.446
X42.827Y53.5
X42.8Y53.517
X42.7Y53.575
X42.651Y53.6
X39.4Y55.203
X39.3Y55.249
X39.2Y55.288
X35.8Y56.442
X35.7Y56.475
X35.615Y56.5
X35.6Y56.503
X35.5Y56.524
X32Y57.221
X31.9Y57.24
X31.8Y57.253
X31.7Y57.26
X28.1Y57.496
X27.999Y57.5
X27.9Y57.496
X24.3Y57.26
X24.2Y57.253
X24.1Y57.24
X24Y57.221
X20.5Y56.524
X20.4Y56.503
X20.384Y56.5
X20.3Y56.475
X16.8Y55.288
X16.7Y55.249
X16.593Y55.2
X13.348Y53.6
X13.3Y53.575
X13.2Y53.517
X13.172Y53.5
X10.179Y51.5
X10.1Y51.446
X10.036Y51.4
X10Y51.37
X9.9Y51.284
X7.2Y48.916
X7.182Y48.9
X7.1Y48.817
X7.083Y48.8
X4.7Y46.081
X4.629Y46
X4.6Y45.963
X4.553Y45.9
X2.5Y42.827
X2.482Y42.8
X2.424Y42.7
X2.4Y42.651
X0.796Y39.4
X0.75Y39.3
X0.711Y39.2
X-0.442Y35.8
X-0.475Y35.7
X-0.5Y35.615
X-0.503Y35.6
X-0.524Y35.5
X-1.221Y32
X-1.24Y31.9
X-1.253Y31.8
X-1.26Y31.7
X-1.496Y28.1
X-1.5Y27.999
X-1.496Y27.9
X-1.26Y24.3
X-1.253Y24.2
X-1.24Y24.1
X-1.221Y24
X-0.524Y20.5
X-0.503Y20.4
X-0.5Y20.384
X-0.475Y20.3
X0.711Y16.8
X0.75Y16.7
X0.8Y16.593
X2.4Y13.348
X2.424Y13.3
X2.482Y13.2
X2.5Y13.172
X4.5Y10.179
X4.553Y10.1
X4.6Y10.036
X4.629Y10
X4.715Y9.9
X6.3Y8.093
G0Z10
X20.558Y20.6
G1Z-13F500
X19.681Y21.6F1000
X19.612Y21.7
X18.944Y22.7
X18.9Y22.77
X18.343Y23.9
X18.3Y23.989
X17.889Y25.2
X17.857Y25.3
X17.598Y26.6
X17.588Y26.7
X17.503Y28
X17.588Y29.3
X17.598Y29.4
X17.857Y30.7
X17.889Y30.8
X18.3Y32.01
X18.343Y32.099
X18.9Y33.229
X18.944Y33.3
X19.612Y34.299
X19.681Y34.4
X20.558Y35.399
X20.6Y35.441
X21.6Y36.318
X21.7Y36.387
X22.7Y37.055
X22.77Y37.1
X23.9Y37.656
X23.989Y37.7
X25.2Y38.11
X25.3Y38.142
X26.6Y38.401
X26.7Y38.411
X28Y38.496
X29.3Y38.411
X29.4Y38.401
X30.7Y38.142
X30.8Y38.11
X32.01Y37.7
X32.099Y37.656
X33.229Y37.1
X33.3Y37.055
X34.299Y36.387
X34.4Y36.318
X35.399Y35.441
X35.441Y35.399
X36.318Y34.4
X36.387Y34.299
X37.055Y33.3
X37.1Y33.229
X37.656Y32.099
X37.7Y32.01
X38.11Y30.8
X38.142Y30.7
X38.401Y29.4
X38.411Y29.3
X38.496Y28
X38.411Y26.7
X38.401Y26.6
X38.142Y25.3
X38.11Y25.2
X37.7Y23.989
X37.656Y23.9
X37.1Y22.77
X37.055Y22.7
X36.387Y21.7
X36.318Y21.6
X35.441Y20.6
X35.399Y20.558
X34.4Y19.681
X34.299Y19.612
X33.3Y18.944
X33.229Y18.9
X32.099Y18.343
X32.01Y18.3
X30.8Y17.889
X30.7Y17.857
X29.4Y17.598
X29.3Y17.588
X28Y17.503
X26.7Y17.588
X26.6Y17.598
X25.3Y17.857
X25.2Y17.889
X23.989Y18.3
X23.9Y18.343
X22.77Y18.9
X22.7Y18.944
X21.7Y19.612
X21.6Y19.681
X20.6Y20.558
X20.558Y20.6
Z-14F500
X19.681Y21.6F1000
X19.612Y21.7
X18.944Y22.7
X18.9Y22.77
X18.343Y23.9
X18.3Y23.989
X17.889Y25.2
X17.857Y25.3
X17.598Y26.6
X17.588Y26.7
X17.503Y28
X17.588Y29.3
X17.598Y29.4
X17.857Y30.7
X17.889Y30.8
X18.3Y32.01
X18.343Y32.099
X18.9Y33.229
X18.944Y33.3
X19.612Y34.299
X19.681Y34.4
X20.558Y35.399
X20.6Y35.441
X21.6Y36.318
X21.7Y36.387
X22.7Y37.055
X22.77Y37.1
X23.9Y37.656
X23.989Y37.7
X25.2Y38.11
X25.3Y38.142
X26.6Y38.401
X26.7Y38.411
X28Y38.496
X29.3Y38.411
X29.4Y38.401
X30.7Y38.142
X30.8Y38.11
X32.01Y37.7
X32.099Y37.656
X33.229Y37.1
X33.3Y37.055
X34.299Y36.387
X34.4Y36.318
X35.399Y35.441
X35.441Y35.399
X36.318Y34.4
X36.387Y34.299
X37.055Y33.3
X37.1Y33.229
X37.656Y32.099
X37.7Y32.01
X38.11Y30.8
X38.142Y30.7
X38.401Y29.4
X38.411Y29.3
X38.496Y28
X38.411Y26.7
X38.401Y26.6
X38.142Y25.3
X38.11Y25.2
X37.7Y23.989
X37.656Y23.9
X37.1Y22.77
X37.055Y22.7
X36.387Y21.7
X36.318Y21.6
X35.441Y20.6
X35.399Y20.558
X34.4Y19.681
X34.299Y19.612
X33.3Y18.944
X33.229Y18.9
X32.099Y18.343
X32.01Y18.3
X30.8Y17.889
X30.7Y17.857
X29.4Y17.598
X29.3Y17.588
X28Y17.503
X26.7Y17.588
X26.6Y17.598
X25.3Y17.857
X25.2Y17.889
X23.989Y18.3
X23.9Y18.343
X22.77Y18.9
X22.7Y18.944
X21.7Y19.612
X21.6Y19.681
X20.6Y20.558
X20.558Y20.6
G0Z10
X6.3Y8.093
G1Z-14F500
X7.083Y7.2F1000
X7.1Y7.182
X7.182Y7.1
X7.2Y7.083
X9.918Y4.7
X10Y4.629
X10.036Y4.6
X10.1Y4.553
X13.172Y2.5
X13.2Y2.482
X13.3Y2.424
X13.348Y2.4
X16.6Y0.796
X16.7Y0.75
X16.8Y0.711
X20.2Y-0.442
X20.3Y-0.475
X20.384Y-0.5
X20.4Y-0.503
X20.5Y-0.524
X24Y-1.221
X24.1Y-1.24
X24.2Y-1.253
X24.3Y-1.26
X27.9Y-1.496
X28Y-1.5
X28.1Y-1.496
X31.7Y-1.26
X31.8Y-1.253
X31.9Y-1.24
X32Y-1.221
X35.5Y-0.524
X35.6Y-0.503
X35.615Y-0.5
X35.7Y-0.475
X39.2Y0.711
X39.3Y0.75
X39.406Y0.8
X42.651Y2.4
X42.7Y2.424
X42.8Y2.482
X42.827Y2.5
X45.82Y4.5
X45.9Y4.553
X45.963Y4.6
X46Y4.629
X46.1Y4.715
X48.8Y7.083
X48.817Y7.1
X48.9Y7.182
X48.916Y7.2
X51.3Y9.918
X51.37Y10
X51.4Y10.036
X51.446Y10.1
X53.5Y13.172
X53.517Y13.2
X53.575Y13.3
X53.6Y13.348
X55.203Y16.6
X55.249Y16.7
X55.288Y16.8
X56.442Y20.2
X56.475Y20.3
X56.5Y20.384
X56.503Y20.4
X56.524Y20.5
X57.221Y24
X57.24Y24.1
X57.253Y24.2
X57.26Y24.3
X57.496Y27.9
X57.5Y28
X57.496Y28.1
X57.26Y31.7
X57.253Y31.8
X57.24Y31.9
X57.221Y32
X56.524Y35.5
X56.503Y35.6
X56.5Y35.615
X56.475Y35.7
X55.288Y39.2
X55.249Y39.3
X55.2Y39.406
X53.6Y42.651
X53.575Y42.7
X53.517Y42.8
X53.5Y42.827
X51.5Y45.82
X51.446Y45.9
X51.4Y45.963
X51.37Y46
X51.284Y46.1
X48.916Y48.8
X48.9Y48.817
X48.817Y48.9
X48.8Y48.916
X46.081Y51.3
X46Y51.37
X45.963Y51.4
X45.9Y51.446
X42.827Y53.5
X42.8Y53.517
X42.7Y53.575
X42.651Y53.6
X39.4Y55.203
X39.3Y55.249
X39.2Y55.288
X35.8Y56.442
X35.7Y56.475
X35.615Y56.5
X35.6Y56.503
X35.5Y56.524
X32Y57.221
X31.9Y57.24
X31.8Y57.253
X31.7Y57.26
X28.1Y57.496
X27.999Y57.5
X27.9Y57.496
X24.3Y57.26
X24.2Y57.253
X24.1Y57.24
X24Y57.221
X20.5Y56.524
X20.4Y56.503
X20.384Y56.5
X20.3Y56.475
X16.8Y55.288
X16.7Y55.249
X16.593Y55.2
X13.348Y53.6
X13.3Y53.575
X13.2Y53.517
X13.172Y53.5
X10.179Y51.5
X10.1Y51.446
X10.036Y51.4
X10Y51.37
X9.9Y51.284
X7.2Y48.916
X7.182Y48.9
X7.1Y48.817
X7.083Y48.8
X4.7Y46.081
X4.629Y46
X4.6Y45.963
X4.553Y45.9
X2.5Y42.827
X2.482Y42.8
X2.424Y42.7
X2.4Y42.651
X0.796Y39.4
X0.75Y39.3
X0.711Y39.2
X-0.442Y35.8
X-0.475Y35.7
X-0.5Y35.615
X-0.503Y35.6
X-0.524Y35.5
X-1.221Y32
X-1.24Y31.9
X-1.253Y31.8
X-1.26Y31.7
X-1.496Y28.1
X-1.5Y27.999
X-1.496Y27.9
X-1.26Y24.3
X-1.253Y24.2
X-1.24Y24.1
X-1.221Y24
X-0.524Y20.5
X-0.503Y20.4
X-0.5Y20.384
X-0.475Y20.3
X0.711Y16.8
X0.75Y16.7
X0.8Y16.593
X2.4Y13.348
X2.424Y13.3
X2.482Y13.2
X2.5Y13.172
X4.5Y10.179
X4.553Y10.1
X4.6Y10.036
X4.629Y10
X4.715Y9.9
X6.3Y8.093
Z-15F500
X7.083Y7.2F1000
X7.1Y7.182
X7.182Y7.1
X7.2Y7.083
X9.918Y4.7
X10Y4.629
X10.036Y4.6
X10.1Y4.553
X13.172Y2.5
X13.2Y2.482
X13.3Y2.424
X13.348Y2.4
X16.6Y0.796
X16.7Y0.75
X16.8Y0.711
X20.2Y-0.442
X20.3Y-0.475
X20.384Y-0.5
X20.4Y-0.503
X20.5Y-0.524
X24Y-1.221
X24.1Y-1.24
X24.2Y-1.253
X24.3Y-1.26
X27.9Y-1.496
X28Y-1.5
X28.1Y-1.496
X31.7Y-1.26
X31.8Y-1.253
X31.9Y-1.24
X32Y-1.221
X35.5Y-0.524
X35.6Y-0.503
X35.615Y-0.5
X35.7Y-0.475
X39.2Y0.711
X39.3Y0.75
X39.406Y0.8
X42.651Y2.4
X42.7Y2.424
X42.8Y2.482
X42.827Y2.5
X45.82Y4.5
X45.9Y4.553
X45.963Y4.6
X46Y4.629
X46.1Y4.715
X48.8Y7.083
X48.817Y7.1
X48.9Y7.182
X48.916Y7.2
X51.3Y9.918
X51.37Y10
X51.4Y10.036
X51.446Y10.1
X53.5Y13.172
X53.517Y13.2
X53.575Y13.3
X53.6Y13.348
X55.203Y16.6
X55.249Y16.7
X55.288Y16.8
X56.442Y20.2
X56.475Y20.3
X56.5Y20.384
X56.503Y20.4
X56.524Y20.5
X57.221Y24
X57.24Y24.1
X57.253Y24.2
X57.26Y24.3
X57.496Y27.9
X57.5Y28
X57.496Y28.1
X57.26Y31.7
X57.253Y31.8
X57.24Y31.9
X57.221Y32
X56.524Y35.5
X56.503Y35.6
X56.5Y35.615
X56.475Y35.7
X55.288Y39.2
X55.249Y39.3
X55.2Y39.406
X53.6Y42.651
X53.575Y42.7
X53.517Y42.8
X53.5Y42.827
X51.5Y45.82
X51.446Y45.9
X51.4Y45.963
X51.37Y46
X51.284Y46.1
X48.916Y48.8
X48.9Y48.817
X48.817Y48.9
X48.8Y48.916
X46.081Y51.3
X46Y51.37
X45.963Y51.4
X45.9Y51.446
X42.827Y53.5
X42.8Y53.517
X42.7Y53.575
X42.651Y53.6
X39.4Y55.203
X39.3Y55.249
X39.2Y55.288
X35.8Y56.442
X35.7Y56.475
X35.615Y56.5
X35.6Y56.503
X35.5Y56.524
X32Y57.221
X31.9Y57.24
X31.8Y57.253
X31.7Y57.26
X28.1Y57.496
X27.999Y57.5
X27.9Y57.496
X24.3Y57.26
X24.2Y57.253
X24.1Y57.24
X24Y57.221
X20.5Y56.524
X20.4Y56.503
X20.384Y56.5
X20.3Y56.475
X16.8Y55.288
X16.7Y55.249
X16.593Y55.2
X13.348Y53.6
X13.3Y53.575
X13.2Y53.517
X13.172Y53.5
X10.179Y51.5
X10.1Y51.446
X10.036Y51.4
X10Y51.37
X9.9Y51.284
X7.2Y48.916
X7.182Y48.9
X7.1Y48.817
X7.083Y48.8
X4.7Y46.081
X4.629Y46
X4.6Y45.963
X4.553Y45.9
X2.5Y42.827
X2.482Y42.8
X2.424Y42.7
X2.4Y42.651
X0.796Y39.4
X0.75Y39.3
X0.711Y39.2
X-0.442Y35.8
X-0.475Y35.7
X-0.5Y35.615
X-0.503Y35.6
X-0.524Y35.5
X-1.221Y32
X-1.24Y31.9
X-1.253Y31.8
X-1.26Y31.7
X-1.496Y28.1
X-1.5Y27.999
X-1.496Y27.9
X-1.26Y24.3
X-1.253Y24.2
X-1.24Y24.1
X-1.221Y24
X-0.524Y20.5
X-0.503Y20.4
X-0.5Y20.384
X-0.475Y20.3
X0.711Y16.8
X0.75Y16.7
X0.8Y16.593
X2.4Y13.348
X2.424Y13.3
X2.482Y13.2
X2.5Y13.172
X4.5Y10.179
X4.553Y10.1
X4.6Y10.036
X4.629Y10
X4.715Y9.9
X6.3Y8.093
G0Z10
X20.558Y20.6
G1Z-15F500
X19.681Y21.6F1000
X19.612Y21.7
X18.944Y22.7
X18.9Y22.77
X18.343Y23.9
X18.3Y23.989
X17.889Y25.2
X17.857Y25.3
X17.598Y26.6
X17.588Y26.7
X17.503Y28
X17.588Y29.3
X17.598Y29.4
X17.857Y30.7
X17.889Y30.8
X18.3Y32.01
X18.343Y32.099
X18.9Y33.229
X18.944Y33.3
X19.612Y34.299
X19.681Y34.4
X20.558Y35.399
X20.6Y35.441
X21.6Y36.318
X21.7Y36.387
X22.7Y37.055
X22.77Y37.1
X23.9Y37.656
X23.989Y37.7
X25.2Y38.11
X25.3Y38.142
X26.6Y38.401
X26.7Y38.411
X28Y38.496
X29.3Y38.411
X29.4Y38.401
X30.7Y38.142
X30.8Y38.11
X32.01Y37.7
X32.099Y37.656
X33.229Y37.1
X33.3Y37.055
X34.299Y36.387
X34.4Y36.318
X35.399Y35.441
X35.441Y35.399
X36.318Y34.4
X36.387Y34.299
X37.055Y33.3
X37.1Y33.229
X37.656Y32.099
X37.7Y32.01
X38.11Y30.8
X38.142Y30.7
X38.401Y29.4
X38.411Y29.3
X38.496Y28
X38.411Y26.7
X38.401Y26.6
X38.142Y25.3
X38.11Y25.2
X37.7Y23.989
X37.656Y23.9
X37.1Y22.77
X37.055Y22.7
X36.387Y21.7
X36.318Y21.6
X35.441Y20.6
X35.399Y20.558
X34.4Y19.681
X34.299Y19.612
X33.3Y18.944
X33.229Y18.9
X32.099Y18.343
X32.01Y18.3
X30.8Y17.889
X30.7Y17.857
X29.4Y17.598
X29.3Y17.588
X28Y17.503
X26.7Y17.588
X26.6Y17.598
X25.3Y17.857
X25.2Y17.889
X23.989Y18.3
X23.9Y18.343
X22.77Y18.9
X22.7Y18.944
X21.7Y19.612
X21.6Y19.681
X20.6Y20.558
X20.558Y20.6
Z-16F500
X19.681Y21.6F1000
X19.612Y21.7
X18.944Y22.7
X18.9Y22.77
X18.343Y23.9
X18.3Y23.989
X17.889Y25.2
X17.857Y25.3
X17.598Y26.6
X17.588Y26.7
X17.503Y28
X17.588Y29.3
X17.598Y29.4
X17.857Y30.7
X17.889Y30.8
X18.3Y32.01
X18.343Y32.099
X18.9Y33.229
X18.944Y33.3
X19.612Y34.299
X19.681Y34.4
X20.558Y35.399
X20.6Y35.441
X21.6Y36.318
X21.7Y36.387
X22.7Y37.055
X22.77Y37.1
X23.9Y37.656
X23.989Y37.7
X25.2Y38.11
X25.3Y38.142
X26.6Y38.401
X26.7Y38.411
X28Y38.496
X29.3Y38.411
X29.4Y38.401
X30.7Y38.142
X30.8Y38.11
X32.01Y37.7
X32.099Y37.656
X33.229Y37.1
X33.3Y37.055
X34.299Y36.387
X34.4Y36.318
X35.399Y35.441
X35.441Y35.399
X36.318Y34.4
X36.387Y34.299
X37.055Y33.3
X37.1Y33.229
X37.656Y32.099
X37.7Y32.01
X38.11Y30.8
X38.142Y30.7
X38.401Y29.4
X38.411Y29.3
X38.496Y28
X38.411Y26.7
X38.401Y26.6
X38.142Y25.3
X38.11Y25.2
X37.7Y23.989
X37.656Y23.9
X37.1Y22.77
X37.055Y22.7
X36.387Y21.7
X36.318Y21.6
X35.441Y20.6
X35.399Y20.558
X34.4Y19.681
X34.299Y19.612
X33.3Y18.944
X33.229Y18.9
X32.099Y18.343
X32.01Y18.3
X30.8Y17.889
X30.7Y17.857
X29.4Y17.598
X29.3Y17.588
X28Y17.503
X26.7Y17.588
X26.6Y17.598
X25.3Y17.857
X25.2Y17.889
X23.989Y18.3
X23.9Y18.343
X22.77Y18.9
X22.7Y18.944
X21.7Y19.612
X21.6Y19.681
X20.6Y20.558
X20.558Y20.6
G0Z10
X6.3Y8.093
G1Z-16F500
X7.083Y7.2F1000
X7.1Y7.182
X7.182Y7.1
X7.2Y7.083
X9.918Y4.7
X10Y4.629
X10.036Y4.6
X10.1Y4.553
X13.172Y2.5
X13.2Y2.482
X13.3Y2.424
X13.348Y2.4
X16.6Y0.796
X16.7Y0.75
X16.8Y0.711
X20.2Y-0.442
X20.3Y-0.475
X20.384Y-0.5
X20.4Y-0.503
X20.5Y-0.524
X24Y-1.221
X24.1Y-1.24
X24.2Y-1.253
X24.3Y-1.26
X27.9Y-1.496
X28Y-1.5
X28.1Y-1.496
X31.7Y-1.26
X31.8Y-1.253
X31.9Y-1.24
X32Y-1.221
X35.5Y-0.524
X35.6Y-0.503
X35.615Y-0.5
X35.7Y-0.475
X39.2Y0.711
X39.3Y0.75
X39.406Y0.8
X42.651Y2.4
X42.7Y2.424
X42.8Y2.482
X42.827Y2.5
X45.82Y4.5
X45.9Y4.553
X45.963Y4.6
X46Y4.629
X46.1Y4.715
X48.8Y7.083
X48.817Y7.1
X48.9Y7.182
X48.916Y7.2
X51.3Y9.918
X51.37Y10
X51.4Y10.036
X51.446Y10.1
X53.5Y13.172
X53.517Y13.2
X53.575Y13.3
X53.6Y13.348
X55.203Y16.6
X55.249Y16.7
X55.288Y16.8
X56.442Y20.2
X56.475Y20.3
X56.5Y20.384
X56.503Y20.4
X56.524Y20.5
X57.221Y24
X57.24Y24.1
X57.253Y24.2
X57.26Y24.3
X57.496Y27.9
X57.5Y28
X57.496Y28.1
X57.26Y31.7
X57.253Y31.8
X57.24Y31.9
X57.221Y32
X56.524Y35.5
X56.503Y35.6
X56.5Y35.615
X56.475Y35.7
X55.288Y39.2
X55.249Y39.3
X55.2Y39.406
X53.6Y42.651
X53.575Y42.7
X53.517Y42.8
X53.5Y42.827
X51.5Y45.82
X51.446Y45.9
X51.4Y45.963
X51.37Y46
X51.284Y46.1
X48.916Y48.8
X48.9Y48.817
X48.817Y48.9
X48.8Y48.916
X46.081Y51.3
X46Y51.37
X45.963Y51.4
X45.9Y51.446
X42.827Y53.5
X42.8Y53.517
X42.7Y53.575
X42.651Y53.6
X39.4Y55.203
X39.3Y55.249
X39.2Y55.288
X35.8Y56.442
X35.7Y56.475
X35.615Y56.5
X35.6Y56.503
X35.5Y56.524
X32Y57.221
X31.9Y57.24
X31.8Y57.253
X31.7Y57.26
X28.1Y57.496
X27.999Y57.5
X27.9Y57.496
X24.3Y57.26
X24.2Y57.253
X24.1Y57.24
X24Y57.221
X20.5Y56.524
X20.4Y56.503
X20.384Y56.5
X20.3Y56.475
X16.8Y55.288
X16.7Y55.249
X16.593Y55.2
X13.348Y53.6
X13.3Y53.575
X13.2Y53.517
X13.172Y53.5
X10.179Y51.5
X10.1Y51.446
X10.036Y51.4
X10Y51.37
X9.9Y51.284
X7.2Y48.916
X7.182Y48.9
X7.1Y48.817
X7.083Y48.8
X4.7Y46.081
X4.629Y46
X4.6Y45.963
X4.553Y45.9
X2.5Y42.827
X2.482Y42.8
X2.424Y42.7
X2.4Y42.651
X0.796Y39.4
X0.75Y39.3
X0.711Y39.2
X-0.442Y35.8
X-0.475Y35.7
X-0.5Y35.615
X-0.503Y35.6
X-0.524Y35.5
X-1.221Y32
X-1.24Y31.9
X-1.253Y31.8
X-1.26Y31.7
X-1.496Y28.1
X-1.5Y27.999
X-1.496Y27.9
X-1.26Y24.3
X-1.253Y24.2
X-1.24Y24.1
X-1.221Y24
X-0.524Y20.5
X-0.503Y20.4
X-0.5Y20.384
X-0.475Y20.3
X0.711Y16.8
X0.75Y16.7
X0.8Y16.593
X2.4Y13.348
X2.424Y13.3
X2.482Y13.2
X2.5Y13.172
X4.5Y10.179
X4.553Y10.1
X4.6Y10.036
X4.629Y10
X4.715Y9.9
X6.3Y8.093
Z-17F500
X7.083Y7.2F1000
X7.1Y7.182
X7.182Y7.1
X7.2Y7.083
X9.918Y4.7
X10Y4.629
X10.036Y4.6
X10.1Y4.553
X13.172Y2.5
X13.2Y2.482
X13.3Y2.424
X13.348Y2.4
X16.6Y0.796
X16.7Y0.75
X16.8Y0.711
X20.2Y-0.442
X20.3Y-0.475
X20.384Y-0.5
X20.4Y-0.503
X20.5Y-0.524
X24Y-1.221
X24.1Y-1.24
X24.2Y-1.253
X24.3Y-1.26
X27.9Y-1.496
X28Y-1.5
X28.1Y-1.496
X31.7Y-1.26
X31.8Y-1.253
X31.9Y-1.24
X32Y-1.221
X35.5Y-0.524
X35.6Y-0.503
X35.615Y-0.5
X35.7Y-0.475
X39.2Y0.711
X39.3Y0.75
X39.406Y0.8
X42.651Y2.4
X42.7Y2.424
X42.8Y2.482
X42.827Y2.5
X45.82Y4.5
X45.9Y4.553
X45.963Y4.6
X46Y4.629
X46.1Y4.715
X48.8Y7.083
X48.817Y7.1
X48.9Y7.182
X48.916Y7.2
X51.3Y9.918
X51.37Y10
X51.4Y10.036
X51.446Y10.1
X53.5Y13.172
X53.517Y13.2
X53.575Y13.3
X53.6Y13.348
X55.203Y16.6
X55.249Y16.7
X55.288Y16.8
X56.442Y20.2
X56.475Y20.3
X56.5Y20.384
X56.503Y20.4
X56.524Y20.5
X57.221Y24
X57.24Y24.1
X57.253Y24.2
X57.26Y24.3
X57.496Y27.9
X57.5Y28
X57.496Y28.1
X57.26Y31.7
X57.253Y31.8
X57.24Y31.9
X57.221Y32
X56.524Y35.5
X56.503Y35.6
X56.5Y35.615
X56.475Y35.7
X55.288Y39.2
X55.249Y39.3
X55.2Y39.406
X53.6Y42.651
X53.575Y42.7
X53.517Y42.8
X53.5Y42.827
X51.5Y45.82
X51.446Y45.9
X51.4Y45.963
X51.37Y46
X51.284Y46.1
X48.916Y48.8
X48.9Y48.817
X48.817Y48.9
X48.8Y48.916
X46.081Y51.3
X46Y51.37
X45.963Y51.4
X45.9Y51.446
X42.827Y53.5
X42.8Y53.517
X42.7Y53.575
X42.651Y53.6
X39.4Y55.203
X39.3Y55.249
X39.2Y55.288
X35.8Y56.442
X35.7Y56.475
X35.615Y56.5
X35.6Y56.503
X35.5Y56.524
X32Y57.221
X31.9Y57.24
X31.8Y57.253
X31.7Y57.26
X28.1Y57.496
X27.999Y57.5
X27.9Y57.496
X24.3Y57.26
X24.2Y57.253
X24.1Y57.24
X24Y57.221
X20.5Y56.524
X20.4Y56.503
X20.384Y56.5
X20.3Y56.475
X16.8Y55.288
X16.7Y55.249
X16.593Y55.2
X13.348Y53.6
X13.3Y53.575
X13.2Y53.517
X13.172Y53.5
X10.179Y51.5
X10.1Y51.446
X10.036Y51.4
X10Y51.37
X9.9Y51.284
X7.2Y48.916
X7.182Y48.9
X7.1Y48.817
X7.083Y48.8
X4.7Y46.081
X4.629Y46
X4.6Y45.963
X4.553Y45.9
X2.5Y42.827
X2.482Y42.8
X2.424Y42.7
X2.4Y42.651
X0.796Y39.4
X0.75Y39.3
X0.711Y39.2
X-0.442Y35.8
X-0.475Y35.7
X-0.5Y35.615
X-0.503Y35.6
X-0.524Y35.5
X-1.221Y32
X-1.24Y31.9
X-1.253Y31.8
X-1.26Y31.7
X-1.496Y28.1
X-1.5Y27.999
X-1.496Y27.9
X-1.26Y24.3
X-1.253Y24.2
X-1.24Y24.1
X-1.221Y24
X-0.524Y20.5
X-0.503Y20.4
X-0.5Y20.384
X-0.475Y20.3
X0.711Y16.8
X0.75Y16.7
X0.8Y16.593
X2.4Y13.348
X2.424Y13.3
X2.482Y13.2
X2.5Y13.172
X4.5Y10.179
X4.553Y10.1
X4.6Y10.036
X4.629Y10
X4.715Y9.9
X6.3Y8.093
G0Z10
X20.558Y20.6
G1Z-17F500
X19.681Y21.6F1000
X19.612Y21.7
X18.944Y22.7
X18.9Y22.77
X18.343Y23.9
X18.3Y23.989
X17.889Y25.2
X17.857Y25.3
X17.598Y26.6
X17.588Y26.7
X17.503Y28
X17.588Y29.3
X17.598Y29.4
X17.857Y30.7
X17.889Y30.8
X18.3Y32.01
X18.343Y32.099
X18.9Y33.229
X18.944Y33.3
X19.612Y34.299
X19.681Y34.4
X20.558Y35.399
X20.6Y35.441
X21.6Y36.318
X21.7Y36.387
X22.7Y37.055
X22.77Y37.1
X23.9Y37.656
X23.989Y37.7
X25.2Y38.11
X25.3Y38.142
X26.6Y38.401
X26.7Y38.411
X28Y38.496
X29.3Y38.411
X29.4Y38.401
X30.7Y38.142
X30.8Y38.11
X32.01Y37.7
X32.099Y37.656
X33.229Y37.1
X33.3Y37.055
X34.299Y36.387
X34.4Y36.318
X35.399Y35.441
X35.441Y35.399
X36.318Y34.4
X36.387Y34.299
X37.055Y33.3
X37.1Y33.229
X37.656Y32.099
X37.7Y32.01
X38.11Y30.8
X38.142Y30.7
X38.401Y29.4
X38.411Y29.3
X38.496Y28
X38.411Y26.7
X38.401Y26.6
X38.142Y25.3
X38.11Y25.2
X37.7Y23.989
X37.656Y23.9
X37.1Y22.77
X37.055Y22.7
X36.387Y21.7
X36.318Y21.6
X35.441Y20.6
X35.399Y20.558
X34.4Y19.681
X34.299Y19.612
X33.3Y18.944
X33.229Y18.9
X32.099Y18.343
X32.01Y18.3
X30.8Y17.889
X30.7Y17.857
X29.4Y17.598
X29.3Y17.588
X28Y17.503
X26.7Y17.588
X26.6Y17.598
X25.3Y17.857
X25.2Y17.889
X23.989Y18.3
X23.9Y18.343
X22.77Y18.9
X22.7Y18.944
X21.7Y19.612
X21.6Y19.681
X20.6Y20.558
X20.558Y20.6
Z-18F500
X19.681Y21.6F1000
X19.612Y21.7
X18.944Y22.7
X18.9Y22.77
X18.343Y23.9
X18.3Y23.989
X17.889Y25.2
X17.857Y25.3
X17.598Y26.6
X17.588Y26.7
X17.503Y28
X17.588Y29.3
X17.598Y29.4
X17.857Y30.7
X17.889Y30.8
X18.3Y32.01
X18.343Y32.099
X18.9Y33.229
X18.944Y33.3
X19.612Y34.299
X19.681Y34.4
X20.558Y35.399
X20.6Y35.441
X21.6Y36.318
X21.7Y36.387
X22.7Y37.055
X22.77Y37.1
X23.9Y37.656
X23.989Y37.7
X25.2Y38.11
X25.3Y38.142
X26.6Y38.401
X26.7Y38.411
X28Y38.496
X29.3Y38.411
X29.4Y38.401
X30.7Y38.142
X30.8Y38.11
X32.01Y37.7
X32.099Y37.656
X33.229Y37.1
X33.3Y37.055
X34.299Y36.387
X34.4Y36.318
X35.399Y35.441
X35.441Y35.399
X36.318Y34.4
X36.387Y34.299
X37.055Y33.3
X37.1Y33.229
X37.656Y32.099
X37.7Y32.01
X38.11Y30.8
X38.142Y30.7
X38.401Y29.4
X38.411Y29.3
X38.496Y28
X38.411Y26.7
X38.401Y26.6
X38.142Y25.3
X38.11Y25.2
X37.7Y23.989
X37.656Y23.9
X37.1Y22.77
X37.055Y22.7
X36.387Y21.7
X36.318Y21.6
X35.441Y20.6
X35.399Y20.558
X34.4Y19.681
X34.299Y19.612
X33.3Y18.944
X33.229Y18.9
X32.099Y18.343
X32.01Y18.3
X30.8Y17.889
X30.7Y17.857
X29.4Y17.598
X29.3Y17.588
X28Y17.503
X26.7Y17.588
X26.6Y17.598
X25.3Y17.857
X25.2Y17.889
X23.989Y18.3
X23.9Y18.343
X22.77Y18.9
X22.7Y18.944
X21.7Y19.612
X21.6Y19.681
X20.6Y20.558
X20.558Y20.6
G0Z10
X6.3Y8.093
G1Z-18F500
X7.083Y7.2F1000
X7.1Y7.182
X7.182Y7.1
X7.2Y7.083
X9.918Y4.7
X10Y4.629
X10.036Y4.6
X10.1Y4.553
X13.172Y2.5
X13.2Y2.482
X13.3Y2.424
X13.348Y2.4
X16.6Y0.796
X16.7Y0.75
X16.8Y0.711
X20.2Y-0.442
X20.3Y-0.475
X20.384Y-0.5
X20.4Y-0.503
X20.5Y-0.524
X24Y-1.221
X24.1Y-1.24
X24.2Y-1.253
X24.3Y-1.26
X27.9Y-1.496
X28Y-1.5
X28.1Y-1.496
X31.7Y-1.26
X31.8Y-1.253
X31.9Y-1.24
X32Y-1.221
X35.5Y-0.524
X35.6Y-0.503
X35.615Y-0.5
X35.7Y-0.475
X39.2Y0.711
X39.3Y0.75
X39.406Y0.8
X42.651Y2.4
X42.7Y2.424
X42.8Y2.482
X42.827Y2.5
X45.82Y4.5
X45.9Y4.553
X45.963Y4.6
X46Y4.629
X46.1Y4.715
X48.8Y7.083
X48.817Y7.1
X48.9Y7.182
X48.916Y7.2
X51.3Y9.918
X51.37Y10
X51.4Y10.036
X51.446Y10.1
X53.5Y13.172
X53.517Y13.2
X53.575Y13.3
X53.6Y13.348
X55.203Y16.6
X55.249Y16.7
X55.288Y16.8
X56.442Y20.2
X56.475Y20.3
X56.5Y20.384
X56.503Y20.4
X56.524Y20.5
X57.221Y24
X57.24Y24.1
X57.253Y24.2
X57.26Y24.3
X57.496Y27.9
X57.5Y28
X57.496Y28.1
X57.26Y31.7
X57.253Y31.8
X57.24Y31.9
X57.221Y32
X56.524Y35.5
X56.503Y35.6
X56.5Y35.615
X56.475Y35.7
X55.288Y39.2
X55.249Y39.3
X55.2Y39.406
X53.6Y42.651
X53.575Y42.7
X53.517Y42.8
X53.5Y42.827
X51.5Y45.82
X51.446Y45.9
X51.4Y45.963
X51.37Y46
X51.284Y46.1
X48.916Y48.8
X48.9Y48.817
X48.817Y48.9
X48.8Y48.916
X46.081Y51.3
X46Y51.37
X45.963Y51.4
X45.9Y51.446
X42.827Y53.5
X42.8Y53.517
X42.7Y53.575
X42.651Y53.6
X39.4Y55.203
X39.3Y55.249
X39.2Y55.288
X35.8Y56.442
X35.7Y56.475
X35.615Y56.5
X35.6Y56.503
X35.5Y56.524
X32Y57.221
X31.9Y57.24
X31.8Y57.253
X31.7Y57.26
X28.1Y57.496
X27.999Y57.5
X27.9Y57.496
X24.3Y57.26
X24.2Y57.253
X24.1Y57.24
X24Y57.221
X20.5Y56.524
X20.4Y56.503
X20.384Y56.5
X20.3Y56.475
X16.8Y55.288
X16.7Y55.249
X16.593Y55.2
X13.348Y53.6
X13.3Y53.575
X13.2Y53.517
X13.172Y53.5
X10.179Y51.5
X10.1Y51.446
X10.036Y51.4
X10Y51.37
X9.9Y51.284
X7.2Y48.916
X7.182Y48.9
X7.1Y48.817
X7.083Y48.8
X4.7Y46.081
X4.629Y46
X4.6Y45.963
X4.553Y45.9
X2.5Y42.827
X2.482Y42.8
X2.424Y42.7
X2.4Y42.651
X0.796Y39.4
X0.75Y39.3
X0.711Y39.2
X-0.442Y35.8
X-0.475Y35.7
X-0.5Y35.615
X-0.503Y35.6
X-0.524Y35.5
X-1.221Y32
X-1.24Y31.9
X-1.253Y31.8
X-1.26Y31.7
X-1.496Y28.1
X-1.5Y27.999
X-1.496Y27.9
X-1.26Y24.3
X-1.253Y24.2
X-1.24Y24.1
X-1.221Y24
X-0.524Y20.5
X-0.503Y20.4
X-0.5Y20.384
X-0.475Y20.3
X0.711Y16.8
X0.75Y16.7
X0.8Y16.593
X2.4Y13.348
X2.424Y13.3
X2.482Y13.2
X2.5Y13.172
X4.5Y10.179
X4.553Y10.1
X4.6Y10.036
X4.629Y10
X4.715Y9.9
X6.3Y8.093
Z-18.1F500
X7.083Y7.2F1000
X7.1Y7.182
X7.182Y7.1
X7.2Y7.083
X9.918Y4.7
X10Y4.629
X10.036Y4.6
X10.1Y4.553
X13.172Y2.5
X13.2Y2.482
X13.3Y2.424
X13.348Y2.4
X16.6Y0.796
X16.7Y0.75
X16.8Y0.711
X20.2Y-0.442
X20.3Y-0.475
X20.384Y-0.5
X20.4Y-0.503
X20.5Y-0.524
X24Y-1.221
X24.1Y-1.24
X24.2Y-1.253
X24.3Y-1.26
X27.9Y-1.496
X28Y-1.5
X28.1Y-1.496
X31.7Y-1.26
X31.8Y-1.253
X31.9Y-1.24
X32Y-1.221
X35.5Y-0.524
X35.6Y-0.503
X35.615Y-0.5
X35.7Y-0.475
X39.2Y0.711
X39.3Y0.75
X39.406Y0.8
X42.651Y2.4
X42.7Y2.424
X42.8Y2.482
X42.827Y2.5
X45.82Y4.5
X45.9Y4.553
X45.963Y4.6
X46Y4.629
X46.1Y4.715
X48.8Y7.083
X48.817Y7.1
X48.9Y7.182
X48.916Y7.2
X51.3Y9.918
X51.37Y10
X51.4Y10.036
X51.446Y10.1
X53.5Y13.172
X53.517Y13.2
X53.575Y13.3
X53.6Y13.348
X55.203Y16.6
X55.249Y16.7
X55.288Y16.8
X56.442Y20.2
X56.475Y20.3
X56.5Y20.384
X56.503Y20.4
X56.524Y20.5
X57.221Y24
X57.24Y24.1
X57.253Y24.2
X57.26Y24.3
X57.496Y27.9
X57.5Y28
X57.496Y28.1
X57.26Y31.7
X57.253Y31.8
X57.24Y31.9
X57.221Y32
X56.524Y35.5
X56.503Y35.6
X56.5Y35.615
X56.475Y35.7
X55.288Y39.2
X55.249Y39.3
X55.2Y39.406
X53.6Y42.651
X53.575Y42.7
X53.517Y42.8
X53.5Y42.827
X51.5Y45.82
X51.446Y45.9
X51.4Y45.963
X51.37Y46
X51.284Y46.1
X48.916Y48.8
X48.9Y48.817
X48.817Y48.9
X48.8Y48.916
X46.081Y51.3
X46Y51.37
X45.963Y51.4
X45.9Y51.446
X42.827Y53.5
X42.8Y53.517
X42.7Y53.575
X42.651Y53.6
X39.4Y55.203
X39.3Y55.249
X39.2Y55.288
X35.8Y56.442
X35.7Y56.475
X35.615Y56.5
X35.6Y56.503
X35.5Y56.524
X32Y57.221
X31.9Y57.24
X31.8Y57.253
X31.7Y57.26
X28.1Y57.496
X27.999Y57.5
X27.9Y57.496
X24.3Y57.26
X24.2Y57.253
X24.1Y57.24
X24Y57.221
X20.5Y56.524
X20.4Y56.503
X20.384Y56.5
X20.3Y56.475
X16.8Y55.288
X16.7Y55.249
X16.593Y55.2
X13.348Y53.6
X13.3Y53.575
X13.2Y53.517
X13.172Y53.5
X10.179Y51.5
X10.1Y51.446
X10.036Y51.4
X10Y51.37
X9.9Y51.284
X7.2Y48.916
X7.182Y48.9
X7.1Y48.817
X7.083Y48.8
X4.7Y46.081
X4.629Y46
X4.6Y45.963
X4.553Y45.9
X2.5Y42.827
X2.482Y42.8
X2.424Y42.7
X2.4Y42.651
X0.796Y39.4
X0.75Y39.3
X0.711Y39.2
X-0.442Y35.8
X-0.475Y35.7
X-0.5Y35.615
X-0.503Y35.6
X-0.524Y35.5
X-1.221Y32
X-1.24Y31.9
X-1.253Y31.8
X-1.26Y31.7
X-1.496Y28.1
X-1.5Y27.999
X-1.496Y27.9
X-1.26Y24.3
X-1.253Y24.2
X-1.24Y24.1
X-1.221Y24
X-0.524Y20.5
X-0.503Y20.4
X-0.5Y20.384
X-0.475Y20.3
X0.711Y16.8
X0.75Y16.7
X0.8Y16.593
X2.4Y13.348
X2.424Y13.3
X2.482Y13.2
X2.5Y13.172
X4.5Y10.179
X4.553Y10.1
X4.6Y10.036
X4.629Y10
X4.715Y9.9
X6.3Y8.093
G0Z10
X20.558Y20.6
G1Z-18.1F500
X19.681Y21.6F1000
X19.612Y21.7
X18.944Y22.7
X18.9Y22.77
X18.343Y23.9
X18.3Y23.989
X17.889Y25.2
X17.857Y25.3
X17.598Y26.6
X17.588Y26.7
X17.503Y28
X17.588Y29.3
X17.598Y29.4
X17.857Y30.7
X17.889Y30.8
X18.3Y32.01
X18.343Y32.099
X18.9Y33.229
X18.944Y33.3
X19.612Y34.299
X19.681Y34.4
X20.558Y35.399
X20.6Y35.441
X21.6Y36.318
X21.7Y36.387
X22.7Y37.055
X22.77Y37.1
X23.9Y37.656
X23.989Y37.7
X25.2Y38.11
X25.3Y38.142
X26.6Y38.401
X26.7Y38.411
X28Y38.496
X29.3Y38.411
X29.4Y38.401
X30.7Y38.142
X30.8Y38.11
X32.01Y37.7
X32.099Y37.656
X33.229Y37.1
X33.3Y37.055
X34.299Y36.387
X34.4Y36.318
X35.399Y35.441
X35.441Y35.399
X36.318Y34.4
X36.387Y34.299
X37.055Y33.3
X37.1Y33.229
X37.656Y32.099
X37.7Y32.01
X38.11Y30.8
X38.142Y30.7
X38.401Y29.4
X38.411Y29.3
X38.496Y28
X38.411Y26.7
X38.401Y26.6
X38.142Y25.3
X38.11Y25.2
X37.7Y23.989
X37.656Y23.9
X37.1Y22.77
X37.055Y22.7
X36.387Y21.7
X36.318Y21.6
X35.441Y20.6
X35.399Y20.558
X34.4Y19.681
X34.299Y19.612
X33.3Y18.944
X33.229Y18.9
X32.099Y18.343
X32.01Y18.3
X30.8Y17.889
X30.7Y17.857
X29.4Y17.598
X29.3Y17.588
X28Y17.503
X26.7Y17.588
X26.6Y17.598
X25.3Y17.857
X25.2Y17.889
X23.989Y18.3
X23.9Y18.343
X22.77Y18.9
X22.7Y18.944
X21.7Y19.612
X21.6Y19.681
X20.6Y20.558
X20.558Y20.6
G0Z10
 
