(Created with grbl post processor 2024/01/26 13:45)
G21
(G-code generated with BlenderCAM and NC library)
G17G90
(Tool: D = 3.0 mm  type END flutes 2)
S12000M03
G00 Z2.0

G0X0Y0Z2
X-68Y8
G1Z-3.1F500
Y-7.999F1000
G0Z2
X-66Y-17.999
G1Z-3.1F500
Y18F1000
G0Z2
X-64Y24
G1Z-3.1F500
Y-23.999F1000
G0Z2
X-62Y-28.999
G1Z-3.1F500
Y29F1000
X-60Y33
Y-32.999
X-58Y-35.999
Y36
X-56Y39
Y-38.999
X-54Y-41.999
Y42
X-52Y44
Y-43.999
X-50Y-45.999
Y46
X-48Y48
Y-47.999
X-46Y-49.999
Y50
X-44Y52
Y-51.999
X-42Y-53.999
Y54
X-40Y55
Y-54.999
X-38Y-55.999
Y56
X-36Y58
Y-57.999
X-34Y-58.999
Y59
X-32Y60
Y-59.999
X-30Y-60.999
Y61
X-28Y62
Y-61.999
X-26Y-62.999
Y63
X-24Y64
Y-63.999
X-22
Y64
X-20Y65
Y-64.999
X-18Y-65.999
Y66
X-16
Y-65.999
X-14Y-66.999
Y67
X-12
Y-66.999
X-10
Y67
X-8Y68
Y-67.999
X-6
Y68
X-4
Y-67.999
X-2
Y68
X0
Y-67.999
X2
Y68
X4
Y-67.999
X6
Y68
X8
Y-67.999
X10Y-66.999
Y67
X12
Y-66.999
X14
Y67
X16Y66
Y-65.999
X18
Y66
X20Y65
Y-64.999
X22Y-63.999
Y64
X24
Y-63.999
X26Y-62.999
Y63
X28Y62
Y-61.999
X30Y-60.999
Y61
X32Y60
Y-59.999
X34Y-58.999
Y59
X36Y58
Y-57.999
X38Y-55.999
Y56
X40Y55
Y-54.999
X42Y-53.999
Y54
X44Y52
Y-51.999
X46Y-49.999
Y50
X48Y48
Y-47.999
X50Y-45.999
Y46
X52Y44
Y-43.999
X54Y-41.999
Y42
X56Y39
Y-38.999
X58Y-35.999
Y36
X60Y33
Y-32.999
X62Y-28.999
Y29
G0Z2
X64Y24
G1Z-3.1F500
Y-23.999F1000
G0Z2
X66Y-17.999
G1Z-3.1F500
Y18F1000
G0Z2
X68Y8
G1Z-3.1F500
Y-7.999F1000
G0Z2
X-68Y8
G1Z-6.1F500
Y-7.999F1000
G0Z2
X-66Y-17.999
G1Z-6.1F500
Y18F1000
G0Z2
X-64Y24
G1Z-6.1F500
Y-23.999F1000
G0Z2
X-62Y-28.999
G1Z-6.1F500
Y29F1000
X-60Y33
Y-32.999
X-58Y-35.999
Y36
X-56Y39
Y-38.999
X-54Y-41.999
Y42
X-52Y44
Y-43.999
X-50Y-45.999
Y46
X-48Y48
Y-47.999
X-46Y-49.999
Y50
X-44Y52
Y-51.999
X-42Y-53.999
Y54
X-40Y55
Y-54.999
X-38Y-55.999
Y56
X-36Y58
Y-57.999
X-34Y-58.999
Y59
X-32Y60
Y-59.999
X-30Y-60.999
Y61
X-28Y62
Y-61.999
X-26Y-62.999
Y63
X-24Y64
Y-63.999
X-22
Y64
X-20Y65
Y-64.999
X-18Y-65.999
Y66
X-16
Y-65.999
X-14Y-66.999
Y67
X-12
Y-66.999
X-10
Y67
X-8Y68
Y-67.999
X-6
Y68
X-4
Y-67.999
X-2
Y68
X0
Y-67.999
X2
Y68
X4
Y-67.999
X6
Y68
X8
Y-67.999
X10Y-66.999
Y67
X12
Y-66.999
X14
Y67
X16Y66
Y-65.999
X18
Y66
X20Y65
Y-64.999
X22Y-63.999
Y64
X24
Y-63.999
X26Y-62.999
Y63
X28Y62
Y-61.999
X30Y-60.999
Y61
X32Y60
Y-59.999
X34Y-58.999
Y59
X36Y58
Y-57.999
X38Y-55.999
Y56
X40Y55
Y-54.999
X42Y-53.999
Y54
X44Y52
Y-51.999
X46Y-49.999
Y50
X48Y48
Y-47.999
X50Y-45.999
Y46
X52Y44
Y-43.999
X54Y-41.999
Y42
X56Y39
Y-38.999
X58Y-35.999
Y36
X60Y33
Y-32.999
X62Y-28.999
Y29
G0Z2
X64Y24
G1Z-6.1F500
Y-23.999F1000
G0Z2
X66Y-17.999
G1Z-6.1F500
Y18F1000
G0Z2
X68Y8
G1Z-6.1F500
Y-7.999F1000
G0Z2
X-68Y8
G1Z-6.835F500
Y-7.999F1000
G0Z2
X-66Y-17.999
G1Z-6.835F500
Y18F1000
G0Z2
X-64Y24
G1Z-6.835F500
Y-23.999F1000
G0Z2
X-62Y-28.999
G1Z-6.835F500
Y29F1000
G0Z2
X-60Y33
G1Z-6.82F500
Y32Z-6.835F1000
Y-32.999
X-58Y-35.999
Y36
X-56Y39
Y-38.999
X-54Y-41.999
Y42
X-52Y44
Y-43.999
X-50Y-45.999
Y46
X-48Y48
Y-47.999
X-46Y-49.999
Y50
X-44Y52
Y-51.999
X-42Y-53.999
Y53
Y54Z-6.823
G0Z2
X-40Y55
G1Z-6.835F500
Y-54.999F1000
X-38Y-55.999
Y56
X-36Y58
Y-57.999
X-34Y-58.999
Y59
X-32Y60
Y-59.999
X-30Y-60.999
Y61
X-28Y62
Y-61.999
X-26Y-62.999
Y63
X-24Y64
Y-63.999
X-22
Y64
X-20Y65
Y-64.999
X-18Y-65.999
Y65
Y66Z-6.823
G0Z2
X-16
G1Z-6.835F500
Y-65.999F1000
X-14Y-66.999
Y66
Y67Z-6.823
G0Z2
X-12
G1Z-6.835F500
Y-66.999F1000
X-10
Y67
G0Z2
X-8Y68
G1Z-6.823F500
Y67Z-6.835F1000
Y-67.999
X-6
Y68
X-4
Y-67.999
X-2
Y68
X0
Y-67.999
X2
Y68
X4
Y-67.999
X6
Y68
G0Z2
X8
G1Z-6.823F500
Y67Z-6.835F1000
Y-67.999
X10Y-66.999
Y67
X12
Y-66.999
X14
Y66
Y67Z-6.823
G0Z2
X16Y66
G1Z-6.835F500
Y-65.999F1000
X18
Y65
Y66Z-6.823
G0Z2
X20Y65
G1Z-6.835F500
Y-64.999F1000
X22Y-63.999
Y64
X24
Y-63.999
X26Y-62.999
Y63
X28Y62
Y-61.999
X30Y-60.999
Y61
X32Y60
Y-59.999
X34Y-58.999
Y59
X36Y58
Y-57.999
X38Y-55.999
Y56
X40Y55
Y-54.999
X42Y-53.999
Y53
Y54Z-6.823
G0Z2
X44Y52
G1Z-6.835F500
Y-51.999F1000
X46Y-49.999
Y50
X48Y48
Y-47.999
X50Y-45.999
Y46
X52Y44
Y-43.999
G0Z2
X54Y-41.999
G1Z-6.835F500
Y-40.999F1000
Y41
Y42
G0Z2
X56Y39
G1Z-6.835F500
Y-38.999F1000
X58Y-35.999
Y36
G0Z2
X60Y33
G1Z-6.819F500
Y32Z-6.835F1000
Y-31.999
Y-32.999
G0Z2
X62Y-28.999
G1Z-6.835F500
Y-27.999F1000
Y28
Y29
G0Z2
X64Y24
G1Z-6.835F500
Y-23.999F1000
G0Z2
X66Y-17.999
G1Z-6.835F500
Y-16.999F1000
Y17
Y18
G0Z2
X68Y8
G1Z-6.834F500
Y7Z-6.835F1000
Y-6.999
Y-7.999Z-6.834
G0Z2
 
