(Created with grbl post processor 2024/12/13 12:46)
G21
(G-code Generated with Fabex and NC library)
G17G90
(Tool: D = 3.0 mm  type END flutes 2)
S12000M03
G00 Z10.0

G0X0Y0Z10
X-98Y-98.398
G1Z0F500
Y98.402F1000
G0Z10
X-97Y-98.398
G1Z0F500
Y98.402F1000
G0Z10
X-96Y-98.398
G1Z0F500
Y98.402F1000
G0Z10
X-95Y-98.398
G1Z0F500
Y98.402F1000
G0Z10
X-94Y-98.398
G1Z0F500
Y98.402F1000
G0Z10
X-93Y-98.398
G1Z0F500
Y98.402F1000
G0Z10
X-92Y-98.398
G1Z0F500
Y98.402F1000
G0Z10
X-91Y-98.398
G1Z0F500
Y98.402F1000
G0Z10
X-90Y-98.398
G1Z0F500
Y98.402F1000
G0Z10
X-89Y-98.398
G1Z0F500
Y98.402F1000
G0Z10
X-88Y-98.398
G1Z0F500
Y98.402F1000
G0Z10
X-87Y-98.398
G1Z0F500
Y98.402F1000
G0Z10
X-86Y-98.398
G1Z0F500
Y98.402F1000
G0Z10
X-85Y-98.398
G1Z0F500
Y98.402F1000
G0Z10
X-84Y-98.398
G1Z0F500
Y98.402F1000
G0Z10
X-83Y-98.398
G1Z0F500
Y98.402F1000
G0Z10
X-82Y-98.398
G1Z0F500
Y98.402F1000
G0Z10
X-81Y-98.398
G1Z0F500
Y98.402F1000
G0Z10
X-80Y-98.398
G1Z0F500
Y98.402F1000
G0Z10
X-79Y-98.398
G1Z0F500
Y98.402F1000
G0Z10
X-78Y-98.398
G1Z0F500
Y98.402F1000
G0Z10
X-77Y-98.398
G1Z0F500
Y98.402F1000
G0Z10
X-76Y-98.398
G1Z0F500
Y98.402F1000
G0Z10
X-75Y-98.398
G1Z0F500
Y98.402F1000
G0Z10
X-74Y-98.398
G1Z0F500
Y98.402F1000
G0Z10
X-73Y-98.398
G1Z0F500
Y98.402F1000
G0Z10
X-72Y-98.398
G1Z0F500
Y98.402F1000
G0Z10
X-71Y-98.398
G1Z0F500
Y98.402F1000
G0Z10
X-70Y-98.398
G1Z0F500
Y98.402F1000
G0Z10
X-69Y-98.398
G1Z0F500
Y98.402F1000
G0Z10
X-68Y-98.398
G1Z0F500
Y-8.197F1000
Y-8.053Z-5F500
Y8.057F1000
Y8.202Z0
Y98.402
G0Z10
X-67Y-98.398
G1Z0F500
Y-14.197F1000
Y-14.053Z-5F500
Y14.057F1000
Y14.202Z0
Y98.402
G0Z10
X-66Y-98.398
G1Z0F500
Y-18.397F1000
Y-18.253Z-5F500
Y18.257F1000
Y18.402Z0
Y98.402
G0Z10
X-65Y-98.398
G1Z0F500
Y-21.597F1000
Y-21.453Z-5F500
Y21.457F1000
Y21.602Z0
Y98.402
G0Z10
X-64Y-98.398
G1Z0F500
Y-24.397F1000
Y-24.253Z-5F500
Y24.257F1000
Y24.402Z0
Y98.402
G0Z10
X-63Y-98.398
G1Z0F500
Y-26.997F1000
Y-26.853Z-5F500
Y26.857F1000
Y27.002Z0
Y98.402
G0Z10
X-62Y-98.398
G1Z0F500
Y-29.197F1000
Y-29.053Z-5F500
Y29.057F1000
Y29.202Z0
Y98.402
G0Z10
X-61Y-98.398
G1Z0F500
Y-31.197F1000
Y-31.053Z-5F500
Y31.057F1000
Y31.202Z0
Y98.402
G0Z10
X-60Y-98.398
G1Z0F500
Y-33.197F1000
Y-33.053Z-5F500
Y33.057F1000
Y33.202Z0
Y98.402
G0Z10
X-59Y-98.398
G1Z0F500
Y-34.797F1000
Y-34.653Z-5F500
Y34.657F1000
Y34.802Z0
Y98.402
G0Z10
X-58Y-98.398
G1Z0F500
Y-36.597F1000
Y-36.453Z-5F500
Y36.457F1000
Y36.602Z0
Y98.402
G0Z10
X-57Y-98.398
G1Z0F500
Y-37.997F1000
Y-37.853Z-5F500
Y37.857F1000
Y38.002Z0
Y98.402
G0Z10
X-56Y-98.398
G1Z0F500
Y-39.597F1000
Y-39.453Z-5F500
Y39.457F1000
Y39.602Z0
Y98.402
G0Z10
X-55Y-98.398
G1Z0F500
Y-40.997F1000
Y-40.853Z-5F500
Y40.857F1000
Y41.002Z0
Y98.402
G0Z10
X-54Y-98.398
G1Z0F500
Y-42.197F1000
Y-42.053Z-5F500
Y42.057F1000
Y42.202Z0
Y98.402
G0Z10
X-53Y-98.398
G1Z0F500
Y-43.397F1000
Y-43.253Z-5F500
Y43.257F1000
Y43.402Z0
Y98.402
G0Z10
X-52Y-98.398
G1Z0F500
Y-44.597F1000
Y-44.453Z-5F500
Y44.457F1000
Y44.602Z0
Y98.402
G0Z10
X-51Y-98.398
G1Z0F500
Y-45.797F1000
Y-45.653Z-5F500
Y45.657F1000
Y45.802Z0
Y98.402
G0Z10
X-50Y-98.398
G1Z0F500
Y-46.797F1000
Y-46.653Z-5F500
Y46.657F1000
Y46.802Z0
Y98.402
G0Z10
X-49Y-98.398
G1Z0F500
Y-47.997F1000
Y-47.853Z-5F500
Y47.857F1000
Y48.002Z0
Y98.402
G0Z10
X-48Y-98.398
G1Z0F500
Y-48.997F1000
Y-48.853Z-5F500
Y48.857F1000
Y49.002Z0
Y98.402
G0Z10
X-47Y-98.398
G1Z0F500
Y-49.997F1000
Y-49.853Z-5F500
Y49.857F1000
Y50.002Z0
Y98.402
G0Z10
X-46Y-98.398
G1Z0F500
Y-50.797F1000
Y-50.653Z-5F500
Y50.657F1000
Y50.802Z0
Y98.402
G0Z10
X-45Y-98.398
G1Z0F500
Y-51.797F1000
Y-51.653Z-5F500
Y51.657F1000
Y51.802Z0
Y98.402
G0Z10
X-44Y-98.398
G1Z0F500
Y-52.597F1000
Y-52.453Z-5F500
Y52.457F1000
Y52.602Z0
Y98.402
G0Z10
X-43Y-98.398
G1Z0F500
Y-53.397F1000
Y-53.253Z-5F500
Y53.257F1000
Y53.402Z0
Y98.402
G0Z10
X-42Y-98.398
G1Z0F500
Y-54.197F1000
Y-54.053Z-5F500
Y54.057F1000
Y54.202Z0
Y98.402
G0Z10
X-41Y-98.398
G1Z0F500
Y-54.997F1000
Y-54.853Z-5F500
Y54.857F1000
Y55.002Z0
Y98.402
G0Z10
X-40Y-98.398
G1Z0F500
Y-55.597F1000
Y-55.453Z-5F500
Y55.457F1000
Y55.602Z0
Y98.402
G0Z10
X-39Y-98.398
G1Z0F500
Y-56.397F1000
Y-56.253Z-5F500
Y56.257F1000
Y56.402Z0
Y98.402
G0Z10
X-38Y-98.398
G1Z0F500
Y-56.997F1000
Y-56.853Z-5F500
Y56.857F1000
Y57.002Z0
Y98.402
G0Z10
X-37Y-98.398
G1Z0F500
Y-57.797F1000
Y-57.653Z-5F500
Y57.657F1000
Y57.802Z0
Y98.402
G0Z10
X-36Y-98.398
G1Z0F500
Y-58.397F1000
Y-58.253Z-5F500
Y58.257F1000
Y58.402Z0
Y98.402
G0Z10
X-35Y-98.398
G1Z0F500
Y-58.997F1000
Y-58.853Z-5F500
Y58.857F1000
Y59.002Z0
Y98.402
G0Z10
X-34Y-98.398
G1Z0F500
Y-59.597F1000
Y-59.452Z-5F500
Y59.457F1000
Y59.602Z0
Y98.402
G0Z10
X-33Y-98.398
G1Z0F500
Y-60.197F1000
Y-60.052Z-5F500
Y60.057F1000
Y60.202Z0
Y98.402
G0Z10
X-32Y-98.398
G1Z0F500
Y-60.597F1000
Y-60.452Z-5F500
Y60.457F1000
Y60.602Z0
Y98.402
G0Z10
X-31Y-98.398
G1Z0F500
Y-61.197F1000
Y-61.052Z-5F500
Y61.057F1000
Y61.202Z0
Y98.402
G0Z10
X-30Y-98.398
G1Z0F500
Y-61.597F1000
Y-61.452Z-5F500
Y61.457F1000
Y61.602Z0
Y98.402
G0Z10
X-29Y-98.398
G1Z0F500
Y-62.197F1000
Y-62.052Z-5F500
Y62.057F1000
Y62.202Z0
Y98.402
G0Z10
X-28Y-98.398
G1Z0F500
Y-62.597F1000
Y-62.452Z-5F500
Y62.457F1000
Y62.602Z0
Y98.402
G0Z10
X-27Y-98.398
G1Z0F500
Y-62.997F1000
Y-62.853Z-5F500
Y62.857F1000
Y63.002Z0
Y98.402
G0Z10
X-26Y-98.398
G1Z0F500
Y-63.397F1000
Y-63.253Z-5F500
Y63.257F1000
Y63.402Z0
Y98.402
G0Z10
X-25Y-98.398
G1Z0F500
Y-63.797F1000
Y-63.653Z-5F500
Y63.657F1000
Y63.802Z0
Y98.402
G0Z10
X-24Y-98.398
G1Z0F500
Y-64.197F1000
Y-64.053Z-5F500
Y64.057F1000
Y64.202Z0
Y98.402
G0Z10
X-23Y-98.398
G1Z0F500
Y-64.597F1000
Y-64.453Z-5F500
Y64.457F1000
Y64.602Z0
Y98.402
G0Z10
X-22Y-98.398
G1Z0F500
Y-64.997F1000
Y-64.853Z-5F500
Y64.857F1000
Y65.002Z0
Y98.402
G0Z10
X-21Y-98.398
G1Z0F500
Y-65.197F1000
Y-65.053Z-5F500
Y65.057F1000
Y65.202Z0
Y98.402
G0Z10
X-20Y-98.398
G1Z0F500
Y-65.597F1000
Y-65.453Z-5F500
Y65.457F1000
Y65.602Z0
Y98.402
G0Z10
X-19Y-98.398
G1Z0F500
Y-65.797F1000
Y-65.653Z-5F500
Y65.657F1000
Y65.802Z0
Y98.402
G0Z10
X-18Y-98.398
G1Z0F500
Y-66.197F1000
Y-66.053Z-5F500
Y66.057F1000
Y66.202Z0
Y98.402
G0Z10
X-17Y-98.398
G1Z0F500
Y-66.397F1000
Y-66.253Z-5F500
Y66.257F1000
Y66.402Z0
Y98.402
G0Z10
X-16Y-98.398
G1Z0F500
Y-66.597F1000
Y-66.453Z-5F500
Y66.457F1000
Y66.602Z0
Y98.402
G0Z10
X-15Y-98.398
G1Z0F500
Y-66.997F1000
Y-66.853Z-5F500
Y66.857F1000
Y67.002Z0
Y98.402
G0Z10
X-14Y-98.398
G1Z0F500
Y-67.197F1000
Y-67.053Z-5F500
Y67.057F1000
Y67.202Z0
Y98.402
G0Z10
X-13Y-98.398
G1Z0F500
Y-67.397F1000
Y-67.253Z-5F500
Y67.257F1000
Y67.402Z0
Y98.402
G0Z10
X-12Y-98.398
G1Z0F500
Y-67.597F1000
Y-67.453Z-5F500
Y67.457F1000
Y67.602Z0
Y98.402
G0Z10
X-11Y-98.398
G1Z0F500
Y-67.597F1000
Y-67.453Z-5F500
Y67.457F1000
Y67.602Z0
Y98.402
G0Z10
X-10Y-98.398
G1Z0F500
Y-67.797F1000
Y-67.653Z-5F500
Y67.657F1000
Y67.802Z0
Y98.402
G0Z10
X-9Y-98.398
G1Z0F500
Y-67.997F1000
Y-67.853Z-5F500
Y67.857F1000
Y68.002Z0
Y98.402
G0Z10
X-8Y-98.398
G1Z0F500
Y-68.197F1000
Y-68.053Z-5F500
Y68.057F1000
Y68.202Z0
Y98.402
G0Z10
X-7Y-98.398
G1Z0F500
Y-68.197F1000
Y-68.053Z-5F500
Y68.057F1000
Y68.202Z0
Y98.402
G0Z10
X-6Y-98.398
G1Z0F500
Y-68.397F1000
Y-68.253Z-5F500
Y68.257F1000
Y68.402Z0
Y98.402
G0Z10
X-5Y-98.398
G1Z0F500
Y-68.397F1000
Y-68.253Z-5F500
Y68.257F1000
Y68.402Z0
Y98.402
G0Z10
X-4Y-98.398
G1Z0F500
Y-68.397F1000
Y-68.253Z-5F500
Y68.257F1000
Y68.402Z0
Y98.402
G0Z10
X-3Y-98.398
G1Z0F500
Y-68.597F1000
Y-68.453Z-5F500
Y68.457F1000
Y68.602Z0
Y98.402
G0Z10
X-2Y-98.398
G1Z0F500
Y-68.597F1000
Y-68.453Z-5F500
Y68.457F1000
Y68.602Z0
Y98.402
G0Z10
X-1Y-98.398
G1Z0F500
Y-68.597F1000
Y-68.453Z-5F500
Y68.457F1000
Y68.602Z0
Y98.402
G0Z10
X0Y-98.398
G1Z0F500
Y-68.597F1000
Y-68.453Z-5F500
Y68.457F1000
Y68.602Z0
Y98.402
G0Z10
X1Y-98.398
G1Z0F500
Y-68.597F1000
Y-68.453Z-5F500
Y68.457F1000
Y68.602Z0
Y98.402
G0Z10
X2Y-98.398
G1Z0F500
Y-68.597F1000
Y-68.453Z-5F500
Y68.457F1000
Y68.602Z0
Y98.402
G0Z10
X3Y-98.398
G1Z0F500
Y-68.597F1000
Y-68.453Z-5F500
Y68.457F1000
Y68.602Z0
Y98.402
G0Z10
X4Y-98.398
G1Z0F500
Y-68.397F1000
Y-68.253Z-5F500
Y68.257F1000
Y68.402Z0
Y98.402
G0Z10
X5Y-98.398
G1Z0F500
Y-68.397F1000
Y-68.253Z-5F500
Y68.257F1000
Y68.402Z0
Y98.402
G0Z10
X6Y-98.398
G1Z0F500
Y-68.397F1000
Y-68.253Z-5F500
Y68.257F1000
Y68.402Z0
Y98.402
G0Z10
X7Y-98.398
G1Z0F500
Y-68.197F1000
Y-68.053Z-5F500
Y68.057F1000
Y68.202Z0
Y98.402
G0Z10
X8Y-98.398
G1Z0F500
Y-68.197F1000
Y-68.053Z-5F500
Y68.057F1000
Y68.202Z0
Y98.402
G0Z10
X9Y-98.398
G1Z0F500
Y-67.997F1000
Y-67.853Z-5F500
Y67.857F1000
Y68.002Z0
Y98.402
G0Z10
X10Y-98.398
G1Z0F500
Y-67.797F1000
Y-67.653Z-5F500
Y67.657F1000
Y67.802Z0
Y98.402
G0Z10
X11Y-98.398
G1Z0F500
Y-67.597F1000
Y-67.453Z-5F500
Y67.457F1000
Y67.602Z0
Y98.402
G0Z10
X12Y-98.398
G1Z0F500
Y-67.597F1000
Y-67.453Z-5F500
Y67.457F1000
Y67.602Z0
Y98.402
G0Z10
X13Y-98.398
G1Z0F500
Y-67.397F1000
Y-67.253Z-5F500
Y67.257F1000
Y67.402Z0
Y98.402
G0Z10
X14Y-98.398
G1Z0F500
Y-67.197F1000
Y-67.053Z-5F500
Y67.057F1000
Y67.202Z0
Y98.402
G0Z10
X15Y-98.398
G1Z0F500
Y-66.997F1000
Y-66.853Z-5F500
Y66.857F1000
Y67.002Z0
Y98.402
G0Z10
X16Y-98.398
G1Z0F500
Y-66.597F1000
Y-66.453Z-5F500
Y66.457F1000
Y66.602Z0
Y98.402
G0Z10
X17Y-98.398
G1Z0F500
Y-66.397F1000
Y-66.253Z-5F500
Y66.257F1000
Y66.402Z0
Y98.402
G0Z10
X18Y-98.398
G1Z0F500
Y-66.197F1000
Y-66.053Z-5F500
Y66.057F1000
Y66.202Z0
Y98.402
G0Z10
X19Y-98.398
G1Z0F500
Y-65.797F1000
Y-65.653Z-5F500
Y65.657F1000
Y65.802Z0
Y98.402
G0Z10
X20Y-98.398
G1Z0F500
Y-65.597F1000
Y-65.453Z-5F500
Y65.457F1000
Y65.602Z0
Y98.402
G0Z10
X21Y-98.398
G1Z0F500
Y-65.197F1000
Y-65.053Z-5F500
Y65.057F1000
Y65.202Z0
Y98.402
G0Z10
X22Y-98.398
G1Z0F500
Y-64.997F1000
Y-64.853Z-5F500
Y64.857F1000
Y65.002Z0
Y98.402
G0Z10
X23Y-98.398
G1Z0F500
Y-64.597F1000
Y-64.453Z-5F500
Y64.457F1000
Y64.602Z0
Y98.402
G0Z10
X24Y-98.398
G1Z0F500
Y-64.197F1000
Y-64.053Z-5F500
Y64.057F1000
Y64.202Z0
Y98.402
G0Z10
X25Y-98.398
G1Z0F500
Y-63.797F1000
Y-63.653Z-5F500
Y63.657F1000
Y63.802Z0
Y98.402
G0Z10
X26Y-98.398
G1Z0F500
Y-63.397F1000
Y-63.253Z-5F500
Y63.257F1000
Y63.402Z0
Y98.402
G0Z10
X27Y-98.398
G1Z0F500
Y-62.997F1000
Y-62.853Z-5F500
Y62.857F1000
Y63.002Z0
Y98.402
G0Z10
X28Y-98.398
G1Z0F500
Y-62.597F1000
Y-62.452Z-5F500
Y62.457F1000
Y62.602Z0
Y98.402
G0Z10
X29Y-98.398
G1Z0F500
Y-62.197F1000
Y-62.052Z-5F500
Y62.057F1000
Y62.202Z0
Y98.402
G0Z10
X30Y-98.398
G1Z0F500
Y-61.597F1000
Y-61.452Z-5F500
Y61.457F1000
Y61.602Z0
Y98.402
G0Z10
X31Y-98.398
G1Z0F500
Y-61.197F1000
Y-61.052Z-5F500
Y61.057F1000
Y61.202Z0
Y98.402
G0Z10
X32Y-98.398
G1Z0F500
Y-60.597F1000
Y-60.452Z-5F500
Y60.457F1000
Y60.602Z0
Y98.402
G0Z10
X33Y-98.398
G1Z0F500
Y-60.197F1000
Y-60.052Z-5F500
Y60.057F1000
Y60.202Z0
Y98.402
G0Z10
X34Y-98.398
G1Z0F500
Y-59.597F1000
Y-59.452Z-5F500
Y59.457F1000
Y59.602Z0
Y98.402
G0Z10
X35Y-98.398
G1Z0F500
Y-58.997F1000
Y-58.853Z-5F500
Y58.857F1000
Y59.002Z0
Y98.402
G0Z10
X36Y-98.398
G1Z0F500
Y-58.397F1000
Y-58.253Z-5F500
Y58.257F1000
Y58.402Z0
Y98.402
G0Z10
X37Y-98.398
G1Z0F500
Y-57.797F1000
Y-57.653Z-5F500
Y57.657F1000
Y57.802Z0
Y98.402
G0Z10
X38Y-98.398
G1Z0F500
Y-56.997F1000
Y-56.853Z-5F500
Y56.857F1000
Y57.002Z0
Y98.402
G0Z10
X39Y-98.398
G1Z0F500
Y-56.397F1000
Y-56.253Z-5F500
Y56.257F1000
Y56.402Z0
Y98.402
G0Z10
X40Y-98.398
G1Z0F500
Y-55.597F1000
Y-55.453Z-5F500
Y55.457F1000
Y55.602Z0
Y98.402
G0Z10
X41Y-98.398
G1Z0F500
Y-54.997F1000
Y-54.853Z-5F500
Y54.857F1000
Y55.002Z0
Y98.402
G0Z10
X42Y-98.398
G1Z0F500
Y-54.197F1000
Y-54.053Z-5F500
Y54.057F1000
Y54.202Z0
Y98.402
G0Z10
X43Y-98.398
G1Z0F500
Y-53.397F1000
Y-53.253Z-5F500
Y53.257F1000
Y53.402Z0
Y98.402
G0Z10
X44Y-98.398
G1Z0F500
Y-52.597F1000
Y-52.453Z-5F500
Y52.457F1000
Y52.602Z0
Y98.402
G0Z10
X45Y-98.398
G1Z0F500
Y-51.797F1000
Y-51.653Z-5F500
Y51.657F1000
Y51.802Z0
Y98.402
G0Z10
X46Y-98.398
G1Z0F500
Y-50.797F1000
Y-50.653Z-5F500
Y50.657F1000
Y50.802Z0
Y98.402
G0Z10
X47Y-98.398
G1Z0F500
Y-49.997F1000
Y-49.853Z-5F500
Y49.857F1000
Y50.002Z0
Y98.402
G0Z10
X48Y-98.398
G1Z0F500
Y-48.997F1000
Y-48.853Z-5F500
Y48.857F1000
Y49.002Z0
Y98.402
G0Z10
X49Y-98.398
G1Z0F500
Y-47.997F1000
Y-47.853Z-5F500
Y47.857F1000
Y48.002Z0
Y98.402
G0Z10
X50Y-98.398
G1Z0F500
Y-46.797F1000
Y-46.653Z-5F500
Y46.657F1000
Y46.802Z0
Y98.402
G0Z10
X51Y-98.398
G1Z0F500
Y-45.797F1000
Y-45.653Z-5F500
Y45.657F1000
Y45.802Z0
Y98.402
G0Z10
X52Y-98.398
G1Z0F500
Y-44.597F1000
Y-44.453Z-5F500
Y44.457F1000
Y44.602Z0
Y98.402
G0Z10
X53Y-98.398
G1Z0F500
Y-43.397F1000
Y-43.253Z-5F500
Y43.257F1000
Y43.402Z0
Y98.402
G0Z10
X54Y-98.398
G1Z0F500
Y-42.197F1000
Y-42.053Z-5F500
Y42.057F1000
Y42.202Z0
Y98.402
G0Z10
X55Y-98.398
G1Z0F500
Y-40.997F1000
Y-40.853Z-5F500
Y40.857F1000
Y41.002Z0
Y98.402
G0Z10
X56Y-98.398
G1Z0F500
Y-39.597F1000
Y-39.453Z-5F500
Y39.457F1000
Y39.602Z0
Y98.402
G0Z10
X57Y-98.398
G1Z0F500
Y-37.997F1000
Y-37.853Z-5F500
Y37.857F1000
Y38.002Z0
Y98.402
G0Z10
X58Y-98.398
G1Z0F500
Y-36.597F1000
Y-36.453Z-5F500
Y36.457F1000
Y36.602Z0
Y98.402
G0Z10
X59Y-98.398
G1Z0F500
Y-34.797F1000
Y-34.653Z-5F500
Y34.657F1000
Y34.802Z0
Y98.402
G0Z10
X60Y-98.398
G1Z0F500
Y-33.197F1000
Y-33.053Z-5F500
Y33.057F1000
Y33.202Z0
Y98.402
G0Z10
X61Y-98.398
G1Z0F500
Y-31.197F1000
Y-31.053Z-5F500
Y31.057F1000
Y31.202Z0
Y98.402
G0Z10
X62Y-98.398
G1Z0F500
Y-29.197F1000
Y-29.053Z-5F500
Y29.057F1000
Y29.202Z0
Y98.402
G0Z10
X63Y-98.398
G1Z0F500
Y-26.997F1000
Y-26.853Z-5F500
Y26.857F1000
Y27.002Z0
Y98.402
G0Z10
X64Y-98.398
G1Z0F500
Y-24.397F1000
Y-24.253Z-5F500
Y24.257F1000
Y24.402Z0
Y98.402
G0Z10
X65Y-98.398
G1Z0F500
Y-21.597F1000
Y-21.453Z-5F500
Y21.457F1000
Y21.602Z0
Y98.402
G0Z10
X66Y-98.398
G1Z0F500
Y-18.397F1000
Y-18.253Z-5F500
Y18.257F1000
Y18.402Z0
Y98.402
G0Z10
X67Y-98.398
G1Z0F500
Y-14.197F1000
Y-14.053Z-5F500
Y14.057F1000
Y14.202Z0
Y98.402
G0Z10
X68Y-98.398
G1Z0F500
Y-8.197F1000
Y-8.053Z-5F500
Y8.057F1000
Y8.202Z0
Y98.402
G0Z10
X69Y-98.398
G1Z0F500
Y98.402F1000
G0Z10
X70Y-98.398
G1Z0F500
Y98.402F1000
G0Z10
X71Y-98.398
G1Z0F500
Y98.402F1000
G0Z10
X72Y-98.398
G1Z0F500
Y98.402F1000
G0Z10
X73Y-98.398
G1Z0F500
Y98.402F1000
G0Z10
X74Y-98.398
G1Z0F500
Y98.402F1000
G0Z10
X75Y-98.398
G1Z0F500
Y98.402F1000
G0Z10
X76Y-98.398
G1Z0F500
Y98.402F1000
G0Z10
X77Y-98.398
G1Z0F500
Y98.402F1000
G0Z10
X78Y-98.398
G1Z0F500
Y98.402F1000
G0Z10
X79Y-98.398
G1Z0F500
Y98.402F1000
G0Z10
X80Y-98.398
G1Z0F500
Y98.402F1000
G0Z10
X81Y-98.398
G1Z0F500
Y98.402F1000
G0Z10
X82Y-98.398
G1Z0F500
Y98.402F1000
G0Z10
X83Y-98.398
G1Z0F500
Y98.402F1000
G0Z10
X84Y-98.398
G1Z0F500
Y98.402F1000
G0Z10
X85Y-98.398
G1Z0F500
Y98.402F1000
G0Z10
X86Y-98.398
G1Z0F500
Y98.402F1000
G0Z10
X87Y-98.398
G1Z0F500
Y98.402F1000
G0Z10
X88Y-98.398
G1Z0F500
Y98.402F1000
G0Z10
X89Y-98.398
G1Z0F500
Y98.402F1000
G0Z10
X90Y-98.398
G1Z0F500
Y98.402F1000
G0Z10
X91Y-98.398
G1Z0F500
Y98.402F1000
G0Z10
X92Y-98.398
G1Z0F500
Y98.402F1000
G0Z10
X93Y-98.398
G1Z0F500
Y98.402F1000
G0Z10
X94Y-98.398
G1Z0F500
Y98.402F1000
G0Z10
X95Y-98.398
G1Z0F500
Y98.402F1000
G0Z10
X96Y-98.398
G1Z0F500
Y98.402F1000
G0Z10
X97Y-98.398
G1Z0F500
Y98.402F1000
G0Z10
X98Y-98.398
G1Z0F500
Y98.402F1000
G0Z10
X-68Y-8.053
G1Z-5F500
Y-7.997Z-6.912
Y8.002F1000
Y8.057Z-5
G0Z10
X-67Y-14.053
G1Z-5F500
Y-13.997Z-6.912
Y14.002F1000
Y14.057Z-5
G0Z10
X-66Y-18.253
G1Z-5F500
Y-18.197Z-6.912
Y18.202F1000
Y18.257Z-5
G0Z10
X-65Y-21.453
G1Z-5F500
Y-21.397Z-6.912
Y21.402F1000
Y21.457Z-5
G0Z10
X-64Y-24.253
G1Z-5F500
Y-24.197Z-6.912
Y24.202F1000
Y24.257Z-5
G0Z10
X-63Y-26.853
G1Z-5F500
Y-26.797Z-6.912
Y26.802F1000
Y26.857Z-5
G0Z10
X-62Y-29.053
G1Z-5F500
Y-28.997Z-6.912
Y29.002F1000
Y29.057Z-5
G0Z10
X-61Y-31.053
G1Z-5F500
Y-30.997Z-6.912
Y31.002F1000
Y31.057Z-5
G0Z10
X-60Y-33.053
G1Z-5F500
Y-32.997Z-6.912
Y33.002F1000
Y33.057Z-5
G0Z10
X-59Y-34.653
G1Z-5F500
Y-34.597Z-6.912
Y34.602F1000
Y34.657Z-5
G0Z10
X-58Y-36.453
G1Z-5F500
Y-36.397Z-6.912
Y36.402F1000
Y36.457Z-5
G0Z10
X-57Y-37.853
G1Z-5F500
Y-37.797Z-6.912
Y37.802F1000
Y37.857Z-5
G0Z10
X-56Y-39.453
G1Z-5F500
Y-39.397Z-6.912
Y39.402F1000
Y39.457Z-5
G0Z10
X-55Y-40.853
G1Z-5F500
Y-40.797Z-6.912
Y40.802F1000
Y40.857Z-5
G0Z10
X-54Y-42.053
G1Z-5F500
Y-41.997Z-6.912
Y42.002F1000
Y42.057Z-5
G0Z10
X-53Y-43.253
G1Z-5F500
Y-43.197Z-6.912
Y43.202F1000
Y43.257Z-5
G0Z10
X-52Y-44.453
G1Z-5F500
Y-44.397Z-6.912
Y44.402F1000
Y44.457Z-5
G0Z10
X-51Y-45.653
G1Z-5F500
Y-45.597Z-6.912
Y45.602F1000
Y45.657Z-5
G0Z10
X-50Y-46.653
G1Z-5F500
Y-46.597Z-6.912
Y46.602F1000
Y46.657Z-5
G0Z10
X-49Y-47.853
G1Z-5F500
Y-47.797Z-6.912
Y47.802F1000
Y47.857Z-5
G0Z10
X-48Y-48.853
G1Z-5F500
Y-48.797Z-6.912
Y48.802F1000
Y48.857Z-5
G0Z10
X-47Y-49.853
G1Z-5F500
Y-49.797Z-6.912
Y49.802F1000
Y49.857Z-5
G0Z10
X-46Y-50.653
G1Z-5F500
Y-50.597Z-6.912
Y50.602F1000
Y50.657Z-5
G0Z10
X-45Y-51.653
G1Z-5F500
Y-51.597Z-6.912
Y51.602F1000
Y51.657Z-5
G0Z10
X-44Y-52.453
G1Z-5F500
Y-52.397Z-6.912
Y52.402F1000
Y52.457Z-5
G0Z10
X-43Y-53.253
G1Z-5F500
Y-53.197Z-6.912
Y53.202F1000
Y53.257Z-5
G0Z10
X-42Y-54.053
G1Z-5F500
Y-53.997Z-6.912
Y54.002F1000
Y54.057Z-5
G0Z10
X-41Y-54.853
G1Z-5F500
Y-54.797Z-6.912
Y54.802F1000
Y54.857Z-5
G0Z10
X-40Y-55.453
G1Z-5F500
Y-55.397Z-6.912
Y55.402F1000
Y55.457Z-5
G0Z10
X-39Y-56.253
G1Z-5F500
Y-56.197Z-6.912
Y56.202F1000
Y56.257Z-5
G0Z10
X-38Y-56.853
G1Z-5F500
Y-56.797Z-6.912
Y56.802F1000
Y56.857Z-5
G0Z10
X-37Y-57.653
G1Z-5F500
Y-57.597Z-6.912
Y57.602F1000
Y57.657Z-5
G0Z10
X-36Y-58.253
G1Z-5F500
Y-58.197Z-6.912
Y58.202F1000
Y58.257Z-5
G0Z10
X-35Y-58.853
G1Z-5F500
Y-58.797Z-6.912
Y58.802F1000
Y58.857Z-5
G0Z10
X-34Y-59.452
G1Z-5F500
Y-59.397Z-6.912
Y59.402F1000
Y59.457Z-5
G0Z10
X-33Y-60.052
G1Z-5F500
Y-59.997Z-6.912
Y60.002F1000
Y60.057Z-5
G0Z10
X-32Y-60.452
G1Z-5F500
Y-60.397Z-6.912
Y60.402F1000
Y60.457Z-5
G0Z10
X-31Y-61.052
G1Z-5F500
Y-60.997Z-6.912
Y61.002F1000
Y61.057Z-5
G0Z10
X-30Y-61.452
G1Z-5F500
Y-61.397Z-6.912
Y61.402F1000
Y61.457Z-5
G0Z10
X-29Y-62.052
G1Z-5F500
Y-61.997Z-6.912
Y62.002F1000
Y62.057Z-5
G0Z10
X-28Y-62.452
G1Z-5F500
Y-62.397Z-6.912
Y62.402F1000
Y62.457Z-5
G0Z10
X-27Y-62.853
G1Z-5F500
Y-62.797Z-6.912
Y62.802F1000
Y62.857Z-5
G0Z10
X-26Y-63.253
G1Z-5F500
Y-63.197Z-6.912
Y63.202F1000
Y63.257Z-5
G0Z10
X-25Y-63.653
G1Z-5F500
Y-63.597Z-6.912
Y63.602F1000
Y63.657Z-5
G0Z10
X-24Y-64.053
G1Z-5F500
Y-63.997Z-6.912
Y64.002F1000
Y64.057Z-5
G0Z10
X-23Y-64.453
G1Z-5F500
Y-64.397Z-6.912
Y64.402F1000
Y64.457Z-5
G0Z10
X-22Y-64.853
G1Z-5F500
Y-64.797Z-6.912
Y64.802F1000
Y64.857Z-5
G0Z10
X-21Y-65.053
G1Z-5F500
Y-64.997Z-6.912
Y65.002F1000
Y65.057Z-5
G0Z10
X-20Y-65.453
G1Z-5F500
Y-65.397Z-6.912
Y65.402F1000
Y65.457Z-5
G0Z10
X-19Y-65.653
G1Z-5F500
Y-65.597Z-6.912
Y65.602F1000
Y65.657Z-5
G0Z10
X-18Y-66.053
G1Z-5F500
Y-65.997Z-6.912
Y66.002F1000
Y66.057Z-5
G0Z10
X-17Y-66.253
G1Z-5F500
Y-66.197Z-6.912
Y66.202F1000
Y66.257Z-5
G0Z10
X-16Y-66.453
G1Z-5F500
Y-66.397Z-6.912
Y66.402F1000
Y66.457Z-5
G0Z10
X-15Y-66.853
G1Z-5F500
Y-66.797Z-6.912
Y66.802F1000
Y66.857Z-5
G0Z10
X-14Y-67.053
G1Z-5F500
Y-66.997Z-6.912
Y67.002F1000
Y67.057Z-5
G0Z10
X-13Y-67.253
G1Z-5F500
Y-67.197Z-6.912
Y67.202F1000
Y67.257Z-5
G0Z10
X-12Y-67.453
G1Z-5F500
Y-67.397Z-6.912
Y67.402F1000
Y67.457Z-5
G0Z10
X-11Y-67.453
G1Z-5F500
Y-67.397Z-6.912
Y67.402F1000
Y67.457Z-5
G0Z10
X-10Y-67.653
G1Z-5F500
Y-67.597Z-6.912
Y67.602F1000
Y67.657Z-5
G0Z10
X-9Y-67.853
G1Z-5F500
Y-67.797Z-6.912
Y67.802F1000
Y67.857Z-5
G0Z10
X-8Y-68.053
G1Z-5F500
Y-67.997Z-6.912
Y68.002F1000
Y68.057Z-5
G0Z10
X-7Y-68.053
G1Z-5F500
Y-67.997Z-6.912
Y68.002F1000
Y68.057Z-5
G0Z10
X-6Y-68.253
G1Z-5F500
Y-68.197Z-6.912
Y68.202F1000
Y68.257Z-5
G0Z10
X-5Y-68.253
G1Z-5F500
Y-68.197Z-6.912
Y68.202F1000
Y68.257Z-5
G0Z10
X-4Y-68.253
G1Z-5F500
Y-68.197Z-6.912
Y68.202F1000
Y68.257Z-5
G0Z10
X-3Y-68.453
G1Z-5F500
Y-68.397Z-6.912
Y68.402F1000
Y68.457Z-5
G0Z10
X-2Y-68.453
G1Z-5F500
Y-68.397Z-6.912
Y68.402F1000
Y68.457Z-5
G0Z10
X-1Y-68.453
G1Z-5F500
Y-68.397Z-6.912
Y68.402F1000
Y68.457Z-5
G0Z10
X0Y-68.453
G1Z-5F500
Y-68.397Z-6.912
Y68.402F1000
Y68.457Z-5
G0Z10
X1Y-68.453
G1Z-5F500
Y-68.397Z-6.912
Y68.402F1000
Y68.457Z-5
G0Z10
X2Y-68.453
G1Z-5F500
Y-68.397Z-6.912
Y68.402F1000
Y68.457Z-5
G0Z10
X3Y-68.453
G1Z-5F500
Y-68.397Z-6.912
Y68.402F1000
Y68.457Z-5
G0Z10
X4Y-68.253
G1Z-5F500
Y-68.197Z-6.912
Y68.202F1000
Y68.257Z-5
G0Z10
X5Y-68.253
G1Z-5F500
Y-68.197Z-6.912
Y68.202F1000
Y68.257Z-5
G0Z10
X6Y-68.253
G1Z-5F500
Y-68.197Z-6.912
Y68.202F1000
Y68.257Z-5
G0Z10
X7Y-68.053
G1Z-5F500
Y-67.997Z-6.912
Y68.002F1000
Y68.057Z-5
G0Z10
X8Y-68.053
G1Z-5F500
Y-67.997Z-6.912
Y68.002F1000
Y68.057Z-5
G0Z10
X9Y-67.853
G1Z-5F500
Y-67.797Z-6.912
Y67.802F1000
Y67.857Z-5
G0Z10
X10Y-67.653
G1Z-5F500
Y-67.597Z-6.912
Y67.602F1000
Y67.657Z-5
G0Z10
X11Y-67.453
G1Z-5F500
Y-67.397Z-6.912
Y67.402F1000
Y67.457Z-5
G0Z10
X12Y-67.453
G1Z-5F500
Y-67.397Z-6.912
Y67.402F1000
Y67.457Z-5
G0Z10
X13Y-67.253
G1Z-5F500
Y-67.197Z-6.912
Y67.202F1000
Y67.257Z-5
G0Z10
X14Y-67.053
G1Z-5F500
Y-66.997Z-6.912
Y67.002F1000
Y67.057Z-5
G0Z10
X15Y-66.853
G1Z-5F500
Y-66.797Z-6.912
Y66.802F1000
Y66.857Z-5
G0Z10
X16Y-66.453
G1Z-5F500
Y-66.397Z-6.912
Y66.402F1000
Y66.457Z-5
G0Z10
X17Y-66.253
G1Z-5F500
Y-66.197Z-6.912
Y66.202F1000
Y66.257Z-5
G0Z10
X18Y-66.053
G1Z-5F500
Y-65.997Z-6.912
Y66.002F1000
Y66.057Z-5
G0Z10
X19Y-65.653
G1Z-5F500
Y-65.597Z-6.912
Y65.602F1000
Y65.657Z-5
G0Z10
X20Y-65.453
G1Z-5F500
Y-65.397Z-6.912
Y65.402F1000
Y65.457Z-5
G0Z10
X21Y-65.053
G1Z-5F500
Y-64.997Z-6.912
Y65.002F1000
Y65.057Z-5
G0Z10
X22Y-64.853
G1Z-5F500
Y-64.797Z-6.912
Y64.802F1000
Y64.857Z-5
G0Z10
X23Y-64.453
G1Z-5F500
Y-64.397Z-6.912
Y64.402F1000
Y64.457Z-5
G0Z10
X24Y-64.053
G1Z-5F500
Y-63.997Z-6.912
Y64.002F1000
Y64.057Z-5
G0Z10
X25Y-63.653
G1Z-5F500
Y-63.597Z-6.912
Y63.602F1000
Y63.657Z-5
G0Z10
X26Y-63.253
G1Z-5F500
Y-63.197Z-6.912
Y63.202F1000
Y63.257Z-5
G0Z10
X27Y-62.853
G1Z-5F500
Y-62.797Z-6.912
Y62.802F1000
Y62.857Z-5
G0Z10
X28Y-62.452
G1Z-5F500
Y-62.397Z-6.912
Y62.402F1000
Y62.457Z-5
G0Z10
X29Y-62.052
G1Z-5F500
Y-61.997Z-6.912
Y62.002F1000
Y62.057Z-5
G0Z10
X30Y-61.452
G1Z-5F500
Y-61.397Z-6.912
Y61.402F1000
Y61.457Z-5
G0Z10
X31Y-61.052
G1Z-5F500
Y-60.997Z-6.912
Y61.002F1000
Y61.057Z-5
G0Z10
X32Y-60.452
G1Z-5F500
Y-60.397Z-6.912
Y60.402F1000
Y60.457Z-5
G0Z10
X33Y-60.052
G1Z-5F500
Y-59.997Z-6.912
Y60.002F1000
Y60.057Z-5
G0Z10
X34Y-59.452
G1Z-5F500
Y-59.397Z-6.912
Y59.402F1000
Y59.457Z-5
G0Z10
X35Y-58.853
G1Z-5F500
Y-58.797Z-6.912
Y58.802F1000
Y58.857Z-5
G0Z10
X36Y-58.253
G1Z-5F500
Y-58.197Z-6.912
Y58.202F1000
Y58.257Z-5
G0Z10
X37Y-57.653
G1Z-5F500
Y-57.597Z-6.912
Y57.602F1000
Y57.657Z-5
G0Z10
X38Y-56.853
G1Z-5F500
Y-56.797Z-6.912
Y56.802F1000
Y56.857Z-5
G0Z10
X39Y-56.253
G1Z-5F500
Y-56.197Z-6.912
Y56.202F1000
Y56.257Z-5
G0Z10
X40Y-55.453
G1Z-5F500
Y-55.397Z-6.912
Y55.402F1000
Y55.457Z-5
G0Z10
X41Y-54.853
G1Z-5F500
Y-54.797Z-6.912
Y54.802F1000
Y54.857Z-5
G0Z10
X42Y-54.053
G1Z-5F500
Y-53.997Z-6.912
Y54.002F1000
Y54.057Z-5
G0Z10
X43Y-53.253
G1Z-5F500
Y-53.197Z-6.912
Y53.202F1000
Y53.257Z-5
G0Z10
X44Y-52.453
G1Z-5F500
Y-52.397Z-6.912
Y52.402F1000
Y52.457Z-5
G0Z10
X45Y-51.653
G1Z-5F500
Y-51.597Z-6.912
Y51.602F1000
Y51.657Z-5
G0Z10
X46Y-50.653
G1Z-5F500
Y-50.597Z-6.912
Y50.602F1000
Y50.657Z-5
G0Z10
X47Y-49.853
G1Z-5F500
Y-49.797Z-6.912
Y49.802F1000
Y49.857Z-5
G0Z10
X48Y-48.853
G1Z-5F500
Y-48.797Z-6.912
Y48.802F1000
Y48.857Z-5
G0Z10
X49Y-47.853
G1Z-5F500
Y-47.797Z-6.912
Y47.802F1000
Y47.857Z-5
G0Z10
X50Y-46.653
G1Z-5F500
Y-46.597Z-6.912
Y46.602F1000
Y46.657Z-5
G0Z10
X51Y-45.653
G1Z-5F500
Y-45.597Z-6.912
Y45.602F1000
Y45.657Z-5
G0Z10
X52Y-44.453
G1Z-5F500
Y-44.397Z-6.912
Y44.402F1000
Y44.457Z-5
G0Z10
X53Y-43.253
G1Z-5F500
Y-43.197Z-6.912
Y43.202F1000
Y43.257Z-5
G0Z10
X54Y-42.053
G1Z-5F500
Y-41.997Z-6.912
Y42.002F1000
Y42.057Z-5
G0Z10
X55Y-40.853
G1Z-5F500
Y-40.797Z-6.912
Y40.802F1000
Y40.857Z-5
G0Z10
X56Y-39.453
G1Z-5F500
Y-39.397Z-6.912
Y39.402F1000
Y39.457Z-5
G0Z10
X57Y-37.853
G1Z-5F500
Y-37.797Z-6.912
Y37.802F1000
Y37.857Z-5
G0Z10
X58Y-36.453
G1Z-5F500
Y-36.397Z-6.912
Y36.402F1000
Y36.457Z-5
G0Z10
X59Y-34.653
G1Z-5F500
Y-34.597Z-6.912
Y34.602F1000
Y34.657Z-5
G0Z10
X60Y-33.053
G1Z-5F500
Y-32.997Z-6.912
Y33.002F1000
Y33.057Z-5
G0Z10
X61Y-31.053
G1Z-5F500
Y-30.997Z-6.912
Y31.002F1000
Y31.057Z-5
G0Z10
X62Y-29.053
G1Z-5F500
Y-28.997Z-6.912
Y29.002F1000
Y29.057Z-5
G0Z10
X63Y-26.853
G1Z-5F500
Y-26.797Z-6.912
Y26.802F1000
Y26.857Z-5
G0Z10
X64Y-24.253
G1Z-5F500
Y-24.197Z-6.912
Y24.202F1000
Y24.257Z-5
G0Z10
X65Y-21.453
G1Z-5F500
Y-21.397Z-6.912
Y21.402F1000
Y21.457Z-5
G0Z10
X66Y-18.253
G1Z-5F500
Y-18.197Z-6.912
Y18.202F1000
Y18.257Z-5
G0Z10
X67Y-14.053
G1Z-5F500
Y-13.997Z-6.912
Y14.002F1000
Y14.057Z-5
G0Z10
X68Y-8.053
G1Z-5F500
Y-7.997Z-6.912
Y8.002F1000
Y8.057Z-5
G0Z10
 
