(Created with grbl post processor 2024/12/13 12:46)
G21
(G-code Generated with Fabex and NC library)
G17G90
(Tool: D = 3.0 mm  type END flutes 2)
S12000M03
G00 Z2.0

G0X0Y0Z2
X-99Y99.802
G1Z0F500
Y-99.998F1000
X-98
Y99.802
X-97
Y-99.998
X-96
Y99.802
X-95
Y-99.998
X-94
Y99.802
X-93
Y-99.998
X-92
Y99.802
X-91
Y-99.998
X-90
Y99.802
X-89
Y-99.998
X-88
Y99.802
X-87
Y-99.998
X-86
Y99.802
X-85
Y-99.998
X-84
Y99.802
X-83
Y-99.998
X-82
Y99.802
X-81
Y-99.998
X-80
Y99.802
X-79
Y-99.998
X-78
Y99.802
X-77
Y-99.998
X-76
Y99.802
X-75
Y-99.998
X-74
Y99.802
X-73
Y-99.998
X-72
Y99.802
X-71
Y-99.998
X-70
Y99.802
X-69
Y-99.998
X-68
Y-7.997
Z-3F500
Y8.002F1000
Z0
Y99.802
X-67
Y14.002
Z-3F500
Y-13.997F1000
Z0
Y-99.998
X-66
Y-18.197
Z-3F500
Y18.202F1000
Z0
Y99.802
X-65
Y21.402
Z-3F500
Y-21.397F1000
Z0
Y-99.998
X-64
Y-24.197
Z-3F500
Y24.202F1000
Z0
Y99.802
X-63
Y26.802
Z-3F500
Y-26.797F1000
Z0
Y-99.998
X-62
Y-28.997
Z-3F500
Y29.002F1000
Z0
Y99.802
X-61
Y31.002
Z-3F500
Y-30.997F1000
Z0
Y-99.998
X-60
Y-32.997
Z-3F500
Y33.002F1000
Z0
Y99.802
X-59
Y34.602
Z-3F500
Y-34.597F1000
Z0
Y-99.998
X-58
Y-36.397
Z-3F500
Y36.402F1000
Z0
Y99.802
X-57
Y37.802
Z-3F500
Y-37.797F1000
Z0
Y-99.998
X-56
Y-39.397
Z-3F500
Y39.402F1000
Z0
Y99.802
X-55
Y40.802
Z-3F500
Y-40.797F1000
Z0
Y-99.998
X-54
Y-41.997
Z-3F500
Y42.002F1000
Z0
Y99.802
X-53
Y43.202
Z-3F500
Y-43.197F1000
Z0
Y-99.998
X-52
Y-44.397
Z-3F500
Y44.402F1000
Z0
Y99.802
X-51
Y45.602
Z-3F500
Y-45.597F1000
Z0
Y-99.998
X-50
Y-46.997
Y-46.597
Z-3F500
Y46.602F1000
Z0
Y99.802
X-49
Y47.802
Z-3F500
Y-47.797F1000
Z0
Y-99.998
X-48
Y-48.797
Z-3F500
Y48.802F1000
Z0
Y99.802
X-47
Y49.802
Z-3F500
Y-49.797F1000
Z0
Y-99.998
X-46
Y-50.597
Z-3F500
Y50.602F1000
Z0
Y99.802
X-45
Y51.602
Z-3F500
Y-51.597F1000
Z0
Y-99.998
X-44
Y-52.397
Z-3F500
Y52.402F1000
Z0
Y99.802
X-43
Y53.202
Z-3F500
Y-53.197F1000
Z0
Y-99.998
X-42
Y-53.997
Z-3F500
Y54.002F1000
Z0
Y99.802
X-41
Y54.802
Z-3F500
Y-54.797F1000
Z0
Y-99.998
X-40
Y-55.397
Z-3F500
Y55.402F1000
Z0
Y99.802
X-39
Y56.202
Z-3F500
Y-56.197F1000
Z0
Y-99.998
X-38
Y-56.797
Z-3F500
Y56.802F1000
Z0
Y99.802
X-37
Y57.602
Z-3F500
Y-57.597F1000
Z0
Y-99.998
X-36
Y-58.197
Z-3F500
Y58.202F1000
Z0
Y99.802
X-35
Y58.802
Z-3F500
Y-58.797F1000
Z0
Y-99.998
X-34
Y-59.397
Z-3F500
Y59.402F1000
Z0
Y99.802
X-33
Y60.002
Z-3F500
Y-59.997F1000
Z0
Y-99.998
X-32
Y-60.397
Z-3F500
Y60.402F1000
Z0
Y99.802
X-31
Y61.002
Z-3F500
Y-60.997F1000
Z0
Y-99.998
X-30
Y-61.397
Z-3F500
Y61.402F1000
Z0
Y99.802
X-29
Y62.002
Z-3F500
Y-61.997F1000
Z0
Y-99.998
X-28
Y-62.397
Z-3F500
Y62.402F1000
Z0
Y99.802
X-27
Y62.802
Z-3F500
Y-62.797F1000
Z0
Y-99.998
X-26
Y-63.197
Z-3F500
Y63.202F1000
Z0
Y99.802
X-25
Y63.602
Z-3F500
Y-63.597F1000
Z0
Y-99.998
X-24
Y-63.997
Z-3F500
Y64.002F1000
Z0
Y99.802
X-23
Y64.402
Z-3F500
Y-64.397F1000
Z0
Y-99.998
X-22
Y-64.797
Z-3F500
Y64.802F1000
Z0
Y99.802
X-21
Y65.002
Z-3F500
Y-64.997F1000
Z0
Y-99.998
X-20
Y-65.397
Z-3F500
Y65.402F1000
Z0
Y99.802
X-19
Y65.602
Z-3F500
Y-65.597F1000
Z0
Y-99.998
X-18
Y-65.997
Z-3F500
Y66.002F1000
Z0
Y99.802
X-17
Y66.202
Z-3F500
Y-66.197F1000
Z0
Y-99.998
X-16
Y-66.397
Z-3F500
Y66.402F1000
Z0
Y99.802
X-15
Y66.802
Z-3F500
Y-66.797F1000
Z0
Y-99.998
X-14
Y-66.997
Z-3F500
Y67.002F1000
Z0
Y99.802
X-13
Y67.202
Z-3F500
Y-67.197F1000
Z0
Y-99.998
X-12
Y-67.397
Z-3F500
Y67.402F1000
Z0
Y99.802
X-11
Y67.402
Z-3F500
Y-67.397F1000
Z0
Y-99.998
X-10
Y-67.597
Z-3F500
Y67.602F1000
Z0
Y99.802
X-9
Y67.802
Z-3F500
Y-67.797F1000
Z0
Y-99.998
X-8
Y-67.997
Z-3F500
Y68.002F1000
Z0
Y99.802
X-7
Y68.002
Z-3F500
Y-67.997F1000
Z0
Y-99.998
X-6
Y-68.197
Z-3F500
Y68.202F1000
Z0
Y99.802
X-5
Y68.202
Z-3F500
Y-68.197F1000
Z0
Y-99.998
X-4
Y-68.197
Z-3F500
Y68.202F1000
Z0
Y99.802
X-3
Y68.402
Z-3F500
Y-68.397F1000
Z0
Y-99.998
X-2
Y-68.397
Z-3F500
Y68.402F1000
Z0
Y99.802
X-1
Y68.402
Z-3F500
Y-68.397F1000
Z0
Y-99.998
X0
Y-68.397
Z-3F500
Y68.402F1000
Z0
Y99.802
X1
Y68.402
Z-3F500
Y-68.397F1000
Z0
Y-99.998
X2
Y-68.397
Z-3F500
Y68.402F1000
Z0
Y99.802
X3
Y68.402
Z-3F500
Y-68.397F1000
Z0
Y-99.998
X4
Y-68.197
Z-3F500
Y68.202F1000
Z0
Y99.802
X5
Y68.202
Z-3F500
Y-68.197F1000
Z0
Y-99.998
X6
Y-68.197
Z-3F500
Y68.202F1000
Z0
Y99.802
X7
Y68.002
Z-3F500
Y-67.997F1000
Z0
Y-99.998
X8
Y-67.997
Z-3F500
Y68.002F1000
Z0
Y99.802
X9
Y67.802
Z-3F500
Y-67.797F1000
Z0
Y-99.998
X10
Y-67.597
Z-3F500
Y67.602F1000
Z0
Y99.802
X11
Y67.402
Z-3F500
Y-67.397F1000
Z0
Y-99.998
X12
Y-67.397
Z-3F500
Y67.402F1000
Z0
Y99.802
X13
Y67.202
Z-3F500
Y-67.197F1000
Z0
Y-99.998
X14
Y-66.997
Z-3F500
Y67.002F1000
Z0
Y99.802
X15
Y66.802
Z-3F500
Y-66.797F1000
Z0
Y-99.998
X16
Y-66.397
Z-3F500
Y66.402F1000
Z0
Y99.802
X17
Y66.202
Z-3F500
Y-66.197F1000
Z0
Y-99.998
X18
Y-65.997
Z-3F500
Y66.002F1000
Z0
Y99.802
X19
Y65.602
Z-3F500
Y-65.597F1000
Z0
Y-99.998
X20
Y-65.397
Z-3F500
Y65.402F1000
Z0
Y99.802
X21
Y65.002
Z-3F500
Y-64.997F1000
Z0
Y-99.998
X22
Y-64.797
Z-3F500
Y64.802F1000
Z0
Y99.802
X23
Y64.402
Z-3F500
Y-64.397F1000
Z0
Y-99.998
X24
Y-63.997
Z-3F500
Y64.002F1000
Z0
Y99.802
X25
Y63.602
Z-3F500
Y-63.597F1000
Z0
Y-99.998
X26
Y-63.197
Z-3F500
Y63.202F1000
Z0
Y99.802
X27
Y62.802
Z-3F500
Y-62.797F1000
Z0
Y-99.998
X28
Y-62.397
Z-3F500
Y62.402F1000
Z0
Y99.802
X29
Y62.002
Z-3F500
Y-61.997F1000
Z0
Y-99.998
X30
Y-61.397
Z-3F500
Y61.402F1000
Z0
Y99.802
X31
Y61.002
Z-3F500
Y-60.997F1000
Z0
Y-99.998
X32
Y-60.397
Z-3F500
Y60.402F1000
Z0
Y99.802
X33
Y60.002
Z-3F500
Y-59.997F1000
Z0
Y-99.998
X34
Y-59.397
Z-3F500
Y59.402F1000
Z0
Y99.802
X35
Y58.802
Z-3F500
Y-58.797F1000
Z0
Y-99.998
X36
Y-58.197
Z-3F500
Y58.202F1000
Z0
Y99.802
X37
Y57.602
Z-3F500
Y-57.597F1000
Z0
Y-99.998
X38
Y-56.797
Z-3F500
Y56.802F1000
Z0
Y99.802
X39
Y56.202
Z-3F500
Y-56.197F1000
Z0
Y-99.998
X40
Y-55.397
Z-3F500
Y55.402F1000
Z0
Y99.802
X41
Y54.802
Z-3F500
Y-54.797F1000
Z0
Y-99.998
X42
Y-53.997
Z-3F500
Y54.002F1000
Z0
Y99.802
X43
Y53.202
Z-3F500
Y-53.197F1000
Z0
Y-99.998
X44
Y-52.397
Z-3F500
Y52.402F1000
Z0
Y99.802
X45
Y51.602
Z-3F500
Y-51.597F1000
Z0
Y-99.998
X46
Y-50.597
Z-3F500
Y50.602F1000
Z0
Y99.802
X47
Y49.802
Z-3F500
Y-49.797F1000
Z0
Y-99.998
X48
Y-48.797
Z-3F500
Y48.802F1000
Z0
Y99.802
X49
Y47.802
Z-3F500
Y-47.797F1000
Z0
Y-99.998
X50
Y-46.997
Y-46.597
Z-3F500
Y46.602F1000
Z0
Y99.802
X51
Y45.602
Z-3F500
Y-45.597F1000
Z0
Y-99.998
X52
Y-44.397
Z-3F500
Y44.402F1000
Z0
Y99.802
X53
Y43.202
Z-3F500
Y-43.197F1000
Z0
Y-99.998
X54
Y-41.997
Z-3F500
Y42.002F1000
Z0
Y99.802
X55
Y40.802
Z-3F500
Y-40.797F1000
Z0
Y-99.998
X56
Y-39.397
Z-3F500
Y39.402F1000
Z0
Y99.802
X57
Y37.802
Z-3F500
Y-37.797F1000
Z0
Y-99.998
X58
Y-36.397
Z-3F500
Y36.402F1000
Z0
Y99.802
X59
Y34.602
Z-3F500
Y-34.597F1000
Z0
Y-99.998
X60
Y-32.997
Z-3F500
Y33.002F1000
Z0
Y99.802
X61
Y31.002
Z-3F500
Y-30.997F1000
Z0
Y-99.998
X62
Y-28.997
Z-3F500
Y29.002F1000
Z0
Y99.802
X63
Y26.802
Z-3F500
Y-26.797F1000
Z0
Y-99.998
X64
Y-24.197
Z-3F500
Y24.202F1000
Z0
Y99.802
X65
Y21.402
Z-3F500
Y-21.397F1000
Z0
Y-99.998
X66
Y-18.197
Z-3F500
Y18.202F1000
Z0
Y99.802
X67
Y14.002
Z-3F500
Y-13.997F1000
Z0
Y-99.998
X68
Y-7.997
Z-3F500
Y8.002F1000
Z0
Y99.802
X69
Y-99.998
X70
Y99.802
X71
Y-99.998
X72
Y99.802
X73
Y-99.998
X74
Y99.802
X75
Y-99.998
X76
Y99.802
X77
Y-99.998
X78
Y99.802
X79
Y-99.998
X80
Y99.802
X81
Y-99.998
X82
Y99.802
X83
Y-99.998
X84
Y99.802
X85
Y-99.998
X86
Y99.802
X87
Y-99.998
X88
Y99.802
X89
Y-99.998
X90
Y99.802
X91
Y-99.998
X92
Y99.802
X93
Y-99.998
X94
Y99.802
X95
Y-99.998
X96
Y99.802
X97
Y-99.998
X98
Y99.802
X99
Y-99.998
G0Z2
X-68Y-7.997
G1Z-3F500
Z-6
Y8.002F1000
Z-3
G0Z2
X-67Y14.002
G1Z-3F500
Z-6
Y-13.997F1000
Z-3
G0Z2
X-66Y-18.197
G1Z-3F500
Z-6
Y18.202F1000
Z-3
G0Z2
X-65Y21.402
G1Z-3F500
Z-6
Y-21.397F1000
Z-3
G0Z2
X-64Y-24.197
G1Z-3F500
Z-6
Y24.202F1000
Z-3
G0Z2
X-63Y26.802
G1Z-3F500
Z-6
Y-26.797F1000
Z-3
X-62Y-28.997
Z-6F500
Y29.002F1000
Z-3
X-61Y31.002
Z-6F500
Y-30.997F1000
Z-3
X-60Y-32.997
Z-6F500
Y33.002F1000
Z-3
X-59Y34.602
Z-6F500
Y-34.597F1000
Z-3
X-58Y-36.397
Z-6F500
Y36.402F1000
Z-3
X-57Y37.802
Z-6F500
Y-37.797F1000
Z-3
X-56Y-39.397
Z-6F500
Y39.402F1000
Z-3
X-55Y40.802
Z-6F500
Y-40.797F1000
Z-3
X-54Y-41.997
Z-6F500
Y42.002F1000
Z-3
X-53Y43.202
Z-6F500
Y-43.197F1000
Z-3
X-52Y-44.397
Z-6F500
Y44.402F1000
Z-3
X-51Y45.602
Z-6F500
Y-45.597F1000
Z-3
X-50Y-46.597
Z-6F500
Y46.602F1000
Z-3
X-49Y47.802
Z-6F500
Y-47.797F1000
Z-3
X-48Y-48.797
Z-6F500
Y48.802F1000
Z-3
X-47Y49.802
Z-6F500
Y-49.797F1000
Z-3
X-46Y-50.597
Z-6F500
Y50.602F1000
Z-3
X-45Y51.602
Z-6F500
Y-51.597F1000
Z-3
X-44Y-52.397
Z-6F500
Y52.402F1000
Z-3
X-43Y53.202
Z-6F500
Y-53.197F1000
Z-3
X-42Y-53.997
Z-6F500
Y54.002F1000
Z-3
X-41Y54.802
Z-6F500
Y-54.797F1000
Z-3
X-40Y-55.397
Z-6F500
Y55.402F1000
Z-3
X-39Y56.202
Z-6F500
Y-56.197F1000
Z-3
X-38Y-56.797
Z-6F500
Y56.802F1000
Z-3
X-37Y57.602
Z-6F500
Y-57.597F1000
Z-3
X-36Y-58.197
Z-6F500
Y58.202F1000
Z-3
X-35Y58.802
Z-6F500
Y-58.797F1000
Z-3
X-34Y-59.397
Z-6F500
Y59.402F1000
Z-3
X-33Y60.002
Z-6F500
Y-59.997F1000
Z-3
X-32Y-60.397
Z-6F500
Y60.402F1000
Z-3
X-31Y61.002
Z-6F500
Y-60.997F1000
Z-3
X-30Y-61.397
Z-6F500
Y61.402F1000
Z-3
X-29Y62.002
Z-6F500
Y-61.997F1000
Z-3
X-28Y-62.397
Z-6F500
Y62.402F1000
Z-3
X-27Y62.802
Z-6F500
Y-62.797F1000
Z-3
X-26Y-63.197
Z-6F500
Y63.202F1000
Z-3
X-25Y63.602
Z-6F500
Y-63.597F1000
Z-3
X-24Y-63.997
Z-6F500
Y64.002F1000
Z-3
X-23Y64.402
Z-6F500
Y-64.397F1000
Z-3
X-22Y-64.797
Z-6F500
Y64.802F1000
Z-3
X-21Y65.002
Z-6F500
Y-64.997F1000
Z-3
X-20Y-65.397
Z-6F500
Y65.402F1000
Z-3
X-19Y65.602
Z-6F500
Y-65.597F1000
Z-3
G0Z2
X-18Y-65.997
G1Z-3F500
Z-6
Y66.002F1000
Z-3
X-17Y66.202
Z-6F500
Y-66.197F1000
Z-3
X-16Y-66.397
Z-6F500
Y66.402F1000
Z-3
X-15Y66.802
Z-6F500
Y-66.797F1000
Z-3
X-14Y-66.997
Z-6F500
Y67.002F1000
Z-3
X-13Y67.202
Z-6F500
Y-67.197F1000
Z-3
X-12Y-67.397
Z-6F500
Y67.402F1000
Z-3
X-11
Z-6F500
Y-67.397F1000
Z-3
X-10Y-67.597
Z-6F500
Y67.602F1000
Z-3
X-9Y67.802
Z-6F500
Y-67.797F1000
Z-3
X-8Y-67.997
Z-6F500
Y68.002F1000
Z-3
X-7
Z-6F500
Y-67.997F1000
Z-3
X-6Y-68.197
Z-6F500
Y68.202F1000
Z-3
X-5
Z-6F500
Y-68.197F1000
Z-3
X-4
Z-6F500
Y68.202F1000
Z-3
X-3Y68.402
Z-6F500
Y-68.397F1000
Z-3
X-2
Z-6F500
Y68.402F1000
Z-3
X-1
Z-6F500
Y-68.397F1000
Z-3
X0
Z-6F500
Y68.402F1000
Z-3
X1
Z-6F500
Y-68.397F1000
Z-3
X2
Z-6F500
Y68.402F1000
Z-3
X3
Z-6F500
Y-68.397F1000
Z-3
X4Y-68.197
Z-6F500
Y68.202F1000
Z-3
X5
Z-6F500
Y-68.197F1000
Z-3
X6
Z-6F500
Y68.202F1000
Z-3
X7Y68.002
Z-6F500
Y-67.997F1000
Z-3
X8
Z-6F500
Y68.002F1000
Z-3
X9Y67.802
Z-6F500
Y-67.797F1000
Z-3
X10Y-67.597
Z-6F500
Y67.602F1000
Z-3
X11Y67.402
Z-6F500
Y-67.397F1000
Z-3
X12
Z-6F500
Y67.402F1000
Z-3
X13Y67.202
Z-6F500
Y-67.197F1000
Z-3
X14Y-66.997
Z-6F500
Y67.002F1000
Z-3
X15Y66.802
Z-6F500
Y-66.797F1000
Z-3
X16Y-66.397
Z-6F500
Y66.402F1000
Z-3
X17Y66.202
Z-6F500
Y-66.197F1000
Z-3
X18Y-65.997
Z-6F500
Y66.002F1000
Z-3
X19Y65.602
Z-6F500
Y-65.597F1000
Z-3
G0Z2
X20Y-65.397
G1Z-3F500
Z-6
Y65.402F1000
Z-3
X21Y65.002
Z-6F500
Y-64.997F1000
Z-3
X22Y-64.797
Z-6F500
Y64.802F1000
Z-3
X23Y64.402
Z-6F500
Y-64.397F1000
Z-3
X24Y-63.997
Z-6F500
Y64.002F1000
Z-3
X25Y63.602
Z-6F500
Y-63.597F1000
Z-3
X26Y-63.197
Z-6F500
Y63.202F1000
Z-3
X27Y62.802
Z-6F500
Y-62.797F1000
Z-3
X28Y-62.397
Z-6F500
Y62.402F1000
Z-3
X29Y62.002
Z-6F500
Y-61.997F1000
Z-3
X30Y-61.397
Z-6F500
Y61.402F1000
Z-3
X31Y61.002
Z-6F500
Y-60.997F1000
Z-3
X32Y-60.397
Z-6F500
Y60.402F1000
Z-3
X33Y60.002
Z-6F500
Y-59.997F1000
Z-3
X34Y-59.397
Z-6F500
Y59.402F1000
Z-3
X35Y58.802
Z-6F500
Y-58.797F1000
Z-3
X36Y-58.197
Z-6F500
Y58.202F1000
Z-3
X37Y57.602
Z-6F500
Y-57.597F1000
Z-3
X38Y-56.797
Z-6F500
Y56.802F1000
Z-3
X39Y56.202
Z-6F500
Y-56.197F1000
Z-3
X40Y-55.397
Z-6F500
Y55.402F1000
Z-3
X41Y54.802
Z-6F500
Y-54.797F1000
Z-3
X42Y-53.997
Z-6F500
Y54.002F1000
Z-3
X43Y53.202
Z-6F500
Y-53.197F1000
Z-3
X44Y-52.397
Z-6F500
Y52.402F1000
Z-3
X45Y51.602
Z-6F500
Y-51.597F1000
Z-3
X46Y-50.597
Z-6F500
Y50.602F1000
Z-3
X47Y49.802
Z-6F500
Y-49.797F1000
Z-3
X48Y-48.797
Z-6F500
Y48.802F1000
Z-3
X49Y47.802
Z-6F500
Y-47.797F1000
Z-3
X50Y-46.597
Z-6F500
Y46.602F1000
Z-3
X51Y45.602
Z-6F500
Y-45.597F1000
Z-3
X52Y-44.397
Z-6F500
Y44.402F1000
Z-3
X53Y43.202
Z-6F500
Y-43.197F1000
Z-3
X54Y-41.997
Z-6F500
Y42.002F1000
Z-3
X55Y40.802
Z-6F500
Y-40.797F1000
Z-3
X56Y-39.397
Z-6F500
Y39.402F1000
Z-3
X57Y37.802
Z-6F500
Y-37.797F1000
Z-3
X58Y-36.397
Z-6F500
Y36.402F1000
Z-3
X59Y34.602
Z-6F500
Y-34.597F1000
Z-3
X60Y-32.997
Z-6F500
Y33.002F1000
Z-3
X61Y31.002
Z-6F500
Y-30.997F1000
Z-3
X62Y-28.997
Z-6F500
Y29.002F1000
Z-3
X63Y26.802
Z-6F500
Y-26.797F1000
Z-3
G0Z2
X64Y-24.197
G1Z-3F500
Z-6
Y24.202F1000
Z-3
G0Z2
X65Y21.402
G1Z-3F500
Z-6
Y-21.397F1000
Z-3
G0Z2
X66Y-18.197
G1Z-3F500
Z-6
Y18.202F1000
Z-3
G0Z2
X67Y14.002
G1Z-3F500
Z-6
Y-13.997F1000
Z-3
G0Z2
X68Y-7.997
G1Z-3F500
Z-6
Y8.002F1000
Z-3
G0Z2
X-68
G1Z-6F500
Z-6.912
Y-7.997F1000
Z-6
G0Z2
X-67Y-13.997
G1Z-6F500
Z-6.912
Y14.002F1000
Z-6
G0Z2
X-66Y18.202
G1Z-6F500
Z-6.912
Y-18.197F1000
Z-6
G0Z2
X-65Y-21.397
G1Z-6F500
Z-6.912
Y21.402F1000
Z-6
G0Z2
X-64Y24.202
G1Z-6F500
Z-6.912
Y-24.197F1000
Z-6
G0Z2
X-63Y-26.797
G1Z-6F500
Z-6.912
Y26.802F1000
Z-6
X-62Y29.002
Z-6.912F500
Y-28.997F1000
Z-6
X-61Y-30.997
Z-6.912F500
Y31.002F1000
Z-6
X-60Y33.002
Z-6.912F500
Y-32.997F1000
Z-6
X-59Y-34.597
Z-6.912F500
Y34.602F1000
Z-6
X-58Y36.402
Z-6.912F500
Y-36.397F1000
Z-6
X-57Y-37.797
Z-6.912F500
Y37.802F1000
Z-6
X-56Y39.402
Z-6.912F500
Y-39.397F1000
Z-6
X-55Y-40.797
Z-6.912F500
Y40.802F1000
Z-6
X-54Y42.002
Z-6.912F500
Y-41.997F1000
Z-6
X-53Y-43.197
Z-6.912F500
Y43.202F1000
Z-6
X-52Y44.402
Z-6.912F500
Y-44.397F1000
Z-6
X-51Y-45.597
Z-6.912F500
Y45.602F1000
Z-6
X-50Y46.602
Z-6.912F500
Y-46.597F1000
Z-6
X-49Y-47.797
Z-6.912F500
Y47.802F1000
Z-6
X-48Y48.802
Z-6.912F500
Y-48.797F1000
Z-6
X-47Y-49.797
Z-6.912F500
Y49.802F1000
Z-6
X-46Y50.602
Z-6.912F500
Y-50.597F1000
Z-6
X-45Y-51.597
Z-6.912F500
Y51.602F1000
Z-6
X-44Y52.402
Z-6.912F500
Y-52.397F1000
Z-6
X-43Y-53.197
Z-6.912F500
Y53.202F1000
Z-6
X-42Y54.002
Z-6.912F500
Y-53.997F1000
Z-6
X-41Y-54.797
Z-6.912F500
Y54.802F1000
Z-6
X-40Y55.402
Z-6.912F500
Y-55.397F1000
Z-6
X-39Y-56.197
Z-6.912F500
Y56.202F1000
Z-6
X-38Y56.802
Z-6.912F500
Y-56.797F1000
Z-6
X-37Y-57.597
Z-6.912F500
Y57.602F1000
Z-6
X-36Y58.202
Z-6.912F500
Y-58.197F1000
Z-6
X-35Y-58.797
Z-6.912F500
Y58.802F1000
Z-6
X-34Y59.402
Z-6.912F500
Y-59.397F1000
Z-6
X-33Y-59.997
Z-6.912F500
Y60.002F1000
Z-6
X-32Y60.402
Z-6.912F500
Y-60.397F1000
Z-6
X-31Y-60.997
Z-6.912F500
Y61.002F1000
Z-6
X-30Y61.402
Z-6.912F500
Y-61.397F1000
Z-6
X-29Y-61.997
Z-6.912F500
Y62.002F1000
Z-6
X-28Y62.402
Z-6.912F500
Y-62.397F1000
Z-6
X-27Y-62.797
Z-6.912F500
Y62.802F1000
Z-6
X-26Y63.202
Z-6.912F500
Y-63.197F1000
Z-6
X-25Y-63.597
Z-6.912F500
Y63.602F1000
Z-6
X-24Y64.002
Z-6.912F500
Y-63.997F1000
Z-6
X-23Y-64.397
Z-6.912F500
Y64.402F1000
Z-6
X-22Y64.802
Z-6.912F500
Y-64.797F1000
Z-6
X-21Y-64.997
Z-6.912F500
Y65.002F1000
Z-6
X-20Y65.402
Z-6.912F500
Y-65.397F1000
Z-6
X-19Y-65.597
Z-6.912F500
Y65.602F1000
Z-6
X-18Y66.002
Z-6.912F500
Y-65.997F1000
Z-6
X-17Y-66.197
Z-6.912F500
Y66.202F1000
Z-6
X-16Y66.402
Z-6.912F500
Y-66.397F1000
Z-6
X-15Y-66.797
Z-6.912F500
Y66.802F1000
Z-6
X-14Y67.002
Z-6.912F500
Y-66.997F1000
Z-6
X-13Y-67.197
Z-6.912F500
Y67.202F1000
Z-6
X-12Y67.402
Z-6.912F500
Y-67.397F1000
Z-6
X-11
Z-6.912F500
Y67.402F1000
Z-6
X-10Y67.602
Z-6.912F500
Y-67.597F1000
Z-6
X-9Y-67.797
Z-6.912F500
Y67.802F1000
Z-6
X-8Y68.002
Z-6.912F500
Y-67.997F1000
Z-6
X-7
Z-6.912F500
Y68.002F1000
Z-6
X-6Y68.202
Z-6.912F500
Y-68.197F1000
Z-6
X-5
Z-6.912F500
Y68.202F1000
Z-6
X-4
Z-6.912F500
Y-68.197F1000
Z-6
X-3Y-68.397
Z-6.912F500
Y68.402F1000
Z-6
X-2
Z-6.912F500
Y-68.397F1000
Z-6
X-1
Z-6.912F500
Y68.402F1000
Z-6
X0
Z-6.912F500
Y-68.397F1000
Z-6
X1
Z-6.912F500
Y68.402F1000
Z-6
X2
Z-6.912F500
Y-68.397F1000
Z-6
X3
Z-6.912F500
Y68.402F1000
Z-6
X4Y68.202
Z-6.912F500
Y-68.197F1000
Z-6
X5
Z-6.912F500
Y68.202F1000
Z-6
X6
Z-6.912F500
Y-68.197F1000
Z-6
X7Y-67.997
Z-6.912F500
Y68.002F1000
Z-6
X8
Z-6.912F500
Y-67.997F1000
Z-6
X9Y-67.797
Z-6.912F500
Y67.802F1000
Z-6
X10Y67.602
Z-6.912F500
Y-67.597F1000
Z-6
X11Y-67.397
Z-6.912F500
Y67.402F1000
Z-6
X12
Z-6.912F500
Y-67.397F1000
Z-6
X13Y-67.197
Z-6.912F500
Y67.202F1000
Z-6
X14Y67.002
Z-6.912F500
Y-66.997F1000
Z-6
X15Y-66.797
Z-6.912F500
Y66.802F1000
Z-6
X16Y66.402
Z-6.912F500
Y-66.397F1000
Z-6
X17Y-66.197
Z-6.912F500
Y66.202F1000
Z-6
X18Y66.002
Z-6.912F500
Y-65.997F1000
Z-6
X19Y-65.597
Z-6.912F500
Y65.602F1000
Z-6
X20Y65.402
Z-6.912F500
Y-65.397F1000
Z-6
X21Y-64.997
Z-6.912F500
Y65.002F1000
Z-6
X22Y64.802
Z-6.912F500
Y-64.797F1000
Z-6
X23Y-64.397
Z-6.912F500
Y64.402F1000
Z-6
X24Y64.002
Z-6.912F500
Y-63.997F1000
Z-6
X25Y-63.597
Z-6.912F500
Y63.602F1000
Z-6
X26Y63.202
Z-6.912F500
Y-63.197F1000
Z-6
X27Y-62.797
Z-6.912F500
Y62.802F1000
Z-6
X28Y62.402
Z-6.912F500
Y-62.397F1000
Z-6
X29Y-61.997
Z-6.912F500
Y62.002F1000
Z-6
X30Y61.402
Z-6.912F500
Y-61.397F1000
Z-6
X31Y-60.997
Z-6.912F500
Y61.002F1000
Z-6
X32Y60.402
Z-6.912F500
Y-60.397F1000
Z-6
X33Y-59.997
Z-6.912F500
Y60.002F1000
Z-6
X34Y59.402
Z-6.912F500
Y-59.397F1000
Z-6
X35Y-58.797
Z-6.912F500
Y58.802F1000
Z-6
X36Y58.202
Z-6.912F500
Y-58.197F1000
Z-6
X37Y-57.597
Z-6.912F500
Y57.602F1000
Z-6
X38Y56.802
Z-6.912F500
Y-56.797F1000
Z-6
X39Y-56.197
Z-6.912F500
Y56.202F1000
Z-6
X40Y55.402
Z-6.912F500
Y-55.397F1000
Z-6
X41Y-54.797
Z-6.912F500
Y54.802F1000
Z-6
X42Y54.002
Z-6.912F500
Y-53.997F1000
Z-6
X43Y-53.197
Z-6.912F500
Y53.202F1000
Z-6
X44Y52.402
Z-6.912F500
Y-52.397F1000
Z-6
X45Y-51.597
Z-6.912F500
Y51.602F1000
Z-6
X46Y50.602
Z-6.912F500
Y-50.597F1000
Z-6
X47Y-49.797
Z-6.912F500
Y49.802F1000
Z-6
X48Y48.802
Z-6.912F500
Y-48.797F1000
Z-6
X49Y-47.797
Z-6.912F500
Y47.802F1000
Z-6
X50Y46.602
Z-6.912F500
Y-46.597F1000
Z-6
X51Y-45.597
Z-6.912F500
Y45.602F1000
Z-6
X52Y44.402
Z-6.912F500
Y-44.397F1000
Z-6
X53Y-43.197
Z-6.912F500
Y43.202F1000
Z-6
X54Y42.002
Z-6.912F500
Y-41.997F1000
Z-6
X55Y-40.797
Z-6.912F500
Y40.802F1000
Z-6
X56Y39.402
Z-6.912F500
Y-39.397F1000
Z-6
X57Y-37.797
Z-6.912F500
Y37.802F1000
Z-6
X58Y36.402
Z-6.912F500
Y-36.397F1000
Z-6
X59Y-34.597
Z-6.912F500
Y34.602F1000
Z-6
X60Y33.002
Z-6.912F500
Y-32.997F1000
Z-6
X61Y-30.997
Z-6.912F500
Y31.002F1000
Z-6
X62Y29.002
Z-6.912F500
Y-28.997F1000
Z-6
X63Y-26.797
Z-6.912F500
Y26.802F1000
Z-6
G0Z2
X64Y24.202
G1Z-6F500
Z-6.912
Y-24.197F1000
Z-6
G0Z2
X65Y-21.397
G1Z-6F500
Z-6.912
Y21.402F1000
Z-6
G0Z2
X66Y18.202
G1Z-6F500
Z-6.912
Y-18.197F1000
Z-6
G0Z2
X67Y-13.997
G1Z-6F500
Z-6.912
Y14.002F1000
Z-6
G0Z2
X68Y8.002
G1Z-6F500
Z-6.912
Y-7.997F1000
Z-6
G0Z2
 
