(Created with grbl post processor 2024/01/26 13:45)
G21
(G-code generated with BlenderCAM and NC library)
G17G90
(Tool: D = 3.0 mm  type END flutes 2)
S12000M03
G00 Z2.0

G0X0Y0Z2
X-68Y8
G1Z-1.001F500
Y7Z-1.741
Y6.73Z-3.1
Y-4.675F1000
Y-4.999Z-1.341
Y-5.999Z-0.752
Y-6.999Z-0.319
G0Z2
X-66Y-16.999
G1Z-0.629F500
Y-16.597Z-3.1
Y17.605F1000
Y18Z-0.702
G0Z2
X-64Y24
G1Z-0.49F500
Y23.584Z-3.1
Y-22.635F1000
Y-22.999Z-0.994
Y-23.999Z-0.147
G0Z2
X-62Y-27.999
G1Z-0.762F500
Y-27.61Z-3.1
Y28.552F1000
Y29Z-0.119
G0Z2
X-60Y32
G1Z-3.1F500
Y-31.617F1000
Y-31.999Z-0.83
G0Z2
X-58Y-35.999
G1Z-0.265F500
Y-35.564Z-3.1
Y35.571F1000
Y36Z-0.35
G0Z2
X-56Y39
G1Z-0.348F500
Y38.571Z-3.1
Y-38.567F1000
Y-38.999Z-0.302
G0Z2
X-54Y-41.999
G1Z-0.134F500
Y-41.552Z-3.1
Y41F1000
G0Z2
X-52Y44
G1Z-0.547F500
Y43.59Z-3.1
Y-43.587F1000
Y-43.999Z-0.528
G0Z2
X-50Y-45.999
G1Z-1.025F500
Y-45.638Z-3.1
Y45.648F1000
Y46Z-1.111
G0Z2
X-48Y48
G1Z-3.1F500
Y-47.999F1000
G0Z2
X-46Y-49.999
G1Z-1.096F500
Y-49.646Z-3.1
Y49.639F1000
Y50Z-1.027
G0Z2
X-44Y52
G1Z-0.491F500
Y51.584Z-3.1
Y-51.597F1000
Y-51.999Z-0.633
G0Z2
X-42Y-53.999
G1Z-0.264F500
Y-53.563Z-3.1
Y53.551F1000
Y54Z-0.11
G0Z2
X-40Y55
G1Z-0.744F500
Y54.609Z-3.1
Y-54.651F1000
Y-54.999Z-1.139
G0Z2
X-38Y-56.999
G1Z-0.229F500
Y-56.56Z-3.1
Y56F1000
G0Z2
X-36Y58
G1Z-0.302F500
Y57.567Z-3.1
Y-57.589F1000
Y-57.999Z-0.545
G0Z2
X-34Y-58.999
G1Z-1.043F500
Y-58.64Z-3.1
Y58.593F1000
Y59Z-0.579
G0Z2
X-32Y60
G1Z-0.844F500
Y59.619Z-3.1
Y-59.999F1000
X-30Y-60.999
Y60.625
Y61Z-0.896
G0Z2
X-28Y62
G1Z-0.801F500
Y61.615Z-3.1
Y-61.999F1000
X-26Y-62.999
Y62.593
Y63Z-0.581
G0Z2
X-24Y64
G1Z-0.314F500
Y63.568Z-3.1
Y-63.606F1000
Y-63.999Z-0.725
G0Z2
X-22Y-64.999
G1Z-0.392F500
Y-64.575Z-3.1
Y64.55F1000
Y65Z-0.102
G0Z2
X-20
G1Z-1.098F500
Y64.647Z-3.1
Y-65.55F1000
Y-65.999Z-0.105
G0Z2
X-18
G1Z-0.86F500
Y-65.62Z-3.1
Y65.569F1000
Y66Z-0.326
G0Z2
X-16
G1Z-3.1F500
Y-66.56F1000
Y-66.999Z-0.229
G0Z2
X-14
G1Z-0.972F500
Y-66.632Z-3.1
Y66.57F1000
Y67Z-0.339
G0Z2
X-12
G1Z-3.1F500
Y-67.555F1000
Y-67.999Z-0.163
G0Z2
X-10
G1Z-0.526F500
Y-67.587Z-3.1
Y67.553F1000
Y68Z-0.137
G0Z2
X-8
G1Z-0.416F500
Y67.577Z-3.1
Y-67.667F1000
Y-67.999Z-1.273
G0Z2
X-6
G1Z-3.1F500
Y67.619F1000
Y68Z-0.847
G0Z2
X-4
G1Z-3.1F500
Y-68.56F1000
Y-68.999Z-0.229
G0Z2
X-2
G1Z-0.338F500
Y-68.57Z-3.1
Y68F1000
X0
Y-68.57
Y-68.999Z-0.339
G0Z2
X2
G1Z-0.312F500
Y-68.568Z-3.1
Y68F1000
X4
Y-68.562
Y-68.999Z-0.244
G0Z2
X6
G1Z-0.18F500
Y-67.999Z-1.068
Y-67.643Z-3.1
Y68F1000
G0Z2
X8
G1Z-0.995F500
Y67.635Z-3.1
Y-67.599F1000
Y-67.999Z-0.651
G0Z2
X10
G1Z-0.381F500
Y-67.574Z-3.1
Y67.583F1000
Y68Z-0.477
G0Z2
X12
G1Z-0.192F500
Y67.558Z-3.1
Y-67.559F1000
Y-67.999Z-0.218
G0Z2
X14Y-66.999
G1Z-0.556F500
Y-66.59Z-3.1
Y66.665F1000
Y67Z-1.253
G0Z2
X16
G1Z-0.442F500
Y66.58Z-3.1
Y-66.562F1000
Y-66.999Z-0.246
G0Z2
X18
G1Z-0.103F500
Y-65.999Z-0.532F1000
Y-65.588Z-3.1F500
Y65.65F1000
Y66Z-1.128
G0Z2
X20
G1Z-0.379F500
Y65.574Z-3.1
Y-64.664F1000
Y-64.999Z-1.25
Y-65.999Z-0.192
G0Z2
X22Y-64.999
G1Z-0.325F500
Y-64.569Z-3.1
Y64.599F1000
Y65Z-0.645
G0Z2
X24
G1Z-0.17F500
Y64Z-0.967
Y63.632Z-3.1
Y-63.584F1000
Y-63.999Z-0.497
Y-64.999Z-0.11
G0Z2
X26Y-63.999
G1Z-0.147F500
Y-62.999Z-0.723F1000
Y-62.606Z-3.1F500
Y63.563F1000
Y64Z-0.255
G0Z2
X28Y63
G1Z-0.301F500
Y62.567Z-3.1
Y-61.627F1000
Y-61.999Z-0.928
Y-62.999Z-0.166
G0Z2
X30Y-61.999
G1Z-0.169F500
Y-60.999Z-0.998
Y-60.635Z-3.1
Y61.567F1000
Y62Z-0.304
G0Z2
X32Y61
G1Z-0.282F500
Y60.565Z-3.1
Y-59.628F1000
Y-59.999Z-0.929
Y-60.999Z-0.163
G0Z2
X34Y-59.999
G1Z-0.144F500
Y-58.999Z-0.687F1000
Y-58.603Z-3.1F500
Y58.663F1000
Y59Z-1.233
Y60Z-0.234
G0Z2
X36Y59
G1Z-0.174F500
Y58Z-0.74F1000
Y57.608Z-3.1F500
Y-57.578F1000
Y-57.999Z-0.433
Y-58.999Z-0.115
G0Z2
X38Y-56.999
G1Z-0.243F500
Y-56.562Z-3.1
Y56.579F1000
Y57Z-0.438
Y58Z-0.116
G0Z2
X40Y56
G1Z-0.241F500
Y55Z-1.281
Y54.668Z-3.1
Y-54.613F1000
Y-54.999Z-0.794
Y-55.999Z-0.152
G0Z2
X42Y-53.999
G1Z-0.262F500
Y-53.563Z-3.1
Y53.581F1000
Y54Z-0.458
Y55Z-0.13
G0Z2
X44Y53
G1Z-0.185F500
Y52Z-0.777
Y51.612Z-3.1
Y-51.587F1000
Y-51.999Z-0.53
Y-52.999Z-0.133
G0Z2
X46Y-50.999
G1Z-0.156F500
Y-49.999Z-0.964
Y-49.631Z-3.1
Y49.658F1000
Y50Z-1.195
Y51Z-0.237
G0Z2
X48Y49
G1Z-0.262F500
Y48.564Z-3.1
Y-48.555F1000
Y-48.999Z-0.164
G0Z2
X50Y-46.999
G1Z-0.155F500
Y-45.999Z-1.003
Y-45.636Z-3.1
Y45.648F1000
Y46Z-1.106
Y47Z-0.23
G0Z2
X52Y45
G1Z-0.171F500
Y44Z-0.63F1000
Y43.597Z-3.1F500
Y-43.584F1000
Y-43.999Z-0.492
Y-44.999Z-0.133
G0Z2
X54Y-42.999
G1Z-0.1F500
Y-41.999Z-0.184F1000
Y-41.557Z-3.1F500
Y41.566F1000
Y42Z-0.295
Y43Z-0.124
G0Z2
X56Y40
G1Z-0.148F500
Y39Z-0.408F1000
Y38.577Z-3.1F500
Y-38.566F1000
Y-38.999Z-0.295
Y-39.999Z-0.121
G0Z2
X58Y-36.999
G1Z-0.12F500
Y-35.999Z-0.265F1000
Y-35.563Z-3.1F500
Y35.573F1000
Y36Z-0.363
Y37Z-0.145
G0Z2
X60Y34
G1Z-0.118F500
Y33Z-0.203F1000
Y32Z-0.795F500
Y31.614Z-3.1
Y-32.554F1000
Y-32.999Z-0.153
Y-33.999Z-0.1
G0Z2
X62Y-29.999
G1Z-0.109F500
Y-28.999Z-0.153F1000
Y-28.554Z-3.1F500
Y27.602F1000
Y28Z-0.676
Y29Z-0.191
Y30Z-0.126
G0Z2
X64Y25
G1Z-0.138F500
Y24Z-0.221F1000
Y23Z-0.829F500
Y22.618Z-3.1
Y-23.555F1000
Y-23.999Z-0.163
Y-24.999Z-0.123
G0Z2
X66Y-18.999
G1Z-0.124F500
Y-17.999Z-0.151F1000
Y-17.554Z-3.1F500
Y16.58F1000
Y17Z-0.448
Y18Z-0.169
Y19Z-0.135
Y20Z-0.105
G0Z2
X68Y11
G1Z-0.108F500
Y10Z-0.124F1000
Y8Z-0.15
Y7Z-0.173
Y6Z-0.279
Y5Z-0.57
Y4.592Z-3.1F500
Y-6.554F1000
Y-6.999Z-0.157
Y-9.999Z-0.12
Y-10.999Z-0.103
G0Z2
X-68Y6.73
G1Z-3.1F500
Y6.133Z-6.1
Y-4.123F1000
Y-4.675Z-3.1
G0Z2
X-66Y-16.597
G1Z-3.1F500
Y-16.108Z-6.1
Y17.11F1000
Y17.605Z-3.1
G0Z2
X-64Y23.584
G1Z-3.1F500
Y23.106Z-6.1
Y-22.115F1000
Y-22.635Z-3.1
G0Z2
X-62Y-27.61
G1Z-3.1F500
Y-27.111Z-6.1
Y28.1F1000
Y28.552Z-3.1
G0Z2
X-60Y32
G1Z-6.1F500
Y-31.112F1000
Y-31.617Z-3.1
X-58Y-35.564
Y-35.102Z-6.1F500
Y35.104F1000
Y35.571Z-3.1
X-56Y38.571
Y38.104Z-6.1F500
Y-38.103F1000
Y-38.567Z-3.1
G0Z2
X-54Y-41.552
G1Z-3.1F500
Y-41.1Z-6.1
Y41F1000
G0Z2
X-52Y43.59
G1Z-3.1F500
Y43.107Z-6.1
Y-43.107F1000
Y-43.587Z-3.1
G0Z2
X-50Y-45.638
G1Z-3.1F500
Y-45.116Z-6.1
Y45.118F1000
Y45.648Z-3.1
G0Z2
X-48Y48
G1Z-6.1F500
Y-47.999F1000
G0Z2
X-46Y-49.646
G1Z-3.1F500
Y-49.117Z-6.1
Y49.116F1000
Y49.639Z-3.1
G0Z2
X-44Y51.584
G1Z-3.1F500
Y51.106Z-6.1
Y-51.108F1000
Y-51.597Z-3.1
G0Z2
X-42Y-53.563
G1Z-3.1F500
Y-53.102Z-6.1
Y53.1F1000
Y53.551Z-3.1
X-40Y54.609
Y54.111Z-6.1F500
Y-54.118F1000
Y-54.651Z-3.1
X-38Y-56.56
Y-56.102Z-6.1F500
Y56F1000
G0Z2
X-36Y57.567
G1Z-3.1F500
Y57.103Z-6.1
Y-57.107F1000
Y-57.589Z-3.1
G0Z2
X-34Y-58.64
G1Z-3.1F500
Y-58.116Z-6.1
Y58.108F1000
Y58.593Z-3.1
G0Z2
X-32Y59.619
G1Z-3.1F500
Y59.113Z-6.1
Y-59.999F1000
X-30Y-60.999
Y60.114
Y60.625Z-3.1
X-28Y61.615
Y61.112Z-6.1F500
Y-61.999F1000
X-26Y-62.999
Y62.108
Y62.593Z-3.1
G0Z2
X-24Y63.568
G1Z-3.1F500
Y63.103Z-6.1
Y-63.11F1000
Y-63.606Z-3.1
G0Z2
X-22Y-64.575
G1Z-3.1F500
Y-64.104Z-6.1
Y64.1F1000
Y64.55Z-3.1
G0Z2
X-20Y64.647
G1Z-3.1F500
Y64.118Z-6.1
Y-65.1F1000
Y-65.55Z-3.1
X-18Y-65.62
Y-65.113Z-6.1F500
Y65.104F1000
Y65.569Z-3.1
G0Z2
X-16Y66
G1Z-6.1F500
Y-66.102F1000
Y-66.56Z-3.1
G0Z2
X-14Y-66.632
G1Z-3.1F500
Y-66.115Z-6.1
Y66.104F1000
Y66.57Z-3.1
G0Z2
X-12Y67
G1Z-6.1F500
Y-67.101F1000
Y-67.555Z-3.1
G0Z2
X-10Y-67.587
G1Z-3.1F500
Y-67.107Z-6.1
Y67.101F1000
Y67.553Z-3.1
G0Z2
X-8Y67.577
G1Z-3.1F500
Y67.105Z-6.1
Y-67.121F1000
Y-67.667Z-3.1
G0Z2
X-6Y-67.999
G1Z-6.1F500
Y67.113F1000
Y67.619Z-3.1
G0Z2
X-4Y68
G1Z-6.1F500
Y-68.102F1000
Y-68.56Z-3.1
G0Z2
X-2Y-68.57
G1Z-3.1F500
Y-68.103Z-6.1
Y68F1000
X0
Y-68.103
Y-68.57Z-3.1
G0Z2
X2Y-68.568
G1Z-3.1F500
Y-68.103Z-6.1
Y68F1000
X4
Y-68.102
Y-68.562Z-3.1
G0Z2
X6Y-67.643
G1Z-3.1F500
Y-67.117Z-6.1
Y68F1000
G0Z2
X8Y67.635
G1Z-3.1F500
Y67.116Z-6.1
Y-67.109F1000
Y-67.599Z-3.1
X10Y-67.574
Y-67.104Z-6.1F500
Y67.106F1000
Y67.583Z-3.1
X12Y67.558
Y67.102Z-6.1F500
Y-67.101F1000
Y-67.559Z-3.1
G0Z2
X14Y-66.59
G1Z-3.1F500
Y-66.107Z-6.1
Y66.121F1000
Y66.665Z-3.1
G0Z2
X16Y66.58
G1Z-3.1F500
Y66.106Z-6.1
Y-66.102F1000
Y-66.562Z-3.1
X18Y-65.588
Y-65.107Z-6.1F500
Y65.118F1000
Y65.65Z-3.1
X20Y65.574
Y65.104Z-6.1F500
Y-64.121F1000
Y-64.664Z-3.1
G0Z2
X22Y-64.569
G1Z-3.1F500
Y-64.103Z-6.1
Y64.109F1000
Y64.599Z-3.1
X24Y63.632
Y63.115Z-6.1F500
Y-63.106F1000
Y-63.584Z-3.1
X26Y-62.606
Y-62.11Z-6.1F500
Y63.102F1000
Y63.563Z-3.1
X28Y62.567
Y62.103Z-6.1F500
Y-61.114F1000
Y-61.627Z-3.1
G0Z2
X30Y-60.635
G1Z-3.1F500
Y-60.115Z-6.1
Y61.103F1000
Y61.567Z-3.1
G0Z2
X32Y60.565
G1Z-3.1F500
Y60.103Z-6.1
Y-59.114F1000
Y-59.628Z-3.1
X34Y-58.603
Y-58.109Z-6.1F500
Y58.121F1000
Y58.663Z-3.1
G0Z2
X36Y57.608
G1Z-3.1F500
Y57.111Z-6.1
Y-57.105F1000
Y-57.578Z-3.1
G0Z2
X38Y-56.562
G1Z-3.1F500
Y-56.102Z-6.1
Y56.105F1000
Y56.579Z-3.1
X40Y54.668
Y54.122Z-6.1F500
Y-54.111F1000
Y-54.613Z-3.1
G0Z2
X42Y-53.563
G1Z-3.1F500
Y-53.102Z-6.1
Y53.106F1000
Y53.581Z-3.1
G0Z2
X44Y51.612
G1Z-3.1F500
Y51.111Z-6.1
Y-51.107F1000
Y-51.587Z-3.1
X46Y-49.631
Y-49.115Z-6.1F500
Y49.12F1000
Y49.658Z-3.1
X48Y48.564
Y48.103Z-6.1F500
Y-48.101F1000
Y-48.555Z-3.1
X50Y-45.636
Y-45.115Z-6.1F500
Y45.118F1000
Y45.648Z-3.1
X52Y43.597
Y43.109Z-6.1F500
Y-43.106F1000
Y-43.584Z-3.1
X54Y-41.557
Y-41.101Z-6.1F500
Y41.103F1000
Y41.566Z-3.1
X56Y38.577
Y38.105Z-6.1F500
Y-38.103F1000
Y-38.566Z-3.1
G0Z2
X58Y-35.563
G1Z-3.1F500
Y-35.102Z-6.1
Y35.104F1000
Y35.573Z-3.1
X60Y31.614
Y31.112Z-6.1F500
Y-32.101F1000
Y-32.554Z-3.1
X62Y-28.554
Y-28.101Z-6.1F500
Y27.11F1000
Y27.602Z-3.1
G0Z2
X64Y22.618
G1Z-3.1F500
Y22.112Z-6.1
Y-23.101F1000
Y-23.555Z-3.1
G0Z2
X66Y-17.554
G1Z-3.1F500
Y-17.1Z-6.1
Y16.106F1000
Y16.58Z-3.1
G0Z2
X68Y4.592
G1Z-3.1F500
Y4.108Z-6.1
Y-6.101F1000
Y-6.554Z-3.1
G0Z2
X-68Y6.133
G1Z-6.1F500
Y6Z-6.769
Y-3.999F1000
Y-4.123Z-6.1
G0Z2
X-66Y-16.108
G1Z-6.1F500
Y-15.999Z-6.769
Y17F1000
Y17.11Z-6.1
G0Z2
X-64Y23.106
G1Z-6.1F500
Y23Z-6.769
Y-21.999F1000
Y-22.115Z-6.1
G0Z2
X-62Y-27.111
G1Z-6.1F500
Y-26.999Z-6.769
Y28F1000
Y28.1Z-6.1
G0Z2
X-60Y32
G1Z-6.769F500
Y-30.999F1000
Y-31.112Z-6.1
X-58Y-35.102
Y-34.999Z-6.769F500
Y35F1000
Y35.104Z-6.1
G0Z2
X-56Y38.104
G1Z-6.1F500
Y38Z-6.769
Y-37.999F1000
Y-38.103Z-6.1
X-54Y-41.1
Y-40.999Z-6.769F500
Y41F1000
G0Z2
X-52Y43.107
G1Z-6.1F500
Y43Z-6.769
Y-42.999F1000
Y-43.107Z-6.1
X-50Y-45.116
Y-44.999Z-6.769F500
Y45F1000
Y45.118Z-6.1
G0Z2
X-48Y48
G1Z-6.769F500
Y-47.999F1000
G0Z2
X-46Y-49.117
G1Z-6.1F500
Y-48.999Z-6.769
Y49F1000
Y49.116Z-6.1
X-44Y51.106
Y51Z-6.769F500
Y-50.999F1000
Y-51.108Z-6.1
X-42Y-53.102
Y-52.999Z-6.769F500
Y53F1000
Y53.1Z-6.1
G0Z2
X-40Y54.111
G1Z-6.1F500
Y54Z-6.769
Y-53.999F1000
Y-54.118Z-6.1
X-38Y-56.102
Y-55.999Z-6.769F500
Y56F1000
G0Z2
X-36Y57.103
G1Z-6.1F500
Y57Z-6.769
Y-56.999F1000
Y-57.107Z-6.1
X-34Y-58.116
Y-57.999Z-6.769F500
Y58F1000
Y58.108Z-6.1
X-32Y59.113
Y59Z-6.769F500
Y-59.999F1000
X-30Y-60.999
Y60
Y60.114Z-6.1
G0Z2
X-28Y61.112
G1Z-6.1F500
Y61Z-6.769
Y-61.999F1000
X-26Y-62.999
Y62
Y62.108Z-6.1
G0Z2
X-24Y63.103
G1Z-6.1F500
Y63Z-6.769
Y-62.999F1000
Y-63.11Z-6.1
G0Z2
X-22Y-64.104
G1Z-6.1F500
Y-63.999Z-6.769
Y64F1000
Y64.1Z-6.1
X-20Y64.118
Y64Z-6.769F500
Y-64.999F1000
Y-65.1Z-6.1
X-18Y-65.113
Y-64.999Z-6.769F500
Y65F1000
Y65.104Z-6.1
G0Z2
X-16Y66
G1Z-6.769F500
Y-65.999F1000
Y-66.102Z-6.1
X-14Y-66.115
Y-65.999Z-6.769F500
Y66F1000
Y66.104Z-6.1
G0Z2
X-12Y67
G1Z-6.769F500
Y-66.999F1000
Y-67.101Z-6.1
G0Z2
X-10Y-67.107
G1Z-6.1F500
Y-66.999Z-6.769
Y67F1000
Y67.101Z-6.1
X-8Y67.105
Y67Z-6.769F500
Y-66.999F1000
Y-67.121Z-6.1
G0Z2
X-6Y-67.999
G1Z-6.769F500
Y67F1000
Y67.113Z-6.1
G0Z2
X-4Y68
G1Z-6.769F500
Y-67.999F1000
Y-68.102Z-6.1
X-2Y-68.103
Y-67.999Z-6.769F500
Y68F1000
X0
Y-67.999
Y-68.103Z-6.1
X2
Y-67.999Z-6.769F500
Y68F1000
X4
Y-67.999
Y-68.102Z-6.1
X6Y-67.117
Y-66.999Z-6.769F500
Y68F1000
G0Z2
X8Y67.116
G1Z-6.1F500
Y67Z-6.769
Y-66.999F1000
Y-67.109Z-6.1
X10Y-67.104
Y-66.999Z-6.769F500
Y67F1000
Y67.106Z-6.1
X12Y67.102
Y67Z-6.769F500
Y-66.999F1000
Y-67.101Z-6.1
X14Y-66.107
Y-65.999Z-6.769F500
Y66F1000
Y66.121Z-6.1
X16Y66.106
Y66Z-6.769F500
Y-65.999F1000
Y-66.102Z-6.1
G0Z2
X18Y-65.107
G1Z-6.1F500
Y-64.999Z-6.769
Y65F1000
Y65.118Z-6.1
X20Y65.104
Y65Z-6.769F500
Y-63.999F1000
Y-64.121Z-6.1
G0Z2
X22Y-64.103
G1Z-6.1F500
Y-63.999Z-6.769
Y64F1000
Y64.109Z-6.1
X24Y63.115
Y63Z-6.769F500
Y-62.999F1000
Y-63.106Z-6.1
X26Y-62.11
Y-61.999Z-6.769F500
Y63F1000
Y63.102Z-6.1
X28Y62.103
Y62Z-6.769F500
Y-60.999F1000
Y-61.114Z-6.1
X30Y-60.115
Y-59.999Z-6.769F500
Y61F1000
Y61.103Z-6.1
X32Y60.103
Y60Z-6.769F500
Y-58.999F1000
Y-59.114Z-6.1
X34Y-58.109
Y-57.999Z-6.769F500
Y58F1000
Y58.121Z-6.1
X36Y57.111
Y57Z-6.769F500
Y-56.999F1000
Y-57.105Z-6.1
X38Y-56.102
Y-55.999Z-6.769F500
Y56F1000
Y56.105Z-6.1
X40Y54.122
Y54Z-6.769F500
Y-53.999F1000
Y-54.111Z-6.1
X42Y-53.102
Y-52.999Z-6.769F500
Y53F1000
Y53.106Z-6.1
X44Y51.111
Y51Z-6.769F500
Y-50.999F1000
Y-51.107Z-6.1
G0Z2
X46Y-49.115
G1Z-6.1F500
Y-48.999Z-6.769
Y49F1000
Y49.12Z-6.1
X48Y48.103
Y48Z-6.769F500
Y-47.999F1000
Y-48.101Z-6.1
X50Y-45.115
Y-44.999Z-6.769F500
Y45F1000
Y45.118Z-6.1
X52Y43.109
Y43Z-6.769F500
Y-42.999F1000
Y-43.106Z-6.1
X54Y-41.101
Y-40.999Z-6.769F500
Y41F1000
Y41.103Z-6.1
X56Y38.105
Y38Z-6.769F500
Y-37.999F1000
Y-38.103Z-6.1
X58Y-35.102
Y-34.999Z-6.769F500
Y35F1000
Y35.104Z-6.1
X60Y31.112
Y31Z-6.769F500
Y-31.999F1000
Y-32.101Z-6.1
X62Y-28.101
Y-27.999Z-6.769F500
Y27F1000
Y27.11Z-6.1
G0Z2
X64Y22.112
G1Z-6.1F500
Y22Z-6.769
Y-22.999F1000
Y-23.101Z-6.1
G0Z2
X66Y-17.1
G1Z-6.1F500
Y-16.999Z-6.769
Y16F1000
Y16.106Z-6.1
G0Z2
X68Y4.108
G1Z-6.1F500
Y4Z-6.769
Y-5.999F1000
Y-6.101Z-6.1
G0Z2
 
