(Created with grbl post processor 2024/01/11 10:02)
G21
(G-code generated with BlenderCAM and NC library)
G17G90
(Tool: D = 3.0 mm  type END flutes 2)
S12000M03
G00 Z2.0

G0X0Y0Z2
X-98Y99
G1Z-3.1F500
Y-99.999F1000
X-96
Y99
X-94
Y-99.999
X-92
Y99
X-90
Y-99.999
X-88
Y99
X-86
Y-99.999
X-84
Y99
X-82
Y-99.999
X-80
Y99
X-78
Y-99.999
X-76
Y99
X-74
Y-99.999
X-72
Y99
X-70
Y-99.999
X-68
Y99
X-66
Y-99.999
X-64
Y99
X-62
Y-99.999
X-60
Y99
X-58
Y-99.999
X-56
Y99
X-54
Y-99.999
X-52
Y99
X-50
Y-99.999
X-48
Y99
X-46
Y-99.999
X-44
Y99
X-42
Y-99.999
X-40
Y99
X-38
Y-99.999
X-36
Y99
X-34
Y-99.999
X-32
Y99
X-30
Y-99.999
X-28
Y99
X-26
Y-99.999
X-24
Y99
X-22
Y-99.999
X-20
Y99
X-18
Y-99.999
X-16
Y99
X-14
Y-99.999
X-12
Y99
X-10
Y-99.999
X-8
Y99
X-6
Y-99.999
X-4
Y99
X-2
Y-99.999
X0
Y99
X2
Y-99.999
X4
Y99
X6
Y-99.999
X8
Y99
X10
Y-99.999
X12
Y99
X14
Y-99.999
X16
Y99
X18
Y-99.999
X20
Y99
X22
Y-99.999
X24
Y99
X26
Y-99.999
X28
Y99
X30
Y-99.999
X32
Y99
X34
Y-99.999
X36
Y99
X38
Y-99.999
X40
Y99
X42
Y-99.999
X44
Y99
X46
Y-99.999
X48
Y99
X50
Y-99.999
X52
Y99
X54
Y-99.999
X56
Y99
X58
Y-99.999
X60
Y99
X62
Y-99.999
X64
Y99
X66
Y-99.999
X68
Y99
X70
Y-99.999
X72
Y99
X74
Y-99.999
X76
Y99
X78
Y-99.999
X80
Y99
X82
Y-99.999
X84
Y99
X86
Y-99.999
X88
Y99
X90
Y-99.999
X92
Y99
X94
Y-99.999
X96
Y99
X98
Y-99.999
G0Z2
X-98
G1Z-6.1F500
Y99F1000
X-96
Y-99.999
X-94
Y99
X-92
Y-99.999
X-90
Y99
X-88
Y-99.999
X-86
Y99
X-84
Y-99.999
X-82
Y99
X-80
Y-99.999
X-78
Y99
X-76
Y-99.999
X-74
Y99
X-72
Y-99.999
X-70
Y99
X-68
Y-99.999
X-66
Y99
X-64
Y-99.999
X-62
Y99
X-60
Y-99.999
X-58
Y99
X-56
Y-99.999
X-54
Y99
X-52
Y-99.999
X-50
Y99
X-48
Y-99.999
X-46
Y99
X-44
Y-99.999
X-42
Y99
X-40
Y-99.999
X-38
Y99
X-36
Y-99.999
X-34
Y99
X-32
Y-99.999
X-30
Y99
X-28
Y-99.999
X-26
Y99
X-24
Y-99.999
X-22
Y99
X-20
Y-99.999
X-18
Y99
X-16
Y-99.999
X-14
Y99
X-12
Y-99.999
X-10
Y99
X-8
Y-99.999
X-6
Y99
X-4
Y-99.999
X-2
Y99
X0
Y-99.999
X2
Y99
X4
Y-99.999
X6
Y99
X8
Y-99.999
X10
Y99
X12
Y-99.999
X14
Y99
X16
Y-99.999
X18
Y99
X20
Y-99.999
X22
Y99
X24
Y-99.999
X26
Y99
X28
Y-99.999
X30
Y99
X32
Y-99.999
X34
Y99
X36
Y-99.999
X38
Y99
X40
Y-99.999
X42
Y99
X44
Y-99.999
X46
Y99
X48
Y-99.999
X50
Y99
X52
Y-99.999
X54
Y99
X56
Y-99.999
X58
Y99
X60
Y-99.999
X62
Y99
X64
Y-99.999
X66
Y99
X68
Y-99.999
X70
Y99
X72
Y-99.999
X74
Y99
X76
Y-99.999
X78
Y99
X80
Y-99.999
X82
Y99
X84
Y-99.999
X86
Y99
X88
Y-99.999
X90
Y99
X92
Y-99.999
X94
Y99
X96
Y-99.999
X98
Y99
G0Z2
X-98
G1Z-9.1F500
Y-99.999F1000
X-96
Y99
X-94
Y-99.999
X-92
Y99
X-90
Y-99.999
X-88
Y99
X-86
Y-99.999
X-84
Y99
X-82
Y-99.999
X-80
Y99
X-78
Y-99.999
X-76
Y99
X-74
Y-99.999
X-72
Y99
X-70
Y-99.999
X-68
Y99
X-66
Y-99.999
X-64
Y99
X-62
Y-99.999
X-60
Y99
X-58
Y-99.999
X-56
Y99
X-54
Y-99.999
X-52
Y99
X-50
Y-99.999
X-48
Y99
X-46
Y-99.999
X-44
Y99
X-42
Y-99.999
X-40
Y99
X-38
Y-99.999
X-36
Y99
X-34
Y-99.999
X-32
Y99
X-30
Y-99.999
X-28
Y99
X-26
Y-99.999
X-24
Y99
X-22
Y-99.999
X-20
Y99
X-18
Y-99.999
X-16
Y99
X-14
Y-99.999
X-12
Y99
X-10
Y-99.999
X-8
Y99
X-6
Y-99.999
X-4
Y99
X-2
Y-99.999
X0
Y99
X2
Y-99.999
X4
Y99
X6
Y-99.999
X8
Y99
X10
Y-99.999
X12
Y99
X14
Y-99.999
X16
Y99
X18
Y-99.999
X20
Y99
X22
Y-99.999
X24
Y99
X26
Y-99.999
X28
Y99
X30
Y-99.999
X32
Y99
X34
Y-99.999
X36
Y99
X38
Y-99.999
X40
Y99
X42
Y-99.999
X44
Y99
X46
Y-99.999
X48
Y99
X50
Y-99.999
X52
Y99
X54
Y-99.999
X56
Y99
X58
Y-99.999
X60
Y99
X62
Y-99.999
X64
Y99
X66
Y-99.999
X68
Y99
X70
Y-99.999
X72
Y99
X74
Y-99.999
X76
Y99
X78
Y-99.999
X80
Y99
X82
Y-99.999
X84
Y99
X86
Y-99.999
X88
Y99
X90
Y-99.999
X92
Y99
X94
Y-99.999
X96
Y99
X98
Y-99.999
G0Z2
X-98
G1Z-10F500
Y99F1000
X-96
Y-99.999
X-94
Y99
X-92
Y-99.999
X-90
Y99
X-88
Y-99.999
X-86
Y99
X-84
Y-99.999
X-82
Y99
X-80
Y-99.999
X-78
Y99
X-76
Y-99.999
X-74
Y99
X-72
Y-99.999
X-70
Y99
X-68
Y-99.999
X-66
Y99
X-64
Y-99.999
X-62
Y99
X-60
Y-99.999
X-58
Y99
X-56
Y-99.999
X-54
Y99
X-52
Y-99.999
X-50
Y99
X-48
Y-99.999
X-46
Y99
X-44
Y-99.999
X-42
Y99
X-40
Y-99.999
X-38
Y99
X-36
Y-99.999
X-34
Y99
X-32
Y-99.999
X-30
Y99
X-28
Y-99.999
X-26
Y99
X-24
Y-99.999
X-22
Y99
X-20
Y-99.999
X-18
Y99
X-16
Y-99.999
X-14
Y99
X-12
Y-99.999
X-10
Y99
X-8
Y-99.999
X-6
Y99
X-4
Y-99.999
X-2
Y99
X0
Y-99.999
X2
Y99
X4
Y-99.999
X6
Y99
X8
Y-99.999
X10
Y99
X12
Y-99.999
X14
Y99
X16
Y-99.999
X18
Y99
X20
Y-99.999
X22
Y99
X24
Y-99.999
X26
Y99
X28
Y-99.999
X30
Y99
X32
Y-99.999
X34
Y99
X36
Y-99.999
X38
Y99
X40
Y-99.999
X42
Y99
X44
Y-99.999
X46
Y99
X48
Y-99.999
X50
Y99
X52
Y-99.999
X54
Y99
X56
Y-99.999
X58
Y99
X60
Y-99.999
X62
Y99
X64
Y-99.999
X66
Y99
X68
Y-99.999
X70
Y99
X72
Y-99.999
X74
Y99
X76
Y-99.999
X78
Y99
X80
Y-99.999
X82
Y99
X84
Y-99.999
X86
Y99
X88
Y-99.999
X90
Y99
X92
Y-99.999
X94
Y99
X96
Y-99.999
X98
Y99
G0Z2
 
