(Created with grbl post processor 2024/09/04 21:16)
G21
(G-code Generated with Fabex and NC library)
G17G90
(Tool: D = 3.0 mm  type END flutes 2)
S12000M03
G00 Z10.0

G0X0Y0Z10
X-66Y-18
G1Z-5.1F500
Y17.999F1000
G0Z10
X-63Y-26.5
G1Z-5.1F500
Y26.499F1000
G0Z10
X-60Y-33
G1Z-5.1F500
Y32.999F1000
G0Z10
X-57Y-37.5
G1Z-5.1F500
Y37.499F1000
G0Z10
X-54Y-42
G1Z-5.1F500
Y41.999F1000
G0Z10
X-51Y-45.5
G1Z-5.1F500
Y45.499F1000
G0Z10
X-48Y-48.5
G1Z-5.1F500
Y48.499F1000
G0Z10
X-45Y-51.5
G1Z-5.1F500
Y51.499F1000
G0Z10
X-42Y-54
G1Z-5.1F500
Y53.999F1000
G0Z10
X-39Y-56
G1Z-5.1F500
Y55.999F1000
G0Z10
X-36Y-58
G1Z-5.1F500
Y57.999F1000
G0Z10
X-33Y-60
G1Z-5.1F500
Y59.999F1000
G0Z10
X-30Y-61.5
G1Z-5.1F500
Y61.499F1000
G0Z10
X-27Y-62.5
G1Z-5.1F500
Y62.499F1000
G0Z10
X-24Y-64
G1Z-5.1F500
Y63.999F1000
G0Z10
X-21Y-65
G1Z-5.1F500
Y64.999F1000
G0Z10
X-18Y-66
G1Z-5.1F500
Y65.999F1000
G0Z10
X-15Y-66.5
G1Z-5.1F500
Y66.499F1000
G0Z10
X-12Y-67
G1Z-5.1F500
Y66.999F1000
G0Z10
X-9Y-67.5
G1Z-5.1F500
Y67.499F1000
G0Z10
X-6Y-68
G1Z-5.1F500
Y67.999F1000
G0Z10
X-3Y-68
G1Z-5.1F500
Y67.999F1000
G0Z10
X0Y-68
G1Z-5.1F500
Y68.499F1000
G0Z10
X3Y-68
G1Z-5.1F500
Y67.999F1000
G0Z10
X6Y-68
G1Z-5.1F500
Y67.999F1000
G0Z10
X9Y-67.5
G1Z-5.1F500
Y67.499F1000
G0Z10
X12Y-67
G1Z-5.1F500
Y66.999F1000
G0Z10
X15Y-66.5
G1Z-5.1F500
Y66.499F1000
G0Z10
X18Y-66
G1Z-5.1F500
Y65.999F1000
G0Z10
X21Y-65
G1Z-5.1F500
Y64.999F1000
G0Z10
X24Y-64
G1Z-5.1F500
Y63.999F1000
G0Z10
X27Y-62.5
G1Z-5.1F500
Y62.499F1000
G0Z10
X30Y-61.5
G1Z-5.1F500
Y61.499F1000
G0Z10
X33Y-60
G1Z-5.1F500
Y59.999F1000
G0Z10
X36Y-58
G1Z-5.1F500
Y57.999F1000
G0Z10
X39Y-56
G1Z-5.1F500
Y55.999F1000
G0Z10
X42Y-54
G1Z-5.1F500
Y53.999F1000
G0Z10
X45Y-51.5
G1Z-5.1F500
Y51.499F1000
G0Z10
X48Y-48.5
G1Z-5.1F500
Y48.499F1000
G0Z10
X51Y-45.5
G1Z-5.1F500
Y45.499F1000
G0Z10
X54Y-42
G1Z-5.1F500
Y41.999F1000
G0Z10
X57Y-37.5
G1Z-5.1F500
Y37.499F1000
G0Z10
X60Y-33
G1Z-5.1F500
Y32.999F1000
G0Z10
X63Y-26.5
G1Z-5.1F500
Y26.499F1000
G0Z10
X66Y-18
G1Z-5.1F500
Y17.999F1000
G0Z10
X-66Y-18
G1Z-6.912F500
Y17.999F1000
G0Z10
X-63Y-26.5
G1Z-6.912F500
Y26.499F1000
G0Z10
X-60Y-33
G1Z-6.912F500
Y32.999F1000
G0Z10
X-57Y-37.5
G1Z-6.912F500
Y37.499F1000
G0Z10
X-54Y-42
G1Z-6.912F500
Y41.999F1000
G0Z10
X-51Y-45.5
G1Z-6.912F500
Y45.499F1000
G0Z10
X-48Y-48.5
G1Z-6.912F500
Y48.499F1000
G0Z10
X-45Y-51.5
G1Z-6.912F500
Y51.499F1000
G0Z10
X-42Y-54
G1Z-6.912F500
Y53.999F1000
G0Z10
X-39Y-56
G1Z-6.912F500
Y55.999F1000
G0Z10
X-36Y-58
G1Z-6.912F500
Y57.999F1000
G0Z10
X-33Y-60
G1Z-6.912F500
Y59.999F1000
G0Z10
X-30Y-61.5
G1Z-6.912F500
Y61.499F1000
G0Z10
X-27Y-62.5
G1Z-6.912F500
Y62.499F1000
G0Z10
X-24Y-64
G1Z-6.912F500
Y63.999F1000
G0Z10
X-21Y-65
G1Z-6.912F500
Y64.999F1000
G0Z10
X-18Y-66
G1Z-6.912F500
Y65.999F1000
G0Z10
X-15Y-66.5
G1Z-6.912F500
Y66.499F1000
G0Z10
X-12Y-67
G1Z-6.912F500
Y66.999F1000
G0Z10
X-9Y-67.5
G1Z-6.912F500
Y67.499F1000
G0Z10
X-6Y-68
G1Z-6.912F500
Y67.999F1000
G0Z10
X-3Y-68
G1Z-6.912F500
Y67.999F1000
G0Z10
X0Y-68
G1Z-6.912F500
Y68.499F1000
G0Z10
X3Y-68
G1Z-6.912F500
Y67.999F1000
G0Z10
X6Y-68
G1Z-6.912F500
Y67.999F1000
G0Z10
X9Y-67.5
G1Z-6.912F500
Y67.499F1000
G0Z10
X12Y-67
G1Z-6.912F500
Y66.999F1000
G0Z10
X15Y-66.5
G1Z-6.912F500
Y66.499F1000
G0Z10
X18Y-66
G1Z-6.912F500
Y65.999F1000
G0Z10
X21Y-65
G1Z-6.912F500
Y64.999F1000
G0Z10
X24Y-64
G1Z-6.912F500
Y63.999F1000
G0Z10
X27Y-62.5
G1Z-6.912F500
Y62.499F1000
G0Z10
X30Y-61.5
G1Z-6.912F500
Y61.499F1000
G0Z10
X33Y-60
G1Z-6.912F500
Y59.999F1000
G0Z10
X36Y-58
G1Z-6.912F500
Y57.999F1000
G0Z10
X39Y-56
G1Z-6.912F500
Y55.999F1000
G0Z10
X42Y-54
G1Z-6.912F500
Y53.999F1000
G0Z10
X45Y-51.5
G1Z-6.912F500
Y51.499F1000
G0Z10
X48Y-48.5
G1Z-6.912F500
Y48.499F1000
G0Z10
X51Y-45.5
G1Z-6.912F500
Y45.499F1000
G0Z10
X54Y-42
G1Z-6.912F500
Y41.999F1000
G0Z10
X57Y-37.5
G1Z-6.912F500
Y37.499F1000
G0Z10
X60Y-33
G1Z-6.912F500
Y32.999F1000
G0Z10
X63Y-26.5
G1Z-6.912F500
Y26.499F1000
G0Z10
X66Y-18
G1Z-6.912F500
Y17.999F1000
G0Z10
 
