(Created with grbl post processor 2024/12/14 11:54)
G21
(G-code Generated with Fabex and NC library)
G17G90
(Tool: D = 3.0 mm  type END flutes 2)
S12000M03
G00 Z2.0

G0X0Y0Z2
X-68Y-8.397
G1Z-3F500
Y8.402F1000
G0Z2
X-67Y14.602
G1Z0F500
Y14.202F1000
Z-3F500
Y-14.197F1000
Z0
Y-14.597
G0Z2
X-66Y-18.597
G1Z0F500
Y-18.397Z-0.157
Y-18.197Z-3
Y18.202F1000
Z0
Y18.602
G0Z2
X-65Y21.402
G1Z-3F500
Y-21.397F1000
Y-21.597Z-0.157
G0Z2
X-64Y-24.397
G1Z-0.157F500
Y-24.197Z-3
Y24.202F1000
G0Z2
X-63Y26.802
G1Z0F500
Z-3
Y-26.797F1000
Y-26.997Z-0.158
G0Z2
X-62Y-29.197
G1Z-0.158F500
Y-28.997Z-3
Y29.002F1000
X-61Y31.002
Y-30.997
Y-31.197Z-0.158
G0Z2
X-60Y-32.997
G1Z-3F500
Y33.002F1000
X-59Y34.802
Y-34.797
X-58Y-36.397
Y36.402
X-57Y37.802
Y-37.797
Y-37.997Z-0.159
G0Z2
X-56Y-39.397
G1Z-3F500
Y39.402F1000
X-55Y40.802
Y-40.797
G0Z2
X-54Y-42.197
G1Z-0.159F500
Y-41.997Z-3
Y42.002F1000
Y42.202Z0
G0Z2
X-53Y43.202
G1Z-3F500
Y-43.197F1000
Y-43.397Z-0.159
G0Z2
X-52Y-44.597
G1Z-0.16F500
Y-44.397Z-3
Y44.402F1000
Y44.602Z0
G0Z2
X-51Y45.602
G1Z-3F500
Y-45.597F1000
Y-45.797Z-0.16
G0Z2
X-50Y-46.797
G1Z-3F500
Y46.802F1000
X-49Y47.802
Y-47.797
X-48Y-48.797
Y48.802
X-47Y49.802
Y-49.797
G0Z2
X-46Y-50.797
G1Z-0.16F500
Y-50.597Z-3
Y50.602F1000
X-45Y51.602
Y-51.597
X-44Y-52.397
Y52.402
X-43Y53.202
Y-53.197
Y-53.397Z-0.16
G0Z2
X-42Y-53.997
G1Z-3F500
Y54.002F1000
X-41Y54.802
Y-54.797
G0Z2
X-40Y-55.597
G1Z-0.161F500
Y-55.397Z-3
Y55.402F1000
X-39Y56.202
Y-56.197
G0Z2
X-38Y-56.997
G1Z-0.161F500
Y-56.797Z-3
Y56.802F1000
Y57.002Z0
G0Z2
X-37Y57.602
G1Z-3F500
Y-57.597F1000
X-36Y-58.197
Y58.202
X-35Y58.802
Y-58.797
X-34Y-59.397
Y59.402
X-33Y60.002
Y-59.997
G0Z2
X-32Y-60.597
G1Z-0.161F500
Y-60.397Z-3
Y60.402F1000
Y60.602Z0
G0Z2
X-31Y61.002
G1Z-3F500
Y-60.997F1000
G0Z2
X-30Y-61.597
G1Z-0.162F500
Y-61.397Z-3
Y61.402F1000
Y61.602Z0
G0Z2
X-29Y62.002
G1Z-3F500
Y-61.997F1000
G0Z2
X-28Y-62.597
G1Z-0.161F500
Y-62.397Z-3
Y62.402F1000
G0Z2
X-27Y62.802
G1Z0F500
Z-3
Y-62.797F1000
Y-62.997Z-0.161
G0Z2
X-26Y-63.397
G1Z-0.161F500
Y-63.197Z-3
Y63.202F1000
Y63.402Z0
G0Z2
X-25Y63.602
G1Z0F500
Z-3
Y-63.597F1000
Y-63.797Z-0.16
G0Z2
X-24Y-64.197
G1Z-0.159F500
Y-63.997Z-3
Y64.002F1000
X-23Y64.402
Y-64.397
Y-64.597Z-0.159
G0Z2
X-22Y-64.797
G1Z-3F500
Y64.802F1000
G0Z2
X-21Y65.002
G1Z0F500
Z-3
Y-64.997F1000
Y-65.197Z-0.159
G0Z2
X-20Y-65.597
G1Z-0.158F500
Y-65.397Z-3
Y65.402F1000
X-19Y65.802
Y-65.797
X-18Y-65.997
Y66.002
X-17Y66.202
Y-66.197
Y-66.397Z-0.157
G0Z2
X-16Y-66.597
G1Z-3F500
Y66.602F1000
X-15Y66.802
Y-66.797
X-14Y-66.997
Y67.002
X-13Y67.202
Y-67.197
X-12Y-67.397
Y67.402
X-11Y67.602
Y-67.597
X-10Y-67.797
Y67.802
X-9
Y-67.797
Y-67.997Z-0.155
G0Z2
X-8
G1Z-3F500
Y68.002F1000
X-7
Y-67.997
Y-68.197Z-0.155
G0Z2
X-6
G1Z-3F500
Y68.202F1000
X-5
Y-68.197
Y-68.397Z-0.154
G0Z2
X-4
G1Z-3F500
Y68.402F1000
X-3
Y-68.397
Y-68.597Z-0.154
X-2
Y-68.397Z-3F500
Y68.402F1000
X-1
Y-68.397
Y-68.597Z-0.154
X0
Y-68.397Z-3F500
Y68.402F1000
X1
Y-68.397
Y-68.597Z-0.154
X2
Y-68.397Z-3F500
Y68.402F1000
X3
Y-68.397
Y-68.597Z-0.154
G0Z2
X4Y-68.397
G1Z-3F500
Y68.402F1000
X5Y68.202
Y-68.197
Y-68.397Z-0.154
G0Z2
X6Y-68.197
G1Z-3F500
Y68.202F1000
X7Y68.002
Y-67.997
Y-68.197Z-0.155
G0Z2
X8Y-67.997
G1Z-3F500
Y68.002F1000
X9Y67.802
Y-67.797
Y-67.997Z-0.155
G0Z2
X10Y-67.797
G1Z-3F500
Y67.802F1000
X11Y67.602
Y-67.597
X12Y-67.397
Y67.402
X13Y67.202
Y-67.197
X14Y-66.997
Y67.002
X15Y66.802
Y-66.797
X16Y-66.597
Y66.602
X17Y66.202
Y-66.197
Y-66.397Z-0.157
G0Z2
X18Y-65.997
G1Z-3F500
Y66.002F1000
X19Y65.802
Y-65.797
G0Z2
X20Y-65.597
G1Z-0.158F500
Y-65.397Z-3
Y65.402F1000
X21Y65.002
Y-64.997
Y-65.197Z-0.158
G0Z2
X22Y-64.797
G1Z-3F500
Y64.802F1000
X23Y64.402
Y-64.397
Y-64.597Z-0.159
G0Z2
X24Y-64.197
G1Z-0.159F500
Y-63.997Z-3
Y64.002F1000
X25Y63.602
Y-63.597
Y-63.797Z-0.16
G0Z2
X26Y-63.397
G1Z-0.16F500
Y-63.197Z-3
Y63.202F1000
X27Y62.802
Y-62.797
Y-62.997Z-0.161
G0Z2
X28Y-62.597
G1Z-0.161F500
Y-62.397Z-3
Y62.402F1000
X29Y62.002
Y-61.997
G0Z2
X30Y-61.597
G1Z-0.161F500
Y-61.397Z-3
Y61.402F1000
X31Y61.002
Y-60.997
G0Z2
X32Y-60.597
G1Z-0.161F500
Y-60.397Z-3
Y60.402F1000
X33Y60.002
Y-59.997
X34Y-59.397
Y59.402
X35Y58.802
Y-58.797
X36Y-58.197
Y58.202
X37Y57.602
Y-57.597
G0Z2
X38Y-56.997
G1Z-0.161F500
Y-56.797Z-3
Y56.802F1000
X39Y56.202
Y-56.197
G0Z2
X40Y-55.597
G1Z-0.16F500
Y-55.397Z-3
Y55.402F1000
X41Y54.802
Y-54.797
X42Y-53.997
Y54.002
X43Y53.202
Y-53.197
Y-53.397Z-0.16
G0Z2
X44Y-52.397
G1Z-3F500
Y52.402F1000
X45Y51.602
Y-51.597
G0Z2
X46Y-50.797
G1Z-0.16F500
Y-50.597Z-3
Y50.602F1000
X47Y49.802
Y-49.797
X48Y-48.797
Y48.802
X49Y47.802
Y-47.797
X50Y-46.797
Y46.802
X51Y45.602
Y-45.597
Y-45.797Z-0.159
G0Z2
X52Y-44.597
G1Z-0.159F500
Y-44.397Z-3
Y44.402F1000
X53Y43.202
Y-43.197
Y-43.397Z-0.159
G0Z2
X54Y-42.197
G1Z-0.159F500
Y-41.997Z-3
Y42.002F1000
X55Y40.802
Y-40.797
X56Y-39.397
Y39.402
X57Y37.802
Y-37.797
Y-37.997Z-0.158
G0Z2
X58Y-36.397
G1Z-3F500
Y36.402F1000
X59Y34.802
Y-34.797
X60Y-32.997
Y33.002
X61Y31.002
Y-30.997
Y-31.197Z-0.158
G0Z2
X62Y-29.197
G1Z-0.157F500
Y-28.997Z-3
Y29.002F1000
X63Y26.802
Y-26.797
Y-26.997Z-0.157
G0Z2
X64Y-24.397
G1Z-0.157F500
Y-24.197Z-3
Y24.202F1000
G0Z2
X65Y21.402
G1Z-3F500
Y-21.397F1000
Y-21.597Z-0.156
G0Z2
X66Y-18.397
G1Z-0.156F500
Y-18.197Z-3
Y18.202F1000
G0Z2
X67Y14.202
G1Z-3F500
Y-14.197F1000
G0Z2
X68Y-8.397
G1Z-3F500
Y8.402F1000
G0Z2
X-68
G1Z-6F500
Y-8.397F1000
G0Z2
X-67Y-14.197
G1Z-3F500
Z-6
Y14.202F1000
Z-3
G0Z2
X-66Y18.202
G1Z-3F500
Z-6
Y-18.197F1000
Z-3
G0Z2
X-65Y-21.397
G1Z-3F500
Z-6
Y21.402F1000
G0Z2
X-64Y24.202
G1Z-6F500
Y-24.197F1000
Z-3
G0Z2
X-63Y-26.797
G1Z-3F500
Z-6
Y26.802F1000
Z-3
G0Z2
X-62Y29.002
G1Z-6F500
Y-28.997F1000
Z-3
G0Z2
X-61Y-30.997
G1Z-3F500
Z-6
Y31.002F1000
X-60Y33.002
Y-32.997
X-59Y-34.797
Y34.802
X-58Y36.402
Y-36.397
G0Z2
X-57Y-37.797
G1Z-3F500
Z-6
Y37.802F1000
X-56Y39.402
Y-39.397
X-55Y-40.797
Y40.802
G0Z2
X-54Y42.002
G1Z-3F500
Z-6
Y-41.997F1000
Z-3
G0Z2
X-53Y-43.197
G1Z-3F500
Z-6
Y43.202F1000
G0Z2
X-52Y44.402
G1Z-3F500
Z-6
Y-44.397F1000
Z-3
X-51Y-45.597
Z-6F500
Y45.602F1000
X-50Y46.802
Y-46.797
X-49Y-47.797
Y47.802
X-48Y48.802
Y-48.797
X-47Y-49.797
Y49.802
X-46Y50.602
Y-50.597
Z-3
G0Z2
X-45Y-51.597
G1Z-6F500
Y51.602F1000
X-44Y52.402
Y-52.397
G0Z2
X-43Y-53.197
G1Z-3F500
Z-6
Y53.202F1000
X-42Y54.002
Y-53.997
X-41Y-54.797
Y54.802
X-40Y55.402
Y-55.397
Z-3
G0Z2
X-39Y-56.197
G1Z-6F500
Y56.202F1000
G0Z2
X-38Y56.802
G1Z-3F500
Z-6
Y-56.797F1000
Z-3
G0Z2
X-37Y-57.597
G1Z-6F500
Y57.602F1000
X-36Y58.202
Y-58.197
X-35Y-58.797
Y58.802
X-34Y59.402
Y-59.397
X-33Y-59.997
Y60.002
G0Z2
X-32Y60.402
G1Z-3F500
Z-6
Y-60.397F1000
Z-3
G0Z2
X-31Y-60.997
G1Z-6F500
Y61.002F1000
G0Z2
X-30Y61.402
G1Z-3F500
Z-6
Y-61.397F1000
Z-3
G0Z2
X-29Y-61.997
G1Z-6F500
Y62.002F1000
X-28Y62.402
Y-62.397
Z-3
X-27Y-62.797
Z-6F500
Y62.802F1000
Z-3
X-26Y63.202
Z-6F500
Y-63.197F1000
Z-3
X-25Y-63.597
Z-6F500
Y63.602F1000
Z-3
G0Z2
X-24Y64.002
G1Z-6F500
Y-63.997F1000
Z-3
X-23Y-64.397
Z-6F500
Y64.402F1000
X-22Y64.802
Y-64.797
G0Z2
X-21Y-64.997
G1Z-3F500
Z-6
Y65.002F1000
Z-3
G0Z2
X-20Y65.402
G1Z-6F500
Y-65.397F1000
Z-3
G0Z2
X-19Y-65.797
G1Z-6F500
Y65.802F1000
X-18Y66.002
Y-65.997
G0Z2
X-17Y-66.197
G1Z-3F500
Z-6
Y66.202F1000
X-16Y66.602
Y-66.597
X-15Y-66.797
Y66.802
X-14Y67.002
Y-66.997
X-13Y-67.197
Y67.202
X-12Y67.402
Y-67.397
X-11Y-67.597
Y67.602
X-10Y67.802
Y-67.797
G0Z2
X-9
G1Z-3F500
Z-6
Y67.802F1000
X-8Y68.002
Y-67.997
G0Z2
X-7
G1Z-3F500
Z-6
Y68.002F1000
X-6Y68.202
Y-68.197
G0Z2
X-5
G1Z-3F500
Z-6
Y68.202F1000
X-4Y68.402
Y-68.397
G0Z2
X-3
G1Z-3F500
Z-6
Y68.402F1000
X-2
Y-68.397
Z-3
X-1
Z-6F500
Y68.402F1000
X0
Y-68.397
Z-3
X1
Z-6F500
Y68.402F1000
X2
Y-68.397
Z-3
X3
Z-6F500
Y68.402F1000
X4
Y-68.397
G0Z2
X5Y-68.197
G1Z-3F500
Z-6
Y68.202F1000
X6
Y-68.197
G0Z2
X7Y-67.997
G1Z-3F500
Z-6
Y68.002F1000
X8
Y-67.997
G0Z2
X9Y-67.797
G1Z-3F500
Z-6
Y67.802F1000
X10
Y-67.797
X11Y-67.597
Y67.602
X12Y67.402
Y-67.397
X13Y-67.197
Y67.202
X14Y67.002
Y-66.997
X15Y-66.797
Y66.802
X16Y66.602
Y-66.597
G0Z2
X17Y-66.197
G1Z-3F500
Z-6
Y66.202F1000
X18Y66.002
Y-65.997
X19Y-65.797
Y65.802
X20Y65.402
Y-65.397
Z-3
G0Z2
X21Y-64.997
G1Z-3F500
Z-6
Y65.002F1000
X22Y64.802
Y-64.797
G0Z2
X23Y-64.397
G1Z-3F500
Z-6
Y64.402F1000
X24Y64.002
Y-63.997
Z-3
X25Y-63.597
Z-6F500
Y63.602F1000
X26Y63.202
Y-63.197
Z-3
G0Z2
X27Y-62.797
G1Z-3F500
Z-6
Y62.802F1000
X28Y62.402
Y-62.397
Z-3
G0Z2
X29Y-61.997
G1Z-6F500
Y62.002F1000
X30Y61.402
Y-61.397
Z-3
G0Z2
X31Y-60.997
G1Z-6F500
Y61.002F1000
X32Y60.402
Y-60.397
Z-3
G0Z2
X33Y-59.997
G1Z-6F500
Y60.002F1000
X34Y59.402
Y-59.397
X35Y-58.797
Y58.802
X36Y58.202
Y-58.197
X37Y-57.597
Y57.602
X38Y56.802
Y-56.797
Z-3
G0Z2
X39Y-56.197
G1Z-6F500
Y56.202F1000
X40Y55.402
Y-55.397
Z-3
G0Z2
X41Y-54.797
G1Z-6F500
Y54.802F1000
X42Y54.002
Y-53.997
G0Z2
X43Y-53.197
G1Z-3F500
Z-6
Y53.202F1000
X44Y52.402
Y-52.397
X45Y-51.597
Y51.602
X46Y50.602
Y-50.597
Z-3
G0Z2
X47Y-49.797
G1Z-6F500
Y49.802F1000
X48Y48.802
Y-48.797
X49Y-47.797
Y47.802
X50Y46.802
Y-46.797
G0Z2
X51Y-45.597
G1Z-3F500
Z-6
Y45.602F1000
X52Y44.402
Y-44.397
Z-3
X53Y-43.197
Z-6F500
Y43.202F1000
X54Y42.002
Y-41.997
Z-3
G0Z2
X55Y-40.797
G1Z-6F500
Y40.802F1000
X56Y39.402
Y-39.397
G0Z2
X57Y-37.797
G1Z-3F500
Z-6
Y37.802F1000
X58Y36.402
Y-36.397
X59Y-34.797
Y34.802
X60Y33.002
Y-32.997
G0Z2
X61Y-30.997
G1Z-3F500
Z-6
Y31.002F1000
X62Y29.002
Y-28.997
Z-3
X63Y-26.797
Z-6F500
Y26.802F1000
G0Z2
X64Y24.202
G1Z-6F500
Y-24.197F1000
Z-3
G0Z2
X65Y-21.397
G1Z-3F500
Z-6
Y21.402F1000
G0Z2
X66Y18.202
G1Z-6F500
Y-18.197F1000
Z-3
G0Z2
X67Y-14.197
G1Z-6F500
Y14.202F1000
G0Z2
X68Y8.402
G1Z-6F500
Y-8.397F1000
G0Z2
X-68
G1Z-6.912F500
Y8.202F1000
Y8.402Z-6.756
G0Z2
X-67Y14.202
G1Z-6F500
Z-6.757
Y14.002Z-6.912
Y-14.197F1000
Z-6
G0Z2
X-66Y-18.197
G1Z-6F500
Z-6.912
Y18.202F1000
Z-6
G0Z2
X-65Y21.402
G1Z-6.912F500
Y-21.397F1000
Z-6
G0Z2
X-64Y-24.197
G1Z-6F500
Z-6.912
Y24.202F1000
G0Z2
X-63Y26.802
G1Z-6F500
Z-6.912
Y-26.797F1000
Z-6
X-62Y-28.997
Z-6.912F500
Y29.002F1000
X-61Y31.002
Y-30.997
Z-6
G0Z2
X-60Y-32.997
G1Z-6.912F500
Y32.802F1000
Y33.002Z-6.759
G0Z2
X-59Y34.802
G1Z-6.759F500
Y34.602Z-6.912
Y-34.797F1000
X-58Y-36.397
Y36.202
Y36.402Z-6.759
G0Z2
X-57Y37.802
G1Z-6.912F500
Y-37.797F1000
Z-6
G0Z2
X-56Y-39.397
G1Z-6.912F500
Y39.202F1000
Y39.402Z-6.76
G0Z2
X-55Y40.802
G1Z-6.76F500
Y40.602Z-6.912
Y-40.797F1000
G0Z2
X-54Y-41.997
G1Z-6F500
Z-6.912
Y42.002F1000
Z-6
G0Z2
X-53Y43.202
G1Z-6.912F500
Y-43.197F1000
Z-6
X-52Y-44.397
Z-6.912F500
Y44.402F1000
Z-6
G0Z2
X-51Y45.602
G1Z-6.912F500
Y-45.597F1000
Z-6
G0Z2
X-50Y-46.797
G1Z-6.912F500
Y46.602F1000
Y46.802Z-6.761
G0Z2
X-49Y47.802
G1Z-6.761F500
Y47.602Z-6.912
Y-47.797F1000
X-48Y-48.797
Y48.602
Y48.802Z-6.761
G0Z2
X-47Y49.802
G1Z-6.761F500
Y49.602Z-6.912
Y-49.797F1000
G0Z2
X-46Y-50.597
G1Z-6F500
Z-6.912
Y50.602F1000
G0Z2
X-45Y51.602
G1Z-6.761F500
Y51.402Z-6.912
Y-51.597F1000
X-44Y-52.397
Y52.202
Y52.402Z-6.761
G0Z2
X-43Y53.202
G1Z-6.912F500
Y-53.197F1000
Z-6
G0Z2
X-42Y-53.997
G1Z-6.912F500
Y53.802F1000
Y54.002Z-6.761
G0Z2
X-41Y54.802
G1Z-6.761F500
Y54.602Z-6.912
Y-54.797F1000
G0Z2
X-40Y-55.397
G1Z-6F500
Z-6.912
Y55.402F1000
G0Z2
X-39Y56.202
G1Z-6.762F500
Y56.002Z-6.912
Y-56.197F1000
G0Z2
X-38Y-56.797
G1Z-6F500
Z-6.912
Y56.802F1000
Z-6
G0Z2
X-37Y57.602
G1Z-6.762F500
Y57.402Z-6.912
Y-57.597F1000
X-36Y-58.197
Y58.002
Y58.202Z-6.762
G0Z2
X-35Y58.802
G1Z-6.762F500
Y58.602Z-6.912
Y-58.797F1000
X-34Y-59.397
Y59.202
Y59.402Z-6.762
G0Z2
X-33Y60.002
G1Z-6.762F500
Y59.802Z-6.912
Y-59.997F1000
G0Z2
X-32Y-60.397
G1Z-6F500
Z-6.912
Y60.402F1000
Z-6
G0Z2
X-31Y61.002
G1Z-6.762F500
Y60.802Z-6.912
Y-60.997F1000
G0Z2
X-30Y-61.397
G1Z-6F500
Z-6.912
Y61.402F1000
Z-6
G0Z2
X-29Y62.002
G1Z-6.762F500
Y61.802Z-6.912
Y-61.997F1000
G0Z2
X-28Y-62.397
G1Z-6F500
Z-6.912
Y62.402F1000
G0Z2
X-27Y62.802
G1Z-6F500
Z-6.912
Y-62.797F1000
Z-6
X-26Y-63.197
Z-6.912F500
Y63.202F1000
Z-6
X-25Y63.602
Z-6.912F500
Y-63.597F1000
Z-6
X-24Y-63.997
Z-6.912F500
Y64.002F1000
X-23Y64.402
Y-64.397
Z-6
G0Z2
X-22Y-64.797
G1Z-6.912F500
Y64.602F1000
Y64.802Z-6.76
G0Z2
X-21Y65.002
G1Z-6F500
Z-6.912
Y-64.997F1000
Z-6
X-20Y-65.397
Z-6.912F500
Y65.402F1000
G0Z2
X-19Y65.802
G1Z-6.759F500
Y65.602Z-6.912
Y-65.797F1000
X-18Y-65.997
Y65.802
Y66.002Z-6.758
G0Z2
X-17Y66.202
G1Z-6.912F500
Y-66.197F1000
Z-6
G0Z2
X-16Y-66.597
G1Z-6.912F500
Y66.402F1000
Y66.602Z-6.758
G0Z2
X-15Y66.802
G1Z-6.757F500
Y66.602Z-6.912
Y-66.797F1000
X-14Y-66.997
Y66.802
Y67.002Z-6.757
G0Z2
X-13Y67.202
G1Z-6.757F500
Y67.002Z-6.912
Y-67.197F1000
X-12Y-67.397
Y67.202
Y67.402Z-6.757
G0Z2
X-11Y67.602
G1Z-6.757F500
Y67.402Z-6.912
Y-67.597F1000
X-10Y-67.797
Y67.602
Y67.802Z-6.756
G0Z2
X-9
G1Z-6.912F500
Y-67.797F1000
Z-6
G0Z2
X-8Y-67.997
G1Z-6.912F500
Y67.802F1000
Y68.002Z-6.756
G0Z2
X-7
G1Z-6.912F500
Y-67.997F1000
Z-6
G0Z2
X-6Y-68.197
G1Z-6.912F500
Y68.002F1000
Y68.202Z-6.756
G0Z2
X-5
G1Z-6.912F500
Y-68.197F1000
Z-6
G0Z2
X-4Y-68.397
G1Z-6.912F500
Y68.202F1000
Y68.402Z-6.756
G0Z2
X-3
G1Z-6.912F500
Y-68.397F1000
Z-6
X-2
Z-6.912F500
Y68.402F1000
X-1
Y-68.397
Z-6
X0
Z-6.912F500
Y68.402F1000
X1
Y-68.397
Z-6
X2
Z-6.912F500
Y68.402F1000
X3
Y-68.397
Z-6
G0Z2
X4
G1Z-6.912F500
Y68.202F1000
Y68.402Z-6.756
G0Z2
X5Y68.202
G1Z-6.912F500
Y-68.197F1000
Z-6
G0Z2
X6
G1Z-6.912F500
Y68.002F1000
Y68.202Z-6.756
G0Z2
X7Y68.002
G1Z-6.912F500
Y-67.997F1000
Z-6
G0Z2
X8
G1Z-6.912F500
Y67.802F1000
Y68.002Z-6.756
G0Z2
X9Y67.802
G1Z-6.912F500
Y-67.797F1000
Z-6
G0Z2
X10
G1Z-6.911F500
Y-67.597Z-6.912F1000
Y67.602
Y67.802Z-6.756
G0Z2
X11Y67.602
G1Z-6.757F500
Y67.402Z-6.912
Y-67.597F1000
X12Y-67.397
Y67.202
Y67.402Z-6.757
G0Z2
X13Y67.202
G1Z-6.757F500
Y67.002Z-6.912
Y-67.197F1000
X14Y-66.997
Y66.802
Y67.002Z-6.757
G0Z2
X15Y66.802
G1Z-6.757F500
Y66.602Z-6.912
Y-66.797F1000
G0Z2
X16Y-66.597
G1Z-6.911F500
Y-66.397Z-6.912F1000
Y66.402
Y66.602Z-6.757
G0Z2
X17Y66.202
G1Z-6.912F500
Y-66.197F1000
Z-6
G0Z2
X18Y-65.997
G1Z-6.912F500
Y65.802F1000
Y66.002Z-6.758
G0Z2
X19Y65.802
G1Z-6.758F500
Y65.602Z-6.912
Y-65.597F1000
Y-65.797Z-6.911
G0Z2
X20Y-65.397
G1Z-6F500
Z-6.912
Y65.402F1000
G0Z2
X21Y65.002
G1Z-6.912F500
Y-64.997F1000
Z-6
G0Z2
X22Y-64.797
G1Z-6.912F500
Y64.602F1000
Y64.802Z-6.76
G0Z2
X23Y64.402
G1Z-6.912F500
Y-64.397F1000
Z-6
X24Y-63.997
Z-6.912F500
Y64.002F1000
X25Y63.602
Y-63.597
Z-6
X26Y-63.197
Z-6.912F500
Y63.202F1000
X27Y62.802
Y-62.797
Z-6
G0Z2
X28Y-62.397
G1Z-6F500
Z-6.912
Y62.402F1000
G0Z2
X29Y62.002
G1Z-6.762F500
Y61.802Z-6.912
Y-61.997F1000
G0Z2
X30Y-61.397
G1Z-6F500
Z-6.912
Y61.402F1000
G0Z2
X31Y61.002
G1Z-6.762F500
Y60.802Z-6.912
Y-60.997F1000
G0Z2
X32Y-60.397
G1Z-6F500
Z-6.912
Y60.402F1000
G0Z2
X33Y60.002
G1Z-6.761F500
Y59.802Z-6.912
Y-59.797F1000
Y-59.997Z-6.911
G0Z2
X34Y-59.397
G1Z-6.912F500
Y59.202F1000
Y59.402Z-6.762
G0Z2
X35Y58.802
G1Z-6.762F500
Y58.602Z-6.912
Y-58.797F1000
G0Z2
X36Y-58.197
G1Z-6.911F500
Y-57.997Z-6.912F1000
Y58.002
Y58.202Z-6.761
G0Z2
X37Y57.602
G1Z-6.761F500
Y57.402Z-6.912
Y-57.397F1000
Y-57.597Z-6.911
G0Z2
X38Y-56.797
G1Z-6F500
Z-6.912
Y56.802F1000
G0Z2
X39Y56.202
G1Z-6.762F500
Y56.002Z-6.912
Y-56.197F1000
G0Z2
X40Y-55.397
G1Z-6F500
Z-6.912
Y55.402F1000
G0Z2
X41Y54.802
G1Z-6.761F500
Y54.602Z-6.912
Y-54.597F1000
Y-54.797Z-6.911
G0Z2
X42Y-53.997
G1Z-6.912F500
Y53.802F1000
Y54.002Z-6.761
G0Z2
X43Y53.202
G1Z-6.912F500
Y-53.197F1000
Z-6
G0Z2
X44Y-52.397
G1Z-6.911F500
Y-52.197Z-6.912F1000
Y52.202
Y52.402Z-6.76
G0Z2
X45Y51.602
G1Z-6.76F500
Y51.402Z-6.912
Y-51.397F1000
Y-51.597Z-6.911
G0Z2
X46Y-50.597
G1Z-6F500
Z-6.912
Y50.602F1000
G0Z2
X47Y49.802
G1Z-6.76F500
Y49.602Z-6.912
Y-49.597F1000
Y-49.797Z-6.911
G0Z2
X48Y-48.797
G1Z-6.911F500
Y-48.597Z-6.912F1000
Y48.602
Y48.802Z-6.76
G0Z2
X49Y47.802
G1Z-6.76F500
Y47.602Z-6.912
Y-47.597F1000
Y-47.797Z-6.911
G0Z2
X50Y-46.797
G1Z-6.911F500
Y-46.597Z-6.912F1000
Y46.602
Y46.802Z-6.76
G0Z2
X51Y45.602
G1Z-6.912F500
Y-45.597F1000
Z-6
X52Y-44.397
Z-6.912F500
Y44.402F1000
G0Z2
X53Y43.202
G1Z-6.912F500
Y-43.197F1000
Z-6
X54Y-41.997
Z-6.911F500
Y-41.797Z-6.912F1000
Y41.802
Y42.002Z-6.911
G0Z2
X55Y40.802
G1Z-6.759F500
Y40.602Z-6.912
Y-40.597F1000
Y-40.797Z-6.911
G0Z2
X56Y-39.397
G1Z-6.911F500
Y-39.197Z-6.912F1000
Y39.202
Y39.402Z-6.759
G0Z2
X57Y37.802
G1Z-6.912F500
Y-37.797F1000
Z-6
G0Z2
X58Y-36.397
G1Z-6.911F500
Y-36.197Z-6.912F1000
Y36.202
Y36.402Z-6.759
G0Z2
X59Y34.802
G1Z-6.758F500
Y34.602Z-6.912
Y-34.597F1000
Y-34.797Z-6.911
G0Z2
X60Y-32.997
G1Z-6.911F500
Y-32.797Z-6.912F1000
Y32.802
Y33.002Z-6.758
G0Z2
X61Y31.002
G1Z-6.911F500
Y30.802Z-6.912F1000
Y-30.797
Y-30.997Z-6.911
Z-6
X62Y-28.997
Z-6.911F500
Y-28.797Z-6.912F1000
Y28.802
Y29.002Z-6.911
G0Z2
X63Y26.802
G1Z-6.911F500
Y26.602Z-6.912F1000
Y-26.597
Y-26.797Z-6.911
Z-6
G0Z2
X64Y-24.197
G1Z-6F500
Z-6.911
Y-23.997Z-6.912F1000
Y24.002
Y24.202Z-6.911
G0Z2
X65Y21.402
G1Z-6.911F500
Y21.202Z-6.912F1000
Y-21.197
Y-21.397Z-6.911
Z-6
G0Z2
X66Y-18.197
G1Z-6F500
Z-6.911
Y-17.997F1000
Y-17.797Z-6.912
Y17.802
Y18.002Z-6.911
Y18.202
G0Z2
X67Y14.202
G1Z-6.756F500
Y14.002Z-6.911
Y13.802Z-6.912F1000
Y-13.797
Y-13.997Z-6.911
Y-14.197
G0Z2
X68Y-8.397
G1Z-6.911F500
Y-7.797F1000
Y-7.597Z-6.912
Y7.602
Y7.802Z-6.911
Y8.202
Y8.402Z-6.755
G0Z2
 
