N10O0(C:\Users\User\Downloads\blendercam-master\scripts\addons\cam\tests\test_data\4axistest\Op_Plane_1.tap)
N20G21
N30(G-code Generated with Fabex and NC library)
N40G17G90
N50T2M06
N60(Tool: D = 6.0 mm  type BALLNOSE flutes 2)
N70S12000M03
N80G00 Z25.0
N90
N100G00X0Y0Z25
N110G01Z24.999F500
N120G01Y8.999Z24.96F1000
N130G01Y17.8Z24.903
N140G01Y26.4Z24.831
N150G01Y250Z22.52
N160G00Z25
N170G00Y0B2.291
N180G01Z24.808F500
N190G01Y1.2Z24.805F1000
N200G01Y2.4Z24.8
N210G01Y3.6Z24.791
N220G01Y4.6Z24.782
N230G01Y250Z22.269
N240G00Z25
N250G00Y0B4.583
N260G01Z24.292F500
N270G01Y10.199Z24.404F1000
N280G01Y11.199Z24.413
N290G01Y12.2Z24.42
N300G01Y13.2Z24.424
N310G01Y14.2Z24.426
N320G01Y15.199
N330G01Y16.4Z24.424
N340G01Y17.6Z24.418
N350G01Y18.8Z24.41
N360G01Y19.8Z24.402
N370G01Y250Z22.063
N380G00Z25
N390G00Y0B6.875
N400G01Z23.804F500
N410G01Y24.999Z24.075F1000
N420G01Y26.999Z24.091
N430G01Y27.999Z24.095
N440G01Y28.999Z24.097
N450G01Y29.999Z24.098
N460G01Y31.199Z24.095
N470G01Y32.4Z24.09
N480G01Y33.599Z24.082
N490G01Y34.6Z24.074
N500G01Y250Z21.9
N510G00Z25
N520G01Y0Z24.999B9.167
N530G01Z23.375F500
N540G01Y39.6Z23.798F1000
N550G01Y40.599Z23.806
N560G01Y41.6Z23.813
N570G01Y42.599Z23.817
N580G01Y43.6Z23.819
N590G01Y44.599
N600G01Y45.8Z23.817
N610G01Y46.999Z23.812
N620G01Y48.2Z23.804
N630G01Y49.199Z23.795
N640G01Y250Z21.779
N650G01Z24.999
N660G00Y0Z25B11.459
N670G01Z23F500
N680G01Y53.799Z23.566F1000
N690G01Y54.8Z23.575
N700G01Y55.799Z23.581
N710G01Y56.8Z23.586
N720G01Y57.799Z23.588
N730G01Y59
N740G01Y60.199Z23.586
N750G01Y61.4Z23.58
N760G01Y62.6Z23.572
N770G01Y63.4Z23.565
N780G01Y250Z21.697
N790G00Z25
N800G00Y0B13.75
N810G01Z22.676F500
N820G01Y67.8Z23.381F1000
N830G01Y68.799Z23.39
N840G01Y69.799Z23.396
N850G01Y70.799Z23.401
N860G01Y71.8Z23.403
N870G01Y72.999Z23.404
N880G01Y74.199Z23.401
N890G01Y75.399Z23.396
N900G01Y76.6Z23.388
N910G01Y77.399Z23.381
N920G01Y250Z21.656
N930G00Z25
N940G00Y0B16.042
N950G01Z22.4F500
N960G01Y81.799Z23.242F1000
N970G01Y82.8Z23.25
N980G01Y83.799Z23.256
N990G01Y85Z23.261
N1000G01Y86.199Z23.263
N1010G01Y87.399Z23.262
N1020G01Y88.599Z23.258
N1030G01Y89.999Z23.251
N1040G01Y91.399Z23.239
N1050G01Y250Z21.654
N1060G00Z25
N1070G00Y0B18.334
N1080G01Z22.17F500
N1090G01Y95.599Z23.145F1000
N1100G01Y98.999Z23.164
N1110G01Y100.199Z23.166
N1120G01Y101.399Z23.164
N1130G01Y102.199Z23.162
N1140G01Y103.599Z23.154
N1150G01Y104.8Z23.145
N1160G01Y250Z21.692
N1170G00Z25
N1180G00Y0B20.626
N1190G01Z21.984F500
N1200G01Y109.2Z23.089F1000
N1210G01Y110.399Z23.099
N1220G01Y111.599Z23.106
N1230G01Y112.799Z23.109
N1240G01Y114Z23.11
N1250G01Y115.199Z23.109
N1260G01Y116.399Z23.104
N1270G01Y117.599Z23.097
N1280G01Y118.799Z23.087
N1290G01Y250Z21.77
N1300G00Z25
N1310G01Y0Z24.999B22.918
N1320G01Z21.84F500
N1330G01Y122.8Z23.076F1000
N1340G01Y123.999Z23.085
N1350G01Y125.2Z23.092
N1360G01Y126.399Z23.096
N1370G01Y127.8Z23.097
N1380G01Y128.999Z23.095
N1390G01Y130.199Z23.09
N1400G01Y131.4Z23.082
N1410G01Y132.599Z23.072
N1420G01Y250Z21.888
N1430G01Z24.999
N1440G00Y0Z25B25.21
N1450G01Z21.737F500
N1460G01Y136.399Z23.104F1000
N1470G01Y137.599Z23.114
N1480G01Y138.599Z23.12
N1490G01Y140Z23.125
N1500G01Y141.199Z23.126
N1510G01Y142.399Z23.124
N1520G01Y143.6Z23.12
N1530G01Y144.599Z23.114
N1540G01Y145.599Z23.106
N1550G01Y250Z22.047
N1560G00Z25
N1570G01Y0Z24.999B27.501
N1580G01Z21.674F500
N1590G01Y150.199Z23.175F1000
N1600G01Y151.4Z23.185
N1610G01Y152.199Z23.19
N1620G01Y153.399Z23.194
N1630G01Y154.599Z23.196
N1640G01Y155.8Z23.195
N1650G01Y156.999Z23.192
N1660G01Y157.999Z23.186
N1670G01Y158.999Z23.179
N1680G01Y250Z22.249
N1690G01Z24.999
N1700G01Y0B29.793
N1710G01Z21.65F500
N1720G01Y163.999Z23.289F1000
N1730G01Y165.199Z23.298
N1740G01Y166.4Z23.305
N1750G01Y167.599Z23.308
N1760G01Y168.799Z23.309
N1770G01Y170Z23.308
N1780G01Y170.999Z23.304
N1790G01Y171.999Z23.298
N1800G01Y172.999Z23.29
N1810G01Y250Z22.495
N1820G01Z24.999
N1830G00Y0Z25B32.085
N1840G01Z21.667F500
N1850G01Y177.999Z23.446F1000
N1860G01Y179.199Z23.455
N1870G01Y180.399Z23.461
N1880G01Y181.599Z23.465
N1890G01Y182.799Z23.466
N1900G01Y184Z23.464
N1910G01Y185Z23.46
N1920G01Y185.999Z23.454
N1930G01Y186.999Z23.446
N1940G01Y250Z22.788
N1950G00Z25
N1960G00Y0B34.377
N1970G01Z21.722F500
N1980G01Y191.799Z23.644F1000
N1990G01Y192.999Z23.654
N2000G01Y194.199Z23.661
N2010G01Y195.4Z23.666
N2020G01Y196.599Z23.667
N2030G01Y197.799Z23.666
N2040G01Y198.799Z23.663
N2050G01Y199.8Z23.658
N2060G01Y200.8Z23.65
N2070G01Y250Z23.131
N2080G00Z25
N2090G00Y0B36.669
N2100G01Z21.818F500
N2110G01Y206.399Z23.894F1000
N2120G01Y212.2Z23.914
N2130G01Y213.199Z23.911
N2140G01Y214.199Z23.905
N2150G01Y215.199Z23.898
N2160G01Y250Z23.525
N2170G00Z25
N2180G01Y0Z24.999B38.961
N2190G01Z21.955F500
N2200G01Y220.799Z24.188F1000
N2210G01Y221.999Z24.198
N2220G01Y223.199Z24.205
N2230G01Y224.399Z24.21
N2240G01Y225.4Z24.212
N2250G01Y226.399Z24.211
N2260G01Y227.399Z24.209
N2270G01Y228.399Z24.205
N2280G01Y229.399Z24.198
N2290G01Y230.399Z24.189
N2300G01Y250Z23.975
N2310G01Z24.999
N2320G00Y0Z25B41.252
N2330G01Z22.133F500
N2340G01Y235.799Z24.535F1000
N2350G01Y236.999Z24.545
N2360G01Y238.199Z24.553
N2370G01Y239.399Z24.558
N2380G01Y240.399Z24.559
N2390G01Y241.399
N2400G01Y242.399Z24.557
N2410G01Y243.399Z24.552
N2420G01Y244.399Z24.546
N2430G01Y245.399Z24.537
N2440G01Y250Z24.485
N2450G00Z25
N2460G00Y0B43.544
N2470G01Z22.356F500
N2480G01Y249.799Z24.922F1000
N2490G01Y250Z24.924
N2500G00Z25
N2510G00Y0B45.836
N2520G01Z22.623F500
N2530G01Y208.399Z24.785F1000
N2540G01Y225.599Z24.911
N2550G01Y234.599Z24.95
N2560G01Y243.599Z24.971
N2570G01Y250Z24.975
N2580G00Z25
N2590G00Y0B48.128
N2600G01Z22.938F500
N2610G01Y165.6Z24.677F1000
N2620G01Y173.799Z24.746
N2630G01Y182.399Z24.802
N2640G01Y191.199Z24.841
N2650G01Y200.199Z24.862
N2660G01Y208.999Z24.866
N2670G01Y217.599Z24.852
N2680G01Y225.999Z24.822
N2690G01Y233.799Z24.778
N2700G01Y241.2Z24.722
N2710G01Y247.999Z24.656
N2720G01Y250Z24.634
N2730G00Z25
N2740G00Y0B50.42
N2750G01Z23.303F500
N2760G01Y122.999Z24.613F1000
N2770G01Y130.999Z24.682
N2780G01Y139.399Z24.737
N2790G01Y147.799Z24.775
N2800G01Y156.8Z24.799
N2810G01Y165.799Z24.803
N2820G01Y173.799Z24.792
N2830G01Y182.399Z24.764
N2840G01Y190.599Z24.72
N2850G01Y198.2Z24.664
N2860G01Y205.2Z24.598
N2870G01Y250Z24.107
N2880G00Z25
N2890G01Y0Z24.999B52.712
N2900G01Z23.722F500
N2910G01Y80.799Z24.596F1000
N2920G01Y88.399Z24.662
N2930G01Y96.599Z24.717
N2940G01Y105.2Z24.757
N2950G01Y114Z24.78
N2960G01Y122.999Z24.785
N2970G01Y131.799Z24.773
N2980G01Y140.599Z24.742
N2990G01Y148.8Z24.697
N3000G01Y156.599Z24.639
N3010G01Y163.999Z24.569
N3020G01Y250Z23.641
N3030G01Z24.999
N3040G01Y0B55.003
N3050G01Z24.2F500
N3060G01Y38.399Z24.621F1000
N3070G01Y45.8Z24.687
N3080G01Y53.599Z24.74
N3090G01Y61.999Z24.781
N3100G01Y70.4Z24.805
N3110G01Y79.399Z24.812
N3120G01Y88.399Z24.801
N3130G01Y96.799Z24.774
N3140G01Y105.399Z24.729
N3150G01Y113.6Z24.67
N3160G01Y121.199Z24.601
N3170G01Y250Z23.232
N3180G01Z24.999
N3190G01Y0B57.295
N3200G01Z24.73F500
N3210G01Y7.4Z24.789F1000
N3220G01Y15.4Z24.835
N3230G01Y23.599Z24.866
N3240G01Y32.4Z24.882
N3250G01Y41.4Z24.88
N3260G01Y50.4Z24.859
N3270G01Y59.2Z24.821
N3280G01Y67.8Z24.766
N3290G01Y75.999Z24.698
N3300G01Y250Z22.876
N3310G01Z24.999
N3320G00Y0Z25B59.587
N3330G01Z24.993F500
N3340G01Y8.999Z24.969F1000
N3350G01Y17.999Z24.927
N3360G01Y26.799Z24.868
N3370G01Y35.2Z24.795
N3380G01Y250Z22.57
N3390G00Z25
N3400G00Y0B61.879
N3410G01Z24.872F500
N3420G01Y1.2Z24.863F1000
N3430G01Y250Z22.311
N3440G00Z25
N3450G00Y0B64.171
N3460G01Z24.386F500
N3470G01Y7.4Z24.468F1000
N3480G01Y8.4Z24.477
N3490G01Y9.4Z24.484
N3500G01Y10.4Z24.488
N3510G01Y11.399Z24.491
N3520G01Y12.399
N3530G01Y13.599Z24.489
N3540G01Y14.8Z24.484
N3550G01Y15.999Z24.476
N3560G01Y16.999Z24.467
N3570G01Y250Z22.097
N3580G00Z25
N3590G01Y0Z24.999B66.463
N3600G01Z23.887F500
N3610G01Y22.399Z24.131F1000
N3620G01Y25.4Z24.151
N3630G01Y26.4Z24.153
N3640G01Y27.4
N3650G01Y28.6Z24.151
N3660G01Y29.8Z24.145
N3670G01Y30.999Z24.137
N3680G01Y31.999Z24.129
N3690G01Y250Z21.926
N3700G01Z24.999
N3710G01Y0B68.754
N3720G01Z23.448F500
N3730G01Y37Z23.844F1000
N3740G01Y39.999Z23.863
N3750G01Y40.999Z23.866
N3760G01Y42.199
N3770G01Y43.399Z23.863
N3780G01Y44.599Z23.857
N3790G01Y45.8Z23.849
N3800G01Y250Z21.797
N3810G01Z24.999
N3820G00Y0Z25B71.046
N3830G01Z23.063F500
N3840G01Y51.199Z23.604F1000
N3850G01Y52.199Z23.613
N3860G01Y53.199Z23.619
N3870G01Y54.199Z23.624
N3880G01Y55.199Z23.626
N3890G01Y56.399
N3900G01Y57.599Z23.624
N3910G01Y58.799Z23.619
N3920G01Y59.999Z23.611
N3930G01Y60.999Z23.602
N3940G01Y250Z21.709
N3950G00Z25
N3960G01Y0Z24.999B73.338
N3970G01Z22.731F500
N3980G01Y65.399Z23.412F1000
N3990G01Y66.399Z23.421
N4000G01Y67.4Z23.427
N4010G01Y68.399Z23.431
N4020G01Y69.6Z23.434
N4030G01Y70.799Z23.433
N4040G01Y71.999Z23.43
N4050G01Y73.199Z23.424
N4060G01Y74.4Z23.415
N4070G01Y250Z21.661
N4080G01Z24.999
N4090G00Y0Z25B75.63
N4100G01Z22.446F500
N4110G01Y79.2Z23.263F1000
N4120G01Y81.199Z23.278
N4130G01Y82.4Z23.283
N4140G01Y83.6Z23.285
N4150G01Y84.799Z23.284
N4160G01Y85.999Z23.281
N4170G01Y87.2Z23.275
N4180G01Y88.199Z23.268
N4190G01Y250Z21.652
N4200G00Z25
N4210G00Y0B77.922
N4220G01Z22.208F500
N4230G01Y92.999Z23.158F1000
N4240G01Y93.999Z23.167
N4250G01Y95.199Z23.174
N4260G01Y96.4Z23.178
N4270G01Y97.599Z23.18
N4280G01Y98.799Z23.179
N4290G01Y99.999Z23.175
N4300G01Y101.399Z23.167
N4310G01Y102.6Z23.157
N4320G01Y250Z21.682
N4330G00Z25
N4340G00Y0B80.214
N4350G01Z22.014F500
N4360G01Y106.799Z23.097F1000
N4370G01Y107.999Z23.106
N4380G01Y109.2Z23.113
N4390G01Y110.399Z23.116
N4400G01Y111.599Z23.117
N4410G01Y112.599Z23.116
N4420G01Y113.6Z23.113
N4430G01Y114.799Z23.106
N4440G01Y115.999Z23.097
N4450G01Y250Z21.753
N4460G00Z25
N4470G00Y0B82.505
N4480G01Z21.863F500
N4490G01Y120.399Z23.076F1000
N4500G01Y121.599Z23.085
N4510G01Y122.8Z23.092
N4520G01Y123.999Z23.095
N4530G01Y125.2Z23.096
N4540G01Y125.799
N4550G01Y127Z23.093
N4560G01Y128.199Z23.087
N4570G01Y129.4Z23.078
N4580G01Y250Z21.863
N4590G00Z25
N4600G00Y0B84.797
N4610G01Z21.752F500
N4620G01Y134Z23.096F1000
N4630G01Y135.199Z23.106
N4640G01Y136.399Z23.113
N4650G01Y137.799Z23.117
N4660G01Y138.999
N4670G01Y140.199Z23.115
N4680G01Y141.399Z23.11
N4690G01Y142.399Z23.104
N4700G01Y143.399Z23.096
N4710G01Y250Z22.015
N4720G00Z25
N4730G00Y0B87.089
N4740G01Z21.682F500
N4750G01Y147.799Z23.16F1000
N4760G01Y149.999Z23.175
N4770G01Y151.199Z23.179
N4780G01Y152.4Z23.18
N4790G01Y153.599Z23.179
N4800G01Y154.799Z23.175
N4810G01Y155.8Z23.169
N4820G01Y156.8Z23.161
N4830G01Y250Z22.209
N4840G00Z25
N4850G00Y0B89.381
N4860G01Z21.652F500
N4870G01Y161.599Z23.266F1000
N4880G01Y166.4Z23.286
N4890G01Y167.599Z23.284
N4900G01Y168.599Z23.28
N4910G01Y169.599Z23.274
N4920G01Y170.599Z23.266
N4930G01Y250Z22.448
N4940G00Z25
N4950G00Y0B91.673
N4960G01Z21.661F500
N4970G01Y175.399Z23.414F1000
N4980G01Y177.8Z23.43
N4990G01Y178.999Z23.433
N5000G01Y180.199Z23.435
N5010G01Y181.4Z23.433
N5020G01Y182.399Z23.429
N5030G01Y183.399Z23.423
N5040G01Y184.399Z23.416
N5050G01Y250Z22.732
N5060G00Z25
N5070G00Y0B93.965
N5080G01Z21.709F500
N5090G01Y189.4Z23.606F1000
N5100G01Y190.599Z23.616
N5110G01Y191.799Z23.622
N5120G01Y192.999Z23.627
N5130G01Y194.199Z23.628
N5140G01Y195.4Z23.626
N5150G01Y196.4Z23.623
N5160G01Y197.399Z23.617
N5170G01Y198.399Z23.61
N5180G01Y250Z23.065
N5190G00Z25
N5200G00Y0B96.256
N5210G01Z21.798F500
N5220G01Y203.799Z23.846F1000
N5230G01Y204.999Z23.855
N5240G01Y206.199Z23.862
N5250G01Y207.399Z23.866
N5260G01Y208.6Z23.867
N5270G01Y209.6Z23.866
N5280G01Y210.599Z23.863
N5290G01Y211.599Z23.857
N5300G01Y212.599Z23.85
N5310G01Y250Z23.45
N5320G00Z25
N5330G00Y0B98.548
N5340G01Z21.927F500
N5350G01Y218.4Z24.133F1000
N5360G01Y222.999Z24.155
N5370G01Y223.999Z24.154
N5380G01Y224.999Z24.151
N5390G01Y225.999Z24.146
N5400G01Y226.999Z24.139
N5410G01Y228Z24.129
N5420G01Y250Z23.89
N5430G00Z25
N5440G00Y0B100.84
N5450G01Z22.098F500
N5460G01Y233.399Z24.472F1000
N5470G01Y234.599Z24.481
N5480G01Y235.799Z24.488
N5490G01Y236.999Z24.492
N5500G01Y237.999Z24.493
N5510G01Y238.999Z24.492
N5520G01Y239.999Z24.489
N5530G01Y240.999Z24.484
N5540G01Y241.999Z24.476
N5550G01Y243Z24.467
N5560G01Y250Z24.389
N5570G00Z25
N5580G00Y0B103.132
N5590G01Z22.312F500
N5600G01Y248.399Z24.86F1000
N5610G01Y249.599Z24.871
N5620G01Y250Z24.873
N5630G00Z25
N5640G00Y0B105.424
N5650G01Z22.571F500
N5660G01Y216.199Z24.81F1000
N5670G01Y224.599Z24.88
N5680G01Y233.599Z24.937
N5690G01Y242.599Z24.975
N5700G01Y250Z24.993
N5710G00Z25
N5720G00Y0B107.716
N5730G01Z22.878F500
N5740G01Y173.199Z24.692F1000
N5750G01Y181.4Z24.762
N5760G01Y189.999Z24.817
N5770G01Y199Z24.857
N5780G01Y207.8Z24.878
N5790G01Y216.799Z24.882
N5800G01Y225.599Z24.868
N5810G01Y233.999Z24.837
N5820G01Y241.799Z24.792
N5830G01Y248.999Z24.737
N5840G01Y250Z24.728
N5850G00Z25
N5860G00Y0B110.007
N5870G01Z23.234F500
N5880G01Y130.599Z24.62F1000
N5890G01Y138.599Z24.689
N5900G01Y147Z24.745
N5910G01Y155.599Z24.784
N5920G01Y164.6Z24.807
N5930G01Y173.599Z24.811
N5940G01Y181.4Z24.8
N5950G01Y189.999Z24.772
N5960G01Y197.999Z24.729
N5970G01Y205.599Z24.673
N5980G01Y212.599Z24.608
N5990G01Y250Z24.197
N6000G00Z25
N6010G00Y0B112.299
N6020G01Z23.643F500
N6030G01Y88.399Z24.595F1000
N6040G01Y96.199Z24.663
N6050G01Y104.399Z24.718
N6060G01Y112.999Z24.758
N6070G01Y121.799Z24.78
N6080G01Y130.799Z24.785
N6090G01Y139.799Z24.772
N6100G01Y148.599Z24.741
N6110G01Y156.8Z24.695
N6120G01Y164.6Z24.636
N6130G01Y171.8Z24.567
N6140G01Y250Z23.72
N6150G00Z25
N6160G01Y0Z24.999B114.591
N6170G01Z24.109F500
N6180G01Y46Z24.613F1000
N6190G01Y53.399Z24.679
N6200G01Y61.4Z24.733
N6210G01Y69.799Z24.774
N6220G01Y78.4Z24.797
N6230G01Y87.399Z24.804
N6240G01Y96.4Z24.792
N6250G01Y103.399Z24.77
N6260G01Y111.999Z24.728
N6270G01Y120.199Z24.671
N6280G01Y127.999Z24.601
N6290G01Y250Z23.301
N6300G01Z24.999
N6310G00Y0Z25B116.883
N6320G01Z24.637F500
N6330G01Y6.8Z24.706F1000
N6340G01Y14.2Z24.766
N6350G01Y22.2Z24.815
N6360G01Y30.599Z24.848
N6370G01Y39.2Z24.865
N6380G01Y48.2
N6390G01Y57.2Z24.846
N6400G01Y66Z24.809
N6410G01Y74.599Z24.757
N6420G01Y82.8Z24.69
N6430G01Y250Z22.936
N6440G00Z25
N6450G01Y0Z24.999B119.175
N6460G01Z24.975F500
N6470G01Y8.999Z24.967F1000
N6480G01Y17.999Z24.94
N6490G01Y26.999Z24.896
N6500G01Y33.599Z24.851
N6510G01Y41.999Z24.78
N6520G01Y250Z22.621
N6530G01Z24.999
N6540G00Y0Z25B121.467
N6550G01Z24.922F500
N6560G01Y250Z22.354F1000
N6570G00Z25
N6580G01Y0Z24.999B123.758
N6590G01Z24.483F500
N6600G01Y4.799Z24.536F1000
N6610G01Y5.8Z24.545
N6620G01Y6.8Z24.551
N6630G01Y7.8Z24.555
N6640G01Y8.8Z24.557
N6650G01Y9.8
N6660G01Y11Z24.555
N6670G01Y12.2Z24.549
N6680G01Y13.4Z24.541
N6690G01Y14.4Z24.532
N6700G01Y250Z22.132
N6710G01Z24.999
N6720G00Y0Z25B126.05
N6730G01Z23.973F500
N6740G01Y19.8Z24.189F1000
N6750G01Y20.8Z24.197
N6760G01Y21.8Z24.204
N6770G01Y22.799Z24.208
N6780G01Y23.799Z24.21
N6790G01Y24.799
N6800G01Y25.999Z24.207
N6810G01Y27.199Z24.202
N6820G01Y28.4Z24.194
N6830G01Y29.399Z24.185
N6840G01Y250Z21.954
N6850G00Z25
N6860G00Y0B128.342
N6870G01Z23.523F500
N6880G01Y34.399Z23.892F1000
N6890G01Y35.399Z23.901
N6900G01Y36.399Z23.907
N6910G01Y37.4Z23.911
N6920G01Y38.399Z23.914
N6930G01Y39.4
N6940G01Y40.599Z23.911
N6950G01Y41.8Z23.906
N6960G01Y42.999Z23.898
N6970G01Y44Z23.89
N6980G01Y250Z21.818
N6990G00Z25
N7000G01Y0Z24.999B130.634
N7010G01Z23.129F500
N7020G01Y48.799Z23.645F1000
N7030G01Y49.799Z23.653
N7040G01Y50.799Z23.66
N7050G01Y51.799Z23.664
N7060G01Y52.8Z23.666
N7070G01Y53.999
N7080G01Y55.199Z23.663
N7090G01Y56.399Z23.657
N7100G01Y57.599Z23.649
N7110G01Y250Z21.722
N7120G01Z24.999
N7130G00Y0Z25B132.926
N7140G01Z22.787F500
N7150G01Y62.799Z23.443F1000
N7160G01Y65.799Z23.462
N7170G01Y66.799Z23.465
N7180G01Y67.999
N7190G01Y69.2Z23.462
N7200G01Y70.4Z23.457
N7210G01Y71.599Z23.449
N7220G01Y72.399Z23.442
N7230G01Y250Z21.666
N7240G00Z25
N7250G00Y0B135.218
N7260G01Z22.494F500
N7270G01Y76.799Z23.287F1000
N7280G01Y83.6Z23.304
N7290G01Y84.799Z23.298
N7300G01Y85.599Z23.292
N7310G01Y250Z21.65
N7320G00Z25
N7330G00Y0B137.509
N7340G01Z22.248F500
N7350G01Y90.599Z23.175F1000
N7360G01Y91.6Z23.183
N7370G01Y92.599Z23.189
N7380G01Y93.8Z23.194
N7390G01Y94.999Z23.196
N7400G01Y96.199Z23.195
N7410G01Y97.399Z23.191
N7420G01Y98.399Z23.186
N7430G01Y99.399Z23.179
N7440G01Y250Z21.674
N7450G00Z25
N7460G00Y0B139.801
N7470G01Z22.046F500
N7480G01Y104.199Z23.104F1000
N7490G01Y105.399Z23.113
N7500G01Y106.599Z23.12
N7510G01Y107.799Z23.124
N7520G01Y108.999Z23.125
N7530G01Y109.999Z23.124
N7540G01Y111.4Z23.12
N7550G01Y112.599Z23.112
N7560G01Y113.799Z23.102
N7570G01Y250Z21.737
N7580G00Z25
N7590G01Y0Z24.999B142.093
N7600G01Z21.887F500
N7610G01Y118Z23.077F1000
N7620G01Y120.399Z23.093
N7630G01Y121.599Z23.096
N7640G01Y122.599Z23.097
N7650G01Y123.599Z23.096
N7660G01Y124.799Z23.092
N7670G01Y126Z23.086
N7680G01Y127.199Z23.076
N7690G01Y250Z21.84
N7700G01Z24.999
N7710G01Y0B144.385
N7720G01Z21.769F500
N7730G01Y131.599Z23.09F1000
N7740G01Y139.2Z23.102
N7750G01Y140.399Z23.094
N7760G01Y250Z21.985
N7770G01Z24.999
N7780G01Y0B146.677
N7790G01Z21.692F500
N7800G01Y145.199Z23.145F1000
N7810G01Y146.2Z23.153
N7820G01Y147.599Z23.161
N7830G01Y148.8Z23.165
N7840G01Y149.999Z23.166
N7850G01Y151.199Z23.164
N7860G01Y152.4Z23.16
N7870G01Y153.399Z23.154
N7880G01Y154.399Z23.146
N7890G01Y250Z22.171
N7900G01Z24.999
N7910G00Y0Z25B148.969
N7920G01Z21.654F500
N7930G01Y158.999Z23.243F1000
N7940G01Y159.999Z23.251
N7950G01Y161.2Z23.258
N7960G01Y162.399Z23.262
N7970G01Y163.599Z23.264
N7980G01Y164.8Z23.262
N7990G01Y165.999Z23.258
N8000G01Y166.999Z23.253
N8010G01Y167.999Z23.245
N8020G01Y250Z22.402
N8030G00Z25
N8040G00Y0B151.26
N8050G01Z21.656F500
N8060G01Y172.799Z23.383F1000
N8070G01Y173.999Z23.392
N8080G01Y175.2Z23.399
N8090G01Y176.399Z23.403
N8100G01Y177.599Z23.405
N8110G01Y178.8Z23.403
N8120G01Y179.799Z23.4
N8130G01Y180.799Z23.394
N8140G01Y181.799Z23.386
N8150G01Y250Z22.677
N8160G00Z25
N8170G01Y0Z24.999B153.552
N8180G01Z21.698F500
N8190G01Y186.999Z23.569F1000
N8200G01Y188.199Z23.578
N8210G01Y189.4Z23.585
N8220G01Y190.599Z23.589
N8230G01Y191.799Z23.59
N8240G01Y192.8Z23.588
N8250G01Y193.8Z23.585
N8260G01Y194.799Z23.579
N8270G01Y195.799Z23.572
N8280G01Y250Z23.002
N8290G01Z24.999
N8300G00Y0Z25B155.844
N8310G01Z21.779F500
N8320G01Y201.199Z23.799F1000
N8330G01Y202.399Z23.809
N8340G01Y203.599Z23.816
N8350G01Y204.799Z23.819
N8360G01Y206Z23.821
N8370G01Y206.999Z23.819
N8380G01Y207.999Z23.816
N8390G01Y208.999Z23.811
N8400G01Y209.999Z23.803
N8410G01Y250Z23.377
N8420G00Z25
N8430G00Y0B158.136
N8440G01Z21.901F500
N8450G01Y215.799Z24.078F1000
N8460G01Y218.199Z24.094
N8470G01Y219.399Z24.098
N8480G01Y220.599Z24.099
N8490G01Y221.599Z24.098
N8500G01Y222.599Z24.095
N8510G01Y223.6Z24.089
N8520G01Y224.599Z24.081
N8530G01Y250Z23.806
N8540G00Z25
N8550G00Y0B160.428
N8560G01Z22.064F500
N8570G01Y230.599Z24.406F1000
N8580G01Y231.799Z24.416
N8590G01Y232.999Z24.423
N8600G01Y234.2Z24.427
N8610G01Y235.199Z24.428
N8620G01Y236.199
N8630G01Y237.199Z24.425
N8640G01Y238.199Z24.42
N8650G01Y239.199Z24.412
N8660G01Y240.199Z24.403
N8670G01Y250Z24.295
N8680G00Z25
N8690G00Y0B162.72
N8700G01Z22.27F500
N8710G01Y245.6Z24.786F1000
N8720G00Y250Z25
N8730G00Y0B165.011
N8740G01Z22.521F500
N8750G01Y223.999Z24.836F1000
N8760G01Y232.599Z24.907
N8770G01Y241.599Z24.963
N8780G01Y250Z24.999
N8790G00Z25
N8800G00Y0B167.303
N8810G01Z22.819F500
N8820G01Y180.999Z24.711F1000
N8830G01Y189.4Z24.781
N8840G01Y197.999Z24.836
N8850G01Y206.999Z24.876
N8860G01Y215.999Z24.896
N8870G01Y224.999Z24.899
N8880G01Y233.599Z24.884
N8890G01Y241.799Z24.854
N8900G01Y249.599Z24.809
N8910G01Y250Z24.806
N8920G00Z25
N8930G00Y0B169.595
N8940G01Z23.166F500
N8950G01Y138.4Z24.631F1000
N8960G01Y155Z24.756
N8970G01Y163.599Z24.794
N8980G01Y172.6Z24.817
N8990G01Y181.4Z24.821
N9000G01Y188.799Z24.81
N9010G01Y197.399Z24.782
N9020G01Y205.599Z24.739
N9030G01Y213.199Z24.683
N9040G01Y220.199Z24.618
N9050G01Y250Z24.289
N9060G00Z25
N9070G00Y0B171.887
N9080G01Z23.565F500
N9090G01Y96Z24.597F1000
N9100G01Y103.599Z24.663
N9110G01Y111.8Z24.718
N9120G01Y120.399Z24.758
N9130G01Y128.999Z24.781
N9140G01Y137.999Z24.787
N9150G01Y146.799Z24.775
N9160G01Y155.399Z24.746
N9170G01Y163.8Z24.7
N9180G01Y171.599Z24.642
N9190G01Y178.8Z24.575
N9200G01Y250Z23.802
N9210G00Z25
N9220G00Y0B174.179
N9230G01Z24.021F500
N9240G01Y53.599Z24.606F1000
N9250G01Y60.999Z24.672
N9260G01Y68.999Z24.726
N9270G01Y77.399Z24.767
N9280G01Y85.999Z24.791
N9290G01Y94.999Z24.797
N9300G01Y103.999Z24.786
N9310G01Y110.199Z24.767
N9320G01Y118.799Z24.726
N9330G01Y127Z24.671
N9340G01Y134.8Z24.602
N9350G01Y250Z23.373
N9360G00Z25
N9370G00Y0B176.471
N9380G01Z24.537F500
N9390G01Y11.6Z24.664F1000
N9400G01Y18.8Z24.729
N9410G01Y26.6Z24.782
N9420G01Y34.8Z24.822
N9430G01Y43.199Z24.845
N9440G01Y51.999Z24.852
N9450G01Y60.999Z24.841
N9460G01Y69.799Z24.813
N9470G01Y78.599Z24.767
N9480G01Y86.799Z24.707
N9490G01Y94.799Z24.633
N9500G01Y250Z22.998
N9510G00Z25
N9520G00Y0B178.762
N9530G01Z24.945F500
N9540G01Y8.8Z24.952F1000
N9550G01Y17.8Z24.942
N9560G01Y26.799Z24.913
N9570G01Y35.599Z24.868
N9580G01Y44.199Z24.806
N9590G01Y52.4Z24.73
N9600G01Y250Z22.674
N9610G00Z25
N9620G00Y0B181.054
N9630G01Z24.96F500
N9640G01Y8.2Z24.887F1000
N9650G01Y250Z22.399
N9660G00Z25
N9670G00Y0B183.346
N9680G01Z24.581F500
N9690G01Y2Z24.603F1000
N9700G01Y3Z24.612
N9710G01Y4Z24.619
N9720G01Y5Z24.623
N9730G01Y6Z24.625
N9740G01Y7Z24.626
N9750G01Y8.2Z24.623
N9760G01Y9.4Z24.618
N9770G01Y10.6Z24.61
N9780G01Y11.6Z24.601
N9790G01Y250Z22.169
N9800G00Z25
N9810G00Y0B185.638
N9820G01Z24.06F500
N9830G01Y16.999Z24.246F1000
N9840G01Y18.999Z24.262
N9850G01Y20Z24.266
N9860G01Y21Z24.268
N9870G01Y22Z24.269
N9880G01Y23.2Z24.266
N9890G01Y24.4Z24.261
N9900G01Y25.599Z24.253
N9910G01Y26.6Z24.245
N9920G01Y250Z21.983
N9930G00Z25
N9940G00Y0B187.93
N9950G01Z23.599F500
N9960G01Y31.799Z23.942F1000
N9970G01Y32.8Z23.95
N9980G01Y33.799Z23.957
N9990G01Y34.8Z23.961
N10000G01Y35.799Z23.963
N10010G01Y37
N10020G01Y38.199Z23.96
N10030G01Y39.4Z23.955
N10040G01Y40.599Z23.946
N10050G01Y250Z21.839
N10060G00Z25
N10070G00Y0B190.221
N10080G01Z23.196F500
N10090G01Y46.2Z23.686F1000
N10100G01Y47.199Z23.694
N10110G01Y48.2Z23.701
N10120G01Y49.199Z23.705
N10130G01Y50.2Z23.707
N10140G01Y51.399
N10150G01Y52.6Z23.704
N10160G01Y53.799Z23.699
N10170G01Y55Z23.69
N10180G01Y250Z21.736
N10190G00Z25
N10200G00Y0B192.513
N10210G01Z22.845F500
N10220G01Y60.399Z23.477F1000
N10230G01Y61.4Z23.485
N10240G01Y62.399Z23.491
N10250G01Y63.4Z23.496
N10260G01Y64.399Z23.498
N10270G01Y65.6
N10280G01Y66.799Z23.495
N10290G01Y67.999Z23.489
N10300G01Y69.2Z23.481
N10310G01Y250Z21.673
N10320G00Z25
N10330G00Y0B194.805
N10340G01Z22.543F500
N10350G01Y74.199Z23.311F1000
N10360G01Y75.199Z23.32
N10370G01Y76.2Z23.326
N10380G01Y77.199Z23.331
N10390G01Y78.4Z23.333
N10400G01Y79.599
N10410G01Y80.799Z23.33
N10420G01Y81.999Z23.324
N10430G01Y83.399Z23.314
N10440G01Y250Z21.65
N10450G00Z25
N10460G01Y0Z24.999B197.097
N10470G01Z22.289F500
N10480G01Y88.199Z23.192F1000
N10490G01Y89.199Z23.2
N10500G01Y90.399Z23.207
N10510G01Y91.6Z23.212
N10520G01Y92.799Z23.213
N10530G01Y93.999Z23.211
N10540G01Y95.199Z23.207
N10550G01Y96.199Z23.201
N10560G01Y97.199Z23.194
N10570G01Y250Z21.667
N10580G01Z24.999
N10590G01Y0B199.389
N10600G01Z22.079F500
N10610G01Y101.799Z23.114F1000
N10620G01Y102.799Z23.122
N10630G01Y103.999Z23.129
N10640G01Y105.2Z23.133
N10650G01Y106.399Z23.135
N10660G01Y107.799Z23.133
N10670G01Y109.2Z23.128
N10680G01Y110.399Z23.12
N10690G01Y111.599Z23.109
N10700G01Y250Z21.723
N10710G01Z24.999
N10720G01Y0B201.681
N10730G01Z21.912F500
N10740G01Y115.399Z23.077F1000
N10750G01Y116.599Z23.087
N10760G01Y117.799Z23.094
N10770G01Y118.999Z23.098
N10780G01Y119.999Z23.099
N10790G01Y121.399Z23.098
N10800G01Y122.599Z23.093
N10810G01Y123.799Z23.086
N10820G01Y125Z23.076
N10830G01Y250Z21.819
N10840G01Z24.999
N10850G01Y0B203.972
N10860G01Z21.787F500
N10870G01Y129.199Z23.085F1000
N10880G01Y130.4Z23.094
N10890G01Y131.599Z23.101
N10900G01Y132.799Z23.104
N10910G01Y134Z23.105
N10920G01Y135.199Z23.103
N10930G01Y136.399Z23.098
N10940G01Y137.599Z23.091
N10950G01Y138.599Z23.082
N10960G01Y250Z21.956
N10970G01Z24.999
N10980G00Y0Z25B206.264
N10990G01Z21.703F500
N11000G01Y142.8Z23.132F1000
N11010G01Y144.199Z23.143
N11020G01Y145.4Z23.149
N11030G01Y146.599Z23.152
N11040G01Y147.799Z23.153
N11050G01Y148.999Z23.151
N11060G01Y150.199Z23.145
N11070G01Y151.199Z23.139
N11080G01Y152.199Z23.131
N11090G01Y250Z22.135
N11100G00Z25
N11110G00Y0B208.556
N11120G01Z21.658F500
N11130G01Y156.399Z23.221F1000
N11140G01Y158.999Z23.238
N11150G01Y160.2Z23.242
N11160G01Y161.399Z23.243
N11170G01Y162.599Z23.241
N11180G01Y163.8Z23.236
N11190G01Y164.8Z23.23
N11200G01Y165.799Z23.222
N11210G01Y250Z22.357
N11220G00Z25
N11230G00Y0B210.848
N11240G01Z21.653F500
N11250G01Y170.199Z23.353F1000
N11260G01Y171.399Z23.363
N11270G01Y172.6Z23.37
N11280G01Y173.799Z23.374
N11290G01Y174.999Z23.376
N11300G01Y176.2Z23.375
N11310G01Y177.199Z23.371
N11320G01Y178.199Z23.366
N11330G01Y179.199Z23.359
N11340G01Y250Z22.624
N11350G00Z25
N11360G00Y0B213.14
N11370G01Z21.687F500
N11380G01Y184.399Z23.532F1000
N11390G01Y185.599Z23.541
N11400G01Y186.799Z23.548
N11410G01Y187.999Z23.552
N11420G01Y189.199Z23.553
N11430G01Y190.399Z23.551
N11440G01Y191.399Z23.548
N11450G01Y192.399Z23.542
N11460G01Y193.399Z23.534
N11470G01Y250Z22.94
N11480G00Z25
N11490G00Y0B215.432
N11500G01Z21.761F500
N11510G01Y198.599Z23.754F1000
N11520G01Y206.399Z23.766
N11530G01Y207.399Z23.758
N11540G01Y250Z23.305
N11550G00Z25
N11560G00Y0B217.723
N11570G01Z21.876F500
N11580G01Y213Z24.023F1000
N11590G01Y214.199Z24.033
N11600G01Y215.399Z24.04
N11610G01Y216.6Z24.044
N11620G01Y217.799Z24.046
N11630G01Y218.799Z24.045
N11640G01Y219.799Z24.042
N11650G01Y220.799Z24.036
N11660G01Y221.799Z24.029
N11670G01Y222.8Z24.019
N11680G01Y250Z23.725
N11690G00Z25
N11700G00Y0B220.015
N11710G01Z22.032F500
N11720G01Y227.799Z24.343F1000
N11730G01Y228.999Z24.352
N11740G01Y230.199Z24.36
N11750G01Y231.399Z24.364
N11760G01Y232.4Z24.365
N11770G01Y233.399
N11780G01Y234.399Z24.362
N11790G01Y235.399Z24.357
N11800G01Y236.399Z24.35
N11810G01Y237.399Z24.341
N11820G01Y250Z24.202
N11830G00Z25
N11840G00Y0B222.307
N11850G01Z22.23F500
N11860G01Y243Z24.715F1000
N11870G01Y244.199Z24.725
N11880G01Y245.399Z24.732
N11890G01Y246.599Z24.736
N11900G01Y247.599Z24.738
N11910G01Y248.599Z24.737
N11920G01Y249.599Z24.734
N11930G01Y250Z24.733
N11940G00Z25
N11950G00Y0B224.599
N11960G01Z22.473F500
N11970G01Y231.6Z24.862F1000
N11980G01Y240.199Z24.933
N11990G01Y249.199Z24.99
N12000G01Y250Z24.994
N12010G00Z25
N12020G00Y0B226.891
N12030G01Z22.762F500
N12040G01Y188.599Z24.729F1000
N12050G01Y196.999Z24.8
N12060G01Y205.599Z24.855
N12070G01Y214.599Z24.894
N12080G01Y223.6Z24.915
N12090G01Y232.4Z24.918
N12100G01Y240.999Z24.904
N12110G01Y245.199Z24.891
N12120G01Y250Z24.87
N12130G00Z25
N12140G01Y0Z24.999B229.183
N12150G01Z23.1F500
N12160G01Y145.999Z24.642F1000
N12170G01Y154.2Z24.712
N12180G01Y162.799Z24.767
N12190G01Y171.399Z24.806
N12200G01Y180.199Z24.827
N12210G01Y189.199Z24.832
N12220G01Y196.599Z24.821
N12230G01Y205.2Z24.793
N12240G01Y213.199Z24.75
N12250G01Y220.799Z24.694
N12260G01Y227.799Z24.629
N12270G01Y250Z24.383
N12280G01Z24.999
N12290G00Y0Z25B231.474
N12300G01Z23.489F500
N12310G01Y103.599Z24.6F1000
N12320G01Y119.599Z24.722
N12330G01Y128.199Z24.761
N12340G01Y136.999Z24.784
N12350G01Y145.999Z24.79
N12360G01Y155Z24.776
N12370G01Y163.599Z24.746
N12380G01Y171.8Z24.701
N12390G01Y179.399Z24.644
N12400G01Y186.6Z24.575
N12410G01Y250Z23.885
N12420G00Z25
N12430G01Y0Z24.999B233.766
N12440G01Z23.935F500
N12450G01Y61.199Z24.601F1000
N12460G01Y68.799Z24.668
N12470G01Y76.799Z24.722
N12480G01Y85.4Z24.763
N12490G01Y93.999Z24.786
N12500G01Y103Z24.792
N12510G01Y111.999Z24.78
N12520G01Y116.799Z24.766
N12530G01Y125.399Z24.727
N12540G01Y133.599Z24.674
N12550G01Y141.399Z24.607
N12560G01Y250Z23.446
N12570G01Z24.999
N12580G00Y0Z25B236.058
N12590G01Z24.44F500
N12600G01Y18.999Z24.649F1000
N12610G01Y26.2Z24.714
N12620G01Y33.999Z24.768
N12630G01Y42.399Z24.808
N12640G01Y50.999Z24.832
N12650G01Y59.999Z24.839
N12660G01Y68.799Z24.828
N12670G01Y77.799Z24.798
N12680G01Y86.399Z24.753
N12690G01Y94.599Z24.693
N12700G01Y102.399Z24.62
N12710G01Y250Z23.062
N12720G00Z25
N12730G00Y0B238.35
N12740G01Z24.902F500
N12750G01Y8.599Z24.925F1000
N12760G01Y17.4Z24.931
N12770G01Y26.4Z24.919
N12780G01Y35.399Z24.888
N12790G01Y44.199Z24.841
N12800G01Y52.8Z24.777
N12810G01Y250Z22.729
N12820G00Z25
N12830G00Y0B240.642
N12840G01Y8.8Z24.922
N12850G01Y13.599Z24.881
N12860G01Y250Z22.445
N12870G00Z25
N12880G00Y0B242.934
N12890G01Z24.68F500
N12900G01Y1Z24.687F1000
N12910G01Y2Z24.692
N12920G01Y3Z24.695
N12930G01Y4Z24.696
N12940G01Y5Z24.694
N12950G01Y6.199Z24.69
N12960G01Y7.4Z24.683
N12970G01Y8.8Z24.671
N12980G01Y250Z22.207
N12990G00Z25
N13000G01Y0Z24.999B245.225
N13010G01Z24.149F500
N13020G01Y14.4Z24.307F1000
N13030G01Y15.4Z24.316
N13040G01Y16.4Z24.322
N13050G01Y17.4Z24.327
N13060G01Y18.4Z24.329
N13070G01Y19.399
N13080G01Y20.6Z24.327
N13090G01Y21.8Z24.321
N13100G01Y23Z24.313
N13110G01Y24Z24.304
N13120G01Y250Z22.013
N13130G01Z24.999
N13140G00Y0Z25B247.517
N13150G01Z23.678F500
N13160G01Y29.199Z23.993F1000
N13170G01Y30.199Z24.002
N13180G01Y31.199Z24.008
N13190G01Y32.199Z24.012
N13200G01Y33.199Z24.015
N13210G01Y34.399Z24.014
N13220G01Y35.599Z24.011
N13230G01Y36.8Z24.006
N13240G01Y37.999Z23.997
N13250G01Y250Z21.862
N13260G00Z25
N13270G00Y0B249.809
N13280G01Z23.264F500
N13290G01Y43.6Z23.728F1000
N13300G01Y47.599Z23.75
N13310G01Y48.799
N13320G01Y49.999Z23.747
N13330G01Y51.199Z23.741
N13340G01Y52.4Z23.733
N13350G01Y53.199Z23.726
N13360G01Y250Z21.752
N13370G00Z25
N13380G00Y0B252.101
N13390G01Z22.904F500
N13400G01Y57.799Z23.511F1000
N13410G01Y58.799Z23.519
N13420G01Y59.799Z23.525
N13430G01Y60.799Z23.53
N13440G01Y61.799Z23.532
N13450G01Y63
N13460G01Y64.199Z23.529
N13470G01Y65.399Z23.524
N13480G01Y66.599Z23.515
N13490G01Y67.4Z23.508
N13500G01Y250Z21.682
N13510G00Z25
N13520G00Y0B254.393
N13530G01Z22.594F500
N13540G01Y71.8Z23.338F1000
N13550G01Y72.799Z23.347
N13560G01Y73.799Z23.353
N13570G01Y74.8Z23.357
N13580G01Y75.999Z23.36
N13590G01Y77.199Z23.359
N13600G01Y78.4Z23.356
N13610G01Y79.599Z23.35
N13620G01Y80.799Z23.341
N13630G01Y250Z21.652
N13640G00Z25
N13650G01Y0Z24.999B256.685
N13660G01Z22.331F500
N13670G01Y85.599Z23.21F1000
N13680G01Y87.6Z23.224
N13690G01Y88.799Z23.229
N13700G01Y89.999Z23.231
N13710G01Y91.199
N13720G01Y92.399Z23.227
N13730G01Y93.599Z23.221
N13740G01Y94.999Z23.21
N13750G01Y250Z21.661
N13760G01Z24.999
N13770G00Y0Z25B258.976
N13780G01Z22.114F500
N13790G01Y99.399Z23.125F1000
N13800G01Y105.2Z23.145
N13810G01Y106.399Z23.14
N13820G01Y107.199Z23.136
N13830G01Y108.399Z23.127
N13840G01Y250Z21.71
N13850G00Z25
N13860G00Y0B261.268
N13870G01Z21.939F500
N13880G01Y112.999Z23.081F1000
N13890G01Y114.199Z23.091
N13900G01Y115.399Z23.097
N13910G01Y116.599Z23.101
N13920G01Y117.799Z23.103
N13930G01Y119.199Z23.1
N13940G01Y120.399Z23.095
N13950G01Y121.599Z23.088
N13960G01Y122.8Z23.077
N13970G01Y250Z21.799
N13980G00Z25
N13990G01Y0Z24.999B263.56
N14000G01Z21.807F500
N14010G01Y126.599Z23.079F1000
N14020G01Y127.8Z23.089
N14030G01Y128.999Z23.096
N14040G01Y129.799Z23.099
N14050G01Y131.2Z23.101
N14060G01Y132.399Z23.1
N14070G01Y133.599Z23.096
N14080G01Y134.8Z23.089
N14090G01Y135.999Z23.08
N14100G01Y250Z21.928
N14110G01Z24.999
N14120G00Y0Z25B265.852
N14130G01Z21.715F500
N14140G01Y140.399Z23.121F1000
N14150G01Y141.599Z23.13
N14160G01Y142.8Z23.137
N14170G01Y143.999Z23.14
N14180G01Y145.199Z23.141
N14190G01Y146.399Z23.139
N14200G01Y147.599Z23.134
N14210G01Y148.8Z23.127
N14220G01Y149.8Z23.118
N14230G01Y250Z22.099
N14240G00Z25
N14250G00Y0B268.144
N14260G01Z21.663F500
N14270G01Y153.999Z23.202F1000
N14280G01Y156.599Z23.219
N14290G01Y157.799Z23.223
N14300G01Y158.999Z23.224
N14310G01Y160.2Z23.221
N14320G01Y161.399Z23.216
N14330G01Y162.399Z23.21
N14340G01Y163.399Z23.202
N14350G01Y250Z22.313
N14360G00Z25
N14370G00Y0B270.436
N14380G01Z21.651F500
N14390G01Y167.799Z23.327F1000
N14400G01Y169Z23.337
N14410G01Y170.199Z23.344
N14420G01Y171.399Z23.348
N14430G01Y172.6Z23.349
N14440G01Y173.799Z23.347
N14450G01Y174.999Z23.343
N14460G01Y175.999Z23.337
N14470G01Y177Z23.329
N14480G01Y250Z22.573
N14490G00Z25
N14500G00Y0B272.727
N14510G01Z21.678F500
N14520G01Y181.599Z23.495F1000
N14530G01Y182.799Z23.504
N14540G01Y184Z23.512
N14550G01Y185.199Z23.516
N14560G01Y186.399Z23.518
N14570G01Y187.6Z23.517
N14580G01Y188.599Z23.514
N14590G01Y189.599Z23.508
N14600G01Y190.599Z23.501
N14610G01Y250Z22.879
N14620G00Z25
N14630G00Y0B275.019
N14640G01Z21.745F500
N14650G01Y195.799Z23.709F1000
N14660G01Y196.999Z23.719
N14670G01Y198.2Z23.726
N14680G01Y199.399Z23.73
N14690G01Y200.599Z23.732
N14700G01Y201.6Z23.731
N14710G01Y202.6Z23.729
N14720G01Y203.599Z23.724
N14730G01Y204.599Z23.717
N14740G01Y205.599Z23.708
N14750G01Y250Z23.236
N14760G00Z25
N14770G00Y0B277.311
N14780G01Z21.852F500
N14790G01Y210.199Z23.969F1000
N14800G01Y211.399Z23.98
N14810G01Y212.599Z23.987
N14820G01Y213.799Z23.992
N14830G01Y214.8Z23.993
N14840G01Y215.799
N14850G01Y216.799Z23.991
N14860G01Y217.799Z23.986
N14870G01Y218.799Z23.98
N14880G01Y219.799Z23.971
N14890G01Y250Z23.645
N14900G00Z25
N14910G00Y0B279.603
N14920G01Z22.001F500
N14930G01Y224.999Z24.28F1000
N14940G01Y226.199Z24.29
N14950G01Y227.399Z24.298
N14960G01Y228.599Z24.302
N14970G01Y229.599Z24.304
N14980G01Y230.599
N14990G01Y231.6Z24.301
N15000G01Y232.599Z24.297
N15010G01Y233.599Z24.29
N15020G01Y234.599Z24.281
N15030G01Y250Z24.112
N15040G00Z25
N15050G00Y0B281.895
N15060G01Z22.191F500
N15070G01Y240.399Z24.645F1000
N15080G01Y244.799Z24.667
N15090G01Y245.799Z24.666
N15100G01Y246.799Z24.663
N15110G01Y247.799Z24.659
N15120G01Y248.799Z24.652
N15130G01Y249.799Z24.642
N15140G00Y250Z25
N15150G00Y0B284.187
N15160G01Z22.426F500
N15170G01Y239.399Z24.891F1000
N15180G00Y250Z25
N15190G00Y0B286.478
N15200G01Z22.706F500
N15210G01Y196.4Z24.75F1000
N15220G01Y213.399Z24.875
N15230G01Y222.399Z24.915
N15240G01Y231.399Z24.936
N15250G01Y240.199Z24.939
N15260G01Y248.799Z24.924
N15270G01Y250Z24.921
N15280G00Z25
N15290G01Y0Z24.999B288.77
N15300G01Z23.035F500
N15310G01Y153.599Z24.654F1000
N15320G01Y161.799Z24.724
N15330G01Y170.399Z24.779
N15340G01Y179.199Z24.819
N15350G01Y188.199Z24.84
N15360G01Y197.2Z24.844
N15370G01Y204.599Z24.833
N15380G01Y213Z24.804
N15390G01Y221Z24.762
N15400G01Y228.399Z24.707
N15410G01Y235.199Z24.644
N15420G01Y250Z24.48
N15430G01Z24.999
N15440G01Y0B291.062
N15450G01Z23.415F500
N15460G01Y111.199Z24.604F1000
N15470G01Y118.999Z24.671
N15480G01Y127.199Z24.726
N15490G01Y135.999Z24.766
N15500G01Y144.799Z24.789
N15510G01Y153.799Z24.794
N15520G01Y162.599Z24.781
N15530G01Y171.399Z24.75
N15540G01Y179.399Z24.705
N15550G01Y186.999Z24.648
N15560G01Y194.199Z24.58
N15570G01Y250Z23.97
N15580G01Z24.999
N15590G01Y0B293.354
N15600G01Z23.85F500
N15610G01Y68.799Z24.597F1000
N15620G01Y76.399Z24.664
N15630G01Y84.399Z24.718
N15640G01Y92.799Z24.758
N15650G01Y101.399Z24.782
N15660G01Y110.199Z24.789
N15670G01Y118.999Z24.778
N15680G01Y123.599Z24.765
N15690G01Y132.2Z24.728
N15700G01Y140.399Z24.676
N15710G01Y148.199Z24.611
N15720G01Y250Z23.52
N15730G01Z24.999
N15740G00Y0Z25B295.646
N15750G01Z24.344F500
N15760G01Y26.6Z24.637F1000
N15770G01Y33.799Z24.701
N15780G01Y41.6Z24.755
N15790G01Y49.999Z24.796
N15800G01Y58.399Z24.82
N15810G01Y67.199Z24.828
N15820G01Y76.2Z24.817
N15830G01Y85.199Z24.788
N15840G01Y93.8Z24.743
N15850G01Y101.999Z24.683
N15860G01Y109.799Z24.611
N15870G01Y250Z23.127
N15880G00Z25
N15890G00Y0B297.938
N15900G01Z24.845F500
N15910G01Y8.2Z24.883F1000
N15920G01Y16.799Z24.906
N15930G01Y25.799Z24.911
N15940G01Y34.8Z24.897
N15950G01Y43.8Z24.865
N15960G01Y51.399Z24.824
N15970G01Y59.999Z24.762
N15980G01Y67.999Z24.687
N15990G01Y250Z22.785
N16000G00Z25
N16010G01Y0Z24.999B300.229
N16020G01Y8.999Z24.949
N16030G01Y17.8Z24.884
N16040G01Y250Z22.493
N16050G01Z24.999
N16060G00Y0Z25B302.521
N16070G01Z24.766F500
N16080G01Y1Z24.768F1000
N16090G01Y2Z24.767
N16100G01Y3.2Z24.763
N16110G01Y4.4Z24.756
N16120G01Y5.599Z24.747
N16130G01Y250Z22.247
N16140G00Z25
N16150G00Y0B304.813
N16160G01Z24.24F500
N16170G01Y11.6Z24.368F1000
N16180G01Y13.599Z24.384
N16190G01Y14.599Z24.388
N16200G01Y15.6Z24.391
N16210G01Y16.6
N16220G01Y17.8Z24.389
N16230G01Y18.999Z24.384
N16240G01Y20.199Z24.376
N16250G01Y21.199Z24.367
N16260G01Y250Z22.045
N16270G00Z25
N16280G00Y0B307.105
N16290G01Z23.758F500
N16300G01Y26.6Z24.046F1000
N16310G01Y27.6Z24.055
N16320G01Y28.6Z24.061
N16330G01Y29.6Z24.065
N16340G01Y30.599Z24.067
N16350G01Y31.599
N16360G01Y32.8Z24.065
N16370G01Y33.999Z24.059
N16380G01Y35.2Z24.051
N16390G01Y36.199Z24.042
N16400G01Y250Z21.886
N16410G00Z25
N16420G00Y0B309.397
N16430G01Z23.335F500
N16440G01Y40.999Z23.772F1000
N16450G01Y41.999Z23.781
N16460G01Y42.999Z23.787
N16470G01Y44Z23.791
N16480G01Y44.999Z23.794
N16490G01Y46.2
N16500G01Y47.399Z23.791
N16510G01Y48.599Z23.785
N16520G01Y49.799Z23.777
N16530G01Y50.6Z23.77
N16540G01Y250Z21.769
N16550G00Z25
N16560G00Y0B311.689
N16570G01Z22.965F500
N16580G01Y55.199Z23.546F1000
N16590G01Y56.199Z23.554
N16600G01Y57.2Z23.561
N16610G01Y58.199Z23.565
N16620G01Y59.4Z23.568
N16630G01Y60.599
N16640G01Y61.799Z23.564
N16650G01Y63Z23.559
N16660G01Y64.199Z23.55
N16670G01Y250Z21.692
N16680G00Z25
N16690G01Y0Z24.999B313.98
N16700G01Z22.646F500
N16710G01Y69.399Z23.367F1000
N16720G01Y70.4Z23.375
N16730G01Y71.4Z23.381
N16740G01Y72.399Z23.385
N16750G01Y73.6Z23.388
N16760G01Y74.8Z23.387
N16770G01Y75.999Z23.383
N16780G01Y77.199Z23.377
N16790G01Y78.4Z23.368
N16800G01Y250Z21.654
N16810G01Z24.999
N16820G00Y0Z25B316.272
N16830G01Z22.375F500
N16840G01Y83.2Z23.23F1000
N16850G01Y84.199Z23.239
N16860G01Y85.199Z23.245
N16870G01Y86.199Z23.249
N16880G01Y87.399Z23.251
N16890G01Y88.599
N16900G01Y89.8Z23.247
N16910G01Y91.199Z23.24
N16920G01Y92.599Z23.229
N16930G01Y250Z21.656
N16940G00Z25
N16950G00Y0B318.564
N16960G01Z22.15F500
N16970G01Y96.999Z23.138F1000
N16980G01Y97.999Z23.146
N16990G01Y99.199Z23.153
N17000G01Y100.4Z23.157
N17010G01Y101.599Z23.158
N17020G01Y102.799Z23.157
N17030G01Y103.799Z23.153
N17040G01Y104.999Z23.147
N17050G01Y106.199Z23.137
N17060G01Y250Z21.698
N17070G00Z25
N17080G00Y0B320.856
N17090G01Z21.968F500
N17100G01Y110.599Z23.086F1000
N17110G01Y111.8Z23.096
N17120G01Y112.999Z23.102
N17130G01Y114.199Z23.106
N17140G01Y115.599Z23.107
N17150G01Y116.999Z23.104
N17160G01Y118.199Z23.099
N17170G01Y119.399Z23.09
N17180G01Y250Z21.78
N17190G00Z25
N17200G00Y0B323.148
N17210G01Z21.828F500
N17220G01Y124.199Z23.077F1000
N17230G01Y125.399Z23.087
N17240G01Y126.599Z23.093
N17250G01Y127.599Z23.097
N17260G01Y128.999Z23.098
N17270G01Y130.199Z23.096
N17280G01Y131.4Z23.092
N17290G01Y132.599Z23.085
N17300G01Y133.599Z23.076
N17310G01Y250Z21.902
N17320G00Z25
N17330G00Y0B325.44
N17340G01Z21.729F500
N17350G01Y137.799Z23.109F1000
N17360G01Y138.999Z23.119
N17370G01Y140Z23.125
N17380G01Y141.199Z23.129
N17390G01Y142.399Z23.131
N17400G01Y143.6Z23.13
N17410G01Y144.799Z23.126
N17420G01Y145.999Z23.119
N17430G01Y147Z23.111
N17440G01Y250Z22.065
N17450G00Z25
N17460G01Y0Z24.999B327.731
N17470G01Z21.67F500
N17480G01Y151.799Z23.187F1000
N17490G01Y153.2Z23.197
N17500G01Y154.399Z23.202
N17510G01Y155.599Z23.205
N17520G01Y156.8
N17530G01Y157.999Z23.203
N17540G01Y159.199Z23.197
N17550G01Y160.2Z23.19
N17560G01Y161.2Z23.181
N17570G01Y250Z22.272
N17580G01Z24.999
N17590G01Y0B330.023
N17600G01Z21.65F500
N17610G01Y165.399Z23.302F1000
N17620G01Y166.599Z23.312
N17630G01Y167.799Z23.318
N17640G01Y169Z23.322
N17650G01Y170.199Z23.323
N17660G01Y171.399Z23.321
N17670G01Y172.6Z23.317
N17680G01Y173.599Z23.31
N17690G01Y174.599Z23.302
N17700G01Y250Z22.523
N17710G01Z24.999
N17720G00Y0Z25B332.315
N17730G01Z21.67F500
N17740G01Y179.399Z23.464F1000
N17750G01Y180.6Z23.473
N17760G01Y181.799Z23.479
N17770G01Y182.999Z23.483
N17780G01Y184.199Z23.484
N17790G01Y185.199Z23.483
N17800G01Y186.199Z23.479
N17810G01Y187.199Z23.474
N17820G01Y188.199Z23.466
N17830G01Y250Z22.82
N17840G00Z25
N17850G00Y0B334.607
N17860G01Z21.73F500
N17870G01Y193.199Z23.667F1000
N17880G01Y196.799Z23.688
N17890G01Y197.999Z23.69
N17900G01Y199Z23.689
N17910G01Y199.999Z23.687
N17920G01Y200.999Z23.682
N17930G01Y201.999Z23.675
N17940G01Y202.999Z23.666
N17950G01Y250Z23.168
N17960G00Z25
N17970G00Y0B336.899
N17980G01Z21.83F500
N17990G01Y207.599Z23.919F1000
N18000G01Y212.399Z23.943
N18010G01Y213.399Z23.942
N18020G01Y214.399Z23.939
N18030G01Y215.399Z23.935
N18040G01Y216.399Z23.928
N18050G01Y217.399Z23.918
N18060G01Y250Z23.567
N18070G00Z25
N18080G00Y0B339.191
N18090G01Z21.971F500
N18100G01Y222.599Z24.223F1000
N18110G01Y223.799Z24.233
N18120G01Y224.999Z24.239
N18130G01Y226.199Z24.243
N18140G01Y227.2Z24.244
N18150G01Y228.199Z24.243
N18160G01Y229.199Z24.24
N18170G01Y230.199Z24.235
N18180G01Y231.199Z24.228
N18190G01Y232.199Z24.218
N18200G01Y250Z24.023
N18210G00Z25
N18220G01Y0Z24.999B341.482
N18230G01Z22.154F500
N18240G01Y237.599Z24.576F1000
N18250G01Y238.799Z24.585
N18260G01Y239.999Z24.592
N18270G01Y241.2Z24.596
N18280G01Y242.199Z24.597
N18290G01Y243.199
N18300G01Y244.199Z24.594
N18310G01Y245.199Z24.588
N18320G01Y246.199Z24.581
N18330G01Y247.199Z24.571
N18340G01Y250Z24.54
N18350G01Z24.999
N18360G01Y0B343.774
N18370G01Z22.38F500
N18380G01Y247.199Z24.921F1000
N18390G01Y250Z24.946
N18400G01Z24.999
N18410G01Y0B346.066
N18420G01Z22.652F500
N18430G01Y203.999Z24.771F1000
N18440G01Y212.399Z24.842
N18450G01Y221.199Z24.898
N18460G01Y230.199Z24.937
N18470G01Y239.199Z24.958
N18480G01Y247.999Z24.961
N18490G01Y250Z24.959
N18500G01Z24.999
N18510G00Y0Z25B348.358
N18520G01Z22.972F500
N18530G01Y161.2Z24.667F1000
N18540G01Y169.399Z24.737
N18550G01Y177.999Z24.793
N18560G01Y186.799Z24.832
N18570G01Y195.799Z24.854
N18580G01Y204.799Z24.858
N18590G01Y212.799Z24.845
N18600G01Y221.199Z24.816
N18610G01Y228.999Z24.773
N18620G01Y236.399Z24.718
N18630G01Y243.199Z24.654
N18640G01Y250Z24.578
N18650G00Z25
N18660G01Y0Z24.999B350.65
N18670G01Z23.343F500
N18680G01Y118.799Z24.609F1000
N18690G01Y126.599Z24.677
N18700G01Y134.999Z24.732
N18710G01Y143.399Z24.771
N18720G01Y152.199Z24.794
N18730G01Y161.2Z24.8
N18740G01Y169.799Z24.788
N18750G01Y178.399Z24.759
N18760G01Y186.6Z24.714
N18770G01Y194.199Z24.658
N18780G01Y201.199Z24.592
N18790G01Y250Z24.057
N18800G01Z24.999
N18810G00Y0Z25B352.942
N18820G01Z23.768F500
N18830G01Y76.399Z24.595F1000
N18840G01Y83.999Z24.662
N18850G01Y92.199Z24.717
N18860G01Y100.599Z24.757
N18870G01Y109.2Z24.78
N18880G01Y118.199Z24.786
N18890G01Y127.199Z24.774
N18900G01Y135.999Z24.744
N18910G01Y144.4Z24.699
N18920G01Y152.199Z24.641
N18930G01Y159.599Z24.571
N18940G01Y250Z23.597
N18950G00Z25
N18960G01Y0Z24.999B355.233
N18970G01Z24.251F500
N18980G01Y34.199Z24.626F1000
N18990G01Y41.6Z24.692
N19000G01Y49.399Z24.746
N19010G01Y57.599Z24.786
N19020G01Y66.199Z24.81
N19030G01Y74.999Z24.817
N19040G01Y83.999Z24.806
N19050G01Y92.999Z24.777
N19060G01Y101.599Z24.732
N19070G01Y109.799Z24.672
N19080G01Y117.599Z24.599
N19090G01Y250Z23.194
N19100G01Z24.999
N19110G01Y0B357.525
N19120G01Z24.775F500
N19130G01Y7.6Z24.826F1000
N19140G01Y15.799Z24.865
N19150G01Y24.2Z24.887
N19160G01Y33.199Z24.892
N19170G01Y41.999Z24.88
N19180G01Y50.999Z24.849
N19190G01Y57.599Z24.815
N19200G01Y66.199Z24.755
N19210G01Y74.199Z24.684
N19220G01Y250Z22.843
N19230G01Z24.999
N19240G00Y0Z25B359.817
N19250G01Z24.998F500
N19260G01Y8.999Z24.966F1000
N19270G01Y17.999Z24.915
N19280G01Y24.799Z24.864
N19290G01Y33.199Z24.786
N19300G01Y250Z22.542
N19310G00Z25
N19320G00Y0B0
N19330G00B2.291
N19340G00B4.583
N19350G01B6.875F500
N19360G01Z24.999B9.167
N19370G00Z25B11.459
N19380G00B13.75
N19390G00B16.042
N19400G00B18.334
N19410G00B20.626
N19420G01Z24.999B22.918
N19430G00Z25B25.21
N19440G01Z24.999B27.501
N19450G01B29.793F1000
N19460G00Z25B32.085
N19470G01B34.377F500
N19480G00B36.669
N19490G01Z24.999B38.961
N19500G00Z25B41.252
N19510G00B43.544
N19520G01B45.836
N19530G00B48.128
N19540G00B50.42
N19550G01Z24.999B52.712
N19560G01B55.003F1000
N19570G01B57.295
N19580G00Z25B59.587
N19590G00B61.879
N19600G00B64.171
N19610G01Z24.999B66.463F500
N19620G01B68.754F1000
N19630G00Z25B71.046
N19640G01Z24.999B73.338F500
N19650G00Z25B75.63
N19660G01B77.922
N19670G00B80.214
N19680G00B82.505
N19690G00B84.797
N19700G00B87.089
N19710G00B89.381
N19720G00B91.673
N19730G00B93.965
N19740G01B96.256
N19750G00B98.548
N19760G00B100.84
N19770G00B103.132
N19780G01B105.424
N19790G00B107.716
N19800G00B110.007
N19810G00B112.299
N19820G01Z24.999B114.591
N19830G00Z25B116.883
N19840G01Z24.999B119.175
N19850G00Z25B121.467
N19860G01Z24.999B123.758
N19870G00Z25B126.05
N19880G00B128.342
N19890G01Z24.999B130.634
N19900G00Z25B132.926
N19910G00B135.218
N19920G00B137.509
N19930G00B139.801
N19940G01Z24.999B142.093
N19950G01B144.385F1000
N19960G01B146.677
N19970G00Z25B148.969
N19980G00B151.26
N19990G01Z24.999B153.552F500
N20000G00Z25B155.844
N20010G00B158.136
N20020G00B160.428
N20030G00B162.72
N20040G01B165.011
N20050G00B167.303
N20060G00B169.595
N20070G00B171.887
N20080G01B174.179
N20090G00B176.471
N20100G01B178.762
N20110G00B181.054
N20120G00B183.346
N20130G00B185.638
N20140G00B187.93
N20150G01B190.221
N20160G00B192.513
N20170G00B194.805
N20180G01Z24.999B197.097
N20190G01B199.389F1000
N20200G01B201.681
N20210G01B203.972
N20220G00Z25B206.264
N20230G00B208.556
N20240G00B210.848
N20250G00B213.14
N20260G00B215.432
N20270G00B217.723
N20280G00B220.015
N20290G00B222.307
N20300G00B224.599
N20310G01B226.891F500
N20320G01Z24.999B229.183
N20330G00Z25B231.474
N20340G01Z24.999B233.766
N20350G00Z25B236.058
N20360G01B238.35
N20370G00B240.642
N20380G00B242.934
N20390G01Z24.999B245.225
N20400G00Z25B247.517
N20410G00B249.809
N20420G00B252.101
N20430G00B254.393
N20440G01Z24.999B256.685
N20450G00Z25B258.976
N20460G01B261.268
N20470G01Z24.999B263.56
N20480G00Z25B265.852
N20490G01B268.144
N20500G00B270.436
N20510G00B272.727
N20520G00B275.019
N20530G01B277.311
N20540G00B279.603
N20550G01B281.895
N20560G00B284.187
N20570G00B286.478
N20580G01Z24.999B288.77
N20590G01B291.062F1000
N20600G01B293.354
N20610G00Z25B295.646
N20620G00B297.938
N20630G01Z24.999B300.229F500
N20640G00Z25B302.521
N20650G00B304.813
N20660G00B307.105
N20670G00B309.397
N20680G00B311.689
N20690G01Z24.999B313.98
N20700G00Z25B316.272
N20710G00B318.564
N20720G01B320.856
N20730G00B323.148
N20740G00B325.44
N20750G01Z24.999B327.731
N20760G01B330.023F1000
N20770G00Z25B332.315
N20780G01B334.607F500
N20790G00B336.899
N20800G00B339.191
N20810G01Z24.999B341.482
N20820G01B343.774F1000
N20830G01B346.066
N20840G00Z25B348.358
N20850G01Z24.999B350.65F500
N20860G00Z25B352.942
N20870G01Z24.999B355.233
N20880G01B357.525F1000
N20890G00Z25B359.817
N20900G00B0
N20910G00B2.291
N20920G00B4.583
N20930G01B6.875F500
N20940G01Z24.999B9.167
N20950G00Z25B11.459
N20960G00B13.75
N20970G00B16.042
N20980G00B18.334
N20990G00B20.626
N21000G01Z24.999B22.918
N21010G00Z25B25.21
N21020G01Z24.999B27.501
N21030G01B29.793F1000
N21040G00Z25B32.085
N21050G01B34.377F500
N21060G00B36.669
N21070G01Z24.999B38.961
N21080G00Z25B41.252
N21090G00B43.544
N21100G01B45.836
N21110G00B48.128
N21120G00B50.42
N21130G01Z24.999B52.712
N21140G01B55.003F1000
N21150G01B57.295
N21160G00Z25B59.587
N21170G00B61.879
N21180G00B64.171
N21190G01Z24.999B66.463F500
N21200G01B68.754F1000
N21210G00Z25B71.046
N21220G01Z24.999B73.338F500
N21230G00Z25B75.63
N21240G01B77.922
N21250G00B80.214
N21260G00B82.505
N21270G00B84.797
N21280G00B87.089
N21290G00B89.381
N21300G00B91.673
N21310G00B93.965
N21320G01B96.256
N21330G00B98.548
N21340G00B100.84
N21350G00B103.132
N21360G01B105.424
N21370G00B107.716
N21380G00B110.007
N21390G00B112.299
N21400G01Z24.999B114.591
N21410G00Z25B116.883
N21420G01Z24.999B119.175
N21430G00Z25B121.467
N21440G01Z24.999B123.758
N21450G00Z25B126.05
N21460G00B128.342
N21470G01Z24.999B130.634
N21480G00Z25B132.926
N21490G00B135.218
N21500G00B137.509
N21510G00B139.801
N21520G01Z24.999B142.093
N21530G01B144.385F1000
N21540G01B146.677
N21550G00Z25B148.969
N21560G00B151.26
N21570G01Z24.999B153.552F500
N21580G00Z25B155.844
N21590G00B158.136
N21600G00B160.428
N21610G00B162.72
N21620G01B165.011
N21630G00B167.303
N21640G00B169.595
N21650G00B171.887
N21660G01B174.179
N21670G00B176.471
N21680G01B178.762
N21690G00B181.054
N21700G00B183.346
N21710G00B185.638
N21720G00B187.93
N21730G01B190.221
N21740G00B192.513
N21750G00B194.805
N21760G01Z24.999B197.097
N21770G01B199.389F1000
N21780G01B201.681
N21790G01B203.972
N21800G00Z25B206.264
N21810G00B208.556
N21820G00B210.848
N21830G00B213.14
N21840G00B215.432
N21850G00B217.723
N21860G00B220.015
N21870G00B222.307
N21880G00B224.599
N21890G01B226.891F500
N21900G01Z24.999B229.183
N21910G00Z25B231.474
N21920G01Z24.999B233.766
N21930G00Z25B236.058
N21940G01B238.35
N21950G00B240.642
N21960G00B242.934
N21970G01Z24.999B245.225
N21980G00Z25B247.517
N21990G00B249.809
N22000G00B252.101
N22010G00B254.393
N22020G01Z24.999B256.685
N22030G00Z25B258.976
N22040G01B261.268
N22050G01Z24.999B263.56
N22060G00Z25B265.852
N22070G01B268.144
N22080G00B270.436
N22090G00B272.727
N22100G00B275.019
N22110G01B277.311
N22120G00B279.603
N22130G01B281.895
N22140G00B284.187
N22150G00B286.478
N22160G01Z24.999B288.77
N22170G01B291.062F1000
N22180G01B293.354
N22190G00Z25B295.646
N22200G00B297.938
N22210G01Z24.999B300.229F500
N22220G00Z25B302.521
N22230G00B304.813
N22240G00B307.105
N22250G00B309.397
N22260G00B311.689
N22270G01Z24.999B313.98
N22280G00Z25B316.272
N22290G00B318.564
N22300G01B320.856
N22310G00B323.148
N22320G00B325.44
N22330G01Z24.999B327.731
N22340G01B330.023F1000
N22350G00Z25B332.315
N22360G01B334.607F500
N22370G00B336.899
N22380G00B339.191
N22390G01Z24.999B341.482
N22400G01B343.774F1000
N22410G01B346.066
N22420G00Z25B348.358
N22430G01Z24.999B350.65F500
N22440G00Z25B352.942
N22450G01Z24.999B355.233
N22460G01B357.525F1000
N22470G00Z25B359.817
N22480G00B0
N22490G00B2.291
N22500G00B4.583
N22510G01B6.875F500
N22520G01Z24.999B9.167
N22530G00Z25B11.459
N22540G00B13.75
N22550G00B16.042
N22560G00B18.334
N22570G00B20.626
N22580G01Z24.999B22.918
N22590G00Z25B25.21
N22600G01Z24.999B27.501
N22610G01B29.793F1000
N22620G00Z25B32.085
N22630G01B34.377F500
N22640G00B36.669
N22650G01Z24.999B38.961
N22660G00Z25B41.252
N22670G00B43.544
N22680G01B45.836
N22690G00B48.128
N22700G00B50.42
N22710G01Z24.999B52.712
N22720G01B55.003F1000
N22730G01B57.295
N22740G00Z25B59.587
N22750G00B61.879
N22760G00B64.171
N22770G01Z24.999B66.463F500
N22780G01B68.754F1000
N22790G00Z25B71.046
N22800G01Z24.999B73.338F500
N22810G00Z25B75.63
N22820G01B77.922
N22830G00B80.214
N22840G00B82.505
N22850G00B84.797
N22860G00B87.089
N22870G00B89.381
N22880G00B91.673
N22890G00B93.965
N22900G01B96.256
N22910G00B98.548
N22920G00B100.84
N22930G00B103.132
N22940G01B105.424
N22950G00B107.716
N22960G00B110.007
N22970G00B112.299
N22980G01Z24.999B114.591
N22990G00Z25B116.883
N23000G01Z24.999B119.175
N23010G00Z25B121.467
N23020G01Z24.999B123.758
N23030G00Z25B126.05
N23040G00B128.342
N23050G01Z24.999B130.634
N23060G00Z25B132.926
N23070G00B135.218
N23080G00B137.509
N23090G00B139.801
N23100G01Z24.999B142.093
N23110G01B144.385F1000
N23120G01B146.677
N23130G00Z25B148.969
N23140G00B151.26
N23150G01Z24.999B153.552F500
N23160G00Z25B155.844
N23170G00B158.136
N23180G00B160.428
N23190G00B162.72
N23200G01B165.011
N23210G00B167.303
N23220G00B169.595
N23230G00B171.887
N23240G01B174.179
N23250G00B176.471
N23260G01B178.762
N23270G00B181.054
N23280G00B183.346
N23290G00B185.638
N23300G00B187.93
N23310G01B190.221
N23320G00B192.513
N23330G00B194.805
N23340G01Z24.999B197.097
N23350G01B199.389F1000
N23360G01B201.681
N23370G01B203.972
N23380G00Z25B206.264
N23390G00B208.556
N23400G00B210.848
N23410G00B213.14
N23420G00B215.432
N23430G00B217.723
N23440G00B220.015
N23450G00B222.307
N23460G00B224.599
N23470G01B226.891F500
N23480G01Z24.999B229.183
N23490G00Z25B231.474
N23500G01Z24.999B233.766
N23510G00Z25B236.058
N23520G01B238.35
N23530G00B240.642
N23540G00B242.934
N23550G01Z24.999B245.225
N23560G00Z25B247.517
N23570G00B249.809
N23580G00B252.101
N23590G00B254.393
N23600G01Z24.999B256.685
N23610G00Z25B258.976
N23620G01B261.268
N23630G01Z24.999B263.56
N23640G00Z25B265.852
N23650G01B268.144
N23660G00B270.436
N23670G00B272.727
N23680G00B275.019
N23690G01B277.311
N23700G00B279.603
N23710G01B281.895
N23720G00B284.187
N23730G00B286.478
N23740G01Z24.999B288.77
N23750G01B291.062F1000
N23760G01B293.354
N23770G00Z25B295.646
N23780G00B297.938
N23790G01Z24.999B300.229F500
N23800G00Z25B302.521
N23810G00B304.813
N23820G00B307.105
N23830G00B309.397
N23840G00B311.689
N23850G01Z24.999B313.98
N23860G00Z25B316.272
N23870G00B318.564
N23880G01B320.856
N23890G00B323.148
N23900G00B325.44
N23910G01Z24.999B327.731
N23920G01B330.023F1000
N23930G00Z25B332.315
N23940G01B334.607F500
N23950G00B336.899
N23960G00B339.191
N23970G01Z24.999B341.482
N23980G01B343.774F1000
N23990G01B346.066
N24000G00Z25B348.358
N24010G01Z24.999B350.65F500
N24020G00Z25B352.942
N24030G01Z24.999B355.233
N24040G01B357.525F1000
N24050G00Z25B359.817
N24060G00B0
N24070G00B2.291
N24080G00B4.583
N24090G01B6.875F500
N24100G01Z24.999B9.167
N24110G00Z25B11.459
N24120G00B13.75
N24130G00B16.042
N24140G00B18.334
N24150G00B20.626
N24160G01Z24.999B22.918
N24170G00Z25B25.21
N24180G01Z24.999B27.501
N24190G01B29.793F1000
N24200G00Z25B32.085
N24210G01B34.377F500
N24220G00B36.669
N24230G01Z24.999B38.961
N24240G00Z25B41.252
N24250G00B43.544
N24260G01B45.836
N24270G00B48.128
N24280G00B50.42
N24290G01Z24.999B52.712
N24300G01B55.003F1000
N24310G01B57.295
N24320G00Z25B59.587
N24330G00B61.879
N24340G00B64.171
N24350G01Z24.999B66.463F500
N24360G01B68.754F1000
N24370G00Z25B71.046
N24380G01Z24.999B73.338F500
N24390G00Z25B75.63
N24400G01B77.922
N24410G00B80.214
N24420G00B82.505
N24430G00B84.797
N24440G00B87.089
N24450G00B89.381
N24460G00B91.673
N24470G00B93.965
N24480G01B96.256
N24490G00B98.548
N24500G00B100.84
N24510G00B103.132
N24520G01B105.424
N24530G00B107.716
N24540G00B110.007
N24550G00B112.299
N24560G01Z24.999B114.591
N24570G00Z25B116.883
N24580G01Z24.999B119.175
N24590G00Z25B121.467
N24600G01Z24.999B123.758
N24610G00Z25B126.05
N24620G00B128.342
N24630G01Z24.999B130.634
N24640G00Z25B132.926
N24650G00B135.218
N24660G00B137.509
N24670G00B139.801
N24680G01Z24.999B142.093
N24690G01B144.385F1000
N24700G01B146.677
N24710G00Z25B148.969
N24720G00B151.26
N24730G01Z24.999B153.552F500
N24740G00Z25B155.844
N24750G00B158.136
N24760G00B160.428
N24770G00B162.72
N24780G01B165.011
N24790G00B167.303
N24800G00B169.595
N24810G00B171.887
N24820G01B174.179
N24830G00B176.471
N24840G01B178.762
N24850G00B181.054
N24860G00B183.346
N24870G00B185.638
N24880G00B187.93
N24890G01B190.221
N24900G00B192.513
N24910G00B194.805
N24920G01Z24.999B197.097
N24930G01B199.389F1000
N24940G01B201.681
N24950G01B203.972
N24960G00Z25B206.264
N24970G00B208.556
N24980G00B210.848
N24990G00B213.14
N25000G00B215.432
N25010G00B217.723
N25020G00B220.015
N25030G00B222.307
N25040G00B224.599
N25050G01B226.891F500
N25060G01Z24.999B229.183
N25070G00Z25B231.474
N25080G01Z24.999B233.766
N25090G00Z25B236.058
N25100G01B238.35
N25110G00B240.642
N25120G00B242.934
N25130G01Z24.999B245.225
N25140G00Z25B247.517
N25150G00B249.809
N25160G00B252.101
N25170G00B254.393
N25180G01Z24.999B256.685
N25190G00Z25B258.976
N25200G01B261.268
N25210G01Z24.999B263.56
N25220G00Z25B265.852
N25230G01B268.144
N25240G00B270.436
N25250G00B272.727
N25260G00B275.019
N25270G01B277.311
N25280G00B279.603
N25290G01B281.895
N25300G00B284.187
N25310G00B286.478
N25320G01Z24.999B288.77
N25330G01B291.062F1000
N25340G01B293.354
N25350G00Z25B295.646
N25360G00B297.938
N25370G01Z24.999B300.229F500
N25380G00Z25B302.521
N25390G00B304.813
N25400G00B307.105
N25410G00B309.397
N25420G00B311.689
N25430G01Z24.999B313.98
N25440G00Z25B316.272
N25450G00B318.564
N25460G01B320.856
N25470G00B323.148
N25480G00B325.44
N25490G01Z24.999B327.731
N25500G01B330.023F1000
N25510G00Z25B332.315
N25520G01B334.607F500
N25530G00B336.899
N25540G00B339.191
N25550G01Z24.999B341.482
N25560G01B343.774F1000
N25570G01B346.066
N25580G00Z25B348.358
N25590G01Z24.999B350.65F500
N25600G00Z25B352.942
N25610G01Z24.999B355.233
N25620G01B357.525F1000
N25630G00Z25B359.817
N25640G00B0
N25650G00B2.291
N25660G00B4.583
N25670G01B6.875F500
N25680G01Z24.999B9.167
N25690G00Z25B11.459
N25700G00B13.75
N25710G00B16.042
N25720G00B18.334
N25730G00B20.626
N25740G01Z24.999B22.918
N25750G00Z25B25.21
N25760G01Z24.999B27.501
N25770G01B29.793F1000
N25780G00Z25B32.085
N25790G01B34.377F500
N25800G00B36.669
N25810G01Z24.999B38.961
N25820G00Z25B41.252
N25830G00B43.544
N25840G01B45.836
N25850G00B48.128
N25860G00B50.42
N25870G01Z24.999B52.712
N25880G01B55.003F1000
N25890G01B57.295
N25900G00Z25B59.587
N25910G00B61.879
N25920G00B64.171
N25930G01Z24.999B66.463F500
N25940G01B68.754F1000
N25950G00Z25B71.046
N25960G01Z24.999B73.338F500
N25970G00Z25B75.63
N25980G01B77.922
N25990G00B80.214
N26000G00B82.505
N26010G00B84.797
N26020G00B87.089
N26030G00B89.381
N26040G00B91.673
N26050G00B93.965
N26060G01B96.256
N26070G00B98.548
N26080G00B100.84
N26090G00B103.132
N26100G01B105.424
N26110G00B107.716
N26120G00B110.007
N26130G00B112.299
N26140G01Z24.999B114.591
N26150G00Z25B116.883
N26160G01Z24.999B119.175
N26170G00Z25B121.467
N26180G01Z24.999B123.758
N26190G00Z25B126.05
N26200G00B128.342
N26210G01Z24.999B130.634
N26220G00Z25B132.926
N26230G00B135.218
N26240G00B137.509
N26250G00B139.801
N26260G01Z24.999B142.093
N26270G01B144.385F1000
N26280G01B146.677
N26290G00Z25B148.969
N26300G00B151.26
N26310G01Z24.999B153.552F500
N26320G00Z25B155.844
N26330G00B158.136
N26340G00B160.428
N26350G00B162.72
N26360G01B165.011
N26370G00B167.303
N26380G00B169.595
N26390G00B171.887
N26400G01B174.179
N26410G00B176.471
N26420G01B178.762
N26430G00B181.054
N26440G00B183.346
N26450G00B185.638
N26460G00B187.93
N26470G01B190.221
N26480G00B192.513
N26490G00B194.805
N26500G01Z24.999B197.097
N26510G01B199.389F1000
N26520G01B201.681
N26530G01B203.972
N26540G00Z25B206.264
N26550G00B208.556
N26560G00B210.848
N26570G00B213.14
N26580G00B215.432
N26590G00B217.723
N26600G00B220.015
N26610G00B222.307
N26620G00B224.599
N26630G01B226.891F500
N26640G01Z24.999B229.183
N26650G00Z25B231.474
N26660G01Z24.999B233.766
N26670G00Z25B236.058
N26680G01B238.35
N26690G00B240.642
N26700G00B242.934
N26710G01Z24.999B245.225
N26720G00Z25B247.517
N26730G00B249.809
N26740G00B252.101
N26750G00B254.393
N26760G01Z24.999B256.685
N26770G00Z25B258.976
N26780G01B261.268
N26790G01Z24.999B263.56
N26800G00Z25B265.852
N26810G01B268.144
N26820G00B270.436
N26830G00B272.727
N26840G00B275.019
N26850G01B277.311
N26860G00B279.603
N26870G01B281.895
N26880G00B284.187
N26890G00B286.478
N26900G01Z24.999B288.77
N26910G01B291.062F1000
N26920G01B293.354
N26930G00Z25B295.646
N26940G00B297.938
N26950G01Z24.999B300.229F500
N26960G00Z25B302.521
N26970G00B304.813
N26980G00B307.105
N26990G00B309.397
N27000G00B311.689
N27010G01Z24.999B313.98
N27020G00Z25B316.272
N27030G00B318.564
N27040G01B320.856
N27050G00B323.148
N27060G00B325.44
N27070G01Z24.999B327.731
N27080G01B330.023F1000
N27090G00Z25B332.315
N27100G01B334.607F500
N27110G00B336.899
N27120G00B339.191
N27130G01Z24.999B341.482
N27140G01B343.774F1000
N27150G01B346.066
N27160G00Z25B348.358
N27170G01Z24.999B350.65F500
N27180G00Z25B352.942
N27190G01Z24.999B355.233
N27200G01B357.525F1000
N27210G00Z25B359.817
N27220G00B0
N27230G00B2.291
N27240G00B4.583
N27250G01B6.875F500
N27260G01Z24.999B9.167
N27270G00Z25B11.459
N27280G00B13.75
N27290G00B16.042
N27300G00B18.334
N27310G00B20.626
N27320G01Z24.999B22.918
N27330G00Z25B25.21
N27340G01Z24.999B27.501
N27350G01B29.793F1000
N27360G00Z25B32.085
N27370G01B34.377F500
N27380G00B36.669
N27390G01Z24.999B38.961
N27400G00Z25B41.252
N27410G00B43.544
N27420G01B45.836
N27430G00B48.128
N27440G00B50.42
N27450G01Z24.999B52.712
N27460G01B55.003F1000
N27470G01B57.295
N27480G00Z25B59.587
N27490G00B61.879
N27500G00B64.171
N27510G01Z24.999B66.463F500
N27520G01B68.754F1000
N27530G00Z25B71.046
N27540G01Z24.999B73.338F500
N27550G00Z25B75.63
N27560G01B77.922
N27570G00B80.214
N27580G00B82.505
N27590G00B84.797
N27600G00B87.089
N27610G00B89.381
N27620G00B91.673
N27630G00B93.965
N27640G01B96.256
N27650G00B98.548
N27660G00B100.84
N27670G00B103.132
N27680G01B105.424
N27690G00B107.716
N27700G00B110.007
N27710G00B112.299
N27720G01Z24.999B114.591
N27730G00Z25B116.883
N27740G01Z24.999B119.175
N27750G00Z25B121.467
N27760G01Z24.999B123.758
N27770G00Z25B126.05
N27780G00B128.342
N27790G01Z24.999B130.634
N27800G00Z25B132.926
N27810G00B135.218
N27820G00B137.509
N27830G00B139.801
N27840G01Z24.999B142.093
N27850G01B144.385F1000
N27860G01B146.677
N27870G00Z25B148.969
N27880G00B151.26
N27890G01Z24.999B153.552F500
N27900G00Z25B155.844
N27910G00B158.136
N27920G00B160.428
N27930G00B162.72
N27940G01B165.011
N27950G00B167.303
N27960G00B169.595
N27970G00B171.887
N27980G01B174.179
N27990G00B176.471
N28000G01B178.762
N28010G00B181.054
N28020G00B183.346
N28030G00B185.638
N28040G00B187.93
N28050G01B190.221
N28060G00B192.513
N28070G00B194.805
N28080G01Z24.999B197.097
N28090G01B199.389F1000
N28100G01B201.681
N28110G01B203.972
N28120G00Z25B206.264
N28130G00B208.556
N28140G00B210.848
N28150G00B213.14
N28160G00B215.432
N28170G00B217.723
N28180G00B220.015
N28190G00B222.307
N28200G00B224.599
N28210G01B226.891F500
N28220G01Z24.999B229.183
N28230G00Z25B231.474
N28240G01Z24.999B233.766
N28250G00Z25B236.058
N28260G01B238.35
N28270G00B240.642
N28280G00B242.934
N28290G01Z24.999B245.225
N28300G00Z25B247.517
N28310G00B249.809
N28320G00B252.101
N28330G00B254.393
N28340G01Z24.999B256.685
N28350G00Z25B258.976
N28360G01B261.268
N28370G01Z24.999B263.56
N28380G00Z25B265.852
N28390G01B268.144
N28400G00B270.436
N28410G00B272.727
N28420G00B275.019
N28430G01B277.311
N28440G00B279.603
N28450G01B281.895
N28460G00B284.187
N28470G00B286.478
N28480G01Z24.999B288.77
N28490G01B291.062F1000
N28500G01B293.354
N28510G00Z25B295.646
N28520G00B297.938
N28530G01Z24.999B300.229F500
N28540G00Z25B302.521
N28550G00B304.813
N28560G00B307.105
N28570G00B309.397
N28580G00B311.689
N28590G01Z24.999B313.98
N28600G00Z25B316.272
N28610G00B318.564
N28620G01B320.856
N28630G00B323.148
N28640G00B325.44
N28650G01Z24.999B327.731
N28660G01B330.023F1000
N28670G00Z25B332.315
N28680G01B334.607F500
N28690G00B336.899
N28700G00B339.191
N28710G01Z24.999B341.482
N28720G01B343.774F1000
N28730G01B346.066
N28740G00Z25B348.358
N28750G01Z24.999B350.65F500
N28760G00Z25B352.942
N28770G01Z24.999B355.233
N28780G01B357.525F1000
N28790G00Z25B359.817
N28800G00B0
N28810G00B2.291
N28820G00B4.583
N28830G01B6.875F500
N28840G01Z24.999B9.167
N28850G00Z25B11.459
N28860G00B13.75
N28870G00B16.042
N28880G00B18.334
N28890G00B20.626
N28900G01Z24.999B22.918
N28910G00Z25B25.21
N28920G01Z24.999B27.501
N28930G01B29.793F1000
N28940G00Z25B32.085
N28950G01B34.377F500
N28960G00B36.669
N28970G01Z24.999B38.961
N28980G00Z25B41.252
N28990G00B43.544
N29000G01B45.836
N29010G00B48.128
N29020G00B50.42
N29030G01Z24.999B52.712
N29040G01B55.003F1000
N29050G01B57.295
N29060G00Z25B59.587
N29070G00B61.879
N29080G00B64.171
N29090G01Z24.999B66.463F500
N29100G01B68.754F1000
N29110G00Z25B71.046
N29120G01Z24.999B73.338F500
N29130G00Z25B75.63
N29140G01B77.922
N29150G00B80.214
N29160G00B82.505
N29170G00B84.797
N29180G00B87.089
N29190G00B89.381
N29200G00B91.673
N29210G00B93.965
N29220G01B96.256
N29230G00B98.548
N29240G00B100.84
N29250G00B103.132
N29260G01B105.424
N29270G00B107.716
N29280G00B110.007
N29290G00B112.299
N29300G01Z24.999B114.591
N29310G00Z25B116.883
N29320G01Z24.999B119.175
N29330G00Z25B121.467
N29340G01Z24.999B123.758
N29350G00Z25B126.05
N29360G00B128.342
N29370G01Z24.999B130.634
N29380G00Z25B132.926
N29390G00B135.218
N29400G00B137.509
N29410G00B139.801
N29420G01Z24.999B142.093
N29430G01B144.385F1000
N29440G01B146.677
N29450G00Z25B148.969
N29460G00B151.26
N29470G01Z24.999B153.552F500
N29480G00Z25B155.844
N29490G00B158.136
N29500G00B160.428
N29510G00B162.72
N29520G01B165.011
N29530G00B167.303
N29540G00B169.595
N29550G00B171.887
N29560G01B174.179
N29570G00B176.471
N29580G01B178.762
N29590G00B181.054
N29600G00B183.346
N29610G00B185.638
N29620G00B187.93
N29630G01B190.221
N29640G00B192.513
N29650G00B194.805
N29660G01Z24.999B197.097
N29670G01B199.389F1000
N29680G01B201.681
N29690G01B203.972
N29700G00Z25B206.264
N29710G00B208.556
N29720G00B210.848
N29730G00B213.14
N29740G00B215.432
N29750G00B217.723
N29760G00B220.015
N29770G00B222.307
N29780G00B224.599
N29790G01B226.891F500
N29800G01Z24.999B229.183
N29810G00Z25B231.474
N29820G01Z24.999B233.766
N29830G00Z25B236.058
N29840G01B238.35
N29850G00B240.642
N29860G00B242.934
N29870G01Z24.999B245.225
N29880G00Z25B247.517
N29890G00B249.809
N29900G00B252.101
N29910G00B254.393
N29920G01Z24.999B256.685
N29930G00Z25B258.976
N29940G01B261.268
N29950G01Z24.999B263.56
N29960G00Z25B265.852
N29970G01B268.144
N29980G00B270.436
N29990G00B272.727
N30000G00B275.019
N30010G01B277.311
N30020G00B279.603
N30030G01B281.895
N30040G00B284.187
N30050G00B286.478
N30060G01Z24.999B288.77
N30070G01B291.062F1000
N30080G01B293.354
N30090G00Z25B295.646
N30100G00B297.938
N30110G01Z24.999B300.229F500
N30120G00Z25B302.521
N30130G00B304.813
N30140G00B307.105
N30150G00B309.397
N30160G00B311.689
N30170G01Z24.999B313.98
N30180G00Z25B316.272
N30190G00B318.564
N30200G01B320.856
N30210G00B323.148
N30220G00B325.44
N30230G01Z24.999B327.731
N30240G01B330.023F1000
N30250G00Z25B332.315
N30260G01B334.607F500
N30270G00B336.899
N30280G00B339.191
N30290G01Z24.999B341.482
N30300G01B343.774F1000
N30310G01B346.066
N30320G00Z25B348.358
N30330G01Z24.999B350.65F500
N30340G00Z25B352.942
N30350G01Z24.999B355.233
N30360G01B357.525F1000
N30370G00Z25B359.817
N30380G00B0
N30390G00B2.291
N30400G00B4.583
N30410G01B6.875F500
N30420G01Z24.999B9.167
N30430G00Z25B11.459
N30440G00B13.75
N30450G00B16.042
N30460G00B18.334
N30470G00B20.626
N30480G01Z24.999B22.918
N30490G00Z25B25.21
N30500G01Z24.999B27.501
N30510G01B29.793F1000
N30520G00Z25B32.085
N30530G01B34.377F500
N30540G00B36.669
N30550G01Z24.999B38.961
N30560G00Z25B41.252
N30570G00B43.544
N30580G01B45.836
N30590G00B48.128
N30600G00B50.42
N30610G01Z24.999B52.712
N30620G01B55.003F1000
N30630G01B57.295
N30640G00Z25B59.587
N30650G00B61.879
N30660G00B64.171
N30670G01Z24.999B66.463F500
N30680G01B68.754F1000
N30690G00Z25B71.046
N30700G01Z24.999B73.338F500
N30710G00Z25B75.63
N30720G01B77.922
N30730G00B80.214
N30740G00B82.505
N30750G00B84.797
N30760G00B87.089
N30770G00B89.381
N30780G00B91.673
N30790G00B93.965
N30800G01B96.256
N30810G00B98.548
N30820G00B100.84
N30830G00B103.132
N30840G01B105.424
N30850G00B107.716
N30860G00B110.007
N30870G00B112.299
N30880G01Z24.999B114.591
N30890G00Z25B116.883
N30900G01Z24.999B119.175
N30910G00Z25B121.467
N30920G01Z24.999B123.758
N30930G00Z25B126.05
N30940G00B128.342
N30950G01Z24.999B130.634
N30960G00Z25B132.926
N30970G00B135.218
N30980G00B137.509
N30990G00B139.801
N31000G01Z24.999B142.093
N31010G01B144.385F1000
N31020G01B146.677
N31030G00Z25B148.969
N31040G00B151.26
N31050G01Z24.999B153.552F500
N31060G00Z25B155.844
N31070G00B158.136
N31080G00B160.428
N31090G00B162.72
N31100G01B165.011
N31110G00B167.303
N31120G00B169.595
N31130G00B171.887
N31140G01B174.179
N31150G00B176.471
N31160G01B178.762
N31170G00B181.054
N31180G00B183.346
N31190G00B185.638
N31200G00B187.93
N31210G01B190.221
N31220G00B192.513
N31230G00B194.805
N31240G01Z24.999B197.097
N31250G01B199.389F1000
N31260G01B201.681
N31270G01B203.972
N31280G00Z25B206.264
N31290G00B208.556
N31300G00B210.848
N31310G00B213.14
N31320G00B215.432
N31330G00B217.723
N31340G00B220.015
N31350G00B222.307
N31360G00B224.599
N31370G01B226.891F500
N31380G01Z24.999B229.183
N31390G00Z25B231.474
N31400G01Z24.999B233.766
N31410G00Z25B236.058
N31420G01B238.35
N31430G00B240.642
N31440G00B242.934
N31450G01Z24.999B245.225
N31460G00Z25B247.517
N31470G00B249.809
N31480G00B252.101
N31490G00B254.393
N31500G01Z24.999B256.685
N31510G00Z25B258.976
N31520G01B261.268
N31530G01Z24.999B263.56
N31540G00Z25B265.852
N31550G01B268.144
N31560G00B270.436
N31570G00B272.727
N31580G00B275.019
N31590G01B277.311
N31600G00B279.603
N31610G01B281.895
N31620G00B284.187
N31630G00B286.478
N31640G01Z24.999B288.77
N31650G01B291.062F1000
N31660G01B293.354
N31670G00Z25B295.646
N31680G00B297.938
N31690G01Z24.999B300.229F500
N31700G00Z25B302.521
N31710G00B304.813
N31720G00B307.105
N31730G00B309.397
N31740G00B311.689
N31750G01Z24.999B313.98
N31760G00Z25B316.272
N31770G00B318.564
N31780G01B320.856
N31790G00B323.148
N31800G00B325.44
N31810G01Z24.999B327.731
N31820G01B330.023F1000
N31830G00Z25B332.315
N31840G01B334.607F500
N31850G00B336.899
N31860G00B339.191
N31870G01Z24.999B341.482
N31880G01B343.774F1000
N31890G01B346.066
N31900G00Z25B348.358
N31910G01Z24.999B350.65F500
N31920G00Z25B352.942
N31930G01Z24.999B355.233
N31940G01B357.525F1000
N31950G00Z25B359.817
N31960G00B0
N31970G00B2.291
N31980G00B4.583
N31990G01B6.875F500
N32000G01Z24.999B9.167
N32010G00Z25B11.459
N32020G00B13.75
N32030G00B16.042
N32040G00B18.334
N32050G00B20.626
N32060G01Z24.999B22.918
N32070G00Z25B25.21
N32080G01Z24.999B27.501
N32090G01B29.793F1000
N32100G00Z25B32.085
N32110G01B34.377F500
N32120G00B36.669
N32130G01Z24.999B38.961
N32140G00Z25B41.252
N32150G00B43.544
N32160G01B45.836
N32170G00B48.128
N32180G00B50.42
N32190G01Z24.999B52.712
N32200G01B55.003F1000
N32210G01B57.295
N32220G00Z25B59.587
N32230G00B61.879
N32240G00B64.171
N32250G01Z24.999B66.463F500
N32260G01B68.754F1000
N32270G00Z25B71.046
N32280G01Z24.999B73.338F500
N32290G00Z25B75.63
N32300G01B77.922
N32310G00B80.214
N32320G00B82.505
N32330G00B84.797
N32340G00B87.089
N32350G00B89.381
N32360G00B91.673
N32370G00B93.965
N32380G01B96.256
N32390G00B98.548
N32400G00B100.84
N32410G00B103.132
N32420G01B105.424
N32430G00B107.716
N32440G00B110.007
N32450G00B112.299
N32460G01Z24.999B114.591
N32470G00Z25B116.883
N32480G01Z24.999B119.175
N32490G00Z25B121.467
N32500G01Z24.999B123.758
N32510G00Z25B126.05
N32520G00B128.342
N32530G01Z24.999B130.634
N32540G00Z25B132.926
N32550G00B135.218
N32560G00B137.509
N32570G00B139.801
N32580G01Z24.999B142.093
N32590G01B144.385F1000
N32600G01B146.677
N32610G00Z25B148.969
N32620G00B151.26
N32630G01Z24.999B153.552F500
N32640G00Z25B155.844
N32650G00B158.136
N32660G00B160.428
N32670G00B162.72
N32680G01B165.011
N32690G00B167.303
N32700G00B169.595
N32710G00B171.887
N32720G01B174.179
N32730G00B176.471
N32740G01B178.762
N32750G00B181.054
N32760G00B183.346
N32770G00B185.638
N32780G00B187.93
N32790G01B190.221
N32800G00B192.513
N32810G00B194.805
N32820G01Z24.999B197.097
N32830G01B199.389F1000
N32840G01B201.681
N32850G01B203.972
N32860G00Z25B206.264
N32870G00B208.556
N32880G00B210.848
N32890G00B213.14
N32900G00B215.432
N32910G00B217.723
N32920G00B220.015
N32930G00B222.307
N32940G00B224.599
N32950G01B226.891F500
N32960G01Z24.999B229.183
N32970G00Z25B231.474
N32980G01Z24.999B233.766
N32990G00Z25B236.058
N33000G01B238.35
N33010G00B240.642
N33020G00B242.934
N33030G01Z24.999B245.225
N33040G00Z25B247.517
N33050G00B249.809
N33060G00B252.101
N33070G00B254.393
N33080G01Z24.999B256.685
N33090G00Z25B258.976
N33100G01B261.268
N33110G01Z24.999B263.56
N33120G00Z25B265.852
N33130G01B268.144
N33140G00B270.436
N33150G00B272.727
N33160G00B275.019
N33170G01B277.311
N33180G00B279.603
N33190G01B281.895
N33200G00B284.187
N33210G00B286.478
N33220G01Z24.999B288.77
N33230G01B291.062F1000
N33240G01B293.354
N33250G00Z25B295.646
N33260G00B297.938
N33270G01Z24.999B300.229F500
N33280G00Z25B302.521
N33290G00B304.813
N33300G00B307.105
N33310G00B309.397
N33320G00B311.689
N33330G01Z24.999B313.98
N33340G00Z25B316.272
N33350G00B318.564
N33360G01B320.856
N33370G00B323.148
N33380G00B325.44
N33390G01Z24.999B327.731
N33400G01B330.023F1000
N33410G00Z25B332.315
N33420G01B334.607F500
N33430G00B336.899
N33440G00B339.191
N33450G01Z24.999B341.482
N33460G01B343.774F1000
N33470G01B346.066
N33480G00Z25B348.358
N33490G01Z24.999B350.65F500
N33500G00Z25B352.942
N33510G01Z24.999B355.233
N33520G01B357.525F1000
N33530G00Z25B359.817
N33540M02
