O0(/home/spex/Documents/BlenderDev/blendercam/scripts/addons/cam/tests/test_data/4axistest/Op_Plane_1.tap)
G21
(G-code Generated with Fabex and NC library)
G17G90
T2M06
(Tool: D = 6.0 mm  type BALLNOSE flutes 2)
S12000M03
G00 Z25.0

G00X0Y0Z0.1
G01Z-4.9F500
G01Y250F1000
G01Z0.1
G01Y0
G01Z-9.9F500
G01Y250F1000
G01Z0.1
G01Y0
G01Z-12.499F500
G01Y0.2Z-12.506F1000
G01Y0.4Z-12.526
G01Y0.6Z-12.56
G01Y0.8Z-12.608
G01Y1Z-12.671
G01Y1.2Z-12.75
G01Y1.4Z-12.846
G01Y1.6Z-12.962F500
G01Y1.8Z-13.099
G01Y2Z-13.263
G01Y2.2Z-13.46
G01Y2.4Z-13.699
G01Y2.6Z-14.003
G01Y2.8Z-14.422
G01Y2.889Z-14.9
G01Y250F1000
G01Z0.1
G01Y0
G01Y2.889Z-14.9F500
G01Y3Z-15.483
G01Y3.097Z-19.9
G01Y247.1F1000
G01Y247.199Z-19.154
G01Y247.4Z-18.561
G01Y247.599Z-18.132
G01Y247.799Z-17.793
G01Y247.999Z-17.515
G01Y248.199Z-17.283
G01Y248.399Z-17.088
G01Y248.599Z-16.925
G01Y248.799Z-16.789
G01Y248.999Z-16.677
G01Y249.199Z-16.588
G01Y249.399Z-16.52
G01Y249.599Z-16.472
G01Y249.799Z-16.444
G01Y250Z-16.435
G01Z0.1
G01Y0
G01Y3.097Z-19.9F500
G01Y3.2Z-24.572
G01Y16.2Z-24.722F1000
G01Y16.4Z-24.724
G01Y246.799Z-22.341
G01Y246.999Z-20.654
G01Y247.1Z-19.9
G01Y247.199Z0.1
G01Y250
M02
