(Created with grbl post processor 2024/12/13 12:46)
G21
(G-code Generated with Fabex and NC library)
G17G90
(Tool: D = 1.0 mm  type END flutes 2)
S12000M03
G00 Z10.0

G0X0Y0Z10
X-0.699Y1.431
G1Z-5F500
X-3.784Y0.423F1000
X-6.697Y-0.47
X-9.441Y-1.252
X-12.015Y-1.922
X-14.42Y-2.48
X-16.657Y-2.924
X-18.715Y-3.255
X-20.338Y-3.442
X-24.109Y-10.955
X-40.604Y-44.291
X-42.215Y-47.652
X-43.502Y-50.387
X-44.464Y-52.494
X-45.099Y-53.968
X-45.133Y-54.062
X-43.979Y-53.881
X-42.432Y-53.483
X-40.573Y-52.877
X-38.406Y-52.062
X-35.935Y-51.038
X-33.163Y-49.805
X-30.091Y-48.363
X-26.719Y-46.71
X-23.049Y-44.847
X-19.081Y-42.773
X-14.817Y-40.488
X-10.229Y-37.976
X-10.176Y-37.954
X-9.834Y-37.858
X-9.304Y-37.622
X-8.521Y-37.215
X-7.502Y-36.645
X-6.253Y-35.912
X-4.775Y-35.019
X-3.069Y-33.963
X-1.134Y-32.746
X1.027Y-31.368
X3.417Y-29.828
X6.034Y-28.125
X8.862Y-26.273
X24.775Y-13.627
X25.657Y-13.159
X26.448Y-12.61
X27.238Y-11.923
X28.026Y-11.096
X28.808Y-10.128
X29.585Y-9.016
X30.354Y-7.761
X31.114Y-6.362
X31.864Y-4.818
X32.603Y-3.129
X33.331Y-1.294
X34.01Y0.588
X33.812Y2.669
X33.109Y3.288
X32.211Y3.957
X31.25Y4.56
X30.226Y5.096
X29.137Y5.566
X27.985Y5.97
X26.768Y6.308
X25.485Y6.58
X24.138Y6.786
X22.726Y6.925
X21.25Y6.998
X19.698Y7.005
X19.479Y7.006
X19.259Y6.999
X19.03Y6.991
X18.8Y6.981
X18.568Y6.97
X18.334Y6.958
X18.1Y6.944
X17.864Y6.93
X17.626Y6.915
X17.388Y6.898
X17.148Y6.881
X16.909Y6.863
X13.247Y6.55
X9.557Y5.122
X5.968Y3.779
X2.548Y2.549
X-0.699Y1.431
G0Z10
X-9.353Y13.382
G1Z-5F500
X-9.363Y13.5F1000
X-10.832Y13.355
X-10.824Y13.233
X-9.353Y13.382
G0Z10
X-8.12Y18.785
G1Z-5F500
X-7.928Y18.787F1000
X-7.916
X-7.688Y18.779
X-7.676
X-7.449Y18.76
X-7.437Y18.759
X-7.211Y18.729
X-7.199Y18.727
X-6.974Y18.687
X-6.963Y18.684
X-6.74Y18.633
X-6.729Y18.63
X-6.509Y18.568
X-6.497Y18.565
X-6.28Y18.492
X-6.269Y18.488
X-6.055Y18.405
X-6.04Y18.399
X-2.422Y19.97
X1.12Y21.487
X4.384Y22.863
X7.372Y24.098
X10.081Y25.194
X12.514Y26.15
X14.67Y26.968
X16.549Y27.648
X18.154Y28.191
X19.477Y28.596
X20.538Y28.868
X20.558Y28.872
X21.223Y28.985
X22.942Y30.092
X24.621Y31.196
X26.178Y32.243
X27.613Y33.233
X28.926Y34.164
X30.116Y35.037
X31.185Y35.851
X32.131Y36.605
X32.955Y37.299
X33.657Y37.931
X34.235Y38.5
X34.747Y39.065
X34.86Y39.137
X35.026Y39.19
X35.14Y39.255
X35.321Y39.393
X35.551Y39.599
X35.824Y39.871
X36.134Y40.207
X36.481Y40.605
X36.862Y41.064
X37.279Y41.584
X37.729Y42.165
X38.213Y42.806
X38.786Y43.581
X38.938Y43.68
X39.607Y43.829
X40.218Y44.096
X40.914Y44.522
X41.686Y45.113
X42.529Y45.869
X43.439Y46.788
X44.416Y47.872
X45.457Y49.119
X46.562Y50.529
X47.73Y52.103
X48.963Y53.84
X50.187Y55.635
X50.503Y59.256
X50.767Y59.516
X52.429Y59.634
X52.741Y59.37
X52.786Y58.901
X52.823Y58.681
X52.872Y58.494
X52.929Y58.34
X52.991Y58.217
X53.055Y58.125
X53.12Y58.057
X53.186Y58.009
X53.257Y57.974
X53.34Y57.951
X53.371Y57.947
X53.684Y58.351
X54.099Y58.928
X54.469Y59.487
X54.792Y60.026
X55.07Y60.547
X55.303Y61.047
X55.492Y61.527
X55.637Y61.987
X55.741Y62.425
X55.803Y62.841
X55.825Y63.236
X55.809Y63.619
X55.743Y64.181
X55.621Y64.719
X55.442Y65.243
X55.206Y65.754
X54.912Y66.252
X54.558Y66.74
X54.144Y67.215
X53.668Y67.68
X53.132Y68.132
X52.533Y68.572
X51.873Y68.999
X51.27Y69.344
X50.652Y69.307
X50.852Y66.75
X50.837Y66.603
X50.749Y66.444
X50.651Y66.352
X50.534Y66.284
X50.423Y66.259
X49.009Y66.15
X48.703Y66.39
X48.494Y67.621
X48.181Y68.522
X47.726Y69.327
X47.125Y70.045
X46.371Y70.682
X45.456Y71.236
X44.377Y71.707
X43.131Y72.09
X41.717Y72.384
X40.136Y72.587
X38.39Y72.697
X36.473Y72.714
X36.19Y72.709
X35.9Y72.703
X35.607Y72.694
X35.31Y72.684
X35.01Y72.672
X34.707Y72.658
X34.4Y72.642
X34.09Y72.624
X33.776Y72.604
X33.459Y72.582
X33.138Y72.559
X32.826Y72.534
X31.955Y72.421
X31.073Y72.304
X30.191Y72.185
X29.31Y72.063
X28.429Y71.94
X27.548Y71.815
X26.667Y71.687
X25.787Y71.558
X24.907Y71.427
X24.027Y71.293
X23.148Y71.158
X22.054Y70.986
X21.711Y71.254
X21.585Y72.65
X20.191Y72.528
X18.834Y72.286
X17.589Y72.023
X16.473Y71.741
X15.486Y71.443
X14.629Y71.129
X13.903Y70.802
X13.31Y70.466
X12.85Y70.127
X12.522Y69.794
X12.315Y69.474
X12.211Y69.167
X12.189Y68.741
X12.167Y68.651
X-1.071Y38.902
X-1.152Y38.801
X-1.541Y38.513
X-1.853Y38.175
X-2.18Y37.709
X-2.512Y37.114
X-2.845Y36.392
X-3.176Y35.547
X-3.503Y34.579
X-3.826Y33.489
X-4.143Y32.28
X-4.456Y30.952
X-4.763Y29.505
X-5.074Y27.889
X-5.109Y27.801
X-5.677Y26.907
X-6.16Y26.087
X-6.59Y25.294
X-6.965Y24.529
X-7.288Y23.792
X-7.56Y23.083
X-7.781Y22.4
X-7.952Y21.746
X-8.076Y21.118
X-8.152Y20.518
X-8.183Y19.943
X-8.169Y19.389
X-8.12Y18.785
G0Z10
X-23.508Y21.967
G1Z-5F500
X-23.463Y22.407F1000
X-23.542Y22.402
X-23.508Y21.967
G0Z10
X-18.985Y32.187
G1Z-5F500
X-18.855Y32.261F1000
X-18.739Y32.362
X-18.626Y32.5
X-18.516Y32.681
X-18.413Y32.909
X-18.319Y33.185
X-18.236Y33.507
X-18.166Y33.876
X-18.131Y34.133
X-18.339Y34.107
X-18.37Y33.889
X-18.374Y33.871
X-18.424Y33.638
X-18.428Y33.623
X-18.497Y33.381
X-18.501Y33.369
X-18.586Y33.117
X-18.59Y33.107
X-18.694Y32.836
X-18.814Y32.555
X-18.949Y32.262
X-18.985Y32.187
G0Z10
X-10.669Y49.934
G1Z-5F500
X-10.553Y50.003F1000
X-10.549Y50.005
X-10.563Y50.148
X-10.573Y50.126
X-10.669Y49.934
G0Z10
X-50.233Y49.783
G1Z-5F500
X-50.514Y49.757F1000
X-50.507Y49.66
X-50.472Y49.664
X-50.233Y49.783
G0Z10
X-44.045Y-36.381
G1Z-5F500
X-44.317Y-36.758F1000
X-44.581Y-37.185
X-44.803Y-37.614
X-44.984Y-38.046
X-45.125Y-38.483
X-45.226Y-38.925
X-45.288Y-39.375
X-45.31Y-39.834
X-45.306Y-39.949
X-45.271Y-39.9
X-45.077Y-39.547
X-44.876Y-39.102
X-44.672Y-38.567
X-44.467Y-37.944
X-44.262Y-37.236
X-44.059Y-36.441
X-44.045Y-36.381
G0Z10
X-47.252Y-43.44
G1Z-5F500
X-47.278Y-43.461F1000
X-47.332Y-43.518
X-47.375Y-43.578
X-47.408Y-43.643
X-47.434Y-43.719
X-47.451Y-43.807
X-47.457Y-43.911
X-47.453Y-43.987
X-47.428Y-43.968
X-47.378Y-43.916
X-47.337Y-43.856
X-47.303Y-43.785
X-47.276Y-43.699
X-47.257Y-43.594
X-47.25Y-43.47
X-47.252Y-43.44
G0Z10
X-47.448Y-59.887
G1Z-5F500
X-47.839Y-59.918F1000
X-47.948Y-59.956
X-48.078Y-60.013
X-48.186Y-60.073
X-48.273Y-60.134
X-48.294Y-60.153
X-47.931Y-60.129
X-47.828Y-60.078
X-47.448Y-59.887
G0Z10
X-48.124Y-64.366
G1Z-5F500
X-48.534Y-64.313F1000
X-48.948Y-64.276
X-49.363Y-64.257
X-49.78Y-64.253
X-50.198Y-64.266
X-50.486Y-64.286
X-50.849Y-64.54
X-51.262Y-64.876
X-51.626Y-65.221
X-51.942Y-65.576
X-52.212Y-65.94
X-52.437Y-66.315
X-52.62Y-66.701
X-52.762Y-67.1
X-52.863Y-67.514
X-52.925Y-67.944
X-52.948Y-68.391
X-52.942Y-68.562
X-52.884Y-68.587
X-52.556Y-68.722
X-52.243Y-68.842
X-51.945Y-68.948
X-51.664Y-69.04
X-51.4Y-69.116
X-51.154Y-69.178
X-50.926Y-69.225
X-50.717Y-69.257
X-50.529Y-69.275
X-50.363Y-69.279
X-50.31Y-69.275
X-49.534Y-68.846
X-48.512Y-68.314
X-47.346Y-67.736
X-46.035Y-67.113
X-44.58Y-66.444
X-42.979Y-65.73
X-41.233Y-64.968
X-39.342Y-64.161
X-37.306Y-63.307
X-35.124Y-62.408
X-32.797Y-61.461
X-30.531Y-60.552
X-30.489Y-60.438
X-30.429Y-60.346
X-30.035Y-59.96
X-30.001Y-59.932
X-29.395Y-59.517
X-29.377Y-59.505
X-28.544Y-59.038
X-27.457Y-58.501
X-26.148Y-57.91
X-24.602Y-57.258
X-22.817Y-56.544
X-20.794Y-55.768
X-18.53Y-54.93
X-16.026Y-54.03
X-13.378Y-53.101
X-12.896Y-52.668
X-12.882Y-52.657
X-12.138Y-52.082
X-12.128Y-52.074
X-11.199Y-51.426
X-10.091Y-50.71
X-8.804Y-49.925
X-7.337Y-49.071
X-5.689Y-48.148
X-3.859Y-47.157
X-1.848Y-46.098
X0.344Y-44.972
X2.719Y-43.778
X5.234Y-42.538
X6.054Y-41.933
X6.835Y-41.348
X7.541Y-40.81
X8.171Y-40.319
X8.725Y-39.875
X9.2Y-39.478
X9.597Y-39.129
X9.911Y-38.831
X10.14Y-38.587
X10.277Y-38.411
X10.314Y-38.342
X10.297Y-38.089
X5.975Y-40.641
X1.289Y-43.371
X-3.059Y-45.865
X-7.071Y-48.122
X-10.748Y-50.142
X-14.089Y-51.924
X-17.096Y-53.469
X-19.77Y-54.776
X-22.113Y-55.844
X-24.115Y-56.67
X-25.8Y-57.261
X-25.821Y-57.267
X-26.943Y-57.555
X-26.983Y-57.609
X-27.005Y-57.635
X-27.146Y-57.78
X-27.159Y-57.792
X-27.342Y-57.955
X-27.582Y-58.153
X-27.86Y-58.368
X-28.183Y-58.609
X-28.552Y-58.878
X-28.967Y-59.175
X-29.429Y-59.5
X-29.938Y-59.854
X-30.549Y-60.278
X-30.683Y-60.323
X-30.956Y-60.336
X-30.982
X-31.185Y-60.324
X-31.215Y-60.32
X-31.406Y-60.285
X-31.439Y-60.277
X-31.616Y-60.218
X-31.651Y-60.204
X-31.814Y-60.122
X-31.847Y-60.101
X-31.992Y-59.996
X-32.023Y-59.97
X-32.149Y-59.844
X-32.174Y-59.814
X-32.279Y-59.67
X-32.298Y-59.64
X-32.382Y-59.481
X-32.395Y-59.452
X-32.46Y-59.279
X-32.469Y-59.252
X-32.515Y-59.069
X-32.52Y-59.045
X-32.549Y-58.849
X-32.553Y-58.81
Y-58.738
X-32.539Y-58.662
X-32.393Y-58.21
X-32.378Y-58.174
X-32.171Y-57.763
X-32.152Y-57.73
X-31.882Y-57.351
X-31.864Y-57.33
X-32.946Y-57.788
X-34.18Y-58.322
X-35.28Y-58.809
X-36.245Y-59.251
X-37.076Y-59.647
X-37.511Y-59.866
X-35.621Y-59.712
X-35.304Y-59.982
X-35.183Y-61.557
X-35.4Y-61.856
X-36.72Y-62.176
X-37.799Y-62.451
X-38.818Y-62.726
X-39.777Y-62.999
X-40.677Y-63.271
X-41.518Y-63.539
X-42.301Y-63.804
X-43.024Y-64.064
X-43.689Y-64.32
X-44.295Y-64.57
X-44.844Y-64.813
X-45.438Y-65.098
X-45.655Y-65.103
X-46.143Y-64.896
X-46.528Y-64.754
X-46.919Y-64.63
X-47.316Y-64.524
X-47.718Y-64.436
X-48.124Y-64.366
G0Z10
X-59.801Y-67.374
G1Z-5F500
X-60.524Y-67.08F1000
X-60.562Y-67.115
X-60.738Y-67.289
X-60.961Y-67.52
X-61.228Y-67.808
X-61.538Y-68.152
X-61.889Y-68.551
X-62.282Y-69.006
X-62.715Y-69.517
X-63.189Y-70.085
X-63.915Y-70.967
X-64.555Y-70.774
X-64.615Y-70.176
X-64.654Y-69.957
X-64.702Y-69.771
X-64.759Y-69.619
X-64.821Y-69.5
X-64.884Y-69.411
X-64.947Y-69.346
X-65.011Y-69.3
X-65.081Y-69.267
X-65.165Y-69.244
X-65.268Y-69.232
X-65.36Y-69.235
X-65.491Y-69.275
X-65.648Y-69.332
X-65.779Y-69.392
X-65.884Y-69.452
X-65.966Y-69.512
X-66.026Y-69.569
X-66.07Y-69.624
X-66.102Y-69.681
X-66.125Y-69.745
X-66.141Y-69.822
X-66.148Y-69.918
X-66.141Y-70.052
X-66.025Y-71.327
X-65.796Y-71.331
X-65.786
X-65.442Y-71.351
X-65.432Y-71.352
X-65.089Y-71.387
X-65.079Y-71.388
X-64.738Y-71.436
X-64.728Y-71.438
X-64.389Y-71.5
X-64.379Y-71.502
X-64.044Y-71.578
X-64.034Y-71.58
X-63.701Y-71.67
X-63.692Y-71.672
X-63.363Y-71.776
X-63.353Y-71.779
X-63.029Y-71.896
X-63.019Y-71.899
X-62.699Y-72.029
X-62.69Y-72.033
X-62.519Y-72.111
X-62.27Y-72.069
X-61.944Y-71.953
X-61.642Y-71.782
X-61.359Y-71.548
X-61.091Y-71.246
X-60.839Y-70.87
X-60.603Y-70.417
X-60.388Y-69.886
X-60.194Y-69.278
X-60.021Y-68.593
X-59.871Y-67.831
X-59.801Y-67.374
G0Z10
X-25.771Y-54.089
G1Z-5F500
X-25.757Y-54.088F1000
X-25.361Y-53.867
X-25.509Y-53.89
X-25.524Y-53.892
X-25.782Y-53.917
X-25.771Y-54.089
G0Z10
X-18.613Y-50.677
G1Z-5F500
X-18.084Y-50.522F1000
X-17.786Y-50.454
X-17.806Y-50.438
X-17.858Y-50.408
X-17.921Y-50.382
X-17.997Y-50.362
X-18.091Y-50.349
X-18.199Y-50.346
X-18.236Y-50.351
X-18.282Y-50.359
X-18.613Y-50.677
G0Z10
X31.763Y8.573
G1Z-5F500
X32.108Y8.314F1000
X32.452Y8.097
X32.797Y7.921
X33.142Y7.785
X33.488Y7.687
X33.839Y7.627
X34.03Y7.615
X34.012Y7.693
X33.971Y7.787
X33.9Y7.904
X33.794Y8.04
X33.65Y8.191
X33.469Y8.354
X33.251Y8.525
X32.995Y8.703
X32.702Y8.887
X32.372Y9.074
X32.013Y9.26
X31.692Y9.399
X30.976Y9.333
X31.075Y9.221
X31.419Y8.875
X31.763Y8.573
G0Z10
X40.948Y19.352
G1Z-5F500
X41.108Y19.322F1000
X41.123Y19.319
X41.33Y19.267
X41.344Y19.264
X41.56Y19.197
X41.571Y19.193
X41.796Y19.112
X41.806Y19.109
X42.049Y19.009
X42.299Y18.894
X42.558Y18.764
X42.825Y18.618
X43.101Y18.457
X43.221Y18.383
X43.323Y18.409
X43.419Y18.446
X43.496Y18.488
X43.556Y18.533
X43.605Y18.583
X43.645Y18.64
X43.678Y18.708
X43.705Y18.791
X43.723Y18.893
X43.724Y18.921
X41.502Y20.286
X40.87Y20.203
X40.948Y19.352
G0Z10
X52.122Y7.174
G1Z-5F500
X52.702Y0.448F1000
X52.794Y0.541
X52.911Y0.682
X53.033Y0.854
X53.159Y1.056
X53.287Y1.287
X53.417Y1.549
X53.498Y1.727
X53.117Y6.244
X53.102Y6.31
X53.073Y6.381
X53.026Y6.463
X52.956Y6.557
X52.859Y6.661
X52.735Y6.773
X52.582Y6.891
X52.398Y7.014
X52.184Y7.141
X52.122Y7.174
G0Z10
X67Y64.628
G1Z-5F500
X66.766Y65.317F1000
X66.475Y66.108
X66.188Y66.823
X65.906Y67.462
X65.629Y68.024
X65.36Y68.508
X65.099Y68.912
X64.851Y69.234
X64.62Y69.474
X64.505Y69.564
X64.529Y69.269
X64.916Y68.441
X65.315Y67.614
X65.69Y66.868
X66.04Y66.204
X66.365Y65.623
X66.664Y65.126
X66.936Y64.715
X67Y64.628
G0Z10
X65.104Y76.47
G1Z-5F500
X65.336Y77.051F1000
X65.186Y77.715
X64.809Y78.416
X64.206Y79.083
X63.361Y79.713
X62.265Y80.298
X60.92Y80.829
X59.327Y81.302
X57.487Y81.712
X55.404Y82.059
X53.078Y82.342
X50.591Y82.552
X65.104Y76.47
G0Z10
X67.815Y80.445
G1Z-5F500
X69.399Y79.084F1000
X70.808Y77.65
X70.823Y77.633
X72.028Y76.154
X72.043Y76.133
X73.059Y74.595
X73.072Y74.572
X73.898Y72.976
X73.909Y72.951
X74.545Y71.296
X74.554Y71.269
X75Y69.558
X75.005Y69.531
X75.261Y67.771
X75.262Y67.759
X75.5Y65.34
X75.501Y65.294
X75.289Y62.792
X75.019Y60.429
X74.689Y58.179
X74.299Y56.043
X73.852Y54.031
X73.849Y54.021
X73.343Y52.124
X73.34Y52.113
X72.775Y50.332
X72.771Y50.32
X72.147Y48.653
X72.142Y48.64
X71.46Y47.089
X71.453Y47.075
X70.713Y45.638
X70.705Y45.623
X69.907Y44.302
X69.896Y44.286
X69.029Y43.064
X68.99Y43.021
X53.114Y29.065
X53.074Y29.037
X51.725Y28.249
X50.519Y27.509
X49.431Y26.803
X48.464Y26.131
X47.618Y25.495
X46.894Y24.894
X46.294Y24.332
X45.819Y23.811
X45.47Y23.337
X45.246Y22.917
X45.135Y22.561
X45.127Y22.397
X46.88Y20.441
X48.612Y18.486
X50.184Y16.685
X51.596Y15.04
X52.847Y13.549
X53.938Y12.212
X54.869Y11.029
X55.639Y9.996
X56.242Y9.123
X56.249Y9.111
X56.692Y8.387
X56.703Y8.366
X56.987Y7.78
X57.004Y7.733
X57.12Y7.284
X57.127Y7.226
X57.186Y4.114
X57.185Y4.089
X57.184Y4.066
X56.838Y0.948
X56.084Y-2.231
X56.08Y-2.249
X56.072Y-2.272
X54.919Y-5.445
X53.352Y-8.666
X53.341Y-8.686
X51.382Y-11.904
X51.371Y-11.921
X49.011Y-15.159
X49Y-15.173
X46.239Y-18.431
X46.229Y-18.443
X43.068Y-21.72
X43.057Y-21.73
X39.496Y-25.027
X39.487Y-25.035
X35.525Y-28.352
X35.516Y-28.359
X31.149Y-31.698
X31.133Y-31.71
X29.598Y-32.7
X27.959Y-33.789
X26.202Y-34.986
X24.327Y-36.289
X22.336Y-37.7
X20.226Y-39.219
X17.998Y-40.845
X15.653Y-42.58
X13.188Y-44.423
X10.605Y-46.375
X7.903Y-48.436
X5.071Y-50.613
X4.462Y-51.051
X4.446Y-51.061
X3.755Y-51.483
X3.741Y-51.491
X2.973Y-51.893
X2.96Y-51.9
X2.117Y-52.283
X2.105Y-52.287
X1.185Y-52.651
X1.175Y-52.655
X0.171Y-53.003
X-0.907Y-53.331
X-2.06Y-53.64
X-3.151Y-53.898
X-3.061Y-54.579
X-3.162Y-54.825
X-4.349Y-55.757
X-4.363Y-55.768
X-5.539Y-56.562
X-5.553Y-56.571
X-6.813Y-57.305
X-6.827Y-57.313
X-8.171Y-57.986
X-8.184Y-57.992
X-9.611Y-58.605
X-9.623Y-58.61
X-11.131Y-59.164
X-11.143Y-59.168
X-12.731Y-59.663
X-12.743Y-59.667
X-14.411Y-60.103
X-14.421Y-60.106
X-16.177Y-60.486
X-18.011Y-60.809
X-19.921Y-61.074
X-21.801Y-61.271
X-23.807Y-62.307
X-26.046Y-63.391
X-28.43Y-64.478
X-30.961Y-65.567
X-33.639Y-66.658
X-36.465Y-67.753
X-39.44Y-68.85
X-42.564Y-69.95
X-45.838Y-71.053
X-49.262Y-72.159
X-52.837Y-73.267
X-56.353Y-74.316
X-56.962Y-75.529
X-57.724Y-76.943
X-58.538Y-78.364
X-59.404Y-79.789
X-60.322Y-81.219
X-61.292Y-82.654
X-62.313Y-84.094
X-63.385Y-85.537
X-64.507Y-86.983
X-65.679Y-88.433
X-66.902Y-89.886
X-68.235Y-91.412
X-68.415Y-91.5
X-69.91Y-91.595
X-70.216Y-91.345
X-70.32Y-90.571
X-70.325Y-90.497
X-70.31Y-90.402
X-69.922Y-89.22
X-69.551Y-88.141
X-69.186Y-87.127
X-68.826Y-86.178
X-68.469Y-85.293
X-68.115Y-84.474
X-67.762Y-83.718
X-67.411Y-83.026
X-67.065Y-82.407
X-67.059Y-82.396
X-66.713Y-81.842
X-66.705Y-81.829
X-66.358Y-81.338
X-66.347Y-81.324
X-66.027Y-80.934
X-65.69Y-80.368
X-65.372Y-79.804
X-65.09Y-79.267
X-64.842Y-78.759
X-64.63Y-78.28
X-64.45Y-77.83
X-64.304Y-77.409
X-64.191Y-77.019
X-64.108Y-76.659
X-64.056Y-76.332
X-64.033Y-76.037
X-64.036Y-75.764
X-64.09Y-75.056
X-64.184Y-75.053
X-64.202Y-75.052
X-64.37Y-75.036
X-64.391Y-75.033
X-64.548Y-75.005
X-64.574Y-74.999
X-64.719Y-74.956
X-64.75Y-74.945
X-64.884Y-74.886
X-64.92Y-74.867
X-65.041Y-74.789
X-65.08Y-74.758
X-65.091Y-74.747
X-65.964Y-75.242
X-66.072Y-75.274
X-67.516Y-75.375
X-67.832Y-75.132
X-67.861Y-74.91
X-67.904Y-74.226
X-67.962Y-74.233
X-68.103Y-74.348
X-68.123Y-74.362
X-68.433Y-74.568
X-68.449Y-74.578
X-68.805Y-74.778
X-68.818Y-74.785
X-69.221Y-74.98
X-69.231Y-74.985
X-69.689Y-75.181
X-70.192Y-75.374
X-70.74Y-75.566
X-71.333Y-75.757
X-71.973Y-75.949
X-72.658Y-76.141
X-73.389Y-76.336
X-74.327Y-76.574
X-74.64Y-76.439
X-74.824Y-76.11
X-74.921Y-75.931
X-75.013Y-75.755
X-75.1Y-75.583
X-75.181Y-75.414
X-75.255Y-75.248
X-75.322Y-75.085
X-75.376Y-74.936
X-75.38Y-74.925
X-75.425Y-74.781
X-75.429Y-74.766
X-75.463Y-74.627
X-75.467Y-74.608
X-75.489Y-74.473
X-75.492Y-74.447
X-75.5Y-74.319
X-75.502Y-74.241
X-75.466Y-74.106
X-72.128Y-68.403
X-68.697Y-62.279
X-65.135Y-55.67
X-61.443Y-48.574
X-57.62Y-40.992
X-53.667Y-32.923
X-49.582Y-24.366
X-45.366Y-15.321
X-41.018Y-5.787
X-36.539Y4.235
X-31.927Y14.749
X-27.183Y25.755
X-25.164Y30.417
X-23.324Y34.705
X-21.664Y38.62
X-20.183Y42.161
X-18.882Y45.329
X-17.76Y48.125
X-16.817Y50.549
X-16.054Y52.599
X-15.472Y54.275
X-15.072Y55.571
X-14.856Y56.47
X-14.824Y56.844
X-14.853Y56.89
X-14.97Y57.083
X-15.081Y57.28
X-15.184Y57.48
X-15.275Y57.674
X-15.279Y57.684
X-15.362Y57.881
X-15.366Y57.891
X-15.44Y58.093
X-15.444Y58.104
X-15.509Y58.31
X-15.512Y58.322
X-15.568Y58.533
X-15.571Y58.545
X-15.617Y58.762
X-15.619Y58.774
X-15.655Y58.997
X-15.656Y59.009
X-15.681Y59.235
X-15.7Y59.423
X-15.485Y59.727
X-15.185Y59.804
X-15.067Y59.86
X-14.899Y59.972
X-14.693Y60.139
X-14.456Y60.362
X-14.19Y60.639
X-13.899Y60.972
X-13.584Y61.358
X-13.246Y61.798
X-12.886Y62.291
X-12.505Y62.839
X-12.196Y63.3
X-12.224Y63.673
X-13.887Y63.082
X-16.164Y62.198
X-18.444Y61.235
X-20.729Y60.195
X-23.017Y59.077
X-25.309Y57.879
X-27.605Y56.602
X-29.905Y55.245
X-32.208Y53.808
X-34.515Y52.29
X-36.826Y50.691
X-39.203Y48.965
X-39.338Y48.916
X-40.883Y48.824
X-41.189Y49.08
X-41.224Y49.375
X-41.24Y49.418
X-41.278Y49.479
X-41.352Y49.559
X-41.468Y49.653
X-41.628Y49.757
X-41.833Y49.867
X-42.08Y49.979
X-42.369Y50.093
X-42.698Y50.207
X-43.067Y50.323
X-43.262Y50.379
X-43.936Y49.95
X-44.781Y49.383
X-45.612Y48.798
X-46.429Y48.194
X-47.232Y47.571
X-48.02Y46.93
X-48.793Y46.271
X-49.551Y45.594
X-50.293Y44.9
X-51.019Y44.188
X-51.729Y43.46
X-52.446Y42.689
X-52.489Y42.652
X-52.685Y42.52
X-53.093Y42.599
X-54.745Y45.048
X-54.854Y45.298
X-54.683Y45.661
X-54.333Y45.836
X-54.143Y45.93
X-53.958Y46.02
X-53.779Y46.106
X-53.604Y46.185
X-53.435Y46.259
X-53.27Y46.325
X-53.12Y46.38
X-53.109Y46.383
X-53.024Y46.41
X-53.078Y46.971
X-53.344Y46.775
X-53.656Y46.532
X-54.012Y46.241
X-54.412Y45.905
X-54.855Y45.524
X-55.341Y45.098
X-55.871Y44.628
X-56.459Y44.099
X-56.492Y44.075
X-56.683Y43.952
X-57.089Y44.041
X-57.94Y45.372
X-57.983Y45.48
X-58.002Y45.651
X-57.946Y45.832
X-57.215Y46.821
X-57.209Y46.83
X-56.521Y47.683
X-56.513Y47.692
X-55.822Y48.472
X-55.813Y48.482
X-55.117Y49.189
X-55.107Y49.199
X-54.407Y49.832
X-54.395Y49.843
X-53.691Y50.402
X-53.677Y50.412
X-52.969Y50.897
X-52.953Y50.907
X-52.241Y51.317
X-52.222Y51.327
X-51.507Y51.66
X-51.485Y51.669
X-50.767Y51.926
X-50.743Y51.933
X-50.022Y52.112
X-49.996Y52.117
X-49.222Y52.225
X-49.091Y52.209
X-48.885Y52.126
X-48.746Y52.075
X-48.624Y52.034
X-49.163Y52.633
X-49.227Y52.775
X-49.314Y53.503
X-49.329Y53.73
X-49.049Y54.034
X-48.559Y54.07
X-48.304Y54.098
X-48.083Y54.131
X-47.894Y54.17
X-47.739Y54.211
X-47.62Y54.253
X-47.537Y54.293
X-47.491Y54.322
X-47.461Y54.57
X-47.049Y54.823
X-45.958Y54.428
X-46.156Y54.739
X-46.2Y54.831
X-46.239Y55.066
X-46.106Y55.322
X-43.933Y56.866
X-42.038Y58.226
X-40.324Y59.471
X-38.79Y60.602
X-37.438Y61.617
X-36.269Y62.515
X-35.284Y63.296
X-34.485Y63.957
X-33.875Y64.495
X-33.461Y64.902
X-33.331Y65.061
X-34.745Y64.27
X-35.233Y64.539
X-35.256Y64.976
X-35.274Y65.082
X-35.3Y65.162
X-35.328Y65.218
X-35.359Y65.259
X-35.395Y65.292
X-35.441Y65.322
X-35.505Y65.35
X-35.59Y65.373
X-35.699Y65.388
X-35.831Y65.392
X-35.896Y65.388
X-35.993Y65.339
X-36.352Y65.153
X-36.524Y65.066
X-36.691Y64.984
X-36.856Y64.908
X-37.009Y64.843
X-37.019Y64.839
X-37.17Y64.782
X-37.183Y64.778
X-37.332Y64.731
X-37.348Y64.726
X-37.497Y64.691
X-37.517Y64.687
X-37.666Y64.664
X-37.69Y64.661
X-38.031Y64.643
X-38.339Y64.917
X-38.429Y66.332
X-38.432Y66.488
X-38.287Y66.728
X-36.572Y67.672
X-34.987Y68.568
X-33.411Y69.481
X-31.846Y70.41
X-30.29Y71.356
X-28.745Y72.319
X-27.21Y73.298
X-25.686Y74.294
X-24.173Y75.306
X-22.67Y76.335
X-21.179Y77.38
X-19.67Y78.461
X-19.612Y78.492
X-14.722Y80.345
X-10.013Y82.048
X-5.458Y83.614
X-1.057Y85.042
X3.188Y86.333
X7.278Y87.488
X11.212Y88.507
X14.989Y89.391
X18.607Y90.139
X22.068Y90.754
X25.37Y91.235
X28.514Y91.582
X28.549Y91.584
X32.178Y91.486
X35.605Y91.312
X38.845Y91.062
X41.898Y90.734
X44.764Y90.33
X47.433Y89.85
X49.925Y89.291
X49.937Y89.288
X52.231Y88.654
X52.244Y88.65
X54.35Y87.938
X54.366Y87.933
X56.284Y87.143
X56.301Y87.135
X58.032Y86.267
X58.051Y86.257
X59.563Y85.329
X61.876Y84.214
X64.039Y83.021
X64.053Y83.014
X66.014Y81.769
X66.028Y81.76
X67.8Y80.457
X67.815Y80.445
G0Z10
 
