(Created with grbl post processor 2024/01/26 12:15)
G21
(G-code generated with BlenderCAM and NC library)
G17G90
(Tool: D = 1.0 mm  type END flutes 2)
S12000M03
G00 Z10.0

G0X0Y0Z10
X-0.697Y1.432
G1Z-5F500
X-3.787Y0.423F1000
X-6.7Y-0.471
X-9.443Y-1.253
X-12.018Y-1.923
X-14.424Y-2.48
X-16.653Y-2.923
X-18.72Y-3.255
X-20.338Y-3.442
X-24.109Y-10.955
X-40.604Y-44.291
X-42.215Y-47.652
X-43.502Y-50.387
X-44.464Y-52.494
X-45.099Y-53.968
X-45.133Y-54.062
X-43.979Y-53.881
X-42.432Y-53.483
X-40.573Y-52.877
X-38.406Y-52.062
X-35.935Y-51.038
X-33.163Y-49.805
X-30.091Y-48.363
X-26.719Y-46.71
X-23.049Y-44.847
X-19.081Y-42.773
X-14.817Y-40.488
X-10.244Y-37.984
X-9.834Y-37.858
X-9.304Y-37.622
X-8.521Y-37.215
X-7.502Y-36.645
X-6.253Y-35.912
X-4.775Y-35.019
X-3.069Y-33.963
X-1.134Y-32.746
X1.027Y-31.368
X3.417Y-29.828
X6.034Y-28.125
X8.862Y-26.273
X24.765Y-13.634
X24.784Y-13.621
X24.804Y-13.608
X24.825Y-13.596
X25.657Y-13.159
X26.448Y-12.61
X27.238Y-11.923
X28.026Y-11.096
X28.808Y-10.128
X29.585Y-9.016
X30.354Y-7.761
X31.114Y-6.362
X31.864Y-4.818
X32.603Y-3.129
X33.331Y-1.294
X34.01Y0.588
X33.812Y2.669
X33.109Y3.288
X32.211Y3.957
X31.25Y4.56
X30.226Y5.096
X29.137Y5.566
X27.985Y5.97
X26.768Y6.308
X25.485Y6.58
X24.138Y6.786
X22.726Y6.925
X21.25Y6.998
X19.698Y7.005
X19.479Y7.006
X19.259Y6.999
X19.03Y6.991
X18.8Y6.981
X18.568Y6.97
X18.334Y6.958
X18.1Y6.944
X17.864Y6.93
X17.626Y6.915
X17.388Y6.898
X17.148Y6.881
X16.909Y6.863
X13.247Y6.55
X9.556Y5.121
X5.966Y3.779
X2.546Y2.548
X-0.697Y1.432
G0Z10
X-9.353Y13.382
G1Z-5F500
X-9.363Y13.5F1000
X-10.832Y13.355
X-10.824Y13.233
X-9.353Y13.382
G0Z10
X-8.12Y18.785
G1Z-5F500
X-7.922Y18.787F1000
X-7.682Y18.779
X-7.443Y18.759
X-7.205Y18.728
X-6.968Y18.685
X-6.734Y18.632
X-6.503Y18.566
X-6.274Y18.49
X-6.049Y18.403
X-6.04Y18.399
X-2.422Y19.97
X1.12Y21.487
X4.385Y22.863
X7.373Y24.098
X10.083Y25.194
X12.515Y26.15
X14.671Y26.968
X16.552Y27.649
X18.158Y28.192
X19.482Y28.597
X20.538Y28.868
X20.558Y28.872
X21.223Y28.985
X22.942Y30.092
X24.621Y31.196
X26.178Y32.243
X27.613Y33.233
X28.926Y34.164
X30.116Y35.037
X31.185Y35.851
X32.131Y36.605
X32.955Y37.299
X33.657Y37.931
X34.235Y38.5
X34.711Y39.025
X34.728Y39.042
X34.745Y39.058
X34.764Y39.073
X34.783Y39.087
X34.804Y39.101
X34.824Y39.114
X34.845Y39.125
X34.867Y39.136
X34.889Y39.145
X34.912Y39.153
X35.026Y39.19
X35.14Y39.255
X35.321Y39.393
X35.551Y39.599
X35.824Y39.871
X36.134Y40.207
X36.481Y40.605
X36.862Y41.064
X37.279Y41.584
X37.729Y42.165
X38.213Y42.806
X38.74Y43.518
X38.755Y43.536
X38.771Y43.554
X38.787Y43.571
X38.805Y43.587
X38.823Y43.603
X38.842Y43.617
X38.862Y43.631
X38.883Y43.643
X38.904Y43.655
X38.925Y43.665
X38.947Y43.675
X38.969Y43.683
X38.992Y43.691
X39.015Y43.697
X39.607Y43.829
X40.218Y44.096
X40.914Y44.522
X41.686Y45.113
X42.529Y45.869
X43.439Y46.788
X44.416Y47.872
X45.457Y49.119
X46.562Y50.529
X47.73Y52.103
X48.963Y53.84
X50.187Y55.635
X50.488Y59.085
X50.502Y59.156
X50.509Y59.18
X50.517Y59.203
X50.526Y59.225
X50.536Y59.248
X50.547Y59.269
X50.559Y59.29
X50.572Y59.311
X50.587Y59.331
X50.602Y59.35
X50.618Y59.368
X50.636Y59.386
X50.653Y59.403
X50.672Y59.419
X50.691Y59.434
X50.711Y59.447
X50.732Y59.46
X50.753Y59.472
X50.775Y59.483
X50.797Y59.493
X50.82Y59.501
X50.843Y59.509
X50.867Y59.515
X50.891Y59.521
X50.915Y59.525
X50.939Y59.528
X52.238Y59.62
X52.262Y59.621
X52.286Y59.62
X52.31Y59.619
X52.334Y59.616
X52.358Y59.612
X52.382Y59.606
X52.405Y59.6
X52.428Y59.592
X52.451Y59.584
X52.473Y59.574
X52.494Y59.563
X52.516Y59.552
X52.536Y59.539
X52.556Y59.525
X52.575Y59.51
X52.595Y59.494
X52.612Y59.478
X52.629Y59.46
X52.645Y59.442
X52.66Y59.423
X52.675Y59.404
X52.688Y59.383
X52.7Y59.363
X52.711Y59.341
X52.721Y59.319
X52.73Y59.297
X52.738Y59.274
X52.745Y59.251
X52.751Y59.227
X52.756Y59.204
X52.759Y59.18
X52.786Y58.901
X52.823Y58.681
X52.872Y58.494
X52.929Y58.34
X52.991Y58.217
X53.055Y58.125
X53.12Y58.057
X53.186Y58.009
X53.257Y57.974
X53.34Y57.951
X53.371Y57.947
X53.684Y58.351
X54.099Y58.928
X54.469Y59.487
X54.792Y60.026
X55.07Y60.547
X55.303Y61.047
X55.492Y61.527
X55.637Y61.987
X55.741Y62.425
X55.803Y62.841
X55.825Y63.236
X55.809Y63.619
X55.743Y64.181
X55.621Y64.719
X55.442Y65.243
X55.206Y65.754
X54.912Y66.252
X54.558Y66.74
X54.144Y67.215
X53.668Y67.68
X53.132Y68.132
X52.533Y68.572
X51.873Y68.999
X51.27Y69.344
X50.652Y69.307
X50.849Y66.782
X50.85Y66.757
X50.849Y66.732
X50.847Y66.706
X50.844Y66.682
X50.84Y66.658
X50.835Y66.635
X50.828Y66.612
X50.821Y66.589
X50.812Y66.566
X50.803Y66.544
X50.792Y66.523
X50.78Y66.501
X50.766Y66.479
X50.752Y66.458
X50.736Y66.438
X50.72Y66.419
X50.702Y66.401
X50.683Y66.383
X50.664Y66.366
X50.644Y66.351
X50.623Y66.336
X50.6Y66.323
X50.578Y66.31
X50.555Y66.299
X50.532Y66.289
X50.508Y66.281
X50.484Y66.273
X50.459Y66.267
X50.435Y66.262
X50.411Y66.259
X50.387Y66.256
X49.19Y66.164
X49.166
X49.141
X49.116Y66.166
X49.092Y66.169
X49.068Y66.173
X49.044Y66.178
X49.02Y66.185
X48.996Y66.193
X48.973Y66.202
X48.951Y66.211
X48.929Y66.223
X48.907Y66.235
X48.887Y66.248
X48.866Y66.262
X48.846Y66.278
X48.827Y66.294
X48.809Y66.311
X48.792Y66.329
X48.776Y66.348
X48.761Y66.367
X48.747Y66.387
X48.734Y66.408
X48.722Y66.43
X48.711Y66.452
X48.701Y66.474
X48.692Y66.497
X48.684Y66.521
X48.678Y66.545
X48.673Y66.569
X48.494Y67.621
X48.181Y68.522
X47.726Y69.327
X47.125Y70.045
X46.371Y70.682
X45.456Y71.236
X44.377Y71.707
X43.131Y72.09
X41.717Y72.384
X40.136Y72.587
X38.39Y72.697
X36.473Y72.714
X36.19Y72.709
X35.9Y72.703
X35.607Y72.694
X35.31Y72.684
X35.01Y72.672
X34.707Y72.658
X34.4Y72.642
X34.09Y72.624
X33.776Y72.604
X33.459Y72.582
X33.138Y72.559
X32.826Y72.534
X31.955Y72.421
X31.073Y72.304
X30.191Y72.185
X29.31Y72.063
X28.429Y71.94
X27.548Y71.815
X26.667Y71.687
X25.787Y71.558
X24.907Y71.427
X24.027Y71.293
X23.148Y71.158
X22.256Y71.018
X22.231Y71.015
X22.206Y71.014
X22.182
X22.157Y71.015
X22.132Y71.017
X22.108Y71.021
X22.083Y71.025
X22.059Y71.031
X22.035Y71.039
X22.012Y71.047
X21.989Y71.056
X21.967Y71.067
X21.945Y71.078
X21.924Y71.091
X21.903Y71.105
X21.882Y71.121
X21.863Y71.136
X21.844Y71.153
X21.827Y71.17
X21.81Y71.189
X21.795Y71.208
X21.78Y71.228
X21.766Y71.249
X21.754Y71.27
X21.742Y71.292
X21.731Y71.314
X21.722Y71.337
X21.714Y71.361
X21.707Y71.384
X21.701Y71.408
X21.696Y71.433
X21.693Y71.457
X21.585Y72.65
X20.191Y72.528
X18.834Y72.286
X17.589Y72.023
X16.473Y71.741
X15.486Y71.443
X14.629Y71.129
X13.903Y70.802
X13.31Y70.466
X12.85Y70.127
X12.522Y69.794
X12.315Y69.474
X12.211Y69.167
X12.19Y68.774
X12.188Y68.748
X12.184Y68.722
X12.178Y68.696
X12.171Y68.67
X12.163Y68.645
X12.154Y68.621
X-1.05Y38.95
X-1.062Y38.927
X-1.075Y38.905
X-1.089Y38.883
X-1.104Y38.862
X-1.12Y38.842
X-1.137Y38.823
X-1.155Y38.804
X-1.174Y38.787
X-1.194Y38.771
X-1.541Y38.513
X-1.853Y38.175
X-2.18Y37.709
X-2.512Y37.114
X-2.845Y36.392
X-3.176Y35.547
X-3.503Y34.579
X-3.826Y33.489
X-4.143Y32.28
X-4.456Y30.952
X-4.763Y29.505
X-5.067Y27.924
X-5.079Y27.879
X-5.087Y27.856
X-5.096Y27.834
X-5.105Y27.813
X-5.116Y27.792
X-5.128Y27.772
X-5.677Y26.907
X-6.16Y26.087
X-6.59Y25.294
X-6.965Y24.529
X-7.288Y23.792
X-7.56Y23.083
X-7.781Y22.4
X-7.952Y21.746
X-8.076Y21.118
X-8.152Y20.518
X-8.183Y19.943
X-8.169Y19.389
X-8.12Y18.785
G0Z10
X-23.508Y21.967
G1Z-5F500
X-23.463Y22.407F1000
X-23.542Y22.402
X-23.508Y21.967
G0Z10
X-18.985Y32.187
G1Z-5F500
X-18.855Y32.261F1000
X-18.739Y32.362
X-18.626Y32.5
X-18.516Y32.681
X-18.413Y32.909
X-18.319Y33.185
X-18.236Y33.507
X-18.166Y33.876
X-18.131Y34.133
X-18.339Y34.107
X-18.37Y33.889
X-18.376Y33.862
X-18.423Y33.645
X-18.426Y33.63
X-18.43Y33.615
X-18.499Y33.375
X-18.588Y33.112
X-18.693Y32.84
X-18.816Y32.552
X-18.95Y32.259
X-18.985Y32.187
G0Z10
X-10.669Y49.934
G1Z-5F500
X-10.558Y50F1000
X-10.549Y50.005
X-10.563Y50.148
X-10.57Y50.132
X-10.669Y49.934
G0Z10
X-50.233Y49.783
G1Z-5F500
X-50.514Y49.757F1000
X-50.507Y49.66
X-50.472Y49.664
X-50.233Y49.783
G0Z10
X-44.045Y-36.381
G1Z-5F500
X-44.317Y-36.758F1000
X-44.581Y-37.185
X-44.803Y-37.614
X-44.984Y-38.046
X-45.125Y-38.483
X-45.226Y-38.925
X-45.288Y-39.375
X-45.31Y-39.834
X-45.306Y-39.949
X-45.271Y-39.9
X-45.077Y-39.547
X-44.876Y-39.102
X-44.672Y-38.567
X-44.467Y-37.944
X-44.262Y-37.236
X-44.059Y-36.441
X-44.045Y-36.381
G0Z10
X-47.252Y-43.44
G1Z-5F500
X-47.278Y-43.461F1000
X-47.332Y-43.518
X-47.375Y-43.578
X-47.408Y-43.643
X-47.434Y-43.719
X-47.451Y-43.807
X-47.457Y-43.911
X-47.453Y-43.987
X-47.428Y-43.968
X-47.378Y-43.916
X-47.337Y-43.856
X-47.303Y-43.785
X-47.276Y-43.699
X-47.257Y-43.594
X-47.25Y-43.47
X-47.252Y-43.44
G0Z10
X-47.448Y-59.887
G1Z-5F500
X-47.839Y-59.918F1000
X-47.948Y-59.956
X-48.078Y-60.013
X-48.186Y-60.073
X-48.273Y-60.134
X-48.294Y-60.153
X-47.931Y-60.129
X-47.828Y-60.078
X-47.448Y-59.887
G0Z10
X-48.124Y-64.366
G1Z-5F500
X-48.534Y-64.313F1000
X-48.948Y-64.276
X-49.363Y-64.257
X-49.78Y-64.253
X-50.198Y-64.266
X-50.486Y-64.286
X-50.849Y-64.54
X-51.262Y-64.876
X-51.626Y-65.221
X-51.942Y-65.576
X-52.212Y-65.94
X-52.437Y-66.315
X-52.62Y-66.701
X-52.762Y-67.1
X-52.863Y-67.514
X-52.925Y-67.944
X-52.948Y-68.391
X-52.942Y-68.562
X-52.884Y-68.587
X-52.556Y-68.722
X-52.243Y-68.842
X-51.945Y-68.948
X-51.664Y-69.04
X-51.4Y-69.116
X-51.154Y-69.178
X-50.926Y-69.225
X-50.717Y-69.257
X-50.529Y-69.275
X-50.363Y-69.279
X-50.31Y-69.275
X-49.531Y-68.844
X-48.51Y-68.312
X-47.344Y-67.735
X-46.034Y-67.113
X-44.578Y-66.444
X-42.978Y-65.729
X-41.232Y-64.968
X-39.341Y-64.161
X-37.305Y-63.307
X-35.123Y-62.407
X-32.796Y-61.461
X-30.531Y-60.552
X-30.504Y-60.479
X-30.494Y-60.456
X-30.484Y-60.434
X-30.472Y-60.413
X-30.459Y-60.392
X-30.445Y-60.372
X-30.43Y-60.352
X-30.415Y-60.334
X-30.398Y-60.316
X-30.043Y-59.967
X-30.026Y-59.953
X-30.009Y-59.939
X-29.992Y-59.925
X-29.395Y-59.517
X-29.376Y-59.506
X-28.538Y-59.035
X-27.461Y-58.503
X-26.145Y-57.909
X-24.599Y-57.257
X-22.816Y-56.543
X-20.792Y-55.768
X-18.529Y-54.93
X-16.025Y-54.03
X-13.378Y-53.101
X-12.903Y-52.675
X-12.889Y-52.663
X-12.875Y-52.651
X-12.133Y-52.078
X-11.202Y-51.428
X-10.088Y-50.708
X-8.802Y-49.923
X-7.335Y-49.07
X-5.687Y-48.147
X-3.858Y-47.157
X-1.847Y-46.098
X0.345Y-44.971
X2.72Y-43.777
X5.234Y-42.538
X6.054Y-41.933
X6.835Y-41.348
X7.541Y-40.81
X8.171Y-40.319
X8.725Y-39.875
X9.2Y-39.478
X9.597Y-39.129
X9.911Y-38.831
X10.14Y-38.587
X10.277Y-38.411
X10.314Y-38.342
X10.297Y-38.089
X5.974Y-40.642
X1.288Y-43.371
X-3.059Y-45.865
X-7.072Y-48.122
X-10.749Y-50.142
X-14.091Y-51.925
X-17.098Y-53.47
X-19.773Y-54.777
X-22.108Y-55.842
X-24.121Y-56.672
X-25.8Y-57.261
X-25.821Y-57.267
X-26.943Y-57.555
X-26.98Y-57.605
X-26.994Y-57.622
X-27.009Y-57.639
X-27.14Y-57.774
X-27.153Y-57.786
X-27.166Y-57.798
X-27.346Y-57.959
X-27.585Y-58.155
X-27.862Y-58.369
X-28.184Y-58.61
X-28.553Y-58.879
X-28.968Y-59.175
X-29.43Y-59.5
X-29.938Y-59.854
X-30.502Y-60.245
X-30.524Y-60.258
X-30.546Y-60.27
X-30.569Y-60.281
X-30.592Y-60.291
X-30.616Y-60.3
X-30.64Y-60.308
X-30.665Y-60.314
X-30.69Y-60.319
X-30.715Y-60.323
X-30.74Y-60.325
X-30.956Y-60.336
X-30.982
X-31.17Y-60.325
X-31.185Y-60.324
X-31.2Y-60.322
X-31.215Y-60.32
X-31.23Y-60.317
X-31.4Y-60.286
X-31.423Y-60.281
X-31.445Y-60.275
X-31.61Y-60.22
X-31.634Y-60.211
X-31.657Y-60.201
X-31.808Y-60.124
X-31.831Y-60.111
X-31.853Y-60.097
X-31.987Y-60
X-32.008Y-59.983
X-32.028Y-59.965
X-32.144Y-59.848
X-32.161Y-59.829
X-32.177Y-59.809
X-32.275Y-59.675
X-32.288Y-59.655
X-32.3Y-59.635
X-32.379Y-59.485
X-32.389Y-59.466
X-32.397Y-59.447
X-32.46Y-59.279
X-32.468Y-59.252
X-32.515Y-59.069
X-32.52Y-59.045
X-32.549Y-58.849
X-32.552Y-58.823
X-32.553Y-58.797
Y-58.771
X-32.552Y-58.745
X-32.549Y-58.719
X-32.545Y-58.693
X-32.539Y-58.668
X-32.533Y-58.644
X-32.395Y-58.216
X-32.386Y-58.192
X-32.375Y-58.168
X-32.174Y-57.769
X-32.162Y-57.747
X-32.148Y-57.725
X-31.885Y-57.356
X-31.87Y-57.337
X-31.864Y-57.33
X-32.946Y-57.788
X-34.18Y-58.322
X-35.28Y-58.809
X-36.245Y-59.251
X-37.076Y-59.647
X-37.511Y-59.866
X-35.816Y-59.728
X-35.791Y-59.727
X-35.767Y-59.728
X-35.742Y-59.729
X-35.718Y-59.732
X-35.693Y-59.736
X-35.669Y-59.741
X-35.646Y-59.748
X-35.622Y-59.755
X-35.599Y-59.764
X-35.577Y-59.774
X-35.555Y-59.785
X-35.533Y-59.797
X-35.512Y-59.81
X-35.492Y-59.824
X-35.473Y-59.839
X-35.453Y-59.856
X-35.435Y-59.872
X-35.418Y-59.89
X-35.402Y-59.909
X-35.386Y-59.928
X-35.372Y-59.948
X-35.359Y-59.969
X-35.347Y-59.99
X-35.336Y-60.012
X-35.325Y-60.034
X-35.316Y-60.057
X-35.309Y-60.081
X-35.302Y-60.104
X-35.297Y-60.128
X-35.292Y-60.153
X-35.289Y-60.177
X-35.196Y-61.386
X-35.195Y-61.41
X-35.196Y-61.434
X-35.198Y-61.459
X-35.2Y-61.483
X-35.204Y-61.507
X-35.21Y-61.531
X-35.216Y-61.554
X-35.223Y-61.577
X-35.232Y-61.6
X-35.242Y-61.622
X-35.252Y-61.644
X-35.264Y-61.665
X-35.277Y-61.686
X-35.292Y-61.707
X-35.306Y-61.726
X-35.322Y-61.745
X-35.339Y-61.763
X-35.356Y-61.78
X-35.374Y-61.796
X-35.393Y-61.811
X-35.413Y-61.825
X-35.433Y-61.838
X-35.454Y-61.851
X-35.476Y-61.862
X-35.498Y-61.872
X-35.52Y-61.881
X-35.543Y-61.889
X-35.567Y-61.896
X-36.72Y-62.176
X-37.799Y-62.451
X-38.818Y-62.726
X-39.777Y-62.999
X-40.677Y-63.271
X-41.518Y-63.539
X-42.301Y-63.804
X-43.024Y-64.064
X-43.689Y-64.32
X-44.295Y-64.57
X-44.844Y-64.813
X-45.353Y-65.057
X-45.376Y-65.067
X-45.399Y-65.075
X-45.423Y-65.082
X-45.447Y-65.089
X-45.472Y-65.094
X-45.496Y-65.097
X-45.521Y-65.1
X-45.547Y-65.101
X-45.572
X-45.597Y-65.099
X-45.622Y-65.097
X-45.647Y-65.093
X-45.671Y-65.088
X-45.695Y-65.082
X-45.719Y-65.074
X-45.743Y-65.066
X-46.143Y-64.896
X-46.528Y-64.754
X-46.919Y-64.63
X-47.316Y-64.524
X-47.718Y-64.436
X-48.124Y-64.366
G0Z10
X-59.801Y-67.374
G1Z-5F500
X-60.524Y-67.08F1000
X-60.562Y-67.115
X-60.738Y-67.289
X-60.961Y-67.52
X-61.228Y-67.808
X-61.538Y-68.152
X-61.889Y-68.551
X-62.282Y-69.006
X-62.715Y-69.517
X-63.189Y-70.085
X-63.711Y-70.719
X-63.727Y-70.737
X-63.745Y-70.755
X-63.763Y-70.771
X-63.782Y-70.787
X-63.802Y-70.801
X-63.822Y-70.815
X-63.843Y-70.827
X-63.865Y-70.839
X-63.887Y-70.849
X-63.909Y-70.859
X-63.932Y-70.867
X-63.956Y-70.874
X-63.98Y-70.88
X-64.004Y-70.885
X-64.028Y-70.888
X-64.052Y-70.891
X-64.077Y-70.892
X-64.101
X-64.126Y-70.891
X-64.15Y-70.888
X-64.174Y-70.885
X-64.198Y-70.88
X-64.222Y-70.874
X-64.247Y-70.866
X-64.27Y-70.858
X-64.293Y-70.849
X-64.315Y-70.838
X-64.337Y-70.827
X-64.358Y-70.814
X-64.378Y-70.801
X-64.398Y-70.786
X-64.417Y-70.771
X-64.435Y-70.754
X-64.452Y-70.737
X-64.469Y-70.719
X-64.484Y-70.7
X-64.499Y-70.68
X-64.513Y-70.66
X-64.525Y-70.639
X-64.537Y-70.617
X-64.547Y-70.595
X-64.557Y-70.573
X-64.565Y-70.55
X-64.572Y-70.526
X-64.578Y-70.503
X-64.583Y-70.478
X-64.587Y-70.454
X-64.615Y-70.176
X-64.654Y-69.957
X-64.702Y-69.771
X-64.759Y-69.619
X-64.821Y-69.5
X-64.884Y-69.411
X-64.947Y-69.346
X-65.011Y-69.3
X-65.081Y-69.267
X-65.165Y-69.244
X-65.268Y-69.232
X-65.36Y-69.235
X-65.491Y-69.275
X-65.648Y-69.332
X-65.779Y-69.392
X-65.884Y-69.452
X-65.966Y-69.512
X-66.026Y-69.569
X-66.07Y-69.624
X-66.102Y-69.681
X-66.125Y-69.745
X-66.141Y-69.822
X-66.148Y-69.918
X-66.141Y-70.052
X-66.025Y-71.327
X-65.791Y-71.331
X-65.437Y-71.352
X-65.084Y-71.387
X-64.733Y-71.437
X-64.384Y-71.501
X-64.039Y-71.579
X-63.697Y-71.671
X-63.358Y-71.777
X-63.024Y-71.897
X-62.694Y-72.031
X-62.519Y-72.111
X-62.27Y-72.069
X-61.944Y-71.953
X-61.642Y-71.782
X-61.359Y-71.548
X-61.091Y-71.246
X-60.839Y-70.87
X-60.603Y-70.417
X-60.388Y-69.886
X-60.194Y-69.278
X-60.021Y-68.593
X-59.871Y-67.831
X-59.801Y-67.374
G0Z10
X-25.771Y-54.089
G1Z-5F500
X-25.757Y-54.088F1000
X-25.361Y-53.867
X-25.502Y-53.889
X-25.517Y-53.891
X-25.532Y-53.893
X-25.782Y-53.917
X-25.771Y-54.089
G0Z10
X-18.613Y-50.677
G1Z-5F500
X-18.091Y-50.524F1000
X-17.786Y-50.454
X-17.806Y-50.438
X-17.858Y-50.408
X-17.921Y-50.382
X-17.997Y-50.362
X-18.091Y-50.349
X-18.199Y-50.346
X-18.236Y-50.351
X-18.282Y-50.359
X-18.613Y-50.677
G0Z10
X31.763Y8.573
G1Z-5F500
X32.108Y8.314F1000
X32.452Y8.097
X32.797Y7.921
X33.142Y7.785
X33.488Y7.687
X33.839Y7.627
X34.03Y7.615
X34.012Y7.693
X33.971Y7.787
X33.9Y7.904
X33.794Y8.04
X33.65Y8.191
X33.469Y8.354
X33.251Y8.525
X32.995Y8.703
X32.702Y8.887
X32.372Y9.074
X32.013Y9.26
X31.692Y9.399
X30.976Y9.333
X31.075Y9.221
X31.419Y8.875
X31.763Y8.573
G0Z10
X40.948Y19.352
G1Z-5F500
X41.101Y19.323F1000
X41.115Y19.32
X41.13Y19.317
X41.337Y19.265
X41.565Y19.195
X41.801Y19.111
X42.044Y19.011
X42.295Y18.896
X42.561Y18.762
X42.828Y18.616
X43.104Y18.455
X43.221Y18.383
X43.323Y18.409
X43.419Y18.446
X43.496Y18.488
X43.556Y18.533
X43.605Y18.583
X43.645Y18.64
X43.678Y18.708
X43.705Y18.791
X43.723Y18.893
X43.724Y18.921
X41.502Y20.286
X40.87Y20.203
X40.948Y19.352
G0Z10
X52.122Y7.174
G1Z-5F500
X52.702Y0.448F1000
X52.794Y0.541
X52.911Y0.682
X53.033Y0.854
X53.159Y1.056
X53.287Y1.287
X53.417Y1.549
X53.498Y1.727
X53.117Y6.244
X53.102Y6.31
X53.073Y6.381
X53.026Y6.463
X52.956Y6.557
X52.859Y6.661
X52.735Y6.773
X52.582Y6.891
X52.398Y7.014
X52.184Y7.141
X52.122Y7.174
G0Z10
X67Y64.628
G1Z-5F500
X66.766Y65.317F1000
X66.475Y66.108
X66.188Y66.823
X65.906Y67.462
X65.629Y68.024
X65.36Y68.508
X65.099Y68.912
X64.851Y69.234
X64.62Y69.474
X64.505Y69.564
X64.529Y69.27
X64.916Y68.441
X65.315Y67.614
X65.69Y66.868
X66.04Y66.204
X66.365Y65.623
X66.664Y65.126
X66.936Y64.715
X67Y64.628
G0Z10
X65.104Y76.47
G1Z-5F500
X65.336Y77.051F1000
X65.186Y77.715
X64.809Y78.416
X64.206Y79.083
X63.361Y79.713
X62.265Y80.298
X60.92Y80.829
X59.327Y81.302
X57.487Y81.712
X55.404Y82.059
X53.078Y82.342
X50.591Y82.552
X65.104Y76.47
G0Z10
X67.823Y80.439
G1Z-5F500
X69.398Y79.084F1000
X70.808Y77.65
X70.823Y77.632
X72.028Y76.153
X72.043Y76.133
X73.058Y74.595
X73.072Y74.572
X73.898Y72.976
X73.909Y72.951
X74.545Y71.296
X74.554Y71.269
X75Y69.558
X75.005Y69.531
X75.261Y67.765
X75.499Y65.351
X75.5Y65.306
X75.499Y65.283
X75.289Y62.791
X75.019Y60.425
X74.69Y58.183
X74.3Y56.047
X73.85Y54.026
X73.341Y52.119
X72.773Y50.326
X72.144Y48.647
X71.463Y47.096
X71.457Y47.082
X71.45Y47.068
X70.717Y45.646
X69.907Y44.302
X69.891Y44.278
X69.039Y43.078
X69.025Y43.06
X69.01Y43.042
X68.994Y43.025
X68.977Y43.009
X53.122Y29.073
X51.725Y28.249
X50.519Y27.509
X49.431Y26.803
X48.464Y26.131
X47.618Y25.495
X46.894Y24.894
X46.294Y24.332
X45.819Y23.811
X45.47Y23.337
X45.246Y22.917
X45.135Y22.561
X45.127Y22.397
X46.881Y20.44
X48.612Y18.485
X50.184Y16.685
X51.596Y15.039
X52.848Y13.548
X53.94Y12.211
X54.871Y11.026
X55.636Y10
X56.246Y9.117
X56.692Y8.387
X56.703Y8.365
X56.981Y7.791
X56.991Y7.768
X57Y7.745
X57.007Y7.721
X57.115Y7.301
X57.12Y7.278
X57.124Y7.255
X57.126Y7.232
X57.128Y7.208
X57.186Y4.123
X57.185Y4.094
X57.184Y4.073
X57.183Y4.058
X56.838Y0.948
X56.835Y0.927
X56.829Y0.898
X56.083Y-2.235
X54.919Y-5.445
X54.909Y-5.469
X53.352Y-8.666
X53.341Y-8.686
X51.382Y-11.904
X51.371Y-11.921
X49.017Y-15.151
X49.005Y-15.166
X48.994Y-15.18
X46.245Y-18.424
X43.063Y-21.725
X39.491Y-25.031
X35.52Y-28.356
X31.149Y-31.698
X29.598Y-32.7
X27.959Y-33.789
X26.202Y-34.986
X24.327Y-36.289
X22.336Y-37.7
X20.226Y-39.219
X17.998Y-40.845
X15.653Y-42.58
X13.188Y-44.423
X10.605Y-46.375
X7.903Y-48.436
X5.067Y-50.616
X4.462Y-51.051
X4.438Y-51.066
X3.762Y-51.479
X3.748Y-51.487
X3.734Y-51.495
X2.967Y-51.897
X2.111Y-52.285
X1.18Y-52.653
X0.175Y-53.001
X-0.903Y-53.33
X-2.063Y-53.641
X-3.151Y-53.898
X-3.077Y-54.46
X-3.075Y-54.485
X-3.074Y-54.509
X-3.075Y-54.534
X-3.076Y-54.558
X-3.079Y-54.583
X-3.083Y-54.607
X-3.089Y-54.631
X-3.095Y-54.655
X-3.103Y-54.678
X-3.112Y-54.702
X-3.122Y-54.725
X-3.133Y-54.747
X-3.145Y-54.769
X-3.158Y-54.789
X-3.172Y-54.81
X-3.187Y-54.829
X-3.203Y-54.848
X-3.22Y-54.866
X-3.238Y-54.883
X-3.256Y-54.899
X-4.341Y-55.751
X-5.532Y-56.558
X-5.546Y-56.567
X-5.56Y-56.575
X-6.807Y-57.301
X-8.165Y-57.983
X-8.178Y-57.989
X-8.191Y-57.995
X-9.617Y-58.608
X-11.137Y-59.166
X-12.737Y-59.665
X-14.416Y-60.104
X-16.173Y-60.485
X-18.007Y-60.808
X-19.917Y-61.073
X-21.801Y-61.271
X-23.81Y-62.309
X-26.048Y-63.392
X-28.432Y-64.479
X-30.963Y-65.567
X-33.641Y-66.659
X-36.467Y-67.753
X-39.442Y-68.85
X-42.566Y-69.95
X-45.839Y-71.053
X-49.263Y-72.159
X-52.838Y-73.268
X-56.353Y-74.316
X-56.964Y-75.532
X-57.726Y-76.946
X-58.54Y-78.366
X-59.406Y-79.792
X-60.324Y-81.222
X-61.294Y-82.657
X-62.314Y-84.096
X-63.386Y-85.539
X-64.508Y-86.985
X-65.681Y-88.435
X-66.903Y-89.888
X-68.177Y-91.345
X-68.194Y-91.363
X-68.212Y-91.38
X-68.231Y-91.396
X-68.251Y-91.411
X-68.271Y-91.425
X-68.292Y-91.438
X-68.314Y-91.45
X-68.336Y-91.461
X-68.359Y-91.471
X-68.382Y-91.48
X-68.406Y-91.487
X-68.429Y-91.494
X-68.454Y-91.499
X-68.478Y-91.503
X-68.502Y-91.506
X-69.726Y-91.583
X-69.75
X-69.775
X-69.799Y-91.581
X-69.823Y-91.577
X-69.846Y-91.573
X-69.87Y-91.568
X-69.893Y-91.561
X-69.916Y-91.553
X-69.939Y-91.545
X-69.961Y-91.535
X-69.982Y-91.524
X-70.003Y-91.512
X-70.024Y-91.499
X-70.044Y-91.485
X-70.064Y-91.469
X-70.082Y-91.454
X-70.1Y-91.437
X-70.116Y-91.419
X-70.132Y-91.401
X-70.147Y-91.382
X-70.161Y-91.362
X-70.174Y-91.342
X-70.186Y-91.321
X-70.197Y-91.3
X-70.207Y-91.278
X-70.216Y-91.255
X-70.224Y-91.232
X-70.231Y-91.209
X-70.236Y-91.185
X-70.24Y-91.162
X-70.32Y-90.577
X-70.322Y-90.554
X-70.323Y-90.529
X-70.322Y-90.504
X-70.321Y-90.479
X-70.318Y-90.454
X-70.314Y-90.428
X-70.309Y-90.402
X-70.302Y-90.377
X-69.921Y-89.219
X-69.551Y-88.139
X-69.186Y-87.125
X-68.825Y-86.175
X-68.468Y-85.291
X-68.113Y-84.47
X-67.764Y-83.722
X-67.413Y-83.03
X-67.062Y-82.401
X-66.717Y-81.848
X-66.701Y-81.823
X-66.363Y-81.346
X-66.341Y-81.317
X-66.027Y-80.934
X-65.69Y-80.368
X-65.372Y-79.804
X-65.09Y-79.267
X-64.842Y-78.759
X-64.63Y-78.28
X-64.45Y-77.83
X-64.304Y-77.409
X-64.191Y-77.019
X-64.108Y-76.659
X-64.056Y-76.332
X-64.033Y-76.037
X-64.036Y-75.764
X-64.09Y-75.056
X-64.176Y-75.054
X-64.193Y-75.053
X-64.21Y-75.052
X-64.37Y-75.036
X-64.391Y-75.033
X-64.548Y-75.005
X-64.574Y-74.999
X-64.714Y-74.958
X-64.735Y-74.951
X-64.755Y-74.943
X-64.878Y-74.889
X-64.902Y-74.877
X-64.925Y-74.863
X-65.031Y-74.795
X-65.051Y-74.781
X-65.07Y-74.766
X-65.09Y-74.747
X-65.926Y-75.221
X-65.949Y-75.232
X-65.971Y-75.242
X-65.994Y-75.251
X-66.018Y-75.258
X-66.042Y-75.265
X-66.066Y-75.27
X-66.091Y-75.274
X-66.115Y-75.277
X-67.339Y-75.363
X-67.363
X-67.388Y-75.362
X-67.412Y-75.361
X-67.436Y-75.358
X-67.459Y-75.354
X-67.483Y-75.348
X-67.506Y-75.342
X-67.529Y-75.334
X-67.552Y-75.326
X-67.574Y-75.316
X-67.595Y-75.305
X-67.616Y-75.293
X-67.637Y-75.281
X-67.657Y-75.267
X-67.677Y-75.251
X-67.696Y-75.235
X-67.714Y-75.218
X-67.731Y-75.201
X-67.747Y-75.182
X-67.763Y-75.163
X-67.777Y-75.143
X-67.79Y-75.122
X-67.802Y-75.101
X-67.814Y-75.079
X-67.824Y-75.056
X-67.833Y-75.033
X-67.841Y-75.01
X-67.847Y-74.986
X-67.853Y-74.962
X-67.857Y-74.938
X-67.86Y-74.915
X-67.862Y-74.894
X-67.904Y-74.226
X-67.962Y-74.233
X-68.103Y-74.348
X-68.123Y-74.362
X-68.433Y-74.568
X-68.457Y-74.583
X-68.799Y-74.774
X-68.812Y-74.781
X-68.825Y-74.788
X-69.226Y-74.983
X-69.685Y-75.179
X-70.195Y-75.376
X-70.743Y-75.567
X-71.336Y-75.758
X-71.975Y-75.949
X-72.66Y-76.142
X-73.391Y-76.336
X-74.174Y-76.535
X-74.198Y-76.539
X-74.222Y-76.543
X-74.246Y-76.546
X-74.271Y-76.547
X-74.295
X-74.319Y-76.546
X-74.343Y-76.544
X-74.367Y-76.54
X-74.391Y-76.536
X-74.415Y-76.53
X-74.438Y-76.523
X-74.461Y-76.515
X-74.484Y-76.506
X-74.506Y-76.496
X-74.528Y-76.485
X-74.549Y-76.472
X-74.569Y-76.459
X-74.589Y-76.445
X-74.608Y-76.43
X-74.626Y-76.414
X-74.644Y-76.397
X-74.66Y-76.379
X-74.676Y-76.361
X-74.691Y-76.341
X-74.704Y-76.321
X-74.717Y-76.301
X-74.824Y-76.109
X-74.922Y-75.93
X-75.014Y-75.754
X-75.101Y-75.58
X-75.183Y-75.411
X-75.257Y-75.244
X-75.32Y-75.089
X-75.378Y-74.93
X-75.423Y-74.788
X-75.427Y-74.774
X-75.431Y-74.759
X-75.463Y-74.627
X-75.469Y-74.598
X-75.489Y-74.473
X-75.492Y-74.447
X-75.5Y-74.325
Y-74.301
Y-74.277
X-75.498Y-74.253
X-75.495Y-74.23
X-75.491Y-74.206
X-75.486Y-74.183
X-75.48Y-74.159
X-75.473Y-74.136
X-75.464Y-74.113
X-75.454Y-74.091
X-75.444Y-74.069
X-75.432Y-74.047
X-72.128Y-68.403
X-68.697Y-62.279
X-65.135Y-55.67
X-61.443Y-48.574
X-57.62Y-40.992
X-53.667Y-32.923
X-49.582Y-24.366
X-45.366Y-15.321
X-41.018Y-5.787
X-36.539Y4.235
X-31.927Y14.749
X-27.183Y25.755
X-21.664Y38.62
X-20.183Y42.161
X-18.882Y45.329
X-17.76Y48.125
X-16.817Y50.549
X-16.054Y52.599
X-15.472Y54.275
X-15.072Y55.571
X-14.856Y56.47
X-14.824Y56.844
X-14.855Y56.893
X-14.972Y57.087
X-15.079Y57.276
X-15.182Y57.476
X-15.277Y57.679
X-15.364Y57.886
X-15.442Y58.099
X-15.511Y58.316
X-15.569Y58.539
X-15.618Y58.768
X-15.656Y59.003
X-15.682Y59.237
X-15.684Y59.262
Y59.287
Y59.311
X-15.682Y59.336
X-15.679Y59.36
X-15.675Y59.385
X-15.669Y59.409
X-15.663Y59.432
X-15.655Y59.456
X-15.646Y59.479
X-15.636Y59.501
X-15.625Y59.523
X-15.612Y59.545
X-15.599Y59.566
X-15.584Y59.587
X-15.569Y59.606
X-15.553Y59.624
X-15.537Y59.642
X-15.519Y59.658
X-15.501Y59.674
X-15.482Y59.689
X-15.462Y59.703
X-15.441Y59.716
X-15.42Y59.728
X-15.398Y59.739
X-15.376Y59.749
X-15.354Y59.758
X-15.331Y59.766
X-15.307Y59.772
X-15.185Y59.804
X-15.067Y59.86
X-14.899Y59.972
X-14.693Y60.139
X-14.456Y60.362
X-14.19Y60.639
X-13.899Y60.972
X-13.584Y61.358
X-13.246Y61.798
X-12.886Y62.291
X-12.505Y62.839
X-12.196Y63.3
X-12.224Y63.673
X-13.887Y63.082
X-16.164Y62.198
X-18.444Y61.235
X-20.729Y60.195
X-23.017Y59.077
X-25.309Y57.879
X-27.605Y56.602
X-29.905Y55.245
X-32.208Y53.808
X-34.515Y52.29
X-36.826Y50.691
X-39.154Y49
X-39.215Y48.964
X-39.237Y48.954
X-39.259Y48.945
X-39.282Y48.936
X-39.304Y48.93
X-39.327Y48.924
X-39.35Y48.919
X-39.374Y48.915
X-39.397Y48.913
X-40.697Y48.835
X-40.721
X-40.746Y48.836
X-40.77Y48.838
X-40.794Y48.842
X-40.818Y48.846
X-40.842Y48.852
X-40.866Y48.858
X-40.889Y48.866
X-40.911Y48.875
X-40.933Y48.886
X-40.955Y48.897
X-40.976Y48.909
X-40.997Y48.922
X-41.016Y48.937
X-41.037Y48.953
X-41.055Y48.969
X-41.072Y48.986
X-41.089Y49.004
X-41.105Y49.022
X-41.12Y49.042
X-41.134Y49.062
X-41.146Y49.082
X-41.158Y49.104
X-41.169Y49.126
X-41.179Y49.148
X-41.188Y49.171
X-41.195Y49.194
X-41.201Y49.218
X-41.207Y49.241
X-41.211Y49.266
X-41.224Y49.375
X-41.24Y49.418
X-41.278Y49.479
X-41.352Y49.559
X-41.468Y49.653
X-41.628Y49.757
X-41.833Y49.867
X-42.08Y49.979
X-42.369Y50.093
X-42.698Y50.207
X-43.067Y50.323
X-43.262Y50.379
X-43.936Y49.95
X-44.781Y49.383
X-45.612Y48.798
X-46.429Y48.194
X-47.232Y47.571
X-48.02Y46.93
X-48.793Y46.271
X-49.551Y45.594
X-50.293Y44.9
X-51.019Y44.188
X-51.729Y43.46
X-52.434Y42.702
X-52.451Y42.686
X-52.468Y42.671
X-52.485Y42.656
X-52.504Y42.643
X-52.523Y42.629
X-52.544Y42.617
X-52.566Y42.605
X-52.588Y42.594
X-52.611Y42.585
X-52.634Y42.576
X-52.657Y42.569
X-52.681Y42.563
X-52.705Y42.558
X-52.729Y42.555
X-52.754Y42.552
X-52.778Y42.551
X-52.803
X-52.827Y42.552
X-52.852Y42.554
X-52.876Y42.558
X-52.901Y42.562
X-52.925Y42.568
X-52.949Y42.575
X-52.972Y42.584
X-52.995Y42.593
X-53.017Y42.603
X-53.039Y42.615
X-53.06Y42.627
X-53.08Y42.641
X-53.1Y42.655
X-53.119Y42.671
X-53.137Y42.687
X-53.155Y42.704
X-53.171Y42.723
X-53.187Y42.741
X-53.202Y42.761
X-54.726Y45.021
X-54.74Y45.044
X-54.752Y45.067
X-54.763Y45.091
X-54.773Y45.113
X-54.781Y45.136
X-54.788Y45.159
X-54.793Y45.183
X-54.798Y45.207
X-54.801Y45.231
X-54.804Y45.255
X-54.805Y45.279
Y45.304
X-54.804Y45.328
X-54.801Y45.352
X-54.798Y45.376
X-54.793Y45.4
X-54.787Y45.424
X-54.78Y45.447
X-54.772Y45.47
X-54.762Y45.492
X-54.751Y45.516
X-54.74Y45.537
X-54.727Y45.559
X-54.713Y45.579
X-54.699Y45.599
X-54.683Y45.618
X-54.666Y45.636
X-54.649Y45.654
X-54.63Y45.67
X-54.611Y45.686
X-54.591Y45.701
X-54.571Y45.714
X-54.55Y45.727
X-54.528Y45.739
X-54.332Y45.836
X-54.142Y45.931
X-53.957Y46.021
X-53.777Y46.106
X-53.602Y46.186
X-53.432Y46.26
X-53.274Y46.323
X-53.115Y46.381
X-53.024Y46.41
X-53.078Y46.971
X-53.344Y46.775
X-53.656Y46.532
X-54.012Y46.241
X-54.412Y45.905
X-54.855Y45.524
X-55.341Y45.098
X-55.871Y44.628
X-56.455Y44.104
X-56.476Y44.087
X-56.498Y44.071
X-56.519Y44.057
X-56.541Y44.045
X-56.563Y44.034
X-56.585Y44.024
X-56.608Y44.015
X-56.631Y44.007
X-56.655Y44.001
X-56.679Y43.995
X-56.703Y43.991
X-56.727Y43.988
X-56.752Y43.986
X-56.776Y43.985
X-56.801Y43.986
X-56.825Y43.987
X-56.849Y43.99
X-56.874Y43.994
X-56.899Y44
X-56.923Y44.006
X-56.946Y44.014
X-56.969Y44.023
X-56.991Y44.032
X-57.013Y44.043
X-57.035Y44.055
X-57.056Y44.068
X-57.076Y44.082
X-57.095Y44.097
X-57.114Y44.113
X-57.132Y44.13
X-57.149Y44.148
X-57.165Y44.166
X-57.18Y44.186
X-57.194Y44.206
X-57.921Y45.342
X-57.944Y45.384
X-57.954Y45.406
X-57.963Y45.429
X-57.971Y45.452
X-57.977Y45.475
X-57.983Y45.499
X-57.987Y45.523
X-57.991Y45.548
X-57.993Y45.572
X-57.994Y45.596
X-57.993Y45.62
X-57.992Y45.644
X-57.989Y45.668
X-57.985Y45.692
X-57.98Y45.716
X-57.974Y45.739
X-57.967Y45.763
X-57.959Y45.785
X-57.95Y45.807
X-57.939Y45.828
X-57.928Y45.849
X-57.916Y45.87
X-57.903Y45.89
X-57.212Y46.826
X-56.517Y47.688
X-55.817Y48.477
X-55.122Y49.184
X-55.112Y49.194
X-55.101Y49.204
X-54.413Y49.827
X-53.698Y50.396
X-53.684Y50.407
X-53.669Y50.417
X-52.969Y50.897
X-52.944Y50.912
X-52.241Y51.317
X-52.222Y51.327
X-51.507Y51.66
X-51.485Y51.669
X-50.767Y51.926
X-50.743Y51.933
X-50.022Y52.112
X-49.996Y52.117
X-49.275Y52.217
X-49.251Y52.219
X-49.227Y52.22
X-49.204
X-49.18Y52.219
X-49.156Y52.217
X-49.132Y52.213
X-49.109Y52.209
X-49.086Y52.203
X-49.063Y52.196
X-49.041Y52.188
X-48.885Y52.126
X-48.746Y52.075
X-48.624Y52.034
X-49.119Y52.585
X-49.134Y52.603
X-49.148Y52.622
X-49.162Y52.642
X-49.174Y52.662
X-49.185Y52.683
X-49.196Y52.704
X-49.205Y52.726
X-49.213Y52.748
X-49.22Y52.771
X-49.226Y52.794
X-49.231Y52.817
X-49.235Y52.84
X-49.314Y53.503
X-49.316Y53.529
Y53.554
X-49.315Y53.578
X-49.313Y53.603
X-49.31Y53.627
X-49.305Y53.651
X-49.3Y53.675
X-49.293Y53.698
X-49.285Y53.722
X-49.276Y53.744
X-49.266Y53.767
X-49.255Y53.788
X-49.243Y53.809
X-49.229Y53.83
X-49.215Y53.85
X-49.2Y53.869
X-49.183Y53.888
X-49.166Y53.906
X-49.148Y53.922
X-49.13Y53.938
X-49.111Y53.953
X-49.091Y53.967
X-49.07Y53.98
X-49.049Y53.992
X-49.027Y54.002
X-49.005Y54.012
X-48.983Y54.021
X-48.96Y54.028
X-48.936Y54.035
X-48.912Y54.04
X-48.889Y54.044
X-48.865Y54.047
X-48.559Y54.07
X-48.304Y54.098
X-48.083Y54.131
X-47.894Y54.17
X-47.739Y54.211
X-47.62Y54.253
X-47.537Y54.293
X-47.491Y54.322
X-47.489Y54.342
X-47.485Y54.366
X-47.479Y54.39
X-47.473Y54.413
X-47.465Y54.436
X-47.457Y54.459
X-47.447Y54.481
X-47.436Y54.503
X-47.424Y54.524
X-47.412Y54.545
X-47.398Y54.565
X-47.383Y54.584
X-47.367Y54.603
X-47.351Y54.62
X-47.333Y54.637
X-47.315Y54.653
X-47.296Y54.668
X-47.276Y54.683
X-47.255Y54.697
X-47.234Y54.709
X-47.212Y54.72
X-47.19Y54.73
X-47.168Y54.739
X-47.145Y54.747
X-47.121Y54.754
X-47.098Y54.76
X-47.074Y54.764
X-47.05Y54.767
X-47.026Y54.77
X-47.001Y54.771
X-46.977Y54.77
X-46.953Y54.769
X-46.929Y54.767
X-46.905Y54.763
X-46.881Y54.758
X-46.857Y54.752
X-46.834Y54.745
X-45.958Y54.428
X-46.146Y54.724
X-46.158Y54.745
X-46.169Y54.766
X-46.179Y54.788
X-46.188Y54.81
X-46.195Y54.832
X-46.202Y54.855
X-46.208Y54.879
X-46.212Y54.902
X-46.215Y54.927
X-46.218Y54.951
X-46.219Y54.976
X-46.218Y55.001
X-46.217Y55.025
X-46.214Y55.05
X-46.21Y55.074
X-46.205Y55.099
X-46.199Y55.122
X-46.191Y55.146
X-46.183Y55.169
X-46.173Y55.192
X-46.162Y55.215
X-46.15Y55.237
X-46.137Y55.258
X-46.122Y55.278
X-46.107Y55.298
X-46.091Y55.317
X-46.074Y55.335
X-46.056Y55.353
X-46.037Y55.369
X-46.018Y55.384
X-43.933Y56.866
X-42.038Y58.226
X-40.324Y59.471
X-38.79Y60.602
X-37.438Y61.617
X-36.269Y62.515
X-35.284Y63.296
X-34.485Y63.957
X-33.875Y64.495
X-33.461Y64.902
X-33.331Y65.061
X-34.514Y64.4
X-34.536Y64.389
X-34.559Y64.379
X-34.582Y64.37
X-34.605Y64.363
X-34.629Y64.356
X-34.653Y64.351
X-34.678Y64.347
X-34.702Y64.344
X-34.727Y64.342
X-34.752
X-34.776Y64.343
X-34.801Y64.345
X-34.826Y64.348
X-34.85Y64.353
X-34.874Y64.359
X-34.898Y64.365
X-34.921Y64.373
X-34.944Y64.383
X-34.967Y64.393
X-34.99Y64.405
X-35.011Y64.418
X-35.032Y64.431
X-35.052Y64.446
X-35.071Y64.461
X-35.09Y64.478
X-35.108Y64.495
X-35.124Y64.513
X-35.14Y64.532
X-35.155Y64.552
X-35.169Y64.572
X-35.182Y64.594
X-35.194Y64.615
X-35.204Y64.638
X-35.214Y64.66
X-35.222Y64.684
X-35.23Y64.707
X-35.236Y64.731
X-35.241Y64.755
X-35.244Y64.78
X-35.247Y64.805
X-35.256Y64.976
X-35.274Y65.082
X-35.3Y65.162
X-35.328Y65.218
X-35.359Y65.259
X-35.395Y65.292
X-35.441Y65.322
X-35.505Y65.35
X-35.59Y65.373
X-35.699Y65.388
X-35.831Y65.392
X-35.896Y65.388
X-35.993Y65.339
X-36.353Y65.152
X-36.525Y65.065
X-36.694Y64.983
X-36.859Y64.907
X-37.014Y64.841
X-37.176Y64.78
X-37.323Y64.734
X-37.34Y64.729
X-37.357Y64.724
X-37.497Y64.691
X-37.517Y64.687
X-37.666Y64.664
X-37.69Y64.661
X-37.838Y64.653
X-37.862
X-37.886Y64.654
X-37.911Y64.657
X-37.935Y64.66
X-37.959Y64.665
X-37.982Y64.67
X-38.006Y64.677
X-38.029Y64.685
X-38.051Y64.694
X-38.074Y64.705
X-38.095Y64.716
X-38.116Y64.728
X-38.137Y64.742
X-38.156Y64.756
X-38.175Y64.771
X-38.195Y64.789
X-38.212Y64.806
X-38.229Y64.824
X-38.244Y64.842
X-38.259Y64.862
X-38.273Y64.882
X-38.286Y64.903
X-38.297Y64.924
X-38.308Y64.946
X-38.318Y64.968
X-38.326Y64.991
X-38.334Y65.014
X-38.34Y65.038
X-38.345Y65.062
X-38.349Y65.086
X-38.352Y65.11
X-38.429Y66.332
Y66.355
Y66.379
X-38.427Y66.404
X-38.424Y66.428
X-38.419Y66.453
X-38.414Y66.477
X-38.407Y66.5
X-38.4Y66.524
X-38.391Y66.546
X-38.381Y66.569
X-38.369Y66.591
X-38.357Y66.613
X-38.343Y66.634
X-38.329Y66.654
X-38.313Y66.674
X-38.297Y66.693
X-38.28Y66.711
X-38.261Y66.728
X-38.242Y66.744
X-38.223Y66.759
X-38.202Y66.773
X-38.181Y66.786
X-36.572Y67.672
X-34.987Y68.568
X-33.411Y69.481
X-31.846Y70.41
X-30.29Y71.356
X-28.745Y72.319
X-27.21Y73.298
X-25.686Y74.294
X-24.173Y75.306
X-22.67Y76.335
X-21.179Y77.38
X-19.685Y78.449
X-19.664Y78.463
X-19.641Y78.476
X-19.618Y78.488
X-19.594Y78.499
X-14.72Y80.345
X-10.011Y82.049
X-5.456Y83.614
X-1.055Y85.043
X3.19Y86.334
X7.281Y87.489
X11.215Y88.508
X14.992Y89.391
X18.611Y90.14
X22.072Y90.755
X25.365Y91.234
X28.509Y91.582
X28.532Y91.583
X28.555
X32.181Y91.486
X35.608Y91.312
X38.849Y91.061
X41.894Y90.735
X44.76Y90.33
X47.439Y89.849
X49.931Y89.289
X52.238Y88.652
X54.343Y87.941
X56.284Y87.143
X56.31Y87.131
X58.032Y86.267
X58.051Y86.257
X59.563Y85.329
X61.882Y84.211
X64.033Y83.025
X64.046Y83.018
X64.059Y83.01
X66.007Y81.774
X67.8Y80.457
X67.823Y80.439
G0Z10
 
