(Created with grbl post processor 2024/09/04 23:05)
G21
(G-code Generated with Fabex and NC library)
G17G90
(Tool: D = 3.0 mm  type END flutes 2)
S12000M03
G00 Z10.0

G0X0Y0Z10
X-100Y101.501
G1Z-1F500
X100F1000
X100.036Y101.5
X100.073Y101.499
X100.11Y101.496
X100.147Y101.493
X100.183Y101.489
X100.22Y101.484
X100.256Y101.478
X100.293Y101.472
X100.329Y101.464
X100.364Y101.455
X100.4Y101.446
X100.435Y101.436
X100.47Y101.425
X100.505Y101.413
X100.54Y101.4
X100.574Y101.386
X100.608Y101.372
X100.641Y101.356
X100.674Y101.34
X100.707Y101.323
X100.739Y101.306
X100.771Y101.287
X100.802Y101.268
X100.833Y101.248
X100.864Y101.227
X100.893Y101.205
X100.923Y101.183
X100.951Y101.16
X100.98Y101.136
X101.007Y101.112
X101.034Y101.087
X101.061Y101.061
X101.087Y101.034
X101.112Y101.007
X101.136Y100.98
X101.16Y100.951
X101.183Y100.923
X101.205Y100.893
X101.227Y100.864
X101.248Y100.833
X101.268Y100.802
X101.287Y100.771
X101.306Y100.739
X101.323Y100.707
X101.34Y100.674
X101.356Y100.641
X101.372Y100.608
X101.386Y100.574
X101.4Y100.54
X101.413Y100.505
X101.425Y100.47
X101.436Y100.435
X101.446Y100.4
X101.455Y100.364
X101.464Y100.329
X101.472Y100.292
X101.478Y100.256
X101.484Y100.22
X101.489Y100.183
X101.493Y100.147
X101.496Y100.11
X101.499Y100.073
X101.5Y100.036
X101.501Y100
Y-100
X101.5Y-100.036
X101.499Y-100.073
X101.496Y-100.11
X101.493Y-100.147
X101.489Y-100.183
X101.484Y-100.22
X101.478Y-100.256
X101.472Y-100.293
X101.464Y-100.329
X101.455Y-100.364
X101.446Y-100.4
X101.436Y-100.435
X101.425Y-100.47
X101.413Y-100.505
X101.4Y-100.54
X101.386Y-100.574
X101.372Y-100.608
X101.356Y-100.641
X101.34Y-100.674
X101.323Y-100.707
X101.306Y-100.739
X101.287Y-100.771
X101.268Y-100.802
X101.248Y-100.833
X101.227Y-100.864
X101.205Y-100.893
X101.183Y-100.923
X101.16Y-100.951
X101.136Y-100.98
X101.112Y-101.007
X101.087Y-101.034
X101.061Y-101.061
X101.034Y-101.087
X101.007Y-101.112
X100.98Y-101.136
X100.951Y-101.16
X100.923Y-101.183
X100.893Y-101.205
X100.864Y-101.227
X100.833Y-101.248
X100.802Y-101.268
X100.771Y-101.287
X100.739Y-101.306
X100.707Y-101.323
X100.674Y-101.34
X100.641Y-101.356
X100.608Y-101.372
X100.574Y-101.386
X100.54Y-101.4
X100.505Y-101.413
X100.47Y-101.425
X100.435Y-101.436
X100.4Y-101.446
X100.364Y-101.455
X100.329Y-101.464
X100.292Y-101.472
X100.256Y-101.478
X100.22Y-101.484
X100.183Y-101.489
X100.147Y-101.493
X100.11Y-101.496
X100.073Y-101.499
X100.036Y-101.5
X100Y-101.501
X-100
X-100.036Y-101.5
X-100.073Y-101.499
X-100.11Y-101.496
X-100.147Y-101.493
X-100.183Y-101.489
X-100.22Y-101.484
X-100.256Y-101.478
X-100.293Y-101.472
X-100.329Y-101.464
X-100.364Y-101.455
X-100.4Y-101.446
X-100.435Y-101.436
X-100.47Y-101.425
X-100.505Y-101.413
X-100.54Y-101.4
X-100.574Y-101.386
X-100.608Y-101.372
X-100.641Y-101.356
X-100.674Y-101.34
X-100.707Y-101.323
X-100.739Y-101.306
X-100.771Y-101.287
X-100.802Y-101.268
X-100.833Y-101.248
X-100.864Y-101.227
X-100.893Y-101.205
X-100.923Y-101.183
X-100.951Y-101.16
X-100.98Y-101.136
X-101.007Y-101.112
X-101.034Y-101.087
X-101.061Y-101.061
X-101.087Y-101.034
X-101.112Y-101.007
X-101.136Y-100.98
X-101.16Y-100.951
X-101.183Y-100.923
X-101.205Y-100.893
X-101.227Y-100.864
X-101.248Y-100.833
X-101.268Y-100.802
X-101.287Y-100.771
X-101.306Y-100.739
X-101.323Y-100.707
X-101.34Y-100.674
X-101.356Y-100.641
X-101.372Y-100.608
X-101.386Y-100.574
X-101.4Y-100.54
X-101.413Y-100.505
X-101.425Y-100.47
X-101.436Y-100.435
X-101.446Y-100.4
X-101.455Y-100.364
X-101.464Y-100.329
X-101.472Y-100.292
X-101.478Y-100.256
X-101.484Y-100.22
X-101.489Y-100.183
X-101.493Y-100.147
X-101.496Y-100.11
X-101.499Y-100.073
X-101.5Y-100.036
X-101.501Y-100
Y100
X-101.5Y100.036
X-101.499Y100.073
X-101.496Y100.11
X-101.493Y100.147
X-101.489Y100.183
X-101.484Y100.22
X-101.478Y100.256
X-101.472Y100.293
X-101.464Y100.329
X-101.455Y100.364
X-101.446Y100.4
X-101.436Y100.435
X-101.425Y100.47
X-101.413Y100.505
X-101.4Y100.54
X-101.386Y100.574
X-101.372Y100.608
X-101.356Y100.641
X-101.34Y100.674
X-101.323Y100.707
X-101.306Y100.739
X-101.287Y100.771
X-101.268Y100.802
X-101.248Y100.833
X-101.227Y100.864
X-101.205Y100.893
X-101.183Y100.923
X-101.16Y100.951
X-101.136Y100.98
X-101.112Y101.007
X-101.087Y101.034
X-101.061Y101.061
X-101.034Y101.087
X-101.007Y101.112
X-100.98Y101.136
X-100.951Y101.16
X-100.923Y101.183
X-100.893Y101.205
X-100.864Y101.227
X-100.833Y101.248
X-100.802Y101.268
X-100.771Y101.287
X-100.739Y101.306
X-100.707Y101.323
X-100.674Y101.34
X-100.641Y101.356
X-100.608Y101.372
X-100.574Y101.386
X-100.54Y101.4
X-100.505Y101.413
X-100.47Y101.425
X-100.435Y101.436
X-100.4Y101.446
X-100.364Y101.455
X-100.329Y101.464
X-100.292Y101.472
X-100.256Y101.478
X-100.22Y101.484
X-100.183Y101.489
X-100.147Y101.493
X-100.11Y101.496
X-100.073Y101.499
X-100.036Y101.5
X-100Y101.501
Z-2F500
X100F1000
X100.036Y101.5
X100.073Y101.499
X100.11Y101.496
X100.147Y101.493
X100.183Y101.489
X100.22Y101.484
X100.256Y101.478
X100.293Y101.472
X100.329Y101.464
X100.364Y101.455
X100.4Y101.446
X100.435Y101.436
X100.47Y101.425
X100.505Y101.413
X100.54Y101.4
X100.574Y101.386
X100.608Y101.372
X100.641Y101.356
X100.674Y101.34
X100.707Y101.323
X100.739Y101.306
X100.771Y101.287
X100.802Y101.268
X100.833Y101.248
X100.864Y101.227
X100.893Y101.205
X100.923Y101.183
X100.951Y101.16
X100.98Y101.136
X101.007Y101.112
X101.034Y101.087
X101.061Y101.061
X101.087Y101.034
X101.112Y101.007
X101.136Y100.98
X101.16Y100.951
X101.183Y100.923
X101.205Y100.893
X101.227Y100.864
X101.248Y100.833
X101.268Y100.802
X101.287Y100.771
X101.306Y100.739
X101.323Y100.707
X101.34Y100.674
X101.356Y100.641
X101.372Y100.608
X101.386Y100.574
X101.4Y100.54
X101.413Y100.505
X101.425Y100.47
X101.436Y100.435
X101.446Y100.4
X101.455Y100.364
X101.464Y100.329
X101.472Y100.292
X101.478Y100.256
X101.484Y100.22
X101.489Y100.183
X101.493Y100.147
X101.496Y100.11
X101.499Y100.073
X101.5Y100.036
X101.501Y100
Y-100
X101.5Y-100.036
X101.499Y-100.073
X101.496Y-100.11
X101.493Y-100.147
X101.489Y-100.183
X101.484Y-100.22
X101.478Y-100.256
X101.472Y-100.293
X101.464Y-100.329
X101.455Y-100.364
X101.446Y-100.4
X101.436Y-100.435
X101.425Y-100.47
X101.413Y-100.505
X101.4Y-100.54
X101.386Y-100.574
X101.372Y-100.608
X101.356Y-100.641
X101.34Y-100.674
X101.323Y-100.707
X101.306Y-100.739
X101.287Y-100.771
X101.268Y-100.802
X101.248Y-100.833
X101.227Y-100.864
X101.205Y-100.893
X101.183Y-100.923
X101.16Y-100.951
X101.136Y-100.98
X101.112Y-101.007
X101.087Y-101.034
X101.061Y-101.061
X101.034Y-101.087
X101.007Y-101.112
X100.98Y-101.136
X100.951Y-101.16
X100.923Y-101.183
X100.893Y-101.205
X100.864Y-101.227
X100.833Y-101.248
X100.802Y-101.268
X100.771Y-101.287
X100.739Y-101.306
X100.707Y-101.323
X100.674Y-101.34
X100.641Y-101.356
X100.608Y-101.372
X100.574Y-101.386
X100.54Y-101.4
X100.505Y-101.413
X100.47Y-101.425
X100.435Y-101.436
X100.4Y-101.446
X100.364Y-101.455
X100.329Y-101.464
X100.292Y-101.472
X100.256Y-101.478
X100.22Y-101.484
X100.183Y-101.489
X100.147Y-101.493
X100.11Y-101.496
X100.073Y-101.499
X100.036Y-101.5
X100Y-101.501
X-100
X-100.036Y-101.5
X-100.073Y-101.499
X-100.11Y-101.496
X-100.147Y-101.493
X-100.183Y-101.489
X-100.22Y-101.484
X-100.256Y-101.478
X-100.293Y-101.472
X-100.329Y-101.464
X-100.364Y-101.455
X-100.4Y-101.446
X-100.435Y-101.436
X-100.47Y-101.425
X-100.505Y-101.413
X-100.54Y-101.4
X-100.574Y-101.386
X-100.608Y-101.372
X-100.641Y-101.356
X-100.674Y-101.34
X-100.707Y-101.323
X-100.739Y-101.306
X-100.771Y-101.287
X-100.802Y-101.268
X-100.833Y-101.248
X-100.864Y-101.227
X-100.893Y-101.205
X-100.923Y-101.183
X-100.951Y-101.16
X-100.98Y-101.136
X-101.007Y-101.112
X-101.034Y-101.087
X-101.061Y-101.061
X-101.087Y-101.034
X-101.112Y-101.007
X-101.136Y-100.98
X-101.16Y-100.951
X-101.183Y-100.923
X-101.205Y-100.893
X-101.227Y-100.864
X-101.248Y-100.833
X-101.268Y-100.802
X-101.287Y-100.771
X-101.306Y-100.739
X-101.323Y-100.707
X-101.34Y-100.674
X-101.356Y-100.641
X-101.372Y-100.608
X-101.386Y-100.574
X-101.4Y-100.54
X-101.413Y-100.505
X-101.425Y-100.47
X-101.436Y-100.435
X-101.446Y-100.4
X-101.455Y-100.364
X-101.464Y-100.329
X-101.472Y-100.292
X-101.478Y-100.256
X-101.484Y-100.22
X-101.489Y-100.183
X-101.493Y-100.147
X-101.496Y-100.11
X-101.499Y-100.073
X-101.5Y-100.036
X-101.501Y-100
Y100
X-101.5Y100.036
X-101.499Y100.073
X-101.496Y100.11
X-101.493Y100.147
X-101.489Y100.183
X-101.484Y100.22
X-101.478Y100.256
X-101.472Y100.293
X-101.464Y100.329
X-101.455Y100.364
X-101.446Y100.4
X-101.436Y100.435
X-101.425Y100.47
X-101.413Y100.505
X-101.4Y100.54
X-101.386Y100.574
X-101.372Y100.608
X-101.356Y100.641
X-101.34Y100.674
X-101.323Y100.707
X-101.306Y100.739
X-101.287Y100.771
X-101.268Y100.802
X-101.248Y100.833
X-101.227Y100.864
X-101.205Y100.893
X-101.183Y100.923
X-101.16Y100.951
X-101.136Y100.98
X-101.112Y101.007
X-101.087Y101.034
X-101.061Y101.061
X-101.034Y101.087
X-101.007Y101.112
X-100.98Y101.136
X-100.951Y101.16
X-100.923Y101.183
X-100.893Y101.205
X-100.864Y101.227
X-100.833Y101.248
X-100.802Y101.268
X-100.771Y101.287
X-100.739Y101.306
X-100.707Y101.323
X-100.674Y101.34
X-100.641Y101.356
X-100.608Y101.372
X-100.574Y101.386
X-100.54Y101.4
X-100.505Y101.413
X-100.47Y101.425
X-100.435Y101.436
X-100.4Y101.446
X-100.364Y101.455
X-100.329Y101.464
X-100.292Y101.472
X-100.256Y101.478
X-100.22Y101.484
X-100.183Y101.489
X-100.147Y101.493
X-100.11Y101.496
X-100.073Y101.499
X-100.036Y101.5
X-100Y101.501
Z-3F500
X100F1000
X100.036Y101.5
X100.073Y101.499
X100.11Y101.496
X100.147Y101.493
X100.183Y101.489
X100.22Y101.484
X100.256Y101.478
X100.293Y101.472
X100.329Y101.464
X100.364Y101.455
X100.4Y101.446
X100.435Y101.436
X100.47Y101.425
X100.505Y101.413
X100.54Y101.4
X100.574Y101.386
X100.608Y101.372
X100.641Y101.356
X100.674Y101.34
X100.707Y101.323
X100.739Y101.306
X100.771Y101.287
X100.802Y101.268
X100.833Y101.248
X100.864Y101.227
X100.893Y101.205
X100.923Y101.183
X100.951Y101.16
X100.98Y101.136
X101.007Y101.112
X101.034Y101.087
X101.061Y101.061
X101.087Y101.034
X101.112Y101.007
X101.136Y100.98
X101.16Y100.951
X101.183Y100.923
X101.205Y100.893
X101.227Y100.864
X101.248Y100.833
X101.268Y100.802
X101.287Y100.771
X101.306Y100.739
X101.323Y100.707
X101.34Y100.674
X101.356Y100.641
X101.372Y100.608
X101.386Y100.574
X101.4Y100.54
X101.413Y100.505
X101.425Y100.47
X101.436Y100.435
X101.446Y100.4
X101.455Y100.364
X101.464Y100.329
X101.472Y100.292
X101.478Y100.256
X101.484Y100.22
X101.489Y100.183
X101.493Y100.147
X101.496Y100.11
X101.499Y100.073
X101.5Y100.036
X101.501Y100
Y-100
X101.5Y-100.036
X101.499Y-100.073
X101.496Y-100.11
X101.493Y-100.147
X101.489Y-100.183
X101.484Y-100.22
X101.478Y-100.256
X101.472Y-100.293
X101.464Y-100.329
X101.455Y-100.364
X101.446Y-100.4
X101.436Y-100.435
X101.425Y-100.47
X101.413Y-100.505
X101.4Y-100.54
X101.386Y-100.574
X101.372Y-100.608
X101.356Y-100.641
X101.34Y-100.674
X101.323Y-100.707
X101.306Y-100.739
X101.287Y-100.771
X101.268Y-100.802
X101.248Y-100.833
X101.227Y-100.864
X101.205Y-100.893
X101.183Y-100.923
X101.16Y-100.951
X101.136Y-100.98
X101.112Y-101.007
X101.087Y-101.034
X101.061Y-101.061
X101.034Y-101.087
X101.007Y-101.112
X100.98Y-101.136
X100.951Y-101.16
X100.923Y-101.183
X100.893Y-101.205
X100.864Y-101.227
X100.833Y-101.248
X100.802Y-101.268
X100.771Y-101.287
X100.739Y-101.306
X100.707Y-101.323
X100.674Y-101.34
X100.641Y-101.356
X100.608Y-101.372
X100.574Y-101.386
X100.54Y-101.4
X100.505Y-101.413
X100.47Y-101.425
X100.435Y-101.436
X100.4Y-101.446
X100.364Y-101.455
X100.329Y-101.464
X100.292Y-101.472
X100.256Y-101.478
X100.22Y-101.484
X100.183Y-101.489
X100.147Y-101.493
X100.11Y-101.496
X100.073Y-101.499
X100.036Y-101.5
X100Y-101.501
X-100
X-100.036Y-101.5
X-100.073Y-101.499
X-100.11Y-101.496
X-100.147Y-101.493
X-100.183Y-101.489
X-100.22Y-101.484
X-100.256Y-101.478
X-100.293Y-101.472
X-100.329Y-101.464
X-100.364Y-101.455
X-100.4Y-101.446
X-100.435Y-101.436
X-100.47Y-101.425
X-100.505Y-101.413
X-100.54Y-101.4
X-100.574Y-101.386
X-100.608Y-101.372
X-100.641Y-101.356
X-100.674Y-101.34
X-100.707Y-101.323
X-100.739Y-101.306
X-100.771Y-101.287
X-100.802Y-101.268
X-100.833Y-101.248
X-100.864Y-101.227
X-100.893Y-101.205
X-100.923Y-101.183
X-100.951Y-101.16
X-100.98Y-101.136
X-101.007Y-101.112
X-101.034Y-101.087
X-101.061Y-101.061
X-101.087Y-101.034
X-101.112Y-101.007
X-101.136Y-100.98
X-101.16Y-100.951
X-101.183Y-100.923
X-101.205Y-100.893
X-101.227Y-100.864
X-101.248Y-100.833
X-101.268Y-100.802
X-101.287Y-100.771
X-101.306Y-100.739
X-101.323Y-100.707
X-101.34Y-100.674
X-101.356Y-100.641
X-101.372Y-100.608
X-101.386Y-100.574
X-101.4Y-100.54
X-101.413Y-100.505
X-101.425Y-100.47
X-101.436Y-100.435
X-101.446Y-100.4
X-101.455Y-100.364
X-101.464Y-100.329
X-101.472Y-100.292
X-101.478Y-100.256
X-101.484Y-100.22
X-101.489Y-100.183
X-101.493Y-100.147
X-101.496Y-100.11
X-101.499Y-100.073
X-101.5Y-100.036
X-101.501Y-100
Y100
X-101.5Y100.036
X-101.499Y100.073
X-101.496Y100.11
X-101.493Y100.147
X-101.489Y100.183
X-101.484Y100.22
X-101.478Y100.256
X-101.472Y100.293
X-101.464Y100.329
X-101.455Y100.364
X-101.446Y100.4
X-101.436Y100.435
X-101.425Y100.47
X-101.413Y100.505
X-101.4Y100.54
X-101.386Y100.574
X-101.372Y100.608
X-101.356Y100.641
X-101.34Y100.674
X-101.323Y100.707
X-101.306Y100.739
X-101.287Y100.771
X-101.268Y100.802
X-101.248Y100.833
X-101.227Y100.864
X-101.205Y100.893
X-101.183Y100.923
X-101.16Y100.951
X-101.136Y100.98
X-101.112Y101.007
X-101.087Y101.034
X-101.061Y101.061
X-101.034Y101.087
X-101.007Y101.112
X-100.98Y101.136
X-100.951Y101.16
X-100.923Y101.183
X-100.893Y101.205
X-100.864Y101.227
X-100.833Y101.248
X-100.802Y101.268
X-100.771Y101.287
X-100.739Y101.306
X-100.707Y101.323
X-100.674Y101.34
X-100.641Y101.356
X-100.608Y101.372
X-100.574Y101.386
X-100.54Y101.4
X-100.505Y101.413
X-100.47Y101.425
X-100.435Y101.436
X-100.4Y101.446
X-100.364Y101.455
X-100.329Y101.464
X-100.292Y101.472
X-100.256Y101.478
X-100.22Y101.484
X-100.183Y101.489
X-100.147Y101.493
X-100.11Y101.496
X-100.073Y101.499
X-100.036Y101.5
X-100Y101.501
Z-4F500
X100F1000
X100.036Y101.5
X100.073Y101.499
X100.11Y101.496
X100.147Y101.493
X100.183Y101.489
X100.22Y101.484
X100.256Y101.478
X100.293Y101.472
X100.329Y101.464
X100.364Y101.455
X100.4Y101.446
X100.435Y101.436
X100.47Y101.425
X100.505Y101.413
X100.54Y101.4
X100.574Y101.386
X100.608Y101.372
X100.641Y101.356
X100.674Y101.34
X100.707Y101.323
X100.739Y101.306
X100.771Y101.287
X100.802Y101.268
X100.833Y101.248
X100.864Y101.227
X100.893Y101.205
X100.923Y101.183
X100.951Y101.16
X100.98Y101.136
X101.007Y101.112
X101.034Y101.087
X101.061Y101.061
X101.087Y101.034
X101.112Y101.007
X101.136Y100.98
X101.16Y100.951
X101.183Y100.923
X101.205Y100.893
X101.227Y100.864
X101.248Y100.833
X101.268Y100.802
X101.287Y100.771
X101.306Y100.739
X101.323Y100.707
X101.34Y100.674
X101.356Y100.641
X101.372Y100.608
X101.386Y100.574
X101.4Y100.54
X101.413Y100.505
X101.425Y100.47
X101.436Y100.435
X101.446Y100.4
X101.455Y100.364
X101.464Y100.329
X101.472Y100.292
X101.478Y100.256
X101.484Y100.22
X101.489Y100.183
X101.493Y100.147
X101.496Y100.11
X101.499Y100.073
X101.5Y100.036
X101.501Y100
Y-100
X101.5Y-100.036
X101.499Y-100.073
X101.496Y-100.11
X101.493Y-100.147
X101.489Y-100.183
X101.484Y-100.22
X101.478Y-100.256
X101.472Y-100.293
X101.464Y-100.329
X101.455Y-100.364
X101.446Y-100.4
X101.436Y-100.435
X101.425Y-100.47
X101.413Y-100.505
X101.4Y-100.54
X101.386Y-100.574
X101.372Y-100.608
X101.356Y-100.641
X101.34Y-100.674
X101.323Y-100.707
X101.306Y-100.739
X101.287Y-100.771
X101.268Y-100.802
X101.248Y-100.833
X101.227Y-100.864
X101.205Y-100.893
X101.183Y-100.923
X101.16Y-100.951
X101.136Y-100.98
X101.112Y-101.007
X101.087Y-101.034
X101.061Y-101.061
X101.034Y-101.087
X101.007Y-101.112
X100.98Y-101.136
X100.951Y-101.16
X100.923Y-101.183
X100.893Y-101.205
X100.864Y-101.227
X100.833Y-101.248
X100.802Y-101.268
X100.771Y-101.287
X100.739Y-101.306
X100.707Y-101.323
X100.674Y-101.34
X100.641Y-101.356
X100.608Y-101.372
X100.574Y-101.386
X100.54Y-101.4
X100.505Y-101.413
X100.47Y-101.425
X100.435Y-101.436
X100.4Y-101.446
X100.364Y-101.455
X100.329Y-101.464
X100.292Y-101.472
X100.256Y-101.478
X100.22Y-101.484
X100.183Y-101.489
X100.147Y-101.493
X100.11Y-101.496
X100.073Y-101.499
X100.036Y-101.5
X100Y-101.501
X-100
X-100.036Y-101.5
X-100.073Y-101.499
X-100.11Y-101.496
X-100.147Y-101.493
X-100.183Y-101.489
X-100.22Y-101.484
X-100.256Y-101.478
X-100.293Y-101.472
X-100.329Y-101.464
X-100.364Y-101.455
X-100.4Y-101.446
X-100.435Y-101.436
X-100.47Y-101.425
X-100.505Y-101.413
X-100.54Y-101.4
X-100.574Y-101.386
X-100.608Y-101.372
X-100.641Y-101.356
X-100.674Y-101.34
X-100.707Y-101.323
X-100.739Y-101.306
X-100.771Y-101.287
X-100.802Y-101.268
X-100.833Y-101.248
X-100.864Y-101.227
X-100.893Y-101.205
X-100.923Y-101.183
X-100.951Y-101.16
X-100.98Y-101.136
X-101.007Y-101.112
X-101.034Y-101.087
X-101.061Y-101.061
X-101.087Y-101.034
X-101.112Y-101.007
X-101.136Y-100.98
X-101.16Y-100.951
X-101.183Y-100.923
X-101.205Y-100.893
X-101.227Y-100.864
X-101.248Y-100.833
X-101.268Y-100.802
X-101.287Y-100.771
X-101.306Y-100.739
X-101.323Y-100.707
X-101.34Y-100.674
X-101.356Y-100.641
X-101.372Y-100.608
X-101.386Y-100.574
X-101.4Y-100.54
X-101.413Y-100.505
X-101.425Y-100.47
X-101.436Y-100.435
X-101.446Y-100.4
X-101.455Y-100.364
X-101.464Y-100.329
X-101.472Y-100.292
X-101.478Y-100.256
X-101.484Y-100.22
X-101.489Y-100.183
X-101.493Y-100.147
X-101.496Y-100.11
X-101.499Y-100.073
X-101.5Y-100.036
X-101.501Y-100
Y100
X-101.5Y100.036
X-101.499Y100.073
X-101.496Y100.11
X-101.493Y100.147
X-101.489Y100.183
X-101.484Y100.22
X-101.478Y100.256
X-101.472Y100.293
X-101.464Y100.329
X-101.455Y100.364
X-101.446Y100.4
X-101.436Y100.435
X-101.425Y100.47
X-101.413Y100.505
X-101.4Y100.54
X-101.386Y100.574
X-101.372Y100.608
X-101.356Y100.641
X-101.34Y100.674
X-101.323Y100.707
X-101.306Y100.739
X-101.287Y100.771
X-101.268Y100.802
X-101.248Y100.833
X-101.227Y100.864
X-101.205Y100.893
X-101.183Y100.923
X-101.16Y100.951
X-101.136Y100.98
X-101.112Y101.007
X-101.087Y101.034
X-101.061Y101.061
X-101.034Y101.087
X-101.007Y101.112
X-100.98Y101.136
X-100.951Y101.16
X-100.923Y101.183
X-100.893Y101.205
X-100.864Y101.227
X-100.833Y101.248
X-100.802Y101.268
X-100.771Y101.287
X-100.739Y101.306
X-100.707Y101.323
X-100.674Y101.34
X-100.641Y101.356
X-100.608Y101.372
X-100.574Y101.386
X-100.54Y101.4
X-100.505Y101.413
X-100.47Y101.425
X-100.435Y101.436
X-100.4Y101.446
X-100.364Y101.455
X-100.329Y101.464
X-100.292Y101.472
X-100.256Y101.478
X-100.22Y101.484
X-100.183Y101.489
X-100.147Y101.493
X-100.11Y101.496
X-100.073Y101.499
X-100.036Y101.5
X-100Y101.501
Z-5F500
X100F1000
X100.036Y101.5
X100.073Y101.499
X100.11Y101.496
X100.147Y101.493
X100.183Y101.489
X100.22Y101.484
X100.256Y101.478
X100.293Y101.472
X100.329Y101.464
X100.364Y101.455
X100.4Y101.446
X100.435Y101.436
X100.47Y101.425
X100.505Y101.413
X100.54Y101.4
X100.574Y101.386
X100.608Y101.372
X100.641Y101.356
X100.674Y101.34
X100.707Y101.323
X100.739Y101.306
X100.771Y101.287
X100.802Y101.268
X100.833Y101.248
X100.864Y101.227
X100.893Y101.205
X100.923Y101.183
X100.951Y101.16
X100.98Y101.136
X101.007Y101.112
X101.034Y101.087
X101.061Y101.061
X101.087Y101.034
X101.112Y101.007
X101.136Y100.98
X101.16Y100.951
X101.183Y100.923
X101.205Y100.893
X101.227Y100.864
X101.248Y100.833
X101.268Y100.802
X101.287Y100.771
X101.306Y100.739
X101.323Y100.707
X101.34Y100.674
X101.356Y100.641
X101.372Y100.608
X101.386Y100.574
X101.4Y100.54
X101.413Y100.505
X101.425Y100.47
X101.436Y100.435
X101.446Y100.4
X101.455Y100.364
X101.464Y100.329
X101.472Y100.292
X101.478Y100.256
X101.484Y100.22
X101.489Y100.183
X101.493Y100.147
X101.496Y100.11
X101.499Y100.073
X101.5Y100.036
X101.501Y100
Y-100
X101.5Y-100.036
X101.499Y-100.073
X101.496Y-100.11
X101.493Y-100.147
X101.489Y-100.183
X101.484Y-100.22
X101.478Y-100.256
X101.472Y-100.293
X101.464Y-100.329
X101.455Y-100.364
X101.446Y-100.4
X101.436Y-100.435
X101.425Y-100.47
X101.413Y-100.505
X101.4Y-100.54
X101.386Y-100.574
X101.372Y-100.608
X101.356Y-100.641
X101.34Y-100.674
X101.323Y-100.707
X101.306Y-100.739
X101.287Y-100.771
X101.268Y-100.802
X101.248Y-100.833
X101.227Y-100.864
X101.205Y-100.893
X101.183Y-100.923
X101.16Y-100.951
X101.136Y-100.98
X101.112Y-101.007
X101.087Y-101.034
X101.061Y-101.061
X101.034Y-101.087
X101.007Y-101.112
X100.98Y-101.136
X100.951Y-101.16
X100.923Y-101.183
X100.893Y-101.205
X100.864Y-101.227
X100.833Y-101.248
X100.802Y-101.268
X100.771Y-101.287
X100.739Y-101.306
X100.707Y-101.323
X100.674Y-101.34
X100.641Y-101.356
X100.608Y-101.372
X100.574Y-101.386
X100.54Y-101.4
X100.505Y-101.413
X100.47Y-101.425
X100.435Y-101.436
X100.4Y-101.446
X100.364Y-101.455
X100.329Y-101.464
X100.292Y-101.472
X100.256Y-101.478
X100.22Y-101.484
X100.183Y-101.489
X100.147Y-101.493
X100.11Y-101.496
X100.073Y-101.499
X100.036Y-101.5
X100Y-101.501
X-100
X-100.036Y-101.5
X-100.073Y-101.499
X-100.11Y-101.496
X-100.147Y-101.493
X-100.183Y-101.489
X-100.22Y-101.484
X-100.256Y-101.478
X-100.293Y-101.472
X-100.329Y-101.464
X-100.364Y-101.455
X-100.4Y-101.446
X-100.435Y-101.436
X-100.47Y-101.425
X-100.505Y-101.413
X-100.54Y-101.4
X-100.574Y-101.386
X-100.608Y-101.372
X-100.641Y-101.356
X-100.674Y-101.34
X-100.707Y-101.323
X-100.739Y-101.306
X-100.771Y-101.287
X-100.802Y-101.268
X-100.833Y-101.248
X-100.864Y-101.227
X-100.893Y-101.205
X-100.923Y-101.183
X-100.951Y-101.16
X-100.98Y-101.136
X-101.007Y-101.112
X-101.034Y-101.087
X-101.061Y-101.061
X-101.087Y-101.034
X-101.112Y-101.007
X-101.136Y-100.98
X-101.16Y-100.951
X-101.183Y-100.923
X-101.205Y-100.893
X-101.227Y-100.864
X-101.248Y-100.833
X-101.268Y-100.802
X-101.287Y-100.771
X-101.306Y-100.739
X-101.323Y-100.707
X-101.34Y-100.674
X-101.356Y-100.641
X-101.372Y-100.608
X-101.386Y-100.574
X-101.4Y-100.54
X-101.413Y-100.505
X-101.425Y-100.47
X-101.436Y-100.435
X-101.446Y-100.4
X-101.455Y-100.364
X-101.464Y-100.329
X-101.472Y-100.292
X-101.478Y-100.256
X-101.484Y-100.22
X-101.489Y-100.183
X-101.493Y-100.147
X-101.496Y-100.11
X-101.499Y-100.073
X-101.5Y-100.036
X-101.501Y-100
Y100
X-101.5Y100.036
X-101.499Y100.073
X-101.496Y100.11
X-101.493Y100.147
X-101.489Y100.183
X-101.484Y100.22
X-101.478Y100.256
X-101.472Y100.293
X-101.464Y100.329
X-101.455Y100.364
X-101.446Y100.4
X-101.436Y100.435
X-101.425Y100.47
X-101.413Y100.505
X-101.4Y100.54
X-101.386Y100.574
X-101.372Y100.608
X-101.356Y100.641
X-101.34Y100.674
X-101.323Y100.707
X-101.306Y100.739
X-101.287Y100.771
X-101.268Y100.802
X-101.248Y100.833
X-101.227Y100.864
X-101.205Y100.893
X-101.183Y100.923
X-101.16Y100.951
X-101.136Y100.98
X-101.112Y101.007
X-101.087Y101.034
X-101.061Y101.061
X-101.034Y101.087
X-101.007Y101.112
X-100.98Y101.136
X-100.951Y101.16
X-100.923Y101.183
X-100.893Y101.205
X-100.864Y101.227
X-100.833Y101.248
X-100.802Y101.268
X-100.771Y101.287
X-100.739Y101.306
X-100.707Y101.323
X-100.674Y101.34
X-100.641Y101.356
X-100.608Y101.372
X-100.574Y101.386
X-100.54Y101.4
X-100.505Y101.413
X-100.47Y101.425
X-100.435Y101.436
X-100.4Y101.446
X-100.364Y101.455
X-100.329Y101.464
X-100.292Y101.472
X-100.256Y101.478
X-100.22Y101.484
X-100.183Y101.489
X-100.147Y101.493
X-100.11Y101.496
X-100.073Y101.499
X-100.036Y101.5
X-100Y101.501
Z-6F500
X100F1000
X100.036Y101.5
X100.073Y101.499
X100.11Y101.496
X100.147Y101.493
X100.183Y101.489
X100.22Y101.484
X100.256Y101.478
X100.293Y101.472
X100.329Y101.464
X100.364Y101.455
X100.4Y101.446
X100.435Y101.436
X100.47Y101.425
X100.505Y101.413
X100.54Y101.4
X100.574Y101.386
X100.608Y101.372
X100.641Y101.356
X100.674Y101.34
X100.707Y101.323
X100.739Y101.306
X100.771Y101.287
X100.802Y101.268
X100.833Y101.248
X100.864Y101.227
X100.893Y101.205
X100.923Y101.183
X100.951Y101.16
X100.98Y101.136
X101.007Y101.112
X101.034Y101.087
X101.061Y101.061
X101.087Y101.034
X101.112Y101.007
X101.136Y100.98
X101.16Y100.951
X101.183Y100.923
X101.205Y100.893
X101.227Y100.864
X101.248Y100.833
X101.268Y100.802
X101.287Y100.771
X101.306Y100.739
X101.323Y100.707
X101.34Y100.674
X101.356Y100.641
X101.372Y100.608
X101.386Y100.574
X101.4Y100.54
X101.413Y100.505
X101.425Y100.47
X101.436Y100.435
X101.446Y100.4
X101.455Y100.364
X101.464Y100.329
X101.472Y100.292
X101.478Y100.256
X101.484Y100.22
X101.489Y100.183
X101.493Y100.147
X101.496Y100.11
X101.499Y100.073
X101.5Y100.036
X101.501Y100
Y-100
X101.5Y-100.036
X101.499Y-100.073
X101.496Y-100.11
X101.493Y-100.147
X101.489Y-100.183
X101.484Y-100.22
X101.478Y-100.256
X101.472Y-100.293
X101.464Y-100.329
X101.455Y-100.364
X101.446Y-100.4
X101.436Y-100.435
X101.425Y-100.47
X101.413Y-100.505
X101.4Y-100.54
X101.386Y-100.574
X101.372Y-100.608
X101.356Y-100.641
X101.34Y-100.674
X101.323Y-100.707
X101.306Y-100.739
X101.287Y-100.771
X101.268Y-100.802
X101.248Y-100.833
X101.227Y-100.864
X101.205Y-100.893
X101.183Y-100.923
X101.16Y-100.951
X101.136Y-100.98
X101.112Y-101.007
X101.087Y-101.034
X101.061Y-101.061
X101.034Y-101.087
X101.007Y-101.112
X100.98Y-101.136
X100.951Y-101.16
X100.923Y-101.183
X100.893Y-101.205
X100.864Y-101.227
X100.833Y-101.248
X100.802Y-101.268
X100.771Y-101.287
X100.739Y-101.306
X100.707Y-101.323
X100.674Y-101.34
X100.641Y-101.356
X100.608Y-101.372
X100.574Y-101.386
X100.54Y-101.4
X100.505Y-101.413
X100.47Y-101.425
X100.435Y-101.436
X100.4Y-101.446
X100.364Y-101.455
X100.329Y-101.464
X100.292Y-101.472
X100.256Y-101.478
X100.22Y-101.484
X100.183Y-101.489
X100.147Y-101.493
X100.11Y-101.496
X100.073Y-101.499
X100.036Y-101.5
X100Y-101.501
X-100
X-100.036Y-101.5
X-100.073Y-101.499
X-100.11Y-101.496
X-100.147Y-101.493
X-100.183Y-101.489
X-100.22Y-101.484
X-100.256Y-101.478
X-100.293Y-101.472
X-100.329Y-101.464
X-100.364Y-101.455
X-100.4Y-101.446
X-100.435Y-101.436
X-100.47Y-101.425
X-100.505Y-101.413
X-100.54Y-101.4
X-100.574Y-101.386
X-100.608Y-101.372
X-100.641Y-101.356
X-100.674Y-101.34
X-100.707Y-101.323
X-100.739Y-101.306
X-100.771Y-101.287
X-100.802Y-101.268
X-100.833Y-101.248
X-100.864Y-101.227
X-100.893Y-101.205
X-100.923Y-101.183
X-100.951Y-101.16
X-100.98Y-101.136
X-101.007Y-101.112
X-101.034Y-101.087
X-101.061Y-101.061
X-101.087Y-101.034
X-101.112Y-101.007
X-101.136Y-100.98
X-101.16Y-100.951
X-101.183Y-100.923
X-101.205Y-100.893
X-101.227Y-100.864
X-101.248Y-100.833
X-101.268Y-100.802
X-101.287Y-100.771
X-101.306Y-100.739
X-101.323Y-100.707
X-101.34Y-100.674
X-101.356Y-100.641
X-101.372Y-100.608
X-101.386Y-100.574
X-101.4Y-100.54
X-101.413Y-100.505
X-101.425Y-100.47
X-101.436Y-100.435
X-101.446Y-100.4
X-101.455Y-100.364
X-101.464Y-100.329
X-101.472Y-100.292
X-101.478Y-100.256
X-101.484Y-100.22
X-101.489Y-100.183
X-101.493Y-100.147
X-101.496Y-100.11
X-101.499Y-100.073
X-101.5Y-100.036
X-101.501Y-100
Y100
X-101.5Y100.036
X-101.499Y100.073
X-101.496Y100.11
X-101.493Y100.147
X-101.489Y100.183
X-101.484Y100.22
X-101.478Y100.256
X-101.472Y100.293
X-101.464Y100.329
X-101.455Y100.364
X-101.446Y100.4
X-101.436Y100.435
X-101.425Y100.47
X-101.413Y100.505
X-101.4Y100.54
X-101.386Y100.574
X-101.372Y100.608
X-101.356Y100.641
X-101.34Y100.674
X-101.323Y100.707
X-101.306Y100.739
X-101.287Y100.771
X-101.268Y100.802
X-101.248Y100.833
X-101.227Y100.864
X-101.205Y100.893
X-101.183Y100.923
X-101.16Y100.951
X-101.136Y100.98
X-101.112Y101.007
X-101.087Y101.034
X-101.061Y101.061
X-101.034Y101.087
X-101.007Y101.112
X-100.98Y101.136
X-100.951Y101.16
X-100.923Y101.183
X-100.893Y101.205
X-100.864Y101.227
X-100.833Y101.248
X-100.802Y101.268
X-100.771Y101.287
X-100.739Y101.306
X-100.707Y101.323
X-100.674Y101.34
X-100.641Y101.356
X-100.608Y101.372
X-100.574Y101.386
X-100.54Y101.4
X-100.505Y101.413
X-100.47Y101.425
X-100.435Y101.436
X-100.4Y101.446
X-100.364Y101.455
X-100.329Y101.464
X-100.292Y101.472
X-100.256Y101.478
X-100.22Y101.484
X-100.183Y101.489
X-100.147Y101.493
X-100.11Y101.496
X-100.073Y101.499
X-100.036Y101.5
X-100Y101.501
Z-7F500
X100F1000
X100.036Y101.5
X100.073Y101.499
X100.11Y101.496
X100.147Y101.493
X100.183Y101.489
X100.22Y101.484
X100.256Y101.478
X100.293Y101.472
X100.329Y101.464
X100.364Y101.455
X100.4Y101.446
X100.435Y101.436
X100.47Y101.425
X100.505Y101.413
X100.54Y101.4
X100.574Y101.386
X100.608Y101.372
X100.641Y101.356
X100.674Y101.34
X100.707Y101.323
X100.739Y101.306
X100.771Y101.287
X100.802Y101.268
X100.833Y101.248
X100.864Y101.227
X100.893Y101.205
X100.923Y101.183
X100.951Y101.16
X100.98Y101.136
X101.007Y101.112
X101.034Y101.087
X101.061Y101.061
X101.087Y101.034
X101.112Y101.007
X101.136Y100.98
X101.16Y100.951
X101.183Y100.923
X101.205Y100.893
X101.227Y100.864
X101.248Y100.833
X101.268Y100.802
X101.287Y100.771
X101.306Y100.739
X101.323Y100.707
X101.34Y100.674
X101.356Y100.641
X101.372Y100.608
X101.386Y100.574
X101.4Y100.54
X101.413Y100.505
X101.425Y100.47
X101.436Y100.435
X101.446Y100.4
X101.455Y100.364
X101.464Y100.329
X101.472Y100.292
X101.478Y100.256
X101.484Y100.22
X101.489Y100.183
X101.493Y100.147
X101.496Y100.11
X101.499Y100.073
X101.5Y100.036
X101.501Y100
Y-100
X101.5Y-100.036
X101.499Y-100.073
X101.496Y-100.11
X101.493Y-100.147
X101.489Y-100.183
X101.484Y-100.22
X101.478Y-100.256
X101.472Y-100.293
X101.464Y-100.329
X101.455Y-100.364
X101.446Y-100.4
X101.436Y-100.435
X101.425Y-100.47
X101.413Y-100.505
X101.4Y-100.54
X101.386Y-100.574
X101.372Y-100.608
X101.356Y-100.641
X101.34Y-100.674
X101.323Y-100.707
X101.306Y-100.739
X101.287Y-100.771
X101.268Y-100.802
X101.248Y-100.833
X101.227Y-100.864
X101.205Y-100.893
X101.183Y-100.923
X101.16Y-100.951
X101.136Y-100.98
X101.112Y-101.007
X101.087Y-101.034
X101.061Y-101.061
X101.034Y-101.087
X101.007Y-101.112
X100.98Y-101.136
X100.951Y-101.16
X100.923Y-101.183
X100.893Y-101.205
X100.864Y-101.227
X100.833Y-101.248
X100.802Y-101.268
X100.771Y-101.287
X100.739Y-101.306
X100.707Y-101.323
X100.674Y-101.34
X100.641Y-101.356
X100.608Y-101.372
X100.574Y-101.386
X100.54Y-101.4
X100.505Y-101.413
X100.47Y-101.425
X100.435Y-101.436
X100.4Y-101.446
X100.364Y-101.455
X100.329Y-101.464
X100.292Y-101.472
X100.256Y-101.478
X100.22Y-101.484
X100.183Y-101.489
X100.147Y-101.493
X100.11Y-101.496
X100.073Y-101.499
X100.036Y-101.5
X100Y-101.501
X-100
X-100.036Y-101.5
X-100.073Y-101.499
X-100.11Y-101.496
X-100.147Y-101.493
X-100.183Y-101.489
X-100.22Y-101.484
X-100.256Y-101.478
X-100.293Y-101.472
X-100.329Y-101.464
X-100.364Y-101.455
X-100.4Y-101.446
X-100.435Y-101.436
X-100.47Y-101.425
X-100.505Y-101.413
X-100.54Y-101.4
X-100.574Y-101.386
X-100.608Y-101.372
X-100.641Y-101.356
X-100.674Y-101.34
X-100.707Y-101.323
X-100.739Y-101.306
X-100.771Y-101.287
X-100.802Y-101.268
X-100.833Y-101.248
X-100.864Y-101.227
X-100.893Y-101.205
X-100.923Y-101.183
X-100.951Y-101.16
X-100.98Y-101.136
X-101.007Y-101.112
X-101.034Y-101.087
X-101.061Y-101.061
X-101.087Y-101.034
X-101.112Y-101.007
X-101.136Y-100.98
X-101.16Y-100.951
X-101.183Y-100.923
X-101.205Y-100.893
X-101.227Y-100.864
X-101.248Y-100.833
X-101.268Y-100.802
X-101.287Y-100.771
X-101.306Y-100.739
X-101.323Y-100.707
X-101.34Y-100.674
X-101.356Y-100.641
X-101.372Y-100.608
X-101.386Y-100.574
X-101.4Y-100.54
X-101.413Y-100.505
X-101.425Y-100.47
X-101.436Y-100.435
X-101.446Y-100.4
X-101.455Y-100.364
X-101.464Y-100.329
X-101.472Y-100.292
X-101.478Y-100.256
X-101.484Y-100.22
X-101.489Y-100.183
X-101.493Y-100.147
X-101.496Y-100.11
X-101.499Y-100.073
X-101.5Y-100.036
X-101.501Y-100
Y100
X-101.5Y100.036
X-101.499Y100.073
X-101.496Y100.11
X-101.493Y100.147
X-101.489Y100.183
X-101.484Y100.22
X-101.478Y100.256
X-101.472Y100.293
X-101.464Y100.329
X-101.455Y100.364
X-101.446Y100.4
X-101.436Y100.435
X-101.425Y100.47
X-101.413Y100.505
X-101.4Y100.54
X-101.386Y100.574
X-101.372Y100.608
X-101.356Y100.641
X-101.34Y100.674
X-101.323Y100.707
X-101.306Y100.739
X-101.287Y100.771
X-101.268Y100.802
X-101.248Y100.833
X-101.227Y100.864
X-101.205Y100.893
X-101.183Y100.923
X-101.16Y100.951
X-101.136Y100.98
X-101.112Y101.007
X-101.087Y101.034
X-101.061Y101.061
X-101.034Y101.087
X-101.007Y101.112
X-100.98Y101.136
X-100.951Y101.16
X-100.923Y101.183
X-100.893Y101.205
X-100.864Y101.227
X-100.833Y101.248
X-100.802Y101.268
X-100.771Y101.287
X-100.739Y101.306
X-100.707Y101.323
X-100.674Y101.34
X-100.641Y101.356
X-100.608Y101.372
X-100.574Y101.386
X-100.54Y101.4
X-100.505Y101.413
X-100.47Y101.425
X-100.435Y101.436
X-100.4Y101.446
X-100.364Y101.455
X-100.329Y101.464
X-100.292Y101.472
X-100.256Y101.478
X-100.22Y101.484
X-100.183Y101.489
X-100.147Y101.493
X-100.11Y101.496
X-100.073Y101.499
X-100.036Y101.5
X-100Y101.501
Z-8F500
X100F1000
X100.036Y101.5
X100.073Y101.499
X100.11Y101.496
X100.147Y101.493
X100.183Y101.489
X100.22Y101.484
X100.256Y101.478
X100.293Y101.472
X100.329Y101.464
X100.364Y101.455
X100.4Y101.446
X100.435Y101.436
X100.47Y101.425
X100.505Y101.413
X100.54Y101.4
X100.574Y101.386
X100.608Y101.372
X100.641Y101.356
X100.674Y101.34
X100.707Y101.323
X100.739Y101.306
X100.771Y101.287
X100.802Y101.268
X100.833Y101.248
X100.864Y101.227
X100.893Y101.205
X100.923Y101.183
X100.951Y101.16
X100.98Y101.136
X101.007Y101.112
X101.034Y101.087
X101.061Y101.061
X101.087Y101.034
X101.112Y101.007
X101.136Y100.98
X101.16Y100.951
X101.183Y100.923
X101.205Y100.893
X101.227Y100.864
X101.248Y100.833
X101.268Y100.802
X101.287Y100.771
X101.306Y100.739
X101.323Y100.707
X101.34Y100.674
X101.356Y100.641
X101.372Y100.608
X101.386Y100.574
X101.4Y100.54
X101.413Y100.505
X101.425Y100.47
X101.436Y100.435
X101.446Y100.4
X101.455Y100.364
X101.464Y100.329
X101.472Y100.292
X101.478Y100.256
X101.484Y100.22
X101.489Y100.183
X101.493Y100.147
X101.496Y100.11
X101.499Y100.073
X101.5Y100.036
X101.501Y100
Y-100
X101.5Y-100.036
X101.499Y-100.073
X101.496Y-100.11
X101.493Y-100.147
X101.489Y-100.183
X101.484Y-100.22
X101.478Y-100.256
X101.472Y-100.293
X101.464Y-100.329
X101.455Y-100.364
X101.446Y-100.4
X101.436Y-100.435
X101.425Y-100.47
X101.413Y-100.505
X101.4Y-100.54
X101.386Y-100.574
X101.372Y-100.608
X101.356Y-100.641
X101.34Y-100.674
X101.323Y-100.707
X101.306Y-100.739
X101.287Y-100.771
X101.268Y-100.802
X101.248Y-100.833
X101.227Y-100.864
X101.205Y-100.893
X101.183Y-100.923
X101.16Y-100.951
X101.136Y-100.98
X101.112Y-101.007
X101.087Y-101.034
X101.061Y-101.061
X101.034Y-101.087
X101.007Y-101.112
X100.98Y-101.136
X100.951Y-101.16
X100.923Y-101.183
X100.893Y-101.205
X100.864Y-101.227
X100.833Y-101.248
X100.802Y-101.268
X100.771Y-101.287
X100.739Y-101.306
X100.707Y-101.323
X100.674Y-101.34
X100.641Y-101.356
X100.608Y-101.372
X100.574Y-101.386
X100.54Y-101.4
X100.505Y-101.413
X100.47Y-101.425
X100.435Y-101.436
X100.4Y-101.446
X100.364Y-101.455
X100.329Y-101.464
X100.292Y-101.472
X100.256Y-101.478
X100.22Y-101.484
X100.183Y-101.489
X100.147Y-101.493
X100.11Y-101.496
X100.073Y-101.499
X100.036Y-101.5
X100Y-101.501
X-100
X-100.036Y-101.5
X-100.073Y-101.499
X-100.11Y-101.496
X-100.147Y-101.493
X-100.183Y-101.489
X-100.22Y-101.484
X-100.256Y-101.478
X-100.293Y-101.472
X-100.329Y-101.464
X-100.364Y-101.455
X-100.4Y-101.446
X-100.435Y-101.436
X-100.47Y-101.425
X-100.505Y-101.413
X-100.54Y-101.4
X-100.574Y-101.386
X-100.608Y-101.372
X-100.641Y-101.356
X-100.674Y-101.34
X-100.707Y-101.323
X-100.739Y-101.306
X-100.771Y-101.287
X-100.802Y-101.268
X-100.833Y-101.248
X-100.864Y-101.227
X-100.893Y-101.205
X-100.923Y-101.183
X-100.951Y-101.16
X-100.98Y-101.136
X-101.007Y-101.112
X-101.034Y-101.087
X-101.061Y-101.061
X-101.087Y-101.034
X-101.112Y-101.007
X-101.136Y-100.98
X-101.16Y-100.951
X-101.183Y-100.923
X-101.205Y-100.893
X-101.227Y-100.864
X-101.248Y-100.833
X-101.268Y-100.802
X-101.287Y-100.771
X-101.306Y-100.739
X-101.323Y-100.707
X-101.34Y-100.674
X-101.356Y-100.641
X-101.372Y-100.608
X-101.386Y-100.574
X-101.4Y-100.54
X-101.413Y-100.505
X-101.425Y-100.47
X-101.436Y-100.435
X-101.446Y-100.4
X-101.455Y-100.364
X-101.464Y-100.329
X-101.472Y-100.292
X-101.478Y-100.256
X-101.484Y-100.22
X-101.489Y-100.183
X-101.493Y-100.147
X-101.496Y-100.11
X-101.499Y-100.073
X-101.5Y-100.036
X-101.501Y-100
Y100
X-101.5Y100.036
X-101.499Y100.073
X-101.496Y100.11
X-101.493Y100.147
X-101.489Y100.183
X-101.484Y100.22
X-101.478Y100.256
X-101.472Y100.293
X-101.464Y100.329
X-101.455Y100.364
X-101.446Y100.4
X-101.436Y100.435
X-101.425Y100.47
X-101.413Y100.505
X-101.4Y100.54
X-101.386Y100.574
X-101.372Y100.608
X-101.356Y100.641
X-101.34Y100.674
X-101.323Y100.707
X-101.306Y100.739
X-101.287Y100.771
X-101.268Y100.802
X-101.248Y100.833
X-101.227Y100.864
X-101.205Y100.893
X-101.183Y100.923
X-101.16Y100.951
X-101.136Y100.98
X-101.112Y101.007
X-101.087Y101.034
X-101.061Y101.061
X-101.034Y101.087
X-101.007Y101.112
X-100.98Y101.136
X-100.951Y101.16
X-100.923Y101.183
X-100.893Y101.205
X-100.864Y101.227
X-100.833Y101.248
X-100.802Y101.268
X-100.771Y101.287
X-100.739Y101.306
X-100.707Y101.323
X-100.674Y101.34
X-100.641Y101.356
X-100.608Y101.372
X-100.574Y101.386
X-100.54Y101.4
X-100.505Y101.413
X-100.47Y101.425
X-100.435Y101.436
X-100.4Y101.446
X-100.364Y101.455
X-100.329Y101.464
X-100.292Y101.472
X-100.256Y101.478
X-100.22Y101.484
X-100.183Y101.489
X-100.147Y101.493
X-100.11Y101.496
X-100.073Y101.499
X-100.036Y101.5
X-100Y101.501
Z-9F500
X100F1000
X100.036Y101.5
X100.073Y101.499
X100.11Y101.496
X100.147Y101.493
X100.183Y101.489
X100.22Y101.484
X100.256Y101.478
X100.293Y101.472
X100.329Y101.464
X100.364Y101.455
X100.4Y101.446
X100.435Y101.436
X100.47Y101.425
X100.505Y101.413
X100.54Y101.4
X100.574Y101.386
X100.608Y101.372
X100.641Y101.356
X100.674Y101.34
X100.707Y101.323
X100.739Y101.306
X100.771Y101.287
X100.802Y101.268
X100.833Y101.248
X100.864Y101.227
X100.893Y101.205
X100.923Y101.183
X100.951Y101.16
X100.98Y101.136
X101.007Y101.112
X101.034Y101.087
X101.061Y101.061
X101.087Y101.034
X101.112Y101.007
X101.136Y100.98
X101.16Y100.951
X101.183Y100.923
X101.205Y100.893
X101.227Y100.864
X101.248Y100.833
X101.268Y100.802
X101.287Y100.771
X101.306Y100.739
X101.323Y100.707
X101.34Y100.674
X101.356Y100.641
X101.372Y100.608
X101.386Y100.574
X101.4Y100.54
X101.413Y100.505
X101.425Y100.47
X101.436Y100.435
X101.446Y100.4
X101.455Y100.364
X101.464Y100.329
X101.472Y100.292
X101.478Y100.256
X101.484Y100.22
X101.489Y100.183
X101.493Y100.147
X101.496Y100.11
X101.499Y100.073
X101.5Y100.036
X101.501Y100
Y-100
X101.5Y-100.036
X101.499Y-100.073
X101.496Y-100.11
X101.493Y-100.147
X101.489Y-100.183
X101.484Y-100.22
X101.478Y-100.256
X101.472Y-100.293
X101.464Y-100.329
X101.455Y-100.364
X101.446Y-100.4
X101.436Y-100.435
X101.425Y-100.47
X101.413Y-100.505
X101.4Y-100.54
X101.386Y-100.574
X101.372Y-100.608
X101.356Y-100.641
X101.34Y-100.674
X101.323Y-100.707
X101.306Y-100.739
X101.287Y-100.771
X101.268Y-100.802
X101.248Y-100.833
X101.227Y-100.864
X101.205Y-100.893
X101.183Y-100.923
X101.16Y-100.951
X101.136Y-100.98
X101.112Y-101.007
X101.087Y-101.034
X101.061Y-101.061
X101.034Y-101.087
X101.007Y-101.112
X100.98Y-101.136
X100.951Y-101.16
X100.923Y-101.183
X100.893Y-101.205
X100.864Y-101.227
X100.833Y-101.248
X100.802Y-101.268
X100.771Y-101.287
X100.739Y-101.306
X100.707Y-101.323
X100.674Y-101.34
X100.641Y-101.356
X100.608Y-101.372
X100.574Y-101.386
X100.54Y-101.4
X100.505Y-101.413
X100.47Y-101.425
X100.435Y-101.436
X100.4Y-101.446
X100.364Y-101.455
X100.329Y-101.464
X100.292Y-101.472
X100.256Y-101.478
X100.22Y-101.484
X100.183Y-101.489
X100.147Y-101.493
X100.11Y-101.496
X100.073Y-101.499
X100.036Y-101.5
X100Y-101.501
X-100
X-100.036Y-101.5
X-100.073Y-101.499
X-100.11Y-101.496
X-100.147Y-101.493
X-100.183Y-101.489
X-100.22Y-101.484
X-100.256Y-101.478
X-100.293Y-101.472
X-100.329Y-101.464
X-100.364Y-101.455
X-100.4Y-101.446
X-100.435Y-101.436
X-100.47Y-101.425
X-100.505Y-101.413
X-100.54Y-101.4
X-100.574Y-101.386
X-100.608Y-101.372
X-100.641Y-101.356
X-100.674Y-101.34
X-100.707Y-101.323
X-100.739Y-101.306
X-100.771Y-101.287
X-100.802Y-101.268
X-100.833Y-101.248
X-100.864Y-101.227
X-100.893Y-101.205
X-100.923Y-101.183
X-100.951Y-101.16
X-100.98Y-101.136
X-101.007Y-101.112
X-101.034Y-101.087
X-101.061Y-101.061
X-101.087Y-101.034
X-101.112Y-101.007
X-101.136Y-100.98
X-101.16Y-100.951
X-101.183Y-100.923
X-101.205Y-100.893
X-101.227Y-100.864
X-101.248Y-100.833
X-101.268Y-100.802
X-101.287Y-100.771
X-101.306Y-100.739
X-101.323Y-100.707
X-101.34Y-100.674
X-101.356Y-100.641
X-101.372Y-100.608
X-101.386Y-100.574
X-101.4Y-100.54
X-101.413Y-100.505
X-101.425Y-100.47
X-101.436Y-100.435
X-101.446Y-100.4
X-101.455Y-100.364
X-101.464Y-100.329
X-101.472Y-100.292
X-101.478Y-100.256
X-101.484Y-100.22
X-101.489Y-100.183
X-101.493Y-100.147
X-101.496Y-100.11
X-101.499Y-100.073
X-101.5Y-100.036
X-101.501Y-100
Y100
X-101.5Y100.036
X-101.499Y100.073
X-101.496Y100.11
X-101.493Y100.147
X-101.489Y100.183
X-101.484Y100.22
X-101.478Y100.256
X-101.472Y100.293
X-101.464Y100.329
X-101.455Y100.364
X-101.446Y100.4
X-101.436Y100.435
X-101.425Y100.47
X-101.413Y100.505
X-101.4Y100.54
X-101.386Y100.574
X-101.372Y100.608
X-101.356Y100.641
X-101.34Y100.674
X-101.323Y100.707
X-101.306Y100.739
X-101.287Y100.771
X-101.268Y100.802
X-101.248Y100.833
X-101.227Y100.864
X-101.205Y100.893
X-101.183Y100.923
X-101.16Y100.951
X-101.136Y100.98
X-101.112Y101.007
X-101.087Y101.034
X-101.061Y101.061
X-101.034Y101.087
X-101.007Y101.112
X-100.98Y101.136
X-100.951Y101.16
X-100.923Y101.183
X-100.893Y101.205
X-100.864Y101.227
X-100.833Y101.248
X-100.802Y101.268
X-100.771Y101.287
X-100.739Y101.306
X-100.707Y101.323
X-100.674Y101.34
X-100.641Y101.356
X-100.608Y101.372
X-100.574Y101.386
X-100.54Y101.4
X-100.505Y101.413
X-100.47Y101.425
X-100.435Y101.436
X-100.4Y101.446
X-100.364Y101.455
X-100.329Y101.464
X-100.292Y101.472
X-100.256Y101.478
X-100.22Y101.484
X-100.183Y101.489
X-100.147Y101.493
X-100.11Y101.496
X-100.073Y101.499
X-100.036Y101.5
X-100Y101.501
Z-10F500
X100F1000
X100.036Y101.5
X100.073Y101.499
X100.11Y101.496
X100.147Y101.493
X100.183Y101.489
X100.22Y101.484
X100.256Y101.478
X100.293Y101.472
X100.329Y101.464
X100.364Y101.455
X100.4Y101.446
X100.435Y101.436
X100.47Y101.425
X100.505Y101.413
X100.54Y101.4
X100.574Y101.386
X100.608Y101.372
X100.641Y101.356
X100.674Y101.34
X100.707Y101.323
X100.739Y101.306
X100.771Y101.287
X100.802Y101.268
X100.833Y101.248
X100.864Y101.227
X100.893Y101.205
X100.923Y101.183
X100.951Y101.16
X100.98Y101.136
X101.007Y101.112
X101.034Y101.087
X101.061Y101.061
X101.087Y101.034
X101.112Y101.007
X101.136Y100.98
X101.16Y100.951
X101.183Y100.923
X101.205Y100.893
X101.227Y100.864
X101.248Y100.833
X101.268Y100.802
X101.287Y100.771
X101.306Y100.739
X101.323Y100.707
X101.34Y100.674
X101.356Y100.641
X101.372Y100.608
X101.386Y100.574
X101.4Y100.54
X101.413Y100.505
X101.425Y100.47
X101.436Y100.435
X101.446Y100.4
X101.455Y100.364
X101.464Y100.329
X101.472Y100.292
X101.478Y100.256
X101.484Y100.22
X101.489Y100.183
X101.493Y100.147
X101.496Y100.11
X101.499Y100.073
X101.5Y100.036
X101.501Y100
Y-100
X101.5Y-100.036
X101.499Y-100.073
X101.496Y-100.11
X101.493Y-100.147
X101.489Y-100.183
X101.484Y-100.22
X101.478Y-100.256
X101.472Y-100.293
X101.464Y-100.329
X101.455Y-100.364
X101.446Y-100.4
X101.436Y-100.435
X101.425Y-100.47
X101.413Y-100.505
X101.4Y-100.54
X101.386Y-100.574
X101.372Y-100.608
X101.356Y-100.641
X101.34Y-100.674
X101.323Y-100.707
X101.306Y-100.739
X101.287Y-100.771
X101.268Y-100.802
X101.248Y-100.833
X101.227Y-100.864
X101.205Y-100.893
X101.183Y-100.923
X101.16Y-100.951
X101.136Y-100.98
X101.112Y-101.007
X101.087Y-101.034
X101.061Y-101.061
X101.034Y-101.087
X101.007Y-101.112
X100.98Y-101.136
X100.951Y-101.16
X100.923Y-101.183
X100.893Y-101.205
X100.864Y-101.227
X100.833Y-101.248
X100.802Y-101.268
X100.771Y-101.287
X100.739Y-101.306
X100.707Y-101.323
X100.674Y-101.34
X100.641Y-101.356
X100.608Y-101.372
X100.574Y-101.386
X100.54Y-101.4
X100.505Y-101.413
X100.47Y-101.425
X100.435Y-101.436
X100.4Y-101.446
X100.364Y-101.455
X100.329Y-101.464
X100.292Y-101.472
X100.256Y-101.478
X100.22Y-101.484
X100.183Y-101.489
X100.147Y-101.493
X100.11Y-101.496
X100.073Y-101.499
X100.036Y-101.5
X100Y-101.501
X-100
X-100.036Y-101.5
X-100.073Y-101.499
X-100.11Y-101.496
X-100.147Y-101.493
X-100.183Y-101.489
X-100.22Y-101.484
X-100.256Y-101.478
X-100.293Y-101.472
X-100.329Y-101.464
X-100.364Y-101.455
X-100.4Y-101.446
X-100.435Y-101.436
X-100.47Y-101.425
X-100.505Y-101.413
X-100.54Y-101.4
X-100.574Y-101.386
X-100.608Y-101.372
X-100.641Y-101.356
X-100.674Y-101.34
X-100.707Y-101.323
X-100.739Y-101.306
X-100.771Y-101.287
X-100.802Y-101.268
X-100.833Y-101.248
X-100.864Y-101.227
X-100.893Y-101.205
X-100.923Y-101.183
X-100.951Y-101.16
X-100.98Y-101.136
X-101.007Y-101.112
X-101.034Y-101.087
X-101.061Y-101.061
X-101.087Y-101.034
X-101.112Y-101.007
X-101.136Y-100.98
X-101.16Y-100.951
X-101.183Y-100.923
X-101.205Y-100.893
X-101.227Y-100.864
X-101.248Y-100.833
X-101.268Y-100.802
X-101.287Y-100.771
X-101.306Y-100.739
X-101.323Y-100.707
X-101.34Y-100.674
X-101.356Y-100.641
X-101.372Y-100.608
X-101.386Y-100.574
X-101.4Y-100.54
X-101.413Y-100.505
X-101.425Y-100.47
X-101.436Y-100.435
X-101.446Y-100.4
X-101.455Y-100.364
X-101.464Y-100.329
X-101.472Y-100.292
X-101.478Y-100.256
X-101.484Y-100.22
X-101.489Y-100.183
X-101.493Y-100.147
X-101.496Y-100.11
X-101.499Y-100.073
X-101.5Y-100.036
X-101.501Y-100
Y100
X-101.5Y100.036
X-101.499Y100.073
X-101.496Y100.11
X-101.493Y100.147
X-101.489Y100.183
X-101.484Y100.22
X-101.478Y100.256
X-101.472Y100.293
X-101.464Y100.329
X-101.455Y100.364
X-101.446Y100.4
X-101.436Y100.435
X-101.425Y100.47
X-101.413Y100.505
X-101.4Y100.54
X-101.386Y100.574
X-101.372Y100.608
X-101.356Y100.641
X-101.34Y100.674
X-101.323Y100.707
X-101.306Y100.739
X-101.287Y100.771
X-101.268Y100.802
X-101.248Y100.833
X-101.227Y100.864
X-101.205Y100.893
X-101.183Y100.923
X-101.16Y100.951
X-101.136Y100.98
X-101.112Y101.007
X-101.087Y101.034
X-101.061Y101.061
X-101.034Y101.087
X-101.007Y101.112
X-100.98Y101.136
X-100.951Y101.16
X-100.923Y101.183
X-100.893Y101.205
X-100.864Y101.227
X-100.833Y101.248
X-100.802Y101.268
X-100.771Y101.287
X-100.739Y101.306
X-100.707Y101.323
X-100.674Y101.34
X-100.641Y101.356
X-100.608Y101.372
X-100.574Y101.386
X-100.54Y101.4
X-100.505Y101.413
X-100.47Y101.425
X-100.435Y101.436
X-100.4Y101.446
X-100.364Y101.455
X-100.329Y101.464
X-100.292Y101.472
X-100.256Y101.478
X-100.22Y101.484
X-100.183Y101.489
X-100.147Y101.493
X-100.11Y101.496
X-100.073Y101.499
X-100.036Y101.5
X-100Y101.501
G0Z10
 
