(Created with grbl post processor 2024/02/05 19:50)
G21
(G-code generated with BlenderCAM and NC library)
G17G90
S12000M03
G00 Z10.0

G0X0Y0Z10
X3.1Y0.1
G1Z-0.373F500
X3.5Y0.5Z-1.866
X3.7Y0.7Z-2F1000
X4Y1
Y26.28
X5.92
Y15.4
Y15.375
X5.921Y15.35
X5.922Y15.326
X5.924Y15.301
X5.927Y15.277
X5.93Y15.253
X5.934Y15.229
X5.939Y15.204
X5.944Y15.18
X5.949Y15.157
X5.956Y15.133
X5.963Y15.109
X5.97Y15.086
X5.978Y15.063
X5.987Y15.04
X5.996Y15.017
X6.005Y14.994
X6.016Y14.972
X6.026Y14.95
X6.038Y14.928
X6.049Y14.907
X6.062Y14.885
X6.075Y14.865
X6.088Y14.844
X6.102Y14.824
X6.116Y14.804
X6.131Y14.784
X6.146Y14.765
X6.162Y14.746
X6.179Y14.728
X6.195Y14.71
X6.212Y14.692
X6.23Y14.675
X6.248Y14.659
X6.266Y14.642
X6.285Y14.626
X6.304Y14.611
X6.324Y14.596
X6.344Y14.582
X6.364Y14.568
X6.385Y14.555
X6.405Y14.542
X6.427Y14.529
X6.448Y14.518
X6.47Y14.506
X6.492Y14.496
X6.514Y14.485
X6.537Y14.476
X6.56Y14.467
X6.583Y14.458
X6.606Y14.45
X6.629Y14.443
X6.653Y14.436
X6.677Y14.429
X6.7Y14.424
X6.724Y14.419
X6.749Y14.414
X6.773Y14.41
X6.797Y14.407
X6.821Y14.404
X6.846Y14.402
X6.87Y14.401
X6.895Y14.4
X6.92
X22.2
X22.224
X22.249Y14.401
X22.273Y14.402
X22.298Y14.404
X22.322Y14.407
X22.346Y14.41
X22.37Y14.414
X22.395Y14.419
X22.419Y14.424
X22.442Y14.429
X22.466Y14.436
X22.49Y14.443
X22.513Y14.45
X22.536Y14.458
X22.559Y14.467
X22.582Y14.476
X22.605Y14.485
X22.627Y14.496
X22.649Y14.506
X22.671Y14.518
X22.692Y14.529
X22.714Y14.542
X22.734Y14.555
X22.755Y14.568
X22.775Y14.582
X22.795Y14.596
X22.815Y14.611
X22.834Y14.626
X22.853Y14.642
X22.871Y14.659
X22.889Y14.675
X22.907Y14.692
X22.924Y14.71
X22.94Y14.728
X22.957Y14.746
X22.973Y14.765
X22.988Y14.784
X23.003Y14.804
X23.017Y14.824
X23.031Y14.844
X23.044Y14.865
X23.057Y14.885
X23.07Y14.907
X23.081Y14.928
X23.093Y14.95
X23.103Y14.972
X23.114Y14.994
X23.123Y15.017
X23.132Y15.04
X23.141Y15.063
X23.149Y15.086
X23.156Y15.109
X23.163Y15.133
X23.17Y15.157
X23.175Y15.18
X23.18Y15.204
X23.185Y15.229
X23.189Y15.253
X23.192Y15.277
X23.195Y15.301
X23.197Y15.326
X23.198Y15.35
X23.199Y15.375
X23.2Y15.4
Y26.28
X25.12
Y1
X23.2
Y11.88
X23.199Y11.904
X23.198Y11.929
X23.197Y11.953
X23.195Y11.978
X23.192Y12.002
X23.189Y12.026
X23.185Y12.05
X23.18Y12.075
X23.175Y12.099
X23.17Y12.122
X23.163Y12.146
X23.156Y12.17
X23.149Y12.193
X23.141Y12.216
X23.132Y12.239
X23.123Y12.262
X23.114Y12.285
X23.103Y12.307
X23.093Y12.329
X23.081Y12.351
X23.07Y12.372
X23.057Y12.394
X23.044Y12.414
X23.031Y12.435
X23.017Y12.455
X23.003Y12.475
X22.988Y12.495
X22.973Y12.514
X22.957Y12.533
X22.94Y12.551
X22.924Y12.569
X22.907Y12.587
X22.889Y12.604
X22.871Y12.62
X22.853Y12.637
X22.834Y12.653
X22.815Y12.668
X22.795Y12.683
X22.775Y12.697
X22.755Y12.711
X22.734Y12.724
X22.714Y12.737
X22.692Y12.75
X22.671Y12.761
X22.649Y12.773
X22.627Y12.783
X22.605Y12.794
X22.582Y12.803
X22.559Y12.812
X22.536Y12.821
X22.513Y12.829
X22.49Y12.836
X22.466Y12.843
X22.442Y12.85
X22.419Y12.855
X22.395Y12.86
X22.37Y12.865
X22.346Y12.869
X22.322Y12.872
X22.298Y12.875
X22.273Y12.877
X22.249Y12.878
X22.224Y12.879
X22.2Y12.88
X6.92
X6.895Y12.879
X6.87Y12.878
X6.846Y12.877
X6.821Y12.875
X6.797Y12.872
X6.773Y12.869
X6.749Y12.865
X6.724Y12.86
X6.7Y12.855
X6.677Y12.85
X6.653Y12.843
X6.629Y12.836
X6.606Y12.829
X6.583Y12.821
X6.56Y12.812
X6.537Y12.803
X6.514Y12.794
X6.492Y12.783
X6.47Y12.773
X6.448Y12.761
X6.427Y12.75
X6.405Y12.737
X6.385Y12.724
X6.364Y12.711
X6.344Y12.697
X6.324Y12.683
X6.304Y12.668
X6.285Y12.653
X6.266Y12.637
X6.248Y12.62
X6.23Y12.604
X6.212Y12.587
X6.195Y12.569
X6.179Y12.551
X6.162Y12.533
X6.146Y12.514
X6.131Y12.495
X6.116Y12.475
X6.102Y12.455
X6.088Y12.435
X6.075Y12.414
X6.062Y12.394
X6.049Y12.372
X6.038Y12.351
X6.026Y12.329
X6.016Y12.307
X6.005Y12.285
X5.996Y12.262
X5.987Y12.239
X5.978Y12.216
X5.97Y12.193
X5.963Y12.17
X5.956Y12.146
X5.949Y12.122
X5.944Y12.099
X5.939Y12.075
X5.934Y12.05
X5.93Y12.026
X5.927Y12.002
X5.924Y11.978
X5.922Y11.953
X5.921Y11.929
X5.92Y11.904
Y11.88
Y1
X4
G0Z10
X5.92
G1Z-2F500
X6.22Y0.7F1000
X6.42Y0.5Z-1.866
X6.82Y0.1Z-0.373
G0Z10
X22.299
G1Z-0.373F500
X22.7Y0.5Z-1.866
X22.9Y0.7Z-2F1000
X23.2Y1
G0Z10
X25.12
G1Z-2F500
X25.42Y0.7F1000
X25.62Y0.5Z-1.866
X26.02Y0.1Z-0.373
G0Z10
X33.055Y4.307
G1Z-2F500
X32.958Y4.477F1000
X32.866Y4.65
X32.777Y4.825
X32.692Y5.004
X32.61Y5.185
X32.533Y5.368
X32.459Y5.554
X32.389Y5.742
X32.322Y5.932
X32.26Y6.125
X32.201Y6.319
X32.146Y6.516
X32.096Y6.714
X32.049Y6.914
X32.006Y7.115
X31.967Y7.318
X31.932Y7.523
X31.901Y7.729
X31.874Y7.936
X31.851Y8.144
X31.833Y8.354
X31.818Y8.564
X31.808Y8.775
X31.802Y8.987
X31.8Y9.199
X31.802Y9.433
X31.809Y9.664
X31.82Y9.892
X31.836Y10.118
X31.856Y10.34
X31.881Y10.559
X31.91Y10.775
X31.943Y10.988
X31.981Y11.199
X32.022Y11.406
X32.068Y11.609
X32.118Y11.81
X32.171Y12.008
X32.229Y12.202
X32.29Y12.393
X32.355Y12.58
X32.424Y12.765
X32.497Y12.946
X32.573Y13.124
X32.653Y13.298
X32.736Y13.469
X32.823Y13.636
X32.913Y13.801
X33.007Y13.961
X33.104Y14.118
X33.204Y14.272
X33.308Y14.422
X33.415Y14.569
X33.525Y14.712
X33.638Y14.852
X33.754Y14.988
X33.874Y15.12
X33.996Y15.249
X34.122Y15.375
X34.25Y15.496
X34.381Y15.614
X34.516Y15.729
X34.653Y15.839
X34.793Y15.946
X34.936Y16.049
X35.082Y16.149
X35.231Y16.245
X35.383Y16.337
X35.537Y16.425
X35.694Y16.509
X35.855Y16.589
X36.017Y16.666
X36.183Y16.738
X36.351Y16.806
X36.523Y16.871
X36.696Y16.931
X36.873Y16.987
X37.052Y17.039
X37.234Y17.087
X37.419Y17.13
X37.606Y17.169
X37.797Y17.204
X37.989Y17.234
X38.185Y17.26
X38.382Y17.281
X38.583Y17.298
X38.786Y17.31
X38.991Y17.317
X39.2Y17.319
X39.4Y17.317
X39.597Y17.311
X39.791Y17.3
X39.982Y17.285
X40.171Y17.266
X40.355Y17.243
X40.537Y17.216
X40.716Y17.185
X40.892Y17.149
X41.064Y17.11
X41.233Y17.066
X41.399Y17.019
X41.563Y16.967
X41.723Y16.912
X41.88Y16.853
X42.034Y16.79
X42.185Y16.723
X42.333Y16.652
X42.478Y16.577
X42.62Y16.498
X42.759Y16.415
X42.896Y16.328
X43.03Y16.238
X43.161Y16.143
X43.289Y16.044
X43.415Y15.941
X43.538Y15.834
X43.658Y15.722
X43.776Y15.606
X43.891Y15.486
X44.004Y15.362
X44.114Y15.232
X44.221Y15.099
X44.325Y14.96
X44.427Y14.817
X44.526Y14.67
X44.623Y14.517
X44.717Y14.36
X44.807Y14.197
X44.895Y14.03
X44.981Y13.857
X45.063Y13.68
X45.142Y13.497
X45.218Y13.309
X45.291Y13.116
X45.36Y12.918
X45.427Y12.714
X45.49Y12.506
X45.549Y12.291
X45.606Y12.072
X45.658Y11.847
X45.708Y11.617
X45.753Y11.382
X45.795Y11.141
X45.833Y10.895
X45.868Y10.644
X45.898Y10.387
X45.925Y10.125
X45.947Y9.857
X45.966Y9.584
X45.974Y9.44
X34.359
X34.335Y9.439
X34.311Y9.438
X34.286Y9.437
X34.262Y9.435
X34.238Y9.432
X34.213Y9.429
X34.189Y9.425
X34.165Y9.42
X34.141Y9.415
X34.118Y9.41
X34.094Y9.404
X34.071Y9.397
X34.047Y9.389
X34.024Y9.382
X34.001Y9.373
X33.979Y9.364
X33.956Y9.355
X33.934Y9.344
X33.912Y9.334
X33.89Y9.323
X33.869Y9.311
X33.848Y9.299
X33.827Y9.286
X33.806Y9.273
X33.786Y9.259
X33.766Y9.244
X33.747Y9.23
X33.728Y9.215
X33.709Y9.199
X33.691Y9.183
X33.673Y9.166
X33.655Y9.149
X33.638Y9.132
X33.621Y9.114
X33.605Y9.096
X33.589Y9.077
X33.574Y9.058
X33.559Y9.039
X33.545Y9.019
X33.531Y8.999
X33.517Y8.979
X33.504Y8.958
X33.492Y8.937
X33.48Y8.915
X33.469Y8.894
X33.458Y8.872
X33.448Y8.85
X33.438Y8.827
X33.429Y8.805
X33.42Y8.782
X33.412Y8.759
X33.404Y8.736
X33.397Y8.712
X33.391Y8.689
X33.385Y8.665
X33.38Y8.641
X33.375Y8.617
X33.371Y8.593
X33.368Y8.569
X33.365Y8.544
X33.363Y8.52
X33.361Y8.496
X33.36Y8.471
Y8.447
Y8.422
Y8.398
X33.362Y8.374
X33.364Y8.349
X33.366Y8.325
X33.369Y8.301
X33.373Y8.277
X33.403Y8.096
X33.435Y7.917
X33.47Y7.741
X33.508Y7.567
X33.548Y7.395
X33.59Y7.225
X33.635Y7.057
X33.683Y6.892
X33.733Y6.729
X33.786Y6.568
X33.841Y6.409
X33.9Y6.253
X33.96Y6.099
X34.024Y5.947
X34.09Y5.798
X34.15Y5.67
X34.159Y5.651
X34.221Y5.526
X34.231Y5.506
X34.295Y5.384
X34.306Y5.364
X34.372Y5.244
X34.383Y5.224
X34.451Y5.107
X34.463Y5.087
X34.533Y4.972
X34.546Y4.952
X34.619Y4.84
X34.632Y4.82
X34.706Y4.71
X34.72Y4.69
X34.797Y4.584
X34.812Y4.564
X34.891Y4.459
X34.906Y4.44
X34.987Y4.338
X35.003Y4.318
X35.086Y4.219
X35.103Y4.2
X35.188Y4.103
X35.205Y4.084
X35.292Y3.99
X35.31Y3.971
X35.4Y3.88
X35.418Y3.862
X35.51Y3.773
X35.529Y3.755
X35.622Y3.669
X35.642Y3.651
X35.738Y3.567
X35.758Y3.55
X35.856Y3.469
X35.876Y3.453
X35.976Y3.375
X35.997Y3.359
X36.099Y3.283
X36.121Y3.267
X36.225Y3.194
X36.247Y3.18
X36.353Y3.109
X36.375Y3.095
X36.483Y3.027
X36.505Y3.014
X36.616Y2.948
X36.638Y2.935
X36.751Y2.873
X36.773Y2.861
X36.888Y2.801
X36.911Y2.789
X37.028Y2.732
X37.05Y2.721
X37.169Y2.666
X37.192Y2.656
X37.313Y2.604
X37.335Y2.595
X37.458Y2.546
X37.481Y2.537
X37.606Y2.49
X37.628Y2.482
X37.756Y2.438
X37.778Y2.43
X37.907Y2.389
X37.929Y2.382
X38.061Y2.343
X38.082Y2.337
X38.216Y2.301
X38.237Y2.295
X38.373Y2.262
X38.394Y2.257
X38.553Y2.222
X38.713Y2.19
X38.875Y2.161
X39.038Y2.135
X39.204Y2.112
X39.371Y2.093
X39.54Y2.076
X39.71Y2.063
X39.882Y2.053
X40.056Y2.045
X40.231Y2.041
X40.405Y2.04
X40.518
X40.631Y2.042
X40.743Y2.046
X40.855Y2.05
X40.967Y2.056
X41.079Y2.063
X41.19Y2.072
X41.301Y2.081
X41.413Y2.092
X41.523Y2.104
X41.634Y2.118
X41.745Y2.132
X41.855Y2.148
X41.965Y2.165
X42.075Y2.184
X42.184Y2.203
X42.294Y2.224
X42.403Y2.245
X42.512Y2.268
X42.621Y2.293
X42.729Y2.318
X42.837Y2.344
X42.945Y2.372
X43.053Y2.4
X43.161Y2.43
X43.269Y2.461
X43.376Y2.493
X43.483Y2.526
X43.59Y2.56
X43.696Y2.595
X43.803Y2.632
X43.909Y2.669
X44.015Y2.707
X44.121Y2.747
X44.227Y2.787
X44.332Y2.828
X44.437Y2.871
X44.543Y2.914
X44.648Y2.959
X44.752Y3.004
X44.857Y3.05
X44.961Y3.097
X45.066Y3.146
X45.17Y3.195
X45.274Y3.245
X45.378Y3.296
X45.482Y3.348
X45.585Y3.401
X45.68Y3.45
Y2.305
X45.556Y2.229
X45.463Y2.172
X45.37Y2.117
X45.277Y2.063
X45.184Y2.01
X45.092Y1.958
X45Y1.908
X44.907Y1.858
X44.815Y1.81
X44.723Y1.762
X44.631Y1.716
X44.54Y1.671
X44.448Y1.627
X44.356Y1.584
X44.263Y1.542
X44.171Y1.501
X44.079Y1.461
X43.986Y1.422
X43.893Y1.384
X43.8Y1.347
X43.706Y1.311
X43.612Y1.276
X43.518Y1.242
X43.423Y1.209
X43.328Y1.177
X43.232Y1.146
X43.136Y1.115
X43.039Y1.086
X42.941Y1.058
X42.843Y1.031
X42.744Y1.004
X42.644Y0.979
X42.544Y0.954
X42.442Y0.931
X42.34Y0.908
X42.237Y0.886
X42.132Y0.865
X42.027Y0.845
X41.921Y0.826
X41.814Y0.808
X41.705Y0.791
X41.595Y0.775
X41.484Y0.759
X41.372Y0.745
X41.259Y0.731
X41.144Y0.719
X41.028Y0.707
X40.911Y0.696
X40.792Y0.687
X40.672Y0.678
X40.55Y0.67
X40.427Y0.663
X40.302Y0.656
X40.176Y0.651
X40.048Y0.647
X39.918Y0.644
X39.787Y0.641
X39.654Y0.64
X39.524
X39.285Y0.643
X39.054Y0.652
X38.827Y0.666
X38.604Y0.687
X38.385Y0.713
X38.169Y0.745
X37.958Y0.782
X37.75Y0.824
X37.546Y0.871
X37.346Y0.924
X37.149Y0.981
X36.956Y1.044
X36.767Y1.111
X36.581Y1.183
X36.399Y1.259
X36.221Y1.341
X36.046Y1.426
X35.874Y1.516
X35.706Y1.61
X35.541Y1.709
X35.379Y1.812
X35.221Y1.918
X35.067Y2.029
X34.915Y2.144
X34.768Y2.263
X34.623Y2.386
X34.482Y2.513
X34.344Y2.643
X34.21Y2.777
X34.079Y2.915
X33.951Y3.056
X33.827Y3.201
X33.706Y3.349
X33.589Y3.501
X33.475Y3.656
X33.364Y3.814
X33.258Y3.975
X33.154Y4.139
X33.055Y4.307
G0Z10
X34.22Y9.824
G1Z-2F500
X34.244Y9.819F1000
X34.268Y9.814
X34.293Y9.81
X34.317Y9.807
X34.341Y9.804
X34.366Y9.802
X34.39Y9.801
X34.415Y9.8
X34.44
X43.479
X43.504
X43.529Y9.801
X43.553Y9.802
X43.578Y9.804
X43.602Y9.807
X43.627Y9.81
X43.651Y9.814
X43.675Y9.819
X43.699Y9.824
X43.723Y9.83
X43.747Y9.836
X43.77Y9.843
X43.794Y9.85
X43.817Y9.858
X43.84Y9.867
X43.863Y9.876
X43.886Y9.886
X43.908Y9.896
X43.93Y9.907
X43.952Y9.918
X43.973Y9.93
X43.995Y9.942
X44.016Y9.955
X44.036Y9.969
X44.056Y9.983
X44.076Y9.997
X44.096Y10.012
X44.115Y10.027
X44.134Y10.043
X44.152Y10.06
X44.17Y10.076
X44.188Y10.094
X44.205Y10.111
X44.222Y10.129
X44.238Y10.148
X44.254Y10.167
X44.269Y10.186
X44.284Y10.205
X44.298Y10.225
X44.312Y10.246
X44.326Y10.266
X44.338Y10.287
X44.351Y10.309
X44.363Y10.33
X44.374Y10.352
X44.385Y10.374
X44.395Y10.397
X44.404Y10.419
X44.413Y10.442
X44.422Y10.465
X44.43Y10.488
X44.437Y10.512
X44.444Y10.535
X44.45Y10.559
X44.456Y10.583
X44.461Y10.607
X44.465Y10.631
X44.469Y10.656
X44.472Y10.68
X44.475Y10.705
X44.477Y10.729
X44.478Y10.754
X44.479Y10.778
Y10.803
Y10.827
X44.478Y10.852
X44.47Y10.996
X44.46Y11.139
X44.448Y11.281
X44.433Y11.421
X44.415Y11.56
X44.395Y11.698
X44.373Y11.834
X44.348Y11.97
X44.321Y12.103
X44.291Y12.236
X44.259Y12.367
X44.224Y12.497
X44.187Y12.625
X44.147Y12.751
X44.105Y12.877
X44.068Y12.979
X44.06Y13
X44.021Y13.101
X44.013Y13.122
X43.972Y13.222
X43.963Y13.243
X43.92Y13.34
X43.911Y13.361
X43.866Y13.457
X43.856Y13.478
X43.809Y13.572
X43.798Y13.594
X43.75Y13.686
X43.739Y13.707
X43.688Y13.798
X43.676Y13.819
X43.624Y13.907
X43.611Y13.929
X43.557Y14.015
X43.543Y14.036
X43.488Y14.121
X43.473Y14.142
X43.416Y14.225
X43.401Y14.246
X43.341Y14.327
X43.326Y14.348
X43.264Y14.427
X43.248Y14.447
X43.185Y14.524
X43.168Y14.544
X43.103Y14.62
X43.086Y14.64
X43.019Y14.713
X43.001Y14.732
X42.932Y14.803
X42.913Y14.823
X42.843Y14.892
X42.824Y14.91
X42.752Y14.978
X42.732Y14.996
X42.658Y15.061
X42.638Y15.079
X42.562Y15.142
X42.541Y15.159
X42.464Y15.22
X42.442Y15.237
X42.364Y15.296
X42.342Y15.312
X42.261Y15.369
X42.239Y15.384
X42.157Y15.439
X42.134Y15.454
X42.05Y15.506
X42.027Y15.52
X41.941Y15.571
X41.918Y15.584
X41.831Y15.632
X41.807Y15.645
X41.718Y15.691
X41.694Y15.703
X41.604Y15.747
X41.58Y15.758
X41.488Y15.8
X41.463Y15.811
X41.37Y15.85
X41.346Y15.86
X41.251Y15.897
X41.226Y15.906
X41.129Y15.941
X41.105Y15.949
X41.007Y15.982
X40.982Y15.99
X40.883Y16.02
X40.858Y16.027
X40.757Y16.055
X40.733Y16.061
X40.63Y16.087
X40.606Y16.092
X40.501Y16.116
X40.477Y16.121
X40.372Y16.141
X40.348Y16.146
X40.241Y16.164
X40.217Y16.168
X40.108Y16.184
X40.085Y16.187
X39.975Y16.201
X39.952Y16.203
X39.84Y16.215
X39.817Y16.217
X39.704Y16.225
X39.682Y16.227
X39.567Y16.233
X39.545Y16.234
X39.408Y16.238
X39.27Y16.239
X39.125Y16.238
X38.98Y16.234
X38.837Y16.227
X38.696Y16.217
X38.555Y16.205
X38.416Y16.189
X38.277Y16.171
X38.141Y16.151
X38.027Y16.131
X38.005Y16.127
X37.893Y16.105
X37.871Y16.101
X37.76Y16.077
X37.738Y16.072
X37.629Y16.045
X37.607Y16.039
X37.499Y16.011
X37.477Y16.005
X37.371Y15.974
X37.348Y15.967
X37.244Y15.934
X37.221Y15.926
X37.118Y15.891
X37.095Y15.883
X36.994Y15.845
X36.971Y15.836
X36.872Y15.796
X36.849Y15.787
X36.751Y15.745
X36.728Y15.735
X36.632Y15.691
X36.609Y15.68
X36.514Y15.634
X36.492Y15.622
X36.399Y15.574
X36.376Y15.562
X36.285Y15.511
X36.262Y15.498
X36.173Y15.446
X36.151Y15.432
X36.062Y15.377
X36.041Y15.363
X35.954Y15.306
X35.933Y15.292
X35.848Y15.233
X35.827Y15.217
X35.743Y15.156
X35.723Y15.141
X35.641Y15.077
X35.621Y15.061
X35.541Y14.996
X35.521Y14.979
X35.443Y14.911
X35.424Y14.894
X35.347Y14.825
X35.328Y14.807
X35.253Y14.735
X35.235Y14.718
X35.162Y14.644
X35.144Y14.626
X35.073Y14.55
X35.056Y14.532
X34.985Y14.454
X34.969Y14.435
X34.901Y14.355
X34.885Y14.336
X34.818Y14.254
X34.803Y14.235
X34.738Y14.151
X34.724Y14.132
X34.66Y14.046
X34.646Y14.027
X34.584Y13.939
X34.571Y13.92
X34.511Y13.83
X34.499Y13.811
X34.44Y13.718
X34.428Y13.699
X34.371Y13.605
X34.36Y13.586
X34.294Y13.471
X34.23Y13.354
X34.169Y13.235
X34.11Y13.115
X34.053Y12.993
X33.998Y12.869
X33.946Y12.743
X33.895Y12.615
X33.847Y12.486
X33.801Y12.355
X33.757Y12.223
X33.715Y12.089
X33.675Y11.953
X33.637Y11.816
X33.601Y11.677
X33.567Y11.536
X33.536Y11.394
X33.506Y11.251
X33.478Y11.106
X33.455Y10.973
X33.451Y10.949
X33.447Y10.925
X33.445Y10.9
X33.442Y10.876
X33.441Y10.851
X33.44Y10.827
Y10.802
Y10.778
X33.441Y10.753
X33.442Y10.729
X33.444Y10.704
X33.447Y10.68
X33.45Y10.655
X33.454Y10.631
X33.458Y10.607
X33.463Y10.583
X33.469Y10.559
X33.475Y10.535
X33.482Y10.511
X33.489Y10.488
X33.497Y10.465
X33.506Y10.442
X33.515Y10.419
X33.524Y10.396
X33.535Y10.374
X33.545Y10.352
X33.557Y10.33
X33.569Y10.308
X33.581Y10.287
X33.594Y10.266
X33.607Y10.245
X33.621Y10.225
X33.635Y10.205
X33.65Y10.186
X33.666Y10.166
X33.681Y10.147
X33.698Y10.129
X33.714Y10.111
X33.731Y10.093
X33.749Y10.076
X33.767Y10.059
X33.785Y10.043
X33.804Y10.027
X33.823Y10.012
X33.843Y9.997
X33.863Y9.983
X33.883Y9.969
X33.904Y9.955
X33.925Y9.942
X33.946Y9.93
X33.967Y9.918
X33.989Y9.907
X34.011Y9.896
X34.034Y9.886
X34.056Y9.876
X34.079Y9.867
X34.102Y9.858
X34.125Y9.85
X34.149Y9.843
X34.172Y9.836
X34.196Y9.83
X34.22Y9.824
G0Z10
X45.973Y9.449
G1Z-2F500
X45.978Y9.446F1000
X46.1Y9.315
X46.263Y9.175
X46.3Y9.128
X46.5Y8.935Z-1.842
X46.568Y8.891Z-1.59
X46.7Y8.721Z-1.051
X46.9Y8.593Z-0.369
G0Z10
X45.68Y3.446
G1Z-2F500
X45.689Y3.46F1000
X45.719Y3.515
X45.758Y3.58
X45.788Y3.632
X45.833Y3.7
X45.858Y3.748
X45.927Y3.864
X45.952Y3.9
X45.994Y3.982
X46.064Y4.094
X46.068Y4.1
X46.128Y4.214
X46.185Y4.3Z-1.844
X46.197Y4.327Z-1.802
X46.261Y4.445Z-1.555
X46.301Y4.5Z-1.411
X46.326Y4.562Z-1.308
X46.394Y4.674Z-1.067
X46.416Y4.7Z-0.982
X46.454Y4.797Z-0.813
X46.528Y4.898Z-0.566
X46.53Y4.9Z-0.558
X46.58Y5.032Z-0.324
X46.675Y5.1Z-0.016
G0Z10
X45.68Y2.305
G1Z-2F500
X45.716Y2.286F1000
X45.772Y2.26
X45.923Y2.167
X46.124Y2.065
X46.14Y2.06
X46.35Y1.931Z-1.211
X46.541Y1.86Z-0.518
G0Z10
X51.02Y0.1
G1Z-0.373F500
X51.42Y0.5Z-1.866
X51.62Y0.7Z-2F1000
X51.92Y1
Y26.28
X53.48
Y1
X51.92
G0Z10
X53.48
G1Z-2F500
X53.78Y0.699F1000
X53.98Y0.499Z-1.866
X54.38Y0.1Z-0.373
G0Z10
X59.78
G1Z-0.373F500
X60.18Y0.5Z-1.866
X60.38Y0.7Z-2F1000
X60.68Y1
Y26.28
X62.24
Y1
X60.68
G0Z10
X62.24
G1Z-2F500
X62.54Y0.7F1000
X62.739Y0.5Z-1.866
X63.139Y0.1Z-0.373
G0Z10
X69.661Y4.268
G1Z-2F500
X69.553Y4.438F1000
X69.45Y4.61
X69.35Y4.786
X69.255Y4.965
X69.163Y5.147
X69.076Y5.333
X68.993Y5.521
X68.914Y5.713
X68.839Y5.907
X68.769Y6.104
X68.704Y6.305
X68.642Y6.508
X68.586Y6.714
X68.534Y6.923
X68.486Y7.135
X68.444Y7.349
X68.406Y7.566
X68.373Y7.786
X68.344Y8.009
X68.321Y8.234
X68.303Y8.462
X68.29Y8.692
X68.282Y8.924
X68.28Y9.159
X68.282Y9.376
X68.29Y9.59
X68.304Y9.802
X68.322Y10.013
X68.346Y10.221
X68.374Y10.428
X68.408Y10.632
X68.447Y10.835
X68.49Y11.035
X68.539Y11.233
X68.592Y11.429
X68.65Y11.623
X68.712Y11.814
X68.779Y12.004
X68.851Y12.19
X68.927Y12.375
X69.007Y12.557
X69.092Y12.736
X69.181Y12.913
X69.274Y13.087
X69.372Y13.259
X69.473Y13.428
X69.579Y13.594
X69.689Y13.757
X69.803Y13.918
X69.92Y14.075
X70.042Y14.23
X70.167Y14.381
X70.296Y14.53
X70.429Y14.675
X70.565Y14.817
X70.705Y14.956
X70.848Y15.091
X70.995Y15.223
X71.146Y15.352
X71.3Y15.477
X71.457Y15.599
X71.617Y15.717
X71.781Y15.831
X71.947Y15.942
X72.117Y16.049
X72.29Y16.152
X72.466Y16.251
X72.645Y16.346
X72.826Y16.437
X73.011Y16.524
X73.198Y16.607
X73.388Y16.685
X73.581Y16.76
X73.776Y16.83
X73.974Y16.895
X74.175Y16.956
X74.378Y17.013
X74.583Y17.065
X74.791Y17.113
X75.001Y17.155
X75.213Y17.193
X75.428Y17.226
X75.645Y17.254
X75.863Y17.278
X76.084Y17.296
X76.307Y17.309
X76.533Y17.317
X76.76Y17.319
X77.001Y17.317
X77.241Y17.309
X77.478Y17.296
X77.712Y17.279
X77.943Y17.256
X78.172Y17.229
X78.399Y17.196
X78.622Y17.159
X78.843Y17.118
X79.06Y17.071
X79.275Y17.021
X79.487Y16.965
X79.696Y16.906
X79.902Y16.842
X80.105Y16.773
X80.305Y16.701
X80.502Y16.624
X80.695Y16.543
X80.885Y16.458
X81.072Y16.369
X81.256Y16.276
X81.436Y16.179
X81.613Y16.078
X81.787Y15.974
X81.957Y15.865
X82.124Y15.753
X82.287Y15.638
X82.447Y15.519
X82.603Y15.396
X82.755Y15.269
X82.904Y15.14
X83.049Y15.007
X83.19Y14.87
X83.328Y14.73
X83.461Y14.587
X83.591Y14.441
X83.717Y14.291
X83.839Y14.138
X83.957Y13.982
X84.071Y13.823
X84.181Y13.661
X84.287Y13.496
X84.388Y13.328
X84.486Y13.157
X84.579Y12.983
X84.668Y12.806
X84.753Y12.627
X84.833Y12.444
X84.909Y12.259
X84.981Y12.071
X85.048Y11.88
X85.11Y11.686
X85.168Y11.49
X85.221Y11.291
X85.269Y11.089
X85.312Y10.885
X85.351Y10.678
X85.385Y10.468
X85.413Y10.256
X85.437Y10.042
X85.455Y9.825
X85.469Y9.606
X85.477Y9.384
X85.479Y9.159
X85.477Y8.917
X85.469Y8.677
X85.456Y8.44
X85.438Y8.206
X85.414Y7.975
X85.386Y7.747
X85.353Y7.522
X85.315Y7.301
X85.272Y7.083
X85.224Y6.868
X85.172Y6.656
X85.115Y6.447
X85.053Y6.242
X84.987Y6.04
X84.917Y5.841
X84.842Y5.646
X84.762Y5.454
X84.679Y5.265
X84.591Y5.08
X84.499Y4.898
X84.403Y4.719
X84.302Y4.544
X84.198Y4.372
X84.089Y4.204
X83.977Y4.039
X83.861Y3.878
X83.74Y3.72
X83.616Y3.566
X83.488Y3.416
X83.356Y3.268
X83.22Y3.125
X83.081Y2.985
X82.937Y2.849
X82.79Y2.716
X82.64Y2.587
X82.485Y2.462
X82.327Y2.341
X82.166Y2.223
X82Y2.109
X81.831Y1.999
X81.659Y1.893
X81.483Y1.791
X81.303Y1.693
X81.12Y1.599
X80.934Y1.508
X80.744Y1.423
X80.55Y1.341
X80.353Y1.263
X80.153Y1.19
X79.949Y1.121
X79.742Y1.056
X79.532Y0.996
X79.318Y0.94
X79.101Y0.889
X78.881Y0.842
X78.658Y0.801
X78.431Y0.763
X78.201Y0.731
X77.969Y0.703
X77.733Y0.68
X77.494Y0.663
X77.252Y0.65
X77.007Y0.642
X76.76Y0.64
X76.525Y0.642
X76.292Y0.65
X76.062Y0.663
X75.835Y0.682
X75.611Y0.705
X75.389Y0.733
X75.169Y0.767
X74.953Y0.805
X74.739Y0.848
X74.528Y0.896
X74.32Y0.948
X74.115Y1.005
X73.912Y1.067
X73.713Y1.133
X73.516Y1.204
X73.322Y1.279
X73.132Y1.358
X72.944Y1.442
X72.76Y1.53
X72.579Y1.622
X72.401Y1.718
X72.226Y1.818
X72.054Y1.922
X71.886Y2.031
X71.72Y2.143
X71.558Y2.259
X71.4Y2.379
X71.245Y2.503
X71.093Y2.63
X70.945Y2.761
X70.8Y2.896
X70.659Y3.035
X70.521Y3.177
X70.387Y3.322
X70.257Y3.471
X70.13Y3.624
X70.007Y3.78
X69.888Y3.939
X69.772Y4.102
X69.661Y4.268
G0Z10
X70.982Y4.988
G1Z-2F500
X70.995Y4.967F1000
X71.071Y4.843
X71.085Y4.822
X71.163Y4.701
X71.178Y4.679
X71.259Y4.561
X71.274Y4.54
X71.358Y4.424
X71.373Y4.403
X71.46Y4.29
X71.476Y4.269
X71.565Y4.159
X71.582Y4.139
X71.674Y4.031
X71.691Y4.011
X71.786Y3.906
X71.804Y3.887
X71.901Y3.784
X71.919Y3.765
X72.019Y3.666
X72.038Y3.647
X72.14Y3.551
X72.159Y3.533
X72.264Y3.439
X72.284Y3.421
X72.39Y3.33
X72.411Y3.313
X72.52Y3.225
X72.541Y3.209
X72.653Y3.124
X72.674Y3.108
X72.788Y3.026
X72.81Y3.01
X72.926Y2.932
X72.949Y2.917
X73.067Y2.841
X73.09Y2.827
X73.21Y2.754
X73.233Y2.74
X73.356Y2.671
X73.379Y2.658
X73.504Y2.591
X73.528Y2.579
X73.655Y2.515
X73.679Y2.504
X73.808Y2.444
X73.832Y2.433
X73.963Y2.376
X73.987Y2.365
X74.121Y2.312
X74.145Y2.302
X74.28Y2.252
X74.305Y2.243
X74.442Y2.196
X74.467Y2.187
X74.606Y2.143
X74.631Y2.136
X74.772Y2.095
X74.796Y2.089
X74.939Y2.052
X74.964Y2.045
X75.109Y2.012
X75.133Y2.006
X75.28Y1.976
X75.305Y1.971
X75.453Y1.944
X75.477Y1.94
X75.628Y1.917
X75.652Y1.913
X75.804Y1.893
X75.828Y1.891
X75.982Y1.874
X76.006Y1.872
X76.161Y1.859
X76.185Y1.858
X76.342Y1.849
X76.366Y1.847
X76.524Y1.842
X76.548Y1.841
X76.708Y1.84
X76.729
X76.925Y1.842
X77.119Y1.848
X77.311Y1.858
X77.48Y1.87
X77.501Y1.872
X77.668Y1.887
X77.689Y1.89
X77.854Y1.909
X77.876Y1.911
X78.038Y1.934
X78.061Y1.937
X78.221Y1.963
X78.243Y1.967
X78.401Y1.996
X78.424Y2
X78.58Y2.033
X78.603Y2.038
X78.756Y2.074
X78.779Y2.079
X78.93Y2.118
X78.954Y2.125
X79.103Y2.167
X79.126Y2.174
X79.273Y2.219
X79.296Y2.227
X79.441Y2.276
X79.464Y2.284
X79.606Y2.336
X79.63Y2.345
X79.769Y2.4
X79.793Y2.41
X79.93Y2.468
X79.954Y2.479
X80.088Y2.54
X80.112Y2.552
X80.244Y2.616
X80.268Y2.628
X80.397Y2.696
X80.421Y2.708
X80.548Y2.779
X80.571Y2.793
X80.696Y2.866
X80.719Y2.88
X80.841Y2.957
X80.864Y2.972
X80.983Y3.052
X81.006Y3.067
X81.123Y3.15
X81.145Y3.167
X81.259Y3.252
X81.281Y3.269
X81.393Y3.358
X81.414Y3.376
X81.523Y3.467
X81.544Y3.485
X81.65Y3.58
X81.671Y3.599
X81.774Y3.696
X81.794Y3.716
X81.895Y3.816
X81.914Y3.836
X82.012Y3.939
X82.031Y3.959
X82.127Y4.065
X82.145Y4.086
X82.237Y4.195
X82.255Y4.216
X82.344Y4.328
X82.361Y4.349
X82.448Y4.464
X82.464Y4.486
X82.548Y4.603
X82.564Y4.625
X82.645Y4.745
X82.659Y4.767
X82.738Y4.89
X82.752Y4.912
X82.827Y5.037
X82.84Y5.06
X82.912Y5.188
X82.925Y5.211
X82.994Y5.342
X83.006Y5.365
X83.072Y5.498
X83.084Y5.521
X83.147Y5.657
X83.157Y5.68
X83.218Y5.818
X83.227Y5.841
X83.284Y5.982
X83.294Y6.005
X83.348Y6.148
X83.356Y6.171
X83.407Y6.317
X83.415Y6.34
X83.462Y6.488
X83.47Y6.511
X83.514Y6.662
X83.521Y6.684
X83.562Y6.838
X83.568Y6.86
X83.606Y7.016
X83.611Y7.038
X83.647Y7.196
X83.651Y7.218
X83.683Y7.378
X83.687Y7.4
X83.716Y7.563
X83.719Y7.584
X83.744Y7.749
X83.748Y7.77
X83.772Y7.959
X83.793Y8.149
X83.81Y8.341
X83.823Y8.535
X83.832Y8.731
X83.838Y8.929
X83.839Y9.131
X83.838Y9.293
X83.837Y9.317
X83.831Y9.478
X83.83Y9.501
X83.821Y9.66
X83.819Y9.684
X83.807Y9.842
X83.804Y9.865
X83.788Y10.022
X83.785Y10.045
X83.765Y10.2
X83.762Y10.224
X83.738Y10.377
X83.734Y10.401
X83.707Y10.553
X83.702Y10.576
X83.672Y10.726
X83.667Y10.75
X83.633Y10.898
X83.627Y10.922
X83.589Y11.068
X83.583Y11.092
X83.542Y11.237
X83.535Y11.261
X83.491Y11.403
X83.484Y11.427
X83.436Y11.568
X83.428Y11.591
X83.377Y11.73
X83.368Y11.754
X83.315Y11.891
X83.305Y11.914
X83.248Y12.049
X83.238Y12.072
X83.178Y12.205
X83.167Y12.228
X83.104Y12.359
X83.093Y12.382
X83.026Y12.511
X83.014Y12.533
X82.945Y12.66
X82.933Y12.682
X82.86Y12.807
X82.847Y12.829
X82.772Y12.951
X82.758Y12.973
X82.68Y13.093
X82.666Y13.114
X82.584Y13.232
X82.57Y13.253
X82.486Y13.369
X82.47Y13.389
X82.384Y13.502
X82.368Y13.523
X82.278Y13.633
X82.262Y13.653
X82.169Y13.762
X82.152Y13.781
X82.057Y13.887
X82.04Y13.906
X81.942Y14.01
X81.924Y14.028
X81.824Y14.129
X81.806Y14.147
X81.703Y14.246
X81.684Y14.263
X81.579Y14.359
X81.559Y14.376
X81.451Y14.469
X81.432Y14.486
X81.321Y14.576
X81.301Y14.592
X81.188Y14.68
X81.168Y14.696
X81.052Y14.781
X81.032Y14.796
X80.914Y14.878
X80.893Y14.892
X80.773Y14.972
X80.752Y14.986
X80.629Y15.063
X80.608Y15.076
X80.483Y15.15
X80.461Y15.162
X80.334Y15.233
X80.312Y15.245
X80.183Y15.313
X80.161Y15.325
X80.029Y15.39
X80.007Y15.401
X79.873Y15.463
X79.851Y15.473
X79.715Y15.532
X79.692Y15.542
X79.554Y15.598
X79.532Y15.607
X79.392Y15.66
X79.369Y15.668
X79.227Y15.718
X79.204Y15.725
X79.06Y15.772
X79.037Y15.779
X78.891Y15.823
X78.868Y15.829
X78.721Y15.869
X78.697Y15.875
X78.548Y15.912
X78.525Y15.917
X78.374Y15.951
X78.35Y15.956
X78.197Y15.986
X78.174Y15.99
X78.019Y16.017
X77.996Y16.02
X77.84Y16.044
X77.817Y16.047
X77.659Y16.066
X77.636Y16.069
X77.476Y16.085
X77.453Y16.087
X77.292Y16.1
X77.269Y16.101
X77.106Y16.111
X77.084Y16.112
X76.919Y16.117
X76.897Y16.118
X76.731Y16.119
X76.708
X76.551Y16.118
X76.527Y16.117
X76.372Y16.112
X76.348Y16.11
X76.194Y16.101
X76.17Y16.1
X76.018Y16.087
X75.994Y16.085
X75.843Y16.068
X75.819Y16.066
X75.669Y16.046
X75.645Y16.042
X75.497Y16.019
X75.473Y16.015
X75.327Y15.988
X75.302Y15.984
X75.158Y15.954
X75.133Y15.948
X74.99Y15.915
X74.966Y15.909
X74.825Y15.872
X74.801Y15.866
X74.661Y15.826
X74.637Y15.818
X74.499Y15.775
X74.475Y15.767
X74.339Y15.721
X74.316Y15.712
X74.181Y15.663
X74.158Y15.654
X74.025Y15.601
X74.002Y15.591
X73.871Y15.535
X73.848Y15.525
X73.72Y15.466
X73.697Y15.455
X73.57Y15.393
X73.547Y15.382
X73.423Y15.317
X73.4Y15.305
X73.278Y15.237
X73.256Y15.224
X73.135Y15.153
X73.113Y15.14
X72.995Y15.066
X72.974Y15.052
X72.857Y14.976
X72.836Y14.961
X72.722Y14.882
X72.701Y14.867
X72.59Y14.785
X72.569Y14.769
X72.46Y14.684
X72.44Y14.668
X72.332Y14.581
X72.313Y14.564
X72.208Y14.474
X72.189Y14.457
X72.086Y14.364
X72.067Y14.347
X71.967Y14.251
X71.949Y14.234
X71.851Y14.135
X71.834Y14.117
X71.738Y14.017
X71.721Y13.998
X71.628Y13.895
X71.611Y13.876
X71.521Y13.77
X71.505Y13.751
X71.417Y13.643
X71.402Y13.623
X71.316Y13.513
X71.301Y13.493
X71.219Y13.38
X71.204Y13.36
X71.124Y13.245
X71.11Y13.224
X71.033Y13.107
X71.02Y13.086
X70.945Y12.966
X70.933Y12.945
X70.861Y12.823
X70.849Y12.802
X70.78Y12.678
X70.768Y12.656
X70.702Y12.53
X70.691Y12.508
X70.628Y12.38
X70.617Y12.358
X70.557Y12.228
X70.547Y12.206
X70.49Y12.074
X70.481Y12.051
X70.426Y11.917
X70.417Y11.895
X70.366Y11.759
X70.358Y11.736
X70.31Y11.598
X70.302Y11.575
X70.257Y11.436
X70.25Y11.413
X70.208Y11.271
X70.202Y11.248
X70.163Y11.105
X70.157Y11.082
X70.121Y10.937
X70.116Y10.914
X70.083Y10.767
X70.079Y10.744
X70.05Y10.596
X70.045Y10.573
X70.02Y10.423
X70.016Y10.4
X69.993Y10.248
X69.99Y10.225
X69.971Y10.072
X69.969Y10.049
X69.953Y9.894
X69.951Y9.872
X69.939Y9.715
X69.937Y9.693
X69.928Y9.535
X69.927Y9.513
X69.922Y9.353
X69.921Y9.331
X69.92Y9.15
X69.922Y8.953
X69.928Y8.758
X69.937Y8.564
X69.951Y8.373
X69.968Y8.183
X69.989Y7.994
X70.014Y7.808
X70.039Y7.645
X70.043Y7.624
X70.071Y7.463
X70.075Y7.441
X70.107Y7.282
X70.111Y7.261
X70.146Y7.104
X70.151Y7.082
X70.189Y6.928
X70.194Y6.906
X70.235Y6.753
X70.241Y6.732
X70.285Y6.581
X70.292Y6.559
X70.339Y6.412
X70.346Y6.389
X70.396Y6.244
X70.404Y6.222
X70.457Y6.078
X70.466Y6.056
X70.522Y5.915
X70.531Y5.893
X70.59Y5.755
X70.6Y5.733
X70.661Y5.596
X70.672Y5.574
X70.736Y5.441
X70.747Y5.418
X70.815Y5.287
X70.827Y5.265
X70.897Y5.137
X70.909Y5.115
X70.982Y4.988
G0Z10
X62.24Y26.28
G1Z-2F500
X62.54Y26.58F1000
X62.739Y26.78Z-1.866
X63.139Y27.18Z-0.373
G0Z10
X59.78
G1Z-0.373F500
X60.18Y26.78Z-1.866
X60.38Y26.58Z-2F1000
X60.68Y26.28
G0Z10
X53.48
G1Z-2F500
X53.78Y26.58F1000
X53.98Y26.78Z-1.866
X54.38Y27.18Z-0.373
G0Z10
X51.02
G1Z-0.373F500
X51.42Y26.78Z-1.866
X51.62Y26.58Z-2F1000
X51.92Y26.28
G0Z10
X25.22Y26.38
G1Z-2F500
X25.42Y26.58F1000
X25.62Y26.78Z-1.866
X26.02Y27.18Z-0.373
G0Z10
X25.22Y26.38
G1Z-2F500
G0Z10
X22.7Y26.78
G1Z-1.866
X22.9Y26.58Z-2F1000
X23.2Y26.28
G0Z10
X22.7Y26.78
G1Z-1.866F500
G0Z10
X22.299Y27.18
G1Z-0.373
X22.7Y26.78Z-1.866
G0Z10
X5.92Y26.28
G1Z-2
X6.22Y26.58F1000
X6.42Y26.78Z-1.866
X6.82Y27.18Z-0.373
G0Z10
X3.1
G1Z-0.373F500
X3.5Y26.78Z-1.866
X3.7Y26.58Z-2F1000
X4Y26.28
G0Z10
X3.1Y0.1
G1Z-0.373F500
X3.9Y0.9Z-3.358
X4Y1Z-3.545
Z-3.732
Y26.28F1000
X5.92
Y15.4
Y15.375
X5.921Y15.35
X5.922Y15.326
X5.924Y15.301
X5.927Y15.277
X5.93Y15.253
X5.934Y15.229
X5.939Y15.204
X5.944Y15.18
X5.949Y15.157
X5.956Y15.133
X5.963Y15.109
X5.97Y15.086
X5.978Y15.063
X5.987Y15.04
X5.996Y15.017
X6.005Y14.994
X6.016Y14.972
X6.026Y14.95
X6.038Y14.928
X6.049Y14.907
X6.062Y14.885
X6.075Y14.865
X6.088Y14.844
X6.102Y14.824
X6.116Y14.804
X6.131Y14.784
X6.146Y14.765
X6.162Y14.746
X6.179Y14.728
X6.195Y14.71
X6.212Y14.692
X6.23Y14.675
X6.248Y14.659
X6.266Y14.642
X6.285Y14.626
X6.304Y14.611
X6.324Y14.596
X6.344Y14.582
X6.364Y14.568
X6.385Y14.555
X6.405Y14.542
X6.427Y14.529
X6.448Y14.518
X6.47Y14.506
X6.492Y14.496
X6.514Y14.485
X6.537Y14.476
X6.56Y14.467
X6.583Y14.458
X6.606Y14.45
X6.629Y14.443
X6.653Y14.436
X6.677Y14.429
X6.7Y14.424
X6.724Y14.419
X6.749Y14.414
X6.773Y14.41
X6.797Y14.407
X6.821Y14.404
X6.846Y14.402
X6.87Y14.401
X6.895Y14.4
X6.92
X22.2
X22.224
X22.249Y14.401
X22.273Y14.402
X22.298Y14.404
X22.322Y14.407
X22.346Y14.41
X22.37Y14.414
X22.395Y14.419
X22.419Y14.424
X22.442Y14.429
X22.466Y14.436
X22.49Y14.443
X22.513Y14.45
X22.536Y14.458
X22.559Y14.467
X22.582Y14.476
X22.605Y14.485
X22.627Y14.496
X22.649Y14.506
X22.671Y14.518
X22.692Y14.529
X22.714Y14.542
X22.734Y14.555
X22.755Y14.568
X22.775Y14.582
X22.795Y14.596
X22.815Y14.611
X22.834Y14.626
X22.853Y14.642
X22.871Y14.659
X22.889Y14.675
X22.907Y14.692
X22.924Y14.71
X22.94Y14.728
X22.957Y14.746
X22.973Y14.765
X22.988Y14.784
X23.003Y14.804
X23.017Y14.824
X23.031Y14.844
X23.044Y14.865
X23.057Y14.885
X23.07Y14.907
X23.081Y14.928
X23.093Y14.95
X23.103Y14.972
X23.114Y14.994
X23.123Y15.017
X23.132Y15.04
X23.141Y15.063
X23.149Y15.086
X23.156Y15.109
X23.163Y15.133
X23.17Y15.157
X23.175Y15.18
X23.18Y15.204
X23.185Y15.229
X23.189Y15.253
X23.192Y15.277
X23.195Y15.301
X23.197Y15.326
X23.198Y15.35
X23.199Y15.375
X23.2Y15.4
Y26.28
X25.12
Y1
X23.2
Y11.88
X23.199Y11.904
X23.198Y11.929
X23.197Y11.953
X23.195Y11.978
X23.192Y12.002
X23.189Y12.026
X23.185Y12.05
X23.18Y12.075
X23.175Y12.099
X23.17Y12.122
X23.163Y12.146
X23.156Y12.17
X23.149Y12.193
X23.141Y12.216
X23.132Y12.239
X23.123Y12.262
X23.114Y12.285
X23.103Y12.307
X23.093Y12.329
X23.081Y12.351
X23.07Y12.372
X23.057Y12.394
X23.044Y12.414
X23.031Y12.435
X23.017Y12.455
X23.003Y12.475
X22.988Y12.495
X22.973Y12.514
X22.957Y12.533
X22.94Y12.551
X22.924Y12.569
X22.907Y12.587
X22.889Y12.604
X22.871Y12.62
X22.853Y12.637
X22.834Y12.653
X22.815Y12.668
X22.795Y12.683
X22.775Y12.697
X22.755Y12.711
X22.734Y12.724
X22.714Y12.737
X22.692Y12.75
X22.671Y12.761
X22.649Y12.773
X22.627Y12.783
X22.605Y12.794
X22.582Y12.803
X22.559Y12.812
X22.536Y12.821
X22.513Y12.829
X22.49Y12.836
X22.466Y12.843
X22.442Y12.85
X22.419Y12.855
X22.395Y12.86
X22.37Y12.865
X22.346Y12.869
X22.322Y12.872
X22.298Y12.875
X22.273Y12.877
X22.249Y12.878
X22.224Y12.879
X22.2Y12.88
X6.92
X6.895Y12.879
X6.87Y12.878
X6.846Y12.877
X6.821Y12.875
X6.797Y12.872
X6.773Y12.869
X6.749Y12.865
X6.724Y12.86
X6.7Y12.855
X6.677Y12.85
X6.653Y12.843
X6.629Y12.836
X6.606Y12.829
X6.583Y12.821
X6.56Y12.812
X6.537Y12.803
X6.514Y12.794
X6.492Y12.783
X6.47Y12.773
X6.448Y12.761
X6.427Y12.75
X6.405Y12.737
X6.385Y12.724
X6.364Y12.711
X6.344Y12.697
X6.324Y12.683
X6.304Y12.668
X6.285Y12.653
X6.266Y12.637
X6.248Y12.62
X6.23Y12.604
X6.212Y12.587
X6.195Y12.569
X6.179Y12.551
X6.162Y12.533
X6.146Y12.514
X6.131Y12.495
X6.116Y12.475
X6.102Y12.455
X6.088Y12.435
X6.075Y12.414
X6.062Y12.394
X6.049Y12.372
X6.038Y12.351
X6.026Y12.329
X6.016Y12.307
X6.005Y12.285
X5.996Y12.262
X5.987Y12.239
X5.978Y12.216
X5.97Y12.193
X5.963Y12.17
X5.956Y12.146
X5.949Y12.122
X5.944Y12.099
X5.939Y12.075
X5.934Y12.05
X5.93Y12.026
X5.927Y12.002
X5.924Y11.978
X5.922Y11.953
X5.921Y11.929
X5.92Y11.904
Y11.88
Y1
X4
G0Z10
X5.92
G1Z-3.545F500
X6.02Y0.9Z-3.358F1000
X6.82Y0.1Z-0.373
G0Z10
X22.299
G1Z-0.373F500
X23.1Y0.9Z-3.358
X23.2Y1Z-3.545
G0Z10
X25.12
G1Z-3.545
X25.22Y0.9Z-3.358F1000
X26.02Y0.1Z-0.373
G0Z10
X33.055Y4.307
G1Z-3.732F500
X32.958Y4.477F1000
X32.866Y4.65
X32.777Y4.825
X32.692Y5.004
X32.61Y5.185
X32.533Y5.368
X32.459Y5.554
X32.389Y5.742
X32.322Y5.932
X32.26Y6.125
X32.201Y6.319
X32.146Y6.516
X32.096Y6.714
X32.049Y6.914
X32.006Y7.115
X31.967Y7.318
X31.932Y7.523
X31.901Y7.729
X31.874Y7.936
X31.851Y8.144
X31.833Y8.354
X31.818Y8.564
X31.808Y8.775
X31.802Y8.987
X31.8Y9.199
X31.802Y9.433
X31.809Y9.664
X31.82Y9.892
X31.836Y10.118
X31.856Y10.34
X31.881Y10.559
X31.91Y10.775
X31.943Y10.988
X31.981Y11.199
X32.022Y11.406
X32.068Y11.609
X32.118Y11.81
X32.171Y12.008
X32.229Y12.202
X32.29Y12.393
X32.355Y12.58
X32.424Y12.765
X32.497Y12.946
X32.573Y13.124
X32.653Y13.298
X32.736Y13.469
X32.823Y13.636
X32.913Y13.801
X33.007Y13.961
X33.104Y14.118
X33.204Y14.272
X33.308Y14.422
X33.415Y14.569
X33.525Y14.712
X33.638Y14.852
X33.754Y14.988
X33.874Y15.12
X33.996Y15.249
X34.122Y15.375
X34.25Y15.496
X34.381Y15.614
X34.516Y15.729
X34.653Y15.839
X34.793Y15.946
X34.936Y16.049
X35.082Y16.149
X35.231Y16.245
X35.383Y16.337
X35.537Y16.425
X35.694Y16.509
X35.855Y16.589
X36.017Y16.666
X36.183Y16.738
X36.351Y16.806
X36.523Y16.871
X36.696Y16.931
X36.873Y16.987
X37.052Y17.039
X37.234Y17.087
X37.419Y17.13
X37.606Y17.169
X37.797Y17.204
X37.989Y17.234
X38.185Y17.26
X38.382Y17.281
X38.583Y17.298
X38.786Y17.31
X38.991Y17.317
X39.2Y17.319
X39.4Y17.317
X39.597Y17.311
X39.791Y17.3
X39.982Y17.285
X40.171Y17.266
X40.355Y17.243
X40.537Y17.216
X40.716Y17.185
X40.892Y17.149
X41.064Y17.11
X41.233Y17.066
X41.399Y17.019
X41.563Y16.967
X41.723Y16.912
X41.88Y16.853
X42.034Y16.79
X42.185Y16.723
X42.333Y16.652
X42.478Y16.577
X42.62Y16.498
X42.759Y16.415
X42.896Y16.328
X43.03Y16.238
X43.161Y16.143
X43.289Y16.044
X43.415Y15.941
X43.538Y15.834
X43.658Y15.722
X43.776Y15.606
X43.891Y15.486
X44.004Y15.362
X44.114Y15.232
X44.221Y15.099
X44.325Y14.96
X44.427Y14.817
X44.526Y14.67
X44.623Y14.517
X44.717Y14.36
X44.807Y14.197
X44.895Y14.03
X44.981Y13.857
X45.063Y13.68
X45.142Y13.497
X45.218Y13.309
X45.291Y13.116
X45.36Y12.918
X45.427Y12.714
X45.49Y12.506
X45.549Y12.291
X45.606Y12.072
X45.658Y11.847
X45.708Y11.617
X45.753Y11.382
X45.795Y11.141
X45.833Y10.895
X45.868Y10.644
X45.898Y10.387
X45.925Y10.125
X45.947Y9.857
X45.966Y9.584
X45.974Y9.44
X34.359
X34.335Y9.439
X34.311Y9.438
X34.286Y9.437
X34.262Y9.435
X34.238Y9.432
X34.213Y9.429
X34.189Y9.425
X34.165Y9.42
X34.141Y9.415
X34.118Y9.41
X34.094Y9.404
X34.071Y9.397
X34.047Y9.389
X34.024Y9.382
X34.001Y9.373
X33.979Y9.364
X33.956Y9.355
X33.934Y9.344
X33.912Y9.334
X33.89Y9.323
X33.869Y9.311
X33.848Y9.299
X33.827Y9.286
X33.806Y9.273
X33.786Y9.259
X33.766Y9.244
X33.747Y9.23
X33.728Y9.215
X33.709Y9.199
X33.691Y9.183
X33.673Y9.166
X33.655Y9.149
X33.638Y9.132
X33.621Y9.114
X33.605Y9.096
X33.589Y9.077
X33.574Y9.058
X33.559Y9.039
X33.545Y9.019
X33.531Y8.999
X33.517Y8.979
X33.504Y8.958
X33.492Y8.937
X33.48Y8.915
X33.469Y8.894
X33.458Y8.872
X33.448Y8.85
X33.438Y8.827
X33.429Y8.805
X33.42Y8.782
X33.412Y8.759
X33.404Y8.736
X33.397Y8.712
X33.391Y8.689
X33.385Y8.665
X33.38Y8.641
X33.375Y8.617
X33.371Y8.593
X33.368Y8.569
X33.365Y8.544
X33.363Y8.52
X33.361Y8.496
X33.36Y8.471
Y8.447
Y8.422
Y8.398
X33.362Y8.374
X33.364Y8.349
X33.366Y8.325
X33.369Y8.301
X33.373Y8.277
X33.403Y8.096
X33.435Y7.917
X33.47Y7.741
X33.508Y7.567
X33.548Y7.395
X33.59Y7.225
X33.635Y7.057
X33.683Y6.892
X33.733Y6.729
X33.786Y6.568
X33.841Y6.409
X33.9Y6.253
X33.96Y6.099
X34.024Y5.947
X34.09Y5.798
X34.15Y5.67
X34.159Y5.651
X34.221Y5.526
X34.231Y5.506
X34.295Y5.384
X34.306Y5.364
X34.372Y5.244
X34.383Y5.224
X34.451Y5.107
X34.463Y5.087
X34.533Y4.972
X34.546Y4.952
X34.619Y4.84
X34.632Y4.82
X34.706Y4.71
X34.72Y4.69
X34.797Y4.584
X34.812Y4.564
X34.891Y4.459
X34.906Y4.44
X34.987Y4.338
X35.003Y4.318
X35.086Y4.219
X35.103Y4.2
X35.188Y4.103
X35.205Y4.084
X35.292Y3.99
X35.31Y3.971
X35.4Y3.88
X35.418Y3.862
X35.51Y3.773
X35.529Y3.755
X35.622Y3.669
X35.642Y3.651
X35.738Y3.567
X35.758Y3.55
X35.856Y3.469
X35.876Y3.453
X35.976Y3.375
X35.997Y3.359
X36.099Y3.283
X36.121Y3.267
X36.225Y3.194
X36.247Y3.18
X36.353Y3.109
X36.375Y3.095
X36.483Y3.027
X36.505Y3.014
X36.616Y2.948
X36.638Y2.935
X36.751Y2.873
X36.773Y2.861
X36.888Y2.801
X36.911Y2.789
X37.028Y2.732
X37.05Y2.721
X37.169Y2.666
X37.192Y2.656
X37.313Y2.604
X37.335Y2.595
X37.458Y2.546
X37.481Y2.537
X37.606Y2.49
X37.628Y2.482
X37.756Y2.438
X37.778Y2.43
X37.907Y2.389
X37.929Y2.382
X38.061Y2.343
X38.082Y2.337
X38.216Y2.301
X38.237Y2.295
X38.373Y2.262
X38.394Y2.257
X38.553Y2.222
X38.713Y2.19
X38.875Y2.161
X39.038Y2.135
X39.204Y2.112
X39.371Y2.093
X39.54Y2.076
X39.71Y2.063
X39.882Y2.053
X40.056Y2.045
X40.231Y2.041
X40.405Y2.04
X40.518
X40.631Y2.042
X40.743Y2.046
X40.855Y2.05
X40.967Y2.056
X41.079Y2.063
X41.19Y2.072
X41.301Y2.081
X41.413Y2.092
X41.523Y2.104
X41.634Y2.118
X41.745Y2.132
X41.855Y2.148
X41.965Y2.165
X42.075Y2.184
X42.184Y2.203
X42.294Y2.224
X42.403Y2.245
X42.512Y2.268
X42.621Y2.293
X42.729Y2.318
X42.837Y2.344
X42.945Y2.372
X43.053Y2.4
X43.161Y2.43
X43.269Y2.461
X43.376Y2.493
X43.483Y2.526
X43.59Y2.56
X43.696Y2.595
X43.803Y2.632
X43.909Y2.669
X44.015Y2.707
X44.121Y2.747
X44.227Y2.787
X44.332Y2.828
X44.437Y2.871
X44.543Y2.914
X44.648Y2.959
X44.752Y3.004
X44.857Y3.05
X44.961Y3.097
X45.066Y3.146
X45.17Y3.195
X45.274Y3.245
X45.378Y3.296
X45.482Y3.348
X45.585Y3.401
X45.68Y3.45
Y2.305
X45.556Y2.229
X45.463Y2.172
X45.37Y2.117
X45.277Y2.063
X45.184Y2.01
X45.092Y1.958
X45Y1.908
X44.907Y1.858
X44.815Y1.81
X44.723Y1.762
X44.631Y1.716
X44.54Y1.671
X44.448Y1.627
X44.356Y1.584
X44.263Y1.542
X44.171Y1.501
X44.079Y1.461
X43.986Y1.422
X43.893Y1.384
X43.8Y1.347
X43.706Y1.311
X43.612Y1.276
X43.518Y1.242
X43.423Y1.209
X43.328Y1.177
X43.232Y1.146
X43.136Y1.115
X43.039Y1.086
X42.941Y1.058
X42.843Y1.031
X42.744Y1.004
X42.644Y0.979
X42.544Y0.954
X42.442Y0.931
X42.34Y0.908
X42.237Y0.886
X42.132Y0.865
X42.027Y0.845
X41.921Y0.826
X41.814Y0.808
X41.705Y0.791
X41.595Y0.775
X41.484Y0.759
X41.372Y0.745
X41.259Y0.731
X41.144Y0.719
X41.028Y0.707
X40.911Y0.696
X40.792Y0.687
X40.672Y0.678
X40.55Y0.67
X40.427Y0.663
X40.302Y0.656
X40.176Y0.651
X40.048Y0.647
X39.918Y0.644
X39.787Y0.641
X39.654Y0.64
X39.524
X39.285Y0.643
X39.054Y0.652
X38.827Y0.666
X38.604Y0.687
X38.385Y0.713
X38.169Y0.745
X37.958Y0.782
X37.75Y0.824
X37.546Y0.871
X37.346Y0.924
X37.149Y0.981
X36.956Y1.044
X36.767Y1.111
X36.581Y1.183
X36.399Y1.259
X36.221Y1.341
X36.046Y1.426
X35.874Y1.516
X35.706Y1.61
X35.541Y1.709
X35.379Y1.812
X35.221Y1.918
X35.067Y2.029
X34.915Y2.144
X34.768Y2.263
X34.623Y2.386
X34.482Y2.513
X34.344Y2.643
X34.21Y2.777
X34.079Y2.915
X33.951Y3.056
X33.827Y3.201
X33.706Y3.349
X33.589Y3.501
X33.475Y3.656
X33.364Y3.814
X33.258Y3.975
X33.154Y4.139
X33.055Y4.307
G0Z10
X34.22Y9.824
G1Z-3.732F500
X34.244Y9.819F1000
X34.268Y9.814
X34.293Y9.81
X34.317Y9.807
X34.341Y9.804
X34.366Y9.802
X34.39Y9.801
X34.415Y9.8
X34.44
X43.479
X43.504
X43.529Y9.801
X43.553Y9.802
X43.578Y9.804
X43.602Y9.807
X43.627Y9.81
X43.651Y9.814
X43.675Y9.819
X43.699Y9.824
X43.723Y9.83
X43.747Y9.836
X43.77Y9.843
X43.794Y9.85
X43.817Y9.858
X43.84Y9.867
X43.863Y9.876
X43.886Y9.886
X43.908Y9.896
X43.93Y9.907
X43.952Y9.918
X43.973Y9.93
X43.995Y9.942
X44.016Y9.955
X44.036Y9.969
X44.056Y9.983
X44.076Y9.997
X44.096Y10.012
X44.115Y10.027
X44.134Y10.043
X44.152Y10.06
X44.17Y10.076
X44.188Y10.094
X44.205Y10.111
X44.222Y10.129
X44.238Y10.148
X44.254Y10.167
X44.269Y10.186
X44.284Y10.205
X44.298Y10.225
X44.312Y10.246
X44.326Y10.266
X44.338Y10.287
X44.351Y10.309
X44.363Y10.33
X44.374Y10.352
X44.385Y10.374
X44.395Y10.397
X44.404Y10.419
X44.413Y10.442
X44.422Y10.465
X44.43Y10.488
X44.437Y10.512
X44.444Y10.535
X44.45Y10.559
X44.456Y10.583
X44.461Y10.607
X44.465Y10.631
X44.469Y10.656
X44.472Y10.68
X44.475Y10.705
X44.477Y10.729
X44.478Y10.754
X44.479Y10.778
Y10.803
Y10.827
X44.478Y10.852
X44.47Y10.996
X44.46Y11.139
X44.448Y11.281
X44.433Y11.421
X44.415Y11.56
X44.395Y11.698
X44.373Y11.834
X44.348Y11.97
X44.321Y12.103
X44.291Y12.236
X44.259Y12.367
X44.224Y12.497
X44.187Y12.625
X44.147Y12.751
X44.105Y12.877
X44.068Y12.979
X44.06Y13
X44.021Y13.101
X44.013Y13.122
X43.972Y13.222
X43.963Y13.243
X43.92Y13.34
X43.911Y13.361
X43.866Y13.457
X43.856Y13.478
X43.809Y13.572
X43.798Y13.594
X43.75Y13.686
X43.739Y13.707
X43.688Y13.798
X43.676Y13.819
X43.624Y13.907
X43.611Y13.929
X43.557Y14.015
X43.543Y14.036
X43.488Y14.121
X43.473Y14.142
X43.416Y14.225
X43.401Y14.246
X43.341Y14.327
X43.326Y14.348
X43.264Y14.427
X43.248Y14.447
X43.185Y14.524
X43.168Y14.544
X43.103Y14.62
X43.086Y14.64
X43.019Y14.713
X43.001Y14.732
X42.932Y14.803
X42.913Y14.823
X42.843Y14.892
X42.824Y14.91
X42.752Y14.978
X42.732Y14.996
X42.658Y15.061
X42.638Y15.079
X42.562Y15.142
X42.541Y15.159
X42.464Y15.22
X42.442Y15.237
X42.364Y15.296
X42.342Y15.312
X42.261Y15.369
X42.239Y15.384
X42.157Y15.439
X42.134Y15.454
X42.05Y15.506
X42.027Y15.52
X41.941Y15.571
X41.918Y15.584
X41.831Y15.632
X41.807Y15.645
X41.718Y15.691
X41.694Y15.703
X41.604Y15.747
X41.58Y15.758
X41.488Y15.8
X41.463Y15.811
X41.37Y15.85
X41.346Y15.86
X41.251Y15.897
X41.226Y15.906
X41.129Y15.941
X41.105Y15.949
X41.007Y15.982
X40.982Y15.99
X40.883Y16.02
X40.858Y16.027
X40.757Y16.055
X40.733Y16.061
X40.63Y16.087
X40.606Y16.092
X40.501Y16.116
X40.477Y16.121
X40.372Y16.141
X40.348Y16.146
X40.241Y16.164
X40.217Y16.168
X40.108Y16.184
X40.085Y16.187
X39.975Y16.201
X39.952Y16.203
X39.84Y16.215
X39.817Y16.217
X39.704Y16.225
X39.682Y16.227
X39.567Y16.233
X39.545Y16.234
X39.408Y16.238
X39.27Y16.239
X39.125Y16.238
X38.98Y16.234
X38.837Y16.227
X38.696Y16.217
X38.555Y16.205
X38.416Y16.189
X38.277Y16.171
X38.141Y16.151
X38.027Y16.131
X38.005Y16.127
X37.893Y16.105
X37.871Y16.101
X37.76Y16.077
X37.738Y16.072
X37.629Y16.045
X37.607Y16.039
X37.499Y16.011
X37.477Y16.005
X37.371Y15.974
X37.348Y15.967
X37.244Y15.934
X37.221Y15.926
X37.118Y15.891
X37.095Y15.883
X36.994Y15.845
X36.971Y15.836
X36.872Y15.796
X36.849Y15.787
X36.751Y15.745
X36.728Y15.735
X36.632Y15.691
X36.609Y15.68
X36.514Y15.634
X36.492Y15.622
X36.399Y15.574
X36.376Y15.562
X36.285Y15.511
X36.262Y15.498
X36.173Y15.446
X36.151Y15.432
X36.062Y15.377
X36.041Y15.363
X35.954Y15.306
X35.933Y15.292
X35.848Y15.233
X35.827Y15.217
X35.743Y15.156
X35.723Y15.141
X35.641Y15.077
X35.621Y15.061
X35.541Y14.996
X35.521Y14.979
X35.443Y14.911
X35.424Y14.894
X35.347Y14.825
X35.328Y14.807
X35.253Y14.735
X35.235Y14.718
X35.162Y14.644
X35.144Y14.626
X35.073Y14.55
X35.056Y14.532
X34.985Y14.454
X34.969Y14.435
X34.901Y14.355
X34.885Y14.336
X34.818Y14.254
X34.803Y14.235
X34.738Y14.151
X34.724Y14.132
X34.66Y14.046
X34.646Y14.027
X34.584Y13.939
X34.571Y13.92
X34.511Y13.83
X34.499Y13.811
X34.44Y13.718
X34.428Y13.699
X34.371Y13.605
X34.36Y13.586
X34.294Y13.471
X34.23Y13.354
X34.169Y13.235
X34.11Y13.115
X34.053Y12.993
X33.998Y12.869
X33.946Y12.743
X33.895Y12.615
X33.847Y12.486
X33.801Y12.355
X33.757Y12.223
X33.715Y12.089
X33.675Y11.953
X33.637Y11.816
X33.601Y11.677
X33.567Y11.536
X33.536Y11.394
X33.506Y11.251
X33.478Y11.106
X33.455Y10.973
X33.451Y10.949
X33.447Y10.925
X33.445Y10.9
X33.442Y10.876
X33.441Y10.851
X33.44Y10.827
Y10.802
Y10.778
X33.441Y10.753
X33.442Y10.729
X33.444Y10.704
X33.447Y10.68
X33.45Y10.655
X33.454Y10.631
X33.458Y10.607
X33.463Y10.583
X33.469Y10.559
X33.475Y10.535
X33.482Y10.511
X33.489Y10.488
X33.497Y10.465
X33.506Y10.442
X33.515Y10.419
X33.524Y10.396
X33.535Y10.374
X33.545Y10.352
X33.557Y10.33
X33.569Y10.308
X33.581Y10.287
X33.594Y10.266
X33.607Y10.245
X33.621Y10.225
X33.635Y10.205
X33.65Y10.186
X33.666Y10.166
X33.681Y10.147
X33.698Y10.129
X33.714Y10.111
X33.731Y10.093
X33.749Y10.076
X33.767Y10.059
X33.785Y10.043
X33.804Y10.027
X33.823Y10.012
X33.843Y9.997
X33.863Y9.983
X33.883Y9.969
X33.904Y9.955
X33.925Y9.942
X33.946Y9.93
X33.967Y9.918
X33.989Y9.907
X34.011Y9.896
X34.034Y9.886
X34.056Y9.876
X34.079Y9.867
X34.102Y9.858
X34.125Y9.85
X34.149Y9.843
X34.172Y9.836
X34.196Y9.83
X34.22Y9.824
G0Z10
X45.973Y9.449
G1Z-3.716F500
X45.978Y9.446Z-3.715F1000
X46.1Y9.315Z-3.266
X46.263Y9.175Z-2.697
X46.3Y9.128Z-2.567
X46.5Y8.935Z-1.842
X46.568Y8.891Z-1.59
X46.7Y8.721Z-1.051
X46.9Y8.593Z-0.369
G0Z10
X45.68Y3.446
G1Z-3.705F500
X45.689Y3.46Z-3.696F1000
X45.719Y3.515Z-3.583
X45.758Y3.58Z-3.439
X45.788Y3.632Z-3.321
X45.833Y3.7Z-3.157
X45.858Y3.748Z-3.064
X45.927Y3.864Z-2.808
X45.952Y3.9Z-2.714
X45.994Y3.982Z-2.549
X46.064Y4.094Z-2.297
X46.068Y4.1Z-2.281
X46.128Y4.214Z-2.046
X46.185Y4.3Z-1.844
X46.197Y4.327Z-1.802
X46.261Y4.445Z-1.555
X46.301Y4.5Z-1.411
X46.326Y4.562Z-1.308
X46.394Y4.674Z-1.067
X46.416Y4.7Z-0.982
X46.454Y4.797Z-0.813
X46.528Y4.898Z-0.566
X46.53Y4.9Z-0.558
X46.58Y5.032Z-0.324
X46.675Y5.1Z-0.016
G0Z10
X45.68Y2.305
G1Z-3.621F500
X45.716Y2.286Z-3.595F1000
X45.772Y2.26Z-3.388
X45.923Y2.167Z-2.814
X46.124Y2.065Z-2.072
X46.14Y2.06Z-2.015
X46.35Y1.931Z-1.211
X46.541Y1.86Z-0.518
G0Z10
X51.02Y0.1
G1Z-0.373F500
X51.82Y0.9Z-3.358
X51.92Y1Z-3.545
Z-3.732
Y26.28F1000
X53.48
Y1
X51.92
G0Z10
X53.48
G1Z-3.545F500
X53.58Y0.899Z-3.358F1000
X54.38Y0.1Z-0.373
G0Z10
X59.78
G1Z-0.373F500
X60.58Y0.9Z-3.358
X60.68Y1Z-3.545
Z-3.732
Y26.28F1000
X62.24
Y1
X60.68
G0Z10
X62.24
G1Z-3.545F500
X62.339Y0.899Z-3.358F1000
X63.139Y0.1Z-0.373
G0Z10
X69.661Y4.268
G1Z-3.732F500
X69.553Y4.438F1000
X69.45Y4.61
X69.35Y4.786
X69.255Y4.965
X69.163Y5.147
X69.076Y5.333
X68.993Y5.521
X68.914Y5.713
X68.839Y5.907
X68.769Y6.104
X68.704Y6.305
X68.642Y6.508
X68.586Y6.714
X68.534Y6.923
X68.486Y7.135
X68.444Y7.349
X68.406Y7.566
X68.373Y7.786
X68.344Y8.009
X68.321Y8.234
X68.303Y8.462
X68.29Y8.692
X68.282Y8.924
X68.28Y9.159
X68.282Y9.376
X68.29Y9.59
X68.304Y9.802
X68.322Y10.013
X68.346Y10.221
X68.374Y10.428
X68.408Y10.632
X68.447Y10.835
X68.49Y11.035
X68.539Y11.233
X68.592Y11.429
X68.65Y11.623
X68.712Y11.814
X68.779Y12.004
X68.851Y12.19
X68.927Y12.375
X69.007Y12.557
X69.092Y12.736
X69.181Y12.913
X69.274Y13.087
X69.372Y13.259
X69.473Y13.428
X69.579Y13.594
X69.689Y13.757
X69.803Y13.918
X69.92Y14.075
X70.042Y14.23
X70.167Y14.381
X70.296Y14.53
X70.429Y14.675
X70.565Y14.817
X70.705Y14.956
X70.848Y15.091
X70.995Y15.223
X71.146Y15.352
X71.3Y15.477
X71.457Y15.599
X71.617Y15.717
X71.781Y15.831
X71.947Y15.942
X72.117Y16.049
X72.29Y16.152
X72.466Y16.251
X72.645Y16.346
X72.826Y16.437
X73.011Y16.524
X73.198Y16.607
X73.388Y16.685
X73.581Y16.76
X73.776Y16.83
X73.974Y16.895
X74.175Y16.956
X74.378Y17.013
X74.583Y17.065
X74.791Y17.113
X75.001Y17.155
X75.213Y17.193
X75.428Y17.226
X75.645Y17.254
X75.863Y17.278
X76.084Y17.296
X76.307Y17.309
X76.533Y17.317
X76.76Y17.319
X77.001Y17.317
X77.241Y17.309
X77.478Y17.296
X77.712Y17.279
X77.943Y17.256
X78.172Y17.229
X78.399Y17.196
X78.622Y17.159
X78.843Y17.118
X79.06Y17.071
X79.275Y17.021
X79.487Y16.965
X79.696Y16.906
X79.902Y16.842
X80.105Y16.773
X80.305Y16.701
X80.502Y16.624
X80.695Y16.543
X80.885Y16.458
X81.072Y16.369
X81.256Y16.276
X81.436Y16.179
X81.613Y16.078
X81.787Y15.974
X81.957Y15.865
X82.124Y15.753
X82.287Y15.638
X82.447Y15.519
X82.603Y15.396
X82.755Y15.269
X82.904Y15.14
X83.049Y15.007
X83.19Y14.87
X83.328Y14.73
X83.461Y14.587
X83.591Y14.441
X83.717Y14.291
X83.839Y14.138
X83.957Y13.982
X84.071Y13.823
X84.181Y13.661
X84.287Y13.496
X84.388Y13.328
X84.486Y13.157
X84.579Y12.983
X84.668Y12.806
X84.753Y12.627
X84.833Y12.444
X84.909Y12.259
X84.981Y12.071
X85.048Y11.88
X85.11Y11.686
X85.168Y11.49
X85.221Y11.291
X85.269Y11.089
X85.312Y10.885
X85.351Y10.678
X85.385Y10.468
X85.413Y10.256
X85.437Y10.042
X85.455Y9.825
X85.469Y9.606
X85.477Y9.384
X85.479Y9.159
X85.477Y8.917
X85.469Y8.677
X85.456Y8.44
X85.438Y8.206
X85.414Y7.975
X85.386Y7.747
X85.353Y7.522
X85.315Y7.301
X85.272Y7.083
X85.224Y6.868
X85.172Y6.656
X85.115Y6.447
X85.053Y6.242
X84.987Y6.04
X84.917Y5.841
X84.842Y5.646
X84.762Y5.454
X84.679Y5.265
X84.591Y5.08
X84.499Y4.898
X84.403Y4.719
X84.302Y4.544
X84.198Y4.372
X84.089Y4.204
X83.977Y4.039
X83.861Y3.878
X83.74Y3.72
X83.616Y3.566
X83.488Y3.416
X83.356Y3.268
X83.22Y3.125
X83.081Y2.985
X82.937Y2.849
X82.79Y2.716
X82.64Y2.587
X82.485Y2.462
X82.327Y2.341
X82.166Y2.223
X82Y2.109
X81.831Y1.999
X81.659Y1.893
X81.483Y1.791
X81.303Y1.693
X81.12Y1.599
X80.934Y1.508
X80.744Y1.423
X80.55Y1.341
X80.353Y1.263
X80.153Y1.19
X79.949Y1.121
X79.742Y1.056
X79.532Y0.996
X79.318Y0.94
X79.101Y0.889
X78.881Y0.842
X78.658Y0.801
X78.431Y0.763
X78.201Y0.731
X77.969Y0.703
X77.733Y0.68
X77.494Y0.663
X77.252Y0.65
X77.007Y0.642
X76.76Y0.64
X76.525Y0.642
X76.292Y0.65
X76.062Y0.663
X75.835Y0.682
X75.611Y0.705
X75.389Y0.733
X75.169Y0.767
X74.953Y0.805
X74.739Y0.848
X74.528Y0.896
X74.32Y0.948
X74.115Y1.005
X73.912Y1.067
X73.713Y1.133
X73.516Y1.204
X73.322Y1.279
X73.132Y1.358
X72.944Y1.442
X72.76Y1.53
X72.579Y1.622
X72.401Y1.718
X72.226Y1.818
X72.054Y1.922
X71.886Y2.031
X71.72Y2.143
X71.558Y2.259
X71.4Y2.379
X71.245Y2.503
X71.093Y2.63
X70.945Y2.761
X70.8Y2.896
X70.659Y3.035
X70.521Y3.177
X70.387Y3.322
X70.257Y3.471
X70.13Y3.624
X70.007Y3.78
X69.888Y3.939
X69.772Y4.102
X69.661Y4.268
G0Z10
X70.982Y4.988
G1Z-3.732F500
X70.995Y4.967F1000
X71.071Y4.843
X71.085Y4.822
X71.163Y4.701
X71.178Y4.679
X71.259Y4.561
X71.274Y4.54
X71.358Y4.424
X71.373Y4.403
X71.46Y4.29
X71.476Y4.269
X71.565Y4.159
X71.582Y4.139
X71.674Y4.031
X71.691Y4.011
X71.786Y3.906
X71.804Y3.887
X71.901Y3.784
X71.919Y3.765
X72.019Y3.666
X72.038Y3.647
X72.14Y3.551
X72.159Y3.533
X72.264Y3.439
X72.284Y3.421
X72.39Y3.33
X72.411Y3.313
X72.52Y3.225
X72.541Y3.209
X72.653Y3.124
X72.674Y3.108
X72.788Y3.026
X72.81Y3.01
X72.926Y2.932
X72.949Y2.917
X73.067Y2.841
X73.09Y2.827
X73.21Y2.754
X73.233Y2.74
X73.356Y2.671
X73.379Y2.658
X73.504Y2.591
X73.528Y2.579
X73.655Y2.515
X73.679Y2.504
X73.808Y2.444
X73.832Y2.433
X73.963Y2.376
X73.987Y2.365
X74.121Y2.312
X74.145Y2.302
X74.28Y2.252
X74.305Y2.243
X74.442Y2.196
X74.467Y2.187
X74.606Y2.143
X74.631Y2.136
X74.772Y2.095
X74.796Y2.089
X74.939Y2.052
X74.964Y2.045
X75.109Y2.012
X75.133Y2.006
X75.28Y1.976
X75.305Y1.971
X75.453Y1.944
X75.477Y1.94
X75.628Y1.917
X75.652Y1.913
X75.804Y1.893
X75.828Y1.891
X75.982Y1.874
X76.006Y1.872
X76.161Y1.859
X76.185Y1.858
X76.342Y1.849
X76.366Y1.847
X76.524Y1.842
X76.548Y1.841
X76.708Y1.84
X76.729
X76.925Y1.842
X77.119Y1.848
X77.311Y1.858
X77.48Y1.87
X77.501Y1.872
X77.668Y1.887
X77.689Y1.89
X77.854Y1.909
X77.876Y1.911
X78.038Y1.934
X78.061Y1.937
X78.221Y1.963
X78.243Y1.967
X78.401Y1.996
X78.424Y2
X78.58Y2.033
X78.603Y2.038
X78.756Y2.074
X78.779Y2.079
X78.93Y2.118
X78.954Y2.125
X79.103Y2.167
X79.126Y2.174
X79.273Y2.219
X79.296Y2.227
X79.441Y2.276
X79.464Y2.284
X79.606Y2.336
X79.63Y2.345
X79.769Y2.4
X79.793Y2.41
X79.93Y2.468
X79.954Y2.479
X80.088Y2.54
X80.112Y2.552
X80.244Y2.616
X80.268Y2.628
X80.397Y2.696
X80.421Y2.708
X80.548Y2.779
X80.571Y2.793
X80.696Y2.866
X80.719Y2.88
X80.841Y2.957
X80.864Y2.972
X80.983Y3.052
X81.006Y3.067
X81.123Y3.15
X81.145Y3.167
X81.259Y3.252
X81.281Y3.269
X81.393Y3.358
X81.414Y3.376
X81.523Y3.467
X81.544Y3.485
X81.65Y3.58
X81.671Y3.599
X81.774Y3.696
X81.794Y3.716
X81.895Y3.816
X81.914Y3.836
X82.012Y3.939
X82.031Y3.959
X82.127Y4.065
X82.145Y4.086
X82.237Y4.195
X82.255Y4.216
X82.344Y4.328
X82.361Y4.349
X82.448Y4.464
X82.464Y4.486
X82.548Y4.603
X82.564Y4.625
X82.645Y4.745
X82.659Y4.767
X82.738Y4.89
X82.752Y4.912
X82.827Y5.037
X82.84Y5.06
X82.912Y5.188
X82.925Y5.211
X82.994Y5.342
X83.006Y5.365
X83.072Y5.498
X83.084Y5.521
X83.147Y5.657
X83.157Y5.68
X83.218Y5.818
X83.227Y5.841
X83.284Y5.982
X83.294Y6.005
X83.348Y6.148
X83.356Y6.171
X83.407Y6.317
X83.415Y6.34
X83.462Y6.488
X83.47Y6.511
X83.514Y6.662
X83.521Y6.684
X83.562Y6.838
X83.568Y6.86
X83.606Y7.016
X83.611Y7.038
X83.647Y7.196
X83.651Y7.218
X83.683Y7.378
X83.687Y7.4
X83.716Y7.563
X83.719Y7.584
X83.744Y7.749
X83.748Y7.77
X83.772Y7.959
X83.793Y8.149
X83.81Y8.341
X83.823Y8.535
X83.832Y8.731
X83.838Y8.929
X83.839Y9.131
X83.838Y9.293
X83.837Y9.317
X83.831Y9.478
X83.83Y9.501
X83.821Y9.66
X83.819Y9.684
X83.807Y9.842
X83.804Y9.865
X83.788Y10.022
X83.785Y10.045
X83.765Y10.2
X83.762Y10.224
X83.738Y10.377
X83.734Y10.401
X83.707Y10.553
X83.702Y10.576
X83.672Y10.726
X83.667Y10.75
X83.633Y10.898
X83.627Y10.922
X83.589Y11.068
X83.583Y11.092
X83.542Y11.237
X83.535Y11.261
X83.491Y11.403
X83.484Y11.427
X83.436Y11.568
X83.428Y11.591
X83.377Y11.73
X83.368Y11.754
X83.315Y11.891
X83.305Y11.914
X83.248Y12.049
X83.238Y12.072
X83.178Y12.205
X83.167Y12.228
X83.104Y12.359
X83.093Y12.382
X83.026Y12.511
X83.014Y12.533
X82.945Y12.66
X82.933Y12.682
X82.86Y12.807
X82.847Y12.829
X82.772Y12.951
X82.758Y12.973
X82.68Y13.093
X82.666Y13.114
X82.584Y13.232
X82.57Y13.253
X82.486Y13.369
X82.47Y13.389
X82.384Y13.502
X82.368Y13.523
X82.278Y13.633
X82.262Y13.653
X82.169Y13.762
X82.152Y13.781
X82.057Y13.887
X82.04Y13.906
X81.942Y14.01
X81.924Y14.028
X81.824Y14.129
X81.806Y14.147
X81.703Y14.246
X81.684Y14.263
X81.579Y14.359
X81.559Y14.376
X81.451Y14.469
X81.432Y14.486
X81.321Y14.576
X81.301Y14.592
X81.188Y14.68
X81.168Y14.696
X81.052Y14.781
X81.032Y14.796
X80.914Y14.878
X80.893Y14.892
X80.773Y14.972
X80.752Y14.986
X80.629Y15.063
X80.608Y15.076
X80.483Y15.15
X80.461Y15.162
X80.334Y15.233
X80.312Y15.245
X80.183Y15.313
X80.161Y15.325
X80.029Y15.39
X80.007Y15.401
X79.873Y15.463
X79.851Y15.473
X79.715Y15.532
X79.692Y15.542
X79.554Y15.598
X79.532Y15.607
X79.392Y15.66
X79.369Y15.668
X79.227Y15.718
X79.204Y15.725
X79.06Y15.772
X79.037Y15.779
X78.891Y15.823
X78.868Y15.829
X78.721Y15.869
X78.697Y15.875
X78.548Y15.912
X78.525Y15.917
X78.374Y15.951
X78.35Y15.956
X78.197Y15.986
X78.174Y15.99
X78.019Y16.017
X77.996Y16.02
X77.84Y16.044
X77.817Y16.047
X77.659Y16.066
X77.636Y16.069
X77.476Y16.085
X77.453Y16.087
X77.292Y16.1
X77.269Y16.101
X77.106Y16.111
X77.084Y16.112
X76.919Y16.117
X76.897Y16.118
X76.731Y16.119
X76.708
X76.551Y16.118
X76.527Y16.117
X76.372Y16.112
X76.348Y16.11
X76.194Y16.101
X76.17Y16.1
X76.018Y16.087
X75.994Y16.085
X75.843Y16.068
X75.819Y16.066
X75.669Y16.046
X75.645Y16.042
X75.497Y16.019
X75.473Y16.015
X75.327Y15.988
X75.302Y15.984
X75.158Y15.954
X75.133Y15.948
X74.99Y15.915
X74.966Y15.909
X74.825Y15.872
X74.801Y15.866
X74.661Y15.826
X74.637Y15.818
X74.499Y15.775
X74.475Y15.767
X74.339Y15.721
X74.316Y15.712
X74.181Y15.663
X74.158Y15.654
X74.025Y15.601
X74.002Y15.591
X73.871Y15.535
X73.848Y15.525
X73.72Y15.466
X73.697Y15.455
X73.57Y15.393
X73.547Y15.382
X73.423Y15.317
X73.4Y15.305
X73.278Y15.237
X73.256Y15.224
X73.135Y15.153
X73.113Y15.14
X72.995Y15.066
X72.974Y15.052
X72.857Y14.976
X72.836Y14.961
X72.722Y14.882
X72.701Y14.867
X72.59Y14.785
X72.569Y14.769
X72.46Y14.684
X72.44Y14.668
X72.332Y14.581
X72.313Y14.564
X72.208Y14.474
X72.189Y14.457
X72.086Y14.364
X72.067Y14.347
X71.967Y14.251
X71.949Y14.234
X71.851Y14.135
X71.834Y14.117
X71.738Y14.017
X71.721Y13.998
X71.628Y13.895
X71.611Y13.876
X71.521Y13.77
X71.505Y13.751
X71.417Y13.643
X71.402Y13.623
X71.316Y13.513
X71.301Y13.493
X71.219Y13.38
X71.204Y13.36
X71.124Y13.245
X71.11Y13.224
X71.033Y13.107
X71.02Y13.086
X70.945Y12.966
X70.933Y12.945
X70.861Y12.823
X70.849Y12.802
X70.78Y12.678
X70.768Y12.656
X70.702Y12.53
X70.691Y12.508
X70.628Y12.38
X70.617Y12.358
X70.557Y12.228
X70.547Y12.206
X70.49Y12.074
X70.481Y12.051
X70.426Y11.917
X70.417Y11.895
X70.366Y11.759
X70.358Y11.736
X70.31Y11.598
X70.302Y11.575
X70.257Y11.436
X70.25Y11.413
X70.208Y11.271
X70.202Y11.248
X70.163Y11.105
X70.157Y11.082
X70.121Y10.937
X70.116Y10.914
X70.083Y10.767
X70.079Y10.744
X70.05Y10.596
X70.045Y10.573
X70.02Y10.423
X70.016Y10.4
X69.993Y10.248
X69.99Y10.225
X69.971Y10.072
X69.969Y10.049
X69.953Y9.894
X69.951Y9.872
X69.939Y9.715
X69.937Y9.693
X69.928Y9.535
X69.927Y9.513
X69.922Y9.353
X69.921Y9.331
X69.92Y9.15
X69.922Y8.953
X69.928Y8.758
X69.937Y8.564
X69.951Y8.373
X69.968Y8.183
X69.989Y7.994
X70.014Y7.808
X70.039Y7.645
X70.043Y7.624
X70.071Y7.463
X70.075Y7.441
X70.107Y7.282
X70.111Y7.261
X70.146Y7.104
X70.151Y7.082
X70.189Y6.928
X70.194Y6.906
X70.235Y6.753
X70.241Y6.732
X70.285Y6.581
X70.292Y6.559
X70.339Y6.412
X70.346Y6.389
X70.396Y6.244
X70.404Y6.222
X70.457Y6.078
X70.466Y6.056
X70.522Y5.915
X70.531Y5.893
X70.59Y5.755
X70.6Y5.733
X70.661Y5.596
X70.672Y5.574
X70.736Y5.441
X70.747Y5.418
X70.815Y5.287
X70.827Y5.265
X70.897Y5.137
X70.909Y5.115
X70.982Y4.988
G0Z10
X62.24Y26.28
G1Z-3.545F500
X62.339Y26.38Z-3.358F1000
X63.139Y27.18Z-0.373
G0Z10
X59.78
G1Z-0.373F500
X60.58Y26.38Z-3.358
X60.68Y26.28Z-3.545
G0Z10
X53.48
G1Z-3.545
X53.58Y26.38Z-3.358F1000
X54.38Y27.18Z-0.373
G0Z10
X51.02
G1Z-0.373F500
X51.82Y26.38Z-3.358
X51.92Y26.28Z-3.545
G0Z10
X25.22Y26.38
G1Z-3.358
X26.02Y27.18Z-0.373F1000
G0Z10
X25.22Y26.38
G1Z-3.358F500
G0Z10
X22.7Y26.78
G1Z-1.866
X23.1Y26.38Z-3.358
X23.2Y26.28Z-3.545
G0Z10
X5.92
G1Z-3.545
X6.02Y26.38Z-3.358F1000
X6.82Y27.18Z-0.373
G0Z10
X3.1
G1Z-0.373F500
X3.9Y26.38Z-3.358
X4Y26.28Z-3.545
G0Z10
 
