(Created with grbl post processor 2024/11/05 16:29)
G21
(G-code Generated with Fabex and NC library)
G17G90
S12000M03
G00 Z10.0

G0X0Y0Z10
X3.1Y0.1
G1Z-0.373F500
X3.5Y0.5Z-1.866
X3.7Y0.7Z-2F1000
X4Y1
Y26.28
X5.92
Y15.4
Y15.375
X5.921Y15.35
X5.922Y15.326
X5.924Y15.301
X5.927Y15.277
X5.93Y15.253
X5.934Y15.229
X5.939Y15.204
X5.944Y15.18
X5.949Y15.157
X5.956Y15.133
X5.963Y15.109
X5.97Y15.086
X5.978Y15.063
X5.987Y15.04
X5.996Y15.017
X6.005Y14.994
X6.016Y14.972
X6.026Y14.95
X6.038Y14.928
X6.049Y14.907
X6.062Y14.885
X6.075Y14.865
X6.088Y14.844
X6.102Y14.824
X6.116Y14.804
X6.131Y14.784
X6.146Y14.765
X6.162Y14.746
X6.179Y14.728
X6.195Y14.71
X6.212Y14.692
X6.23Y14.675
X6.248Y14.659
X6.266Y14.642
X6.285Y14.626
X6.304Y14.611
X6.324Y14.596
X6.344Y14.582
X6.364Y14.568
X6.385Y14.555
X6.405Y14.542
X6.427Y14.529
X6.448Y14.518
X6.47Y14.506
X6.492Y14.496
X6.514Y14.485
X6.537Y14.476
X6.56Y14.467
X6.583Y14.458
X6.606Y14.45
X6.629Y14.443
X6.653Y14.436
X6.677Y14.429
X6.7Y14.424
X6.724Y14.419
X6.749Y14.414
X6.773Y14.41
X6.797Y14.407
X6.821Y14.404
X6.846Y14.402
X6.87Y14.401
X6.895Y14.4
X6.92
X22.2
X22.224
X22.249Y14.401
X22.273Y14.402
X22.298Y14.404
X22.322Y14.407
X22.346Y14.41
X22.37Y14.414
X22.395Y14.419
X22.419Y14.424
X22.442Y14.429
X22.466Y14.436
X22.49Y14.443
X22.513Y14.45
X22.536Y14.458
X22.559Y14.467
X22.582Y14.476
X22.605Y14.485
X22.627Y14.496
X22.649Y14.506
X22.671Y14.518
X22.692Y14.529
X22.714Y14.542
X22.734Y14.555
X22.755Y14.568
X22.775Y14.582
X22.795Y14.596
X22.815Y14.611
X22.834Y14.626
X22.853Y14.642
X22.871Y14.659
X22.889Y14.675
X22.907Y14.692
X22.924Y14.71
X22.94Y14.728
X22.957Y14.746
X22.973Y14.765
X22.988Y14.784
X23.003Y14.804
X23.017Y14.824
X23.031Y14.844
X23.044Y14.865
X23.057Y14.885
X23.07Y14.907
X23.081Y14.928
X23.093Y14.95
X23.103Y14.972
X23.114Y14.994
X23.123Y15.017
X23.132Y15.04
X23.141Y15.063
X23.149Y15.086
X23.156Y15.109
X23.163Y15.133
X23.17Y15.157
X23.175Y15.18
X23.18Y15.204
X23.185Y15.229
X23.189Y15.253
X23.192Y15.277
X23.195Y15.301
X23.197Y15.326
X23.198Y15.35
X23.199Y15.375
X23.2Y15.4
Y26.28
X25.12
Y1
X23.2
Y11.88
X23.199Y11.904
X23.198Y11.929
X23.197Y11.953
X23.195Y11.978
X23.192Y12.002
X23.189Y12.026
X23.185Y12.05
X23.18Y12.075
X23.175Y12.099
X23.17Y12.122
X23.163Y12.146
X23.156Y12.17
X23.149Y12.193
X23.141Y12.216
X23.132Y12.239
X23.123Y12.262
X23.114Y12.285
X23.103Y12.307
X23.093Y12.329
X23.081Y12.351
X23.07Y12.372
X23.057Y12.394
X23.044Y12.414
X23.031Y12.435
X23.017Y12.455
X23.003Y12.475
X22.988Y12.495
X22.973Y12.514
X22.957Y12.533
X22.94Y12.551
X22.924Y12.569
X22.907Y12.587
X22.889Y12.604
X22.871Y12.62
X22.853Y12.637
X22.834Y12.653
X22.815Y12.668
X22.795Y12.683
X22.775Y12.697
X22.755Y12.711
X22.734Y12.724
X22.714Y12.737
X22.692Y12.75
X22.671Y12.761
X22.649Y12.773
X22.627Y12.783
X22.605Y12.794
X22.582Y12.803
X22.559Y12.812
X22.536Y12.821
X22.513Y12.829
X22.49Y12.836
X22.466Y12.843
X22.442Y12.85
X22.419Y12.855
X22.395Y12.86
X22.37Y12.865
X22.346Y12.869
X22.322Y12.872
X22.298Y12.875
X22.273Y12.877
X22.249Y12.878
X22.224Y12.879
X22.2Y12.88
X6.92
X6.895Y12.879
X6.87Y12.878
X6.846Y12.877
X6.821Y12.875
X6.797Y12.872
X6.773Y12.869
X6.749Y12.865
X6.724Y12.86
X6.7Y12.855
X6.677Y12.85
X6.653Y12.843
X6.629Y12.836
X6.606Y12.829
X6.583Y12.821
X6.56Y12.812
X6.537Y12.803
X6.514Y12.794
X6.492Y12.783
X6.47Y12.773
X6.448Y12.761
X6.427Y12.75
X6.405Y12.737
X6.385Y12.724
X6.364Y12.711
X6.344Y12.697
X6.324Y12.683
X6.304Y12.668
X6.285Y12.653
X6.266Y12.637
X6.248Y12.62
X6.23Y12.604
X6.212Y12.587
X6.195Y12.569
X6.179Y12.551
X6.162Y12.533
X6.146Y12.514
X6.131Y12.495
X6.116Y12.475
X6.102Y12.455
X6.088Y12.435
X6.075Y12.414
X6.062Y12.394
X6.049Y12.372
X6.038Y12.351
X6.026Y12.329
X6.016Y12.307
X6.005Y12.285
X5.996Y12.262
X5.987Y12.239
X5.978Y12.216
X5.97Y12.193
X5.963Y12.17
X5.956Y12.146
X5.949Y12.122
X5.944Y12.099
X5.939Y12.075
X5.934Y12.05
X5.93Y12.026
X5.927Y12.002
X5.924Y11.978
X5.922Y11.953
X5.921Y11.929
X5.92Y11.904
Y11.88
Y1
X4
G0Z10
X5.92
G1Z-2F500
X6.22Y0.7F1000
X6.42Y0.5Z-1.866
X6.82Y0.1Z-0.373
G0Z10
X22.299
G1Z-0.373F500
X22.7Y0.5Z-1.866
X22.9Y0.7Z-2F1000
X23.2Y1
G0Z10
X25.12
G1Z-2F500
X25.42Y0.7F1000
X25.62Y0.5Z-1.866
X26.02Y0.1Z-0.373
G0Z10
X33.051Y4.313
G1Z-2F500
X32.989Y4.422F1000
X32.928Y4.532
X32.87Y4.643
X32.812Y4.755
X32.756Y4.868
X32.702Y4.982
X32.649Y5.098
X32.598Y5.214
X32.548Y5.331
X32.5Y5.45
X32.453Y5.569
X32.408Y5.689
X32.364Y5.81
X32.322Y5.932
X32.282Y6.055
X32.243Y6.179
X32.206Y6.304
X32.17Y6.429
X32.136Y6.555
X32.103Y6.682
X32.073Y6.81
X32.043Y6.938
X32.016Y7.067
X31.99Y7.196
X31.965Y7.327
X31.943Y7.457
X31.922Y7.589
X31.902Y7.721
X31.884Y7.853
X31.868Y7.986
X31.854Y8.119
X31.841Y8.253
X31.83Y8.387
X31.821Y8.522
X31.813Y8.657
X31.807Y8.792
X31.803Y8.928
X31.8Y9.063
Y9.199
Y9.349
X31.803Y9.498
X31.808Y9.646
X31.815Y9.792
X31.823Y9.938
X31.833Y10.082
X31.845Y10.225
X31.859Y10.366
X31.875Y10.507
X31.892Y10.646
X31.911Y10.784
X31.932Y10.921
X31.955Y11.056
X31.979Y11.19
X32.005Y11.323
X32.033Y11.455
X32.062Y11.585
X32.093Y11.714
X32.126Y11.842
X32.16Y11.968
X32.196Y12.093
X32.234Y12.217
X32.273Y12.34
X32.313Y12.461
X32.355Y12.58
X32.399Y12.699
X32.444Y12.816
X32.491Y12.932
X32.539Y13.046
X32.589Y13.159
X32.64Y13.27
X32.692Y13.38
X32.746Y13.489
X32.802Y13.597
X32.859Y13.703
X32.917Y13.807
X32.977Y13.91
X33.038Y14.012
X33.1Y14.112
X33.164Y14.211
X33.229Y14.309
X33.295Y14.405
X33.363Y14.499
X33.432Y14.592
X33.503Y14.684
X33.574Y14.774
X33.647Y14.863
X33.721Y14.95
X33.797Y15.036
X33.874Y15.12
X33.952Y15.203
X34.031Y15.285
X34.111Y15.365
X34.193Y15.443
X34.276Y15.52
X34.36Y15.596
X34.445Y15.67
X34.532Y15.742
X34.62Y15.813
X34.709Y15.883
X34.799Y15.95
X34.89Y16.017
X34.983Y16.082
X35.076Y16.145
X35.171Y16.207
X35.267Y16.267
X35.364Y16.326
X35.463Y16.383
X35.562Y16.438
X35.663Y16.492
X35.765Y16.545
X35.867Y16.595
X35.971Y16.645
X36.077Y16.692
X36.183Y16.738
X36.29Y16.782
X36.399Y16.825
X36.509Y16.866
X36.62Y16.905
X36.732Y16.943
X36.845Y16.978
X36.959Y17.013
X37.074Y17.045
X37.19Y17.076
X37.308Y17.105
X37.427Y17.132
X37.546Y17.157
X37.667Y17.181
X37.789Y17.203
X37.912Y17.223
X38.036Y17.241
X38.161Y17.257
X38.287Y17.272
X38.414Y17.284
X38.543Y17.295
X38.672Y17.304
X38.802Y17.311
X38.934Y17.316
X39.066Y17.318
X39.2Y17.319
X39.328
X39.455Y17.316
X39.581Y17.312
X39.706Y17.305
X39.83Y17.298
X39.952Y17.288
X40.073Y17.277
X40.193Y17.264
X40.311Y17.249
X40.429Y17.233
X40.545Y17.215
X40.659Y17.195
X40.773Y17.174
X40.885Y17.151
X40.995Y17.126
X41.105Y17.1
X41.213Y17.072
X41.32Y17.042
X41.426Y17.011
X41.53Y16.978
X41.633Y16.944
X41.735Y16.908
X41.836Y16.87
X41.935Y16.831
X42.034Y16.79
X42.131Y16.747
X42.226Y16.703
X42.321Y16.658
X42.414Y16.61
X42.507Y16.561
X42.598Y16.511
X42.687Y16.459
X42.776Y16.405
X42.864Y16.35
X42.95Y16.293
X43.035Y16.234
X43.119Y16.174
X43.202Y16.112
X43.284Y16.048
X43.365Y15.983
X43.445Y15.916
X43.523Y15.847
X43.601Y15.776
X43.677Y15.704
X43.753Y15.63
X43.827Y15.554
X43.9Y15.476
X43.972Y15.397
X44.044Y15.316
X44.114Y15.233
X44.182Y15.147
X44.25Y15.061
X44.317Y14.972
X44.383Y14.881
X44.447Y14.788
X44.511Y14.694
X44.573Y14.597
X44.634Y14.498
X44.694Y14.398
X44.753Y14.295
X44.811Y14.191
X44.868Y14.084
X44.923Y13.975
X44.977Y13.864
X45.03Y13.751
X45.082Y13.636
X45.132Y13.519
X45.182Y13.4
X45.23Y13.279
X45.276Y13.155
X45.322Y13.03
X45.366Y12.902
X45.408Y12.772
X45.45Y12.64
X45.49Y12.506
X45.528Y12.369
X45.566Y12.231
X45.601Y12.09
X45.636Y11.947
X45.669Y11.802
X45.7Y11.655
X45.73Y11.505
X45.758Y11.353
X45.785Y11.2
X45.811Y11.044
X45.835Y10.885
X45.857Y10.725
X45.878Y10.562
X45.897Y10.397
X45.915Y10.23
X45.931Y10.061
X45.945Y9.89
X45.958Y9.716
X45.969Y9.54
X45.974Y9.44
X34.359
X34.335Y9.439
X34.311Y9.438
X34.286Y9.437
X34.262Y9.435
X34.238Y9.432
X34.214Y9.429
X34.19Y9.425
X34.166Y9.421
X34.142Y9.416
X34.118Y9.41
X34.094Y9.404
X34.071Y9.397
X34.048Y9.39
X34.025Y9.382
X34.002Y9.373
X33.979Y9.364
X33.957Y9.355
X33.934Y9.345
X33.912Y9.334
X33.891Y9.323
X33.869Y9.311
X33.848Y9.299
X33.827Y9.286
X33.807Y9.273
X33.787Y9.259
X33.767Y9.245
X33.748Y9.23
X33.728Y9.215
X33.71Y9.2
X33.691Y9.184
X33.673Y9.167
X33.656Y9.15
X33.639Y9.133
X33.622Y9.115
X33.606Y9.097
X33.59Y9.078
X33.575Y9.059
X33.56Y9.04
X33.545Y9.02
X33.531Y9
X33.518Y8.98
X33.505Y8.959
X33.493Y8.938
X33.481Y8.917
X33.469Y8.895
X33.459Y8.873
X33.448Y8.851
X33.438Y8.829
X33.429Y8.806
X33.421Y8.784
X33.412Y8.761
X33.405Y8.737
X33.398Y8.714
X33.392Y8.69
X33.386Y8.667
X33.38Y8.643
X33.376Y8.619
X33.372Y8.595
X33.368Y8.571
X33.365Y8.547
X33.363Y8.522
X33.361Y8.498
X33.36Y8.474
Y8.449
Y8.425
Y8.401
X33.362Y8.376
X33.363Y8.352
X33.366Y8.328
X33.369Y8.303
X33.372Y8.279
X33.391Y8.163
X33.411Y8.048
X33.432Y7.934
X33.454Y7.821
X33.477Y7.709
X33.501Y7.597
X33.526Y7.487
X33.552Y7.377
X33.579Y7.269
X33.607Y7.161
X33.636Y7.054
X33.666Y6.948
X33.698Y6.843
X33.73Y6.739
X33.763Y6.635
X33.798Y6.533
X33.833Y6.432
X33.87Y6.331
X33.908Y6.232
X33.947Y6.133
X33.987Y6.035
X34.028Y5.939
X34.07Y5.843
X34.113Y5.748
X34.158Y5.654
X34.203Y5.561
X34.25Y5.47
X34.298Y5.379
X34.347Y5.289
X34.397Y5.2
X34.448Y5.112
X34.5Y5.025
X34.554Y4.94
X34.609Y4.855
X34.664Y4.771
X34.721Y4.689
X34.78Y4.608
X34.839Y4.527
X34.899Y4.448
X34.961Y4.37
X35.024Y4.293
X35.087Y4.217
X35.152Y4.143
X35.219Y4.069
X35.286Y3.997
X35.354Y3.926
X35.424Y3.856
X35.494Y3.788
X35.566Y3.72
X35.638Y3.654
X35.712Y3.589
X35.787Y3.526
X35.863Y3.464
X35.94Y3.403
X36.018Y3.343
X36.097Y3.285
X36.177Y3.227
X36.258Y3.172
X36.34Y3.117
X36.423Y3.064
X36.507Y3.013
X36.592Y2.962
X36.677Y2.913
X36.764Y2.866
X36.852Y2.819
X36.94Y2.775
X37.029Y2.731
X37.12Y2.689
X37.211Y2.648
X37.302Y2.609
X37.395Y2.57
X37.489Y2.534
X37.583Y2.498
X37.678Y2.464
X37.774Y2.432
X37.871Y2.4
X37.968Y2.37
X38.066Y2.342
X38.165Y2.314
X38.265Y2.288
X38.365Y2.264
X38.466Y2.24
X38.568Y2.218
X38.671Y2.198
X38.774Y2.178
X38.878Y2.16
X38.982Y2.143
X39.088Y2.128
X39.194Y2.114
X39.3Y2.101
X39.408Y2.089
X39.516Y2.078
X39.625Y2.069
X39.734Y2.061
X39.844Y2.055
X39.955Y2.049
X40.066Y2.045
X40.179Y2.042
X40.291Y2.04
X40.403
X40.475
X40.547Y2.041
X40.619Y2.042
X40.691Y2.044
X40.763Y2.046
X40.835Y2.049
X40.907Y2.053
X40.978Y2.057
X41.05Y2.061
X41.121Y2.066
X41.193Y2.072
X41.264Y2.078
X41.335Y2.084
X41.406Y2.092
X41.477Y2.099
X41.548Y2.107
X41.619Y2.116
X41.69Y2.125
X41.76Y2.135
X41.831Y2.145
X41.901Y2.155
X41.972Y2.166
X42.042Y2.178
X42.112Y2.19
X42.182Y2.203
X42.252Y2.216
X42.322Y2.229
X42.392Y2.243
X42.462Y2.258
X42.532Y2.273
X42.601Y2.288
X42.671Y2.304
X42.74Y2.32
X42.81Y2.337
X42.879Y2.355
X42.948Y2.372
X43.017Y2.391
X43.086Y2.409
X43.155Y2.428
X43.224Y2.448
X43.293Y2.468
X43.361Y2.489
X43.43Y2.51
X43.498Y2.531
X43.567Y2.553
X43.635Y2.575
X43.703Y2.598
X43.839Y2.644
X43.975Y2.693
X44.111Y2.743
X44.246Y2.795
X44.381Y2.848
X44.516Y2.903
X44.65Y2.96
X44.785Y3.018
X44.918Y3.078
X45.052Y3.139
X45.185Y3.202
X45.319Y3.267
X45.451Y3.333
X45.584Y3.4
X45.68Y3.45
Y2.305
X45.579Y2.242
X45.459Y2.17
X45.34Y2.1
X45.221Y2.031
X45.103Y1.965
X44.985Y1.9
X44.867Y1.837
X44.749Y1.775
X44.631Y1.716
X44.514Y1.658
X44.455Y1.63
X44.396Y1.602
X44.337Y1.575
X44.278Y1.548
X44.219Y1.522
X44.16Y1.496
X44.101Y1.47
X44.042Y1.445
X43.982Y1.42
X43.923Y1.396
X43.863Y1.372
X43.804Y1.348
X43.744Y1.325
X43.684Y1.302
X43.624Y1.28
X43.563Y1.258
X43.503Y1.236
X43.442Y1.215
X43.382Y1.195
X43.32Y1.174
X43.259Y1.154
X43.198Y1.135
X43.136Y1.115
X43.074Y1.097
X43.012Y1.078
X42.949Y1.06
X42.887Y1.043
X42.823Y1.025
X42.76Y1.008
X42.696Y0.992
X42.632Y0.976
X42.568Y0.96
X42.503Y0.945
X42.438Y0.93
X42.373Y0.915
X42.307Y0.901
X42.241Y0.887
X42.174Y0.874
X42.107Y0.86
X42.04Y0.848
X41.972Y0.835
X41.904Y0.823
X41.835Y0.812
X41.766Y0.801
X41.696Y0.79
X41.626Y0.779
X41.556Y0.769
X41.484Y0.759
X41.413Y0.75
X41.341Y0.741
X41.268Y0.733
X41.195Y0.724
X41.121Y0.716
X41.047Y0.709
X40.972Y0.702
X40.897Y0.695
X40.821Y0.689
X40.744Y0.683
X40.667Y0.677
X40.589Y0.672
X40.511Y0.667
X40.432Y0.663
X40.352Y0.659
X40.272Y0.655
X40.191Y0.652
X40.109Y0.649
X40.027Y0.646
X39.944Y0.644
X39.776Y0.641
X39.606Y0.64
X39.522
X39.369Y0.641
X39.22Y0.644
X39.072Y0.651
X38.926Y0.659
X38.782Y0.67
X38.639Y0.683
X38.498Y0.699
X38.359Y0.717
X38.221Y0.737
X38.084Y0.759
X37.949Y0.783
X37.816Y0.81
X37.684Y0.839
X37.554Y0.869
X37.426Y0.902
X37.298Y0.937
X37.173Y0.974
X37.049Y1.013
X36.926Y1.054
X36.805Y1.097
X36.685Y1.142
X36.567Y1.189
X36.45Y1.237
X36.335Y1.288
X36.221Y1.34
X36.108Y1.395
X35.997Y1.451
X35.887Y1.509
X35.779Y1.568
X35.672Y1.63
X35.567Y1.693
X35.463Y1.758
X35.36Y1.824
X35.259Y1.892
X35.159Y1.962
X35.061Y2.034
X34.963Y2.107
X34.868Y2.182
X34.773Y2.258
X34.68Y2.337
X34.589Y2.416
X34.499Y2.497
X34.41Y2.58
X34.322Y2.664
X34.236Y2.75
X34.151Y2.837
X34.068Y2.926
X33.986Y3.016
X33.906Y3.108
X33.827Y3.201
X33.749Y3.295
X33.673Y3.391
X33.598Y3.489
X33.524Y3.587
X33.452Y3.687
X33.382Y3.788
X33.313Y3.891
X33.245Y3.995
X33.179Y4.1
X33.114Y4.206
X33.051Y4.313
G0Z10
X34.22Y9.824
G1Z-2F500
X34.244Y9.819F1000
X34.269Y9.814
X34.293Y9.81
X34.317Y9.807
X34.341Y9.804
X34.366Y9.802
X34.39Y9.801
X34.415Y9.8
X34.44
X43.479
X43.504
X43.529Y9.801
X43.553Y9.802
X43.578Y9.804
X43.602Y9.807
X43.626Y9.81
X43.65Y9.814
X43.675Y9.819
X43.699Y9.824
X43.723Y9.829
X43.746Y9.836
X43.77Y9.843
X43.793Y9.85
X43.816Y9.858
X43.839Y9.867
X43.862Y9.876
X43.885Y9.885
X43.907Y9.896
X43.929Y9.906
X43.951Y9.918
X43.972Y9.929
X43.994Y9.942
X44.015Y9.955
X44.035Y9.968
X44.055Y9.982
X44.075Y9.996
X44.095Y10.011
X44.114Y10.027
X44.133Y10.042
X44.151Y10.059
X44.169Y10.075
X44.187Y10.092
X44.204Y10.11
X44.221Y10.128
X44.237Y10.146
X44.253Y10.165
X44.268Y10.184
X44.283Y10.204
X44.297Y10.224
X44.311Y10.244
X44.324Y10.265
X44.337Y10.286
X44.35Y10.307
X44.362Y10.328
X44.373Y10.35
X44.384Y10.372
X44.394Y10.394
X44.403Y10.417
X44.413Y10.44
X44.421Y10.463
X44.429Y10.486
X44.436Y10.509
X44.443Y10.533
X44.45Y10.557
X44.455Y10.581
X44.46Y10.605
X44.465Y10.629
X44.469Y10.653
X44.472Y10.677
X44.475Y10.702
X44.477Y10.726
X44.478Y10.751
X44.479Y10.775
Y10.8
Y10.824
X44.478Y10.849
X44.474Y10.941
X44.468Y11.033
X44.461Y11.124
X44.454Y11.215
X44.445Y11.305
X44.436Y11.395
X44.425Y11.485
X44.413Y11.573
X44.401Y11.662
X44.387Y11.749
X44.373Y11.836
X44.357Y11.923
X44.34Y12.009
X44.323Y12.095
X44.304Y12.179
X44.284Y12.264
X44.264Y12.348
X44.242Y12.431
X44.219Y12.513
X44.196Y12.595
X44.171Y12.677
X44.145Y12.758
X44.118Y12.838
X44.09Y12.918
X44.062Y12.996
X44.032Y13.075
X44.001Y13.152
X43.969Y13.229
X43.936Y13.306
X43.902Y13.381
X43.867Y13.456
X43.831Y13.53
X43.793Y13.604
X43.755Y13.676
X43.716Y13.748
X43.676Y13.819
X43.634Y13.89
X43.592Y13.959
X43.549Y14.028
X43.504Y14.096
X43.459Y14.164
X43.412Y14.23
X43.365Y14.295
X43.316Y14.36
X43.267Y14.424
X43.216Y14.487
X43.165Y14.549
X43.112Y14.61
X43.059Y14.67
X43.004Y14.729
X42.949Y14.787
X42.892Y14.844
X42.835Y14.9
X42.776Y14.955
X42.717Y15.009
X42.657Y15.063
X42.595Y15.115
X42.533Y15.166
X42.47Y15.215
X42.406Y15.264
X42.342Y15.312
X42.276Y15.358
X42.209Y15.404
X42.142Y15.448
X42.074Y15.491
X42.005Y15.533
X41.935Y15.574
X41.865Y15.614
X41.793Y15.652
X41.721Y15.69
X41.648Y15.726
X41.575Y15.761
X41.501Y15.794
X41.426Y15.827
X41.35Y15.858
X41.274Y15.888
X41.197Y15.917
X41.119Y15.945
X41.041Y15.971
X40.962Y15.996
X40.883Y16.02
X40.802Y16.043
X40.722Y16.064
X40.641Y16.084
X40.559Y16.103
X40.477Y16.121
X40.394Y16.137
X40.31Y16.153
X40.227Y16.167
X40.142Y16.179
X40.057Y16.191
X39.972Y16.201
X39.886Y16.21
X39.8Y16.218
X39.713Y16.225
X39.626Y16.23
X39.538Y16.234
X39.45Y16.237
X39.362Y16.239
X39.274
X39.18
X39.088Y16.237
X38.995Y16.234
X38.904Y16.23
X38.813Y16.225
X38.722Y16.219
X38.632Y16.212
X38.542Y16.203
X38.453Y16.194
X38.364Y16.183
X38.276Y16.171
X38.188Y16.158
X38.101Y16.144
X38.014Y16.129
X37.928Y16.112
X37.843Y16.095
X37.758Y16.076
X37.674Y16.056
X37.59Y16.035
X37.506Y16.013
X37.424Y15.989
X37.342Y15.965
X37.26Y15.939
X37.18Y15.912
X37.099Y15.884
X37.02Y15.855
X36.941Y15.824
X36.863Y15.793
X36.785Y15.76
X36.708Y15.726
X36.632Y15.691
X36.556Y15.655
X36.482Y15.617
X36.408Y15.579
X36.334Y15.539
X36.262Y15.498
X36.19Y15.456
X36.119Y15.413
X36.049Y15.369
X35.979Y15.323
X35.911Y15.277
X35.843Y15.229
X35.776Y15.181
X35.71Y15.131
X35.645Y15.08
X35.58Y15.028
X35.517Y14.975
X35.454Y14.921
X35.393Y14.866
X35.332Y14.81
X35.272Y14.753
X35.213Y14.696
X35.155Y14.637
X35.097Y14.577
X35.041Y14.516
X34.986Y14.454
X34.931Y14.391
X34.878Y14.328
X34.825Y14.263
X34.774Y14.198
X34.723Y14.132
X34.673Y14.064
X34.624Y13.997
X34.577Y13.928
X34.53Y13.858
X34.484Y13.788
X34.439Y13.716
X34.395Y13.644
X34.351Y13.571
X34.309Y13.498
X34.268Y13.423
X34.227Y13.348
X34.188Y13.272
X34.149Y13.196
X34.111Y13.118
X34.075Y13.04
X34.039Y12.961
X34.004Y12.882
X33.97Y12.801
X33.937Y12.721
X33.904Y12.639
X33.873Y12.557
X33.842Y12.474
X33.813Y12.39
X33.784Y12.306
X33.756Y12.22
X33.729Y12.135
X33.702Y12.048
X33.677Y11.961
X33.653Y11.874
X33.629Y11.785
X33.606Y11.696
X33.584Y11.607
X33.563Y11.516
X33.542Y11.426
X33.523Y11.334
X33.504Y11.242
X33.486Y11.149
X33.469Y11.056
X33.454Y10.971
X33.45Y10.947
X33.447Y10.922
X33.444Y10.898
X33.442Y10.873
X33.441Y10.849
X33.44Y10.824
Y10.8
Y10.775
X33.441Y10.751
X33.442Y10.726
X33.444Y10.702
X33.447Y10.677
X33.45Y10.653
X33.454Y10.629
X33.459Y10.605
X33.464Y10.581
X33.469Y10.557
X33.476Y10.533
X33.482Y10.509
X33.49Y10.486
X33.498Y10.463
X33.506Y10.44
X33.516Y10.417
X33.525Y10.394
X33.535Y10.372
X33.546Y10.35
X33.557Y10.328
X33.569Y10.307
X33.582Y10.286
X33.595Y10.265
X33.608Y10.244
X33.622Y10.224
X33.636Y10.204
X33.651Y10.184
X33.666Y10.165
X33.682Y10.146
X33.698Y10.128
X33.715Y10.11
X33.732Y10.093
X33.75Y10.075
X33.768Y10.059
X33.786Y10.042
X33.805Y10.027
X33.824Y10.011
X33.844Y9.996
X33.864Y9.982
X33.884Y9.968
X33.904Y9.955
X33.925Y9.942
X33.947Y9.929
X33.968Y9.918
X33.99Y9.906
X34.012Y9.896
X34.034Y9.885
X34.057Y9.876
X34.08Y9.867
X34.103Y9.858
X34.126Y9.85
X34.149Y9.843
X34.173Y9.836
X34.196Y9.829
X34.22Y9.824
G0Z10
X45.974Y9.443
G1Z-2F500
X46.1Y9.316F1000
X46.146Y9.279
X46.3Y9.124
X46.329Y9.102
X46.5Y8.931Z-1.833
X46.516Y8.92Z-1.782
X46.7Y8.735Z-1.104
X46.707Y8.732Z-1.083
X46.9Y8.538Z-0.368
G0Z10
X45.68Y3.446
G1Z-2F500
X45.689Y3.46F1000
X45.726Y3.527
X45.758Y3.58
X45.771Y3.602
X45.816Y3.674
X45.833Y3.7
X45.86Y3.75
X45.903Y3.825
X45.949Y3.896
X45.952Y3.9
X45.991Y3.974
X46.034Y4.047
X46.069Y4.1
X46.079Y4.12
X46.12Y4.197
X46.164Y4.269Z-1.924
X46.186Y4.3Z-1.842
X46.206Y4.344Z-1.768
X46.247Y4.42Z-1.61
X46.292Y4.488Z-1.445
X46.301Y4.5Z-1.412
X46.331Y4.568Z-1.299
X46.373Y4.641Z-1.144
X46.416Y4.7Z-0.983
X46.419Y4.709Z-0.973
X46.454Y4.792Z-0.829
X46.499Y4.861Z-0.674
X46.536Y4.9Z-0.536
X46.541Y4.933Z-0.516
X46.576Y5.016Z-0.364
X46.629Y5.072Z-0.187
G0Z10
X45.68Y2.306
G1Z-2F500
X45.771Y2.26F1000
X45.781Y2.253
X45.917Y2.172
X46.048Y2.103
X46.144Y2.06Z-1.999
X46.181Y2.034Z-1.862
X46.326Y1.948Z-1.313
X46.455Y1.889Z-0.838
X46.566Y1.86Z-0.421
G0Z10
X51.02Y0.1
G1Z-0.373F500
X51.42Y0.5Z-1.866
X51.62Y0.7Z-2F1000
X51.92Y1
Y26.28
X53.48
Y1
X51.92
G0Z10
X53.48
G1Z-2F500
X53.78Y0.699F1000
X53.98Y0.499Z-1.866
X54.38Y0.1Z-0.373
G0Z10
X59.78
G1Z-0.373F500
X60.18Y0.5Z-1.866
X60.38Y0.7Z-2F1000
X60.68Y1
Y26.28
X62.24
Y1
X60.68
G0Z10
X62.24
G1Z-2F500
X62.54Y0.7F1000
X62.739Y0.5Z-1.866
X63.139Y0.1Z-0.373
G0Z10
X69.626Y4.322
G1Z-2F500
X69.558Y4.431F1000
X69.491Y4.541
X69.425Y4.652
X69.362Y4.765
X69.3Y4.879
X69.24Y4.994
X69.181Y5.111
X69.124Y5.229
X69.069Y5.348
X69.015Y5.468
X68.964Y5.59
X68.914Y5.713
X68.866Y5.837
X68.819Y5.962
X68.775Y6.088
X68.732Y6.216
X68.691Y6.345
X68.652Y6.475
X68.615Y6.607
X68.579Y6.739
X68.546Y6.873
X68.514Y7.007
X68.484Y7.143
X68.457Y7.28
X68.431Y7.418
X68.407Y7.558
X68.385Y7.698
X68.365Y7.839
X68.347Y7.982
X68.332Y8.125
X68.318Y8.27
X68.306Y8.416
X68.297Y8.562
X68.289Y8.71
X68.284Y8.859
X68.281Y9.009
X68.28Y9.159
X68.281Y9.298
X68.284Y9.436
X68.289Y9.573
X68.297Y9.709
X68.307Y9.844
X68.319Y9.979
X68.333Y10.113
X68.349Y10.246
X68.367Y10.378
X68.387Y10.51
X68.41Y10.64
X68.434Y10.77
X68.46Y10.899
X68.489Y11.027
X68.519Y11.154
X68.551Y11.28
X68.585Y11.406
X68.621Y11.53
X68.659Y11.654
X68.699Y11.776
X68.741Y11.898
X68.785Y12.019
X68.83Y12.138
X68.878Y12.257
X68.927Y12.375
X68.978Y12.492
X69.03Y12.607
X69.085Y12.722
X69.141Y12.836
X69.199Y12.948
X69.259Y13.06
X69.321Y13.17
X69.384Y13.279
X69.449Y13.388
X69.515Y13.495
X69.583Y13.601
X69.653Y13.705
X69.725Y13.809
X69.798Y13.911
X69.873Y14.013
X69.949Y14.113
X70.027Y14.211
X70.106Y14.309
X70.187Y14.405
X70.27Y14.5
X70.354Y14.594
X70.439Y14.686
X70.526Y14.778
X70.615Y14.867
X70.705Y14.956
X70.796Y15.043
X70.889Y15.129
X70.983Y15.213
X71.079Y15.296
X71.176Y15.377
X71.275Y15.457
X71.374Y15.536
X71.476Y15.613
X71.578Y15.689
X71.682Y15.763
X71.787Y15.836
X71.893Y15.907
X72.001Y15.976
X72.11Y16.044
X72.22Y16.111
X72.332Y16.176
X72.444Y16.239
X72.558Y16.301
X72.673Y16.361
X72.79Y16.419
X72.907Y16.476
X73.026Y16.531
X73.145Y16.584
X73.266Y16.635
X73.388Y16.685
X73.511Y16.733
X73.635Y16.78
X73.761Y16.824
X73.887Y16.867
X74.014Y16.908
X74.142Y16.947
X74.272Y16.984
X74.402Y17.02
X74.533Y17.053
X74.666Y17.085
X74.799Y17.114
X74.933Y17.142
X75.069Y17.168
X75.205Y17.192
X75.342Y17.214
X75.48Y17.234
X75.618Y17.251
X75.758Y17.267
X75.899Y17.281
X76.04Y17.293
X76.182Y17.302
X76.325Y17.31
X76.469Y17.315
X76.614Y17.318
X76.76Y17.319
X76.915Y17.318
X77.069Y17.315
X77.222Y17.31
X77.374Y17.303
X77.525Y17.293
X77.674Y17.282
X77.823Y17.269
X77.971Y17.253
X78.118Y17.236
X78.263Y17.216
X78.408Y17.195
X78.551Y17.172
X78.693Y17.147
X78.834Y17.12
X78.974Y17.091
X79.112Y17.06
X79.25Y17.027
X79.386Y16.992
X79.521Y16.956
X79.655Y16.918
X79.787Y16.878
X79.919Y16.836
X80.049Y16.793
X80.177Y16.748
X80.305Y16.701
X80.431Y16.652
X80.556Y16.602
X80.68Y16.55
X80.802Y16.496
X80.923Y16.44
X81.043Y16.383
X81.161Y16.325
X81.278Y16.264
X81.393Y16.203
X81.508Y16.139
X81.62Y16.074
X81.732Y16.008
X81.842Y15.939
X81.95Y15.87
X82.058Y15.799
X82.163Y15.726
X82.268Y15.652
X82.371Y15.576
X82.472Y15.499
X82.572Y15.421
X82.67Y15.341
X82.767Y15.259
X82.863Y15.176
X82.956Y15.092
X83.049Y15.007
X83.14Y14.92
X83.229Y14.831
X83.317Y14.742
X83.403Y14.65
X83.487Y14.558
X83.571Y14.464
X83.652Y14.369
X83.732Y14.273
X83.81Y14.175
X83.887Y14.076
X83.962Y13.976
X84.035Y13.875
X84.107Y13.772
X84.177Y13.668
X84.245Y13.563
X84.312Y13.456
X84.377Y13.349
X84.44Y13.24
X84.501Y13.13
X84.561Y13.018
X84.619Y12.906
X84.675Y12.792
X84.73Y12.677
X84.783Y12.561
X84.833Y12.444
X84.883Y12.326
X84.93Y12.206
X84.975Y12.086
X85.019Y11.964
X85.061Y11.841
X85.1Y11.717
X85.138Y11.592
X85.174Y11.466
X85.208Y11.339
X85.241Y11.21
X85.271Y11.081
X85.299Y10.95
X85.325Y10.819
X85.35Y10.686
X85.372Y10.553
X85.392Y10.418
X85.41Y10.282
X85.426Y10.145
X85.44Y10.007
X85.452Y9.869
X85.462Y9.729
X85.47Y9.588
X85.475Y9.446
X85.478Y9.303
X85.479Y9.159
X85.478Y9.004
X85.475Y8.849
X85.47Y8.696
X85.462Y8.543
X85.453Y8.393
X85.441Y8.243
X85.427Y8.094
X85.411Y7.947
X85.393Y7.801
X85.373Y7.657
X85.351Y7.513
X85.327Y7.371
X85.301Y7.231
X85.274Y7.091
X85.244Y6.953
X85.212Y6.816
X85.178Y6.681
X85.143Y6.547
X85.105Y6.414
X85.066Y6.283
X85.025Y6.152
X84.982Y6.024
X84.937Y5.896
X84.89Y5.77
X84.842Y5.646
X84.791Y5.522
X84.739Y5.4
X84.686Y5.28
X84.63Y5.161
X84.573Y5.043
X84.514Y4.926
X84.453Y4.811
X84.391Y4.698
X84.327Y4.586
X84.261Y4.475
X84.194Y4.365
X84.125Y4.258
X84.054Y4.151
X83.982Y4.046
X83.908Y3.942
X83.832Y3.84
X83.755Y3.739
X83.676Y3.64
X83.596Y3.542
X83.514Y3.445
X83.43Y3.35
X83.345Y3.257
X83.259Y3.165
X83.171Y3.074
X83.081Y2.985
X82.99Y2.897
X82.897Y2.811
X82.802Y2.727
X82.707Y2.643
X82.609Y2.562
X82.51Y2.482
X82.41Y2.403
X82.308Y2.326
X82.205Y2.251
X82.1Y2.177
X81.994Y2.105
X81.886Y2.034
X81.777Y1.965
X81.666Y1.897
X81.554Y1.831
X81.44Y1.767
X81.325Y1.704
X81.209Y1.643
X81.091Y1.584
X80.971Y1.526
X80.85Y1.47
X80.728Y1.416
X80.605Y1.363
X80.48Y1.312
X80.353Y1.263
X80.225Y1.216
X80.096Y1.17
X79.965Y1.126
X79.834Y1.084
X79.7Y1.044
X79.566Y1.005
X79.429Y0.969
X79.292Y0.934
X79.153Y0.901
X79.013Y0.87
X78.872Y0.841
X78.729Y0.813
X78.585Y0.788
X78.44Y0.765
X78.294Y0.743
X78.146Y0.724
X77.997Y0.706
X77.846Y0.691
X77.695Y0.677
X77.542Y0.666
X77.388Y0.656
X77.233Y0.649
X77.076Y0.644
X76.918Y0.641
X76.76Y0.64
X76.609Y0.641
X76.459Y0.644
X76.311Y0.649
X76.163Y0.657
X76.017Y0.667
X75.871Y0.678
X75.727Y0.692
X75.584Y0.708
X75.442Y0.726
X75.301Y0.746
X75.161Y0.768
X75.022Y0.792
X74.884Y0.818
X74.747Y0.846
X74.612Y0.876
X74.478Y0.908
X74.345Y0.942
X74.213Y0.977
X74.082Y1.015
X73.952Y1.054
X73.824Y1.095
X73.697Y1.138
X73.571Y1.183
X73.446Y1.23
X73.322Y1.279
X73.2Y1.329
X73.079Y1.381
X72.959Y1.435
X72.841Y1.49
X72.724Y1.548
X72.608Y1.607
X72.493Y1.667
X72.379Y1.73
X72.267Y1.794
X72.157Y1.859
X72.047Y1.927
X71.939Y1.995
X71.832Y2.066
X71.727Y2.138
X71.623Y2.212
X71.52Y2.287
X71.419Y2.364
X71.319Y2.443
X71.22Y2.523
X71.123Y2.604
X71.027Y2.687
X70.933Y2.772
X70.84Y2.858
X70.749Y2.945
X70.659Y3.035
X70.57Y3.125
X70.483Y3.217
X70.398Y3.31
X70.314Y3.405
X70.231Y3.502
X70.15Y3.599
X70.07Y3.698
X69.992Y3.799
X69.916Y3.901
X69.841Y4.004
X69.768Y4.109
X69.696Y4.215
X69.626Y4.322
G0Z10
X70.91Y5.113
G1Z-2F500
X70.965Y5.018F1000
X71.021Y4.924
X71.079Y4.831
X71.138Y4.74
X71.198Y4.649
X71.259Y4.56
X71.322Y4.472
X71.387Y4.385
X71.452Y4.299
X71.519Y4.215
X71.588Y4.132
X71.657Y4.05
X71.728Y3.969
X71.8Y3.89
X71.874Y3.812
X71.949Y3.735
X72.025Y3.66
X72.102Y3.586
X72.18Y3.513
X72.26Y3.442
X72.341Y3.372
X72.423Y3.304
X72.506Y3.237
X72.59Y3.171
X72.676Y3.107
X72.762Y3.044
X72.85Y2.983
X72.939Y2.923
X73.029Y2.865
X73.12Y2.808
X73.212Y2.753
X73.305Y2.699
X73.399Y2.647
X73.494Y2.596
X73.59Y2.547
X73.687Y2.5
X73.785Y2.454
X73.883Y2.41
X73.983Y2.367
X74.084Y2.326
X74.185Y2.287
X74.288Y2.249
X74.391Y2.213
X74.495Y2.178
X74.6Y2.145
X74.705Y2.114
X74.812Y2.084
X74.919Y2.057
X75.027Y2.03
X75.136Y2.006
X75.245Y1.983
X75.355Y1.962
X75.466Y1.942
X75.578Y1.924
X75.69Y1.908
X75.803Y1.894
X75.916Y1.881
X76.03Y1.87
X76.145Y1.86
X76.26Y1.853
X76.376Y1.847
X76.492Y1.843
X76.609Y1.84
X76.726
X76.851
X76.976Y1.843
X77.1Y1.847
X77.223Y1.853
X77.345Y1.86
X77.467Y1.869
X77.588Y1.879
X77.708Y1.892
X77.827Y1.905
X77.946Y1.921
X78.064Y1.938
X78.181Y1.956
X78.297Y1.976
X78.413Y1.998
X78.527Y2.021
X78.641Y2.046
X78.754Y2.073
X78.866Y2.101
X78.977Y2.131
X79.088Y2.162
X79.197Y2.195
X79.306Y2.23
X79.413Y2.266
X79.52Y2.304
X79.626Y2.344
X79.73Y2.385
X79.834Y2.427
X79.937Y2.471
X80.038Y2.517
X80.139Y2.564
X80.239Y2.613
X80.337Y2.664
X80.435Y2.716
X80.531Y2.77
X80.627Y2.825
X80.721Y2.881
X80.814Y2.94
X80.906Y2.999
X80.996Y3.061
X81.086Y3.124
X81.174Y3.188
X81.261Y3.254
X81.347Y3.321
X81.431Y3.39
X81.515Y3.46
X81.597Y3.531
X81.677Y3.605
X81.756Y3.679
X81.834Y3.755
X81.911Y3.832
X81.986Y3.911
X82.06Y3.991
X82.133Y4.072
X82.204Y4.155
X82.273Y4.239
X82.341Y4.324
X82.408Y4.41
X82.474Y4.498
X82.537Y4.587
X82.6Y4.677
X82.661Y4.769
X82.72Y4.862
X82.778Y4.955
X82.834Y5.05
X82.889Y5.146
X82.943Y5.244
X82.995Y5.342
X83.045Y5.442
X83.094Y5.542
X83.141Y5.644
X83.187Y5.746
X83.231Y5.85
X83.274Y5.955
X83.315Y6.061
X83.355Y6.167
X83.393Y6.275
X83.429Y6.384
X83.464Y6.493
X83.497Y6.604
X83.529Y6.715
X83.56Y6.828
X83.588Y6.941
X83.616Y7.055
X83.641Y7.17
X83.665Y7.286
X83.688Y7.403
X83.709Y7.521
X83.728Y7.64
X83.746Y7.759
X83.762Y7.879
X83.777Y8
X83.79Y8.122
X83.802Y8.245
X83.812Y8.368
X83.82Y8.493
X83.827Y8.618
X83.833Y8.743
X83.837Y8.87
X83.839Y8.997
Y9.127
Y9.246
X83.836Y9.364
X83.831Y9.482
X83.825Y9.599
X83.817Y9.716
X83.807Y9.832
X83.796Y9.948
X83.783Y10.063
X83.768Y10.177
X83.752Y10.291
X83.734Y10.404
X83.714Y10.516
X83.692Y10.628
X83.669Y10.739
X83.644Y10.849
X83.618Y10.959
X83.59Y11.068
X83.56Y11.176
X83.529Y11.283
X83.496Y11.39
X83.461Y11.495
X83.425Y11.6
X83.387Y11.704
X83.348Y11.808
X83.307Y11.91
X83.264Y12.011
X83.22Y12.112
X83.175Y12.212
X83.128Y12.31
X83.079Y12.408
X83.029Y12.505
X82.978Y12.601
X82.925Y12.696
X82.87Y12.79
X82.814Y12.883
X82.757Y12.974
X82.698Y13.065
X82.638Y13.155
X82.576Y13.244
X82.513Y13.331
X82.449Y13.418
X82.383Y13.503
X82.316Y13.587
X82.247Y13.67
X82.178Y13.752
X82.107Y13.833
X82.034Y13.913
X81.96Y13.991
X81.885Y14.068
X81.809Y14.144
X81.732Y14.218
X81.653Y14.292
X81.573Y14.364
X81.492Y14.435
X81.409Y14.504
X81.326Y14.573
X81.241Y14.64
X81.155Y14.705
X81.069Y14.769
X80.98Y14.832
X80.891Y14.894
X80.801Y14.954
X80.71Y15.013
X80.617Y15.07
X80.524Y15.126
X80.429Y15.18
X80.334Y15.233
X80.238Y15.285
X80.14Y15.335
X80.042Y15.384
X79.942Y15.431
X79.842Y15.477
X79.741Y15.521
X79.639Y15.564
X79.536Y15.605
X79.432Y15.645
X79.327Y15.683
X79.221Y15.72
X79.115Y15.755
X79.008Y15.788
X78.9Y15.82
X78.791Y15.851
X78.681Y15.879
X78.571Y15.907
X78.46Y15.932
X78.348Y15.956
X78.235Y15.979
X78.122Y15.999
X78.008Y16.019
X77.893Y16.036
X77.778Y16.052
X77.662Y16.066
X77.545Y16.079
X77.428Y16.09
X77.31Y16.099
X77.192Y16.106
X77.073Y16.112
X76.953Y16.116
X76.833Y16.119
X76.712
X76.596Y16.118
X76.481Y16.116
X76.367Y16.111
X76.253Y16.105
X76.139Y16.097
X76.026Y16.088
X75.914Y16.076
X75.802Y16.064
X75.691Y16.049
X75.58Y16.033
X75.47Y16.015
X75.361Y15.995
X75.252Y15.974
X75.145Y15.951
X75.037Y15.926
X74.931Y15.9
X74.825Y15.872
X74.72Y15.843
X74.615Y15.812
X74.512Y15.779
X74.409Y15.745
X74.307Y15.709
X74.206Y15.672
X74.106Y15.633
X74.006Y15.593
X73.908Y15.551
X73.81Y15.508
X73.713Y15.463
X73.617Y15.416
X73.522Y15.369
X73.428Y15.319
X73.335Y15.269
X73.242Y15.216
X73.151Y15.163
X73.061Y15.108
X72.972Y15.051
X72.884Y14.993
X72.797Y14.934
X72.71Y14.874
X72.625Y14.812
X72.541Y14.748
X72.459Y14.684
X72.377Y14.618
X72.296Y14.55
X72.217Y14.482
X72.138Y14.412
X72.061Y14.341
X71.985Y14.269
X71.91Y14.195
X71.837Y14.121
X71.764Y14.045
X71.693Y13.967
X71.623Y13.889
X71.554Y13.81
X71.487Y13.729
X71.421Y13.647
X71.356Y13.564
X71.292Y13.48
X71.23Y13.395
X71.169Y13.309
X71.109Y13.222
X71.051Y13.134
X70.994Y13.045
X70.938Y12.954
X70.884Y12.863
X70.831Y12.771
X70.78Y12.678
X70.73Y12.583
X70.681Y12.488
X70.634Y12.392
X70.588Y12.295
X70.543Y12.197
X70.5Y12.099
X70.459Y11.999
X70.419Y11.899
X70.38Y11.797
X70.343Y11.695
X70.308Y11.592
X70.274Y11.489
X70.241Y11.384
X70.21Y11.279
X70.181Y11.173
X70.153Y11.066
X70.126Y10.959
X70.101Y10.85
X70.078Y10.742
X70.056Y10.632
X70.036Y10.522
X70.018Y10.411
X70.001Y10.299
X69.985Y10.187
X69.971Y10.075
X69.959Y9.961
X69.949Y9.847
X69.94Y9.733
X69.932Y9.618
X69.927Y9.502
X69.923Y9.386
X69.92Y9.27
Y9.153
Y9.027
X69.923Y8.902
X69.927Y8.777
X69.932Y8.653
X69.939Y8.529
X69.948Y8.407
X69.958Y8.285
X69.97Y8.164
X69.983Y8.043
X69.998Y7.924
X70.015Y7.805
X70.033Y7.686
X70.052Y7.569
X70.073Y7.452
X70.095Y7.337
X70.119Y7.222
X70.145Y7.108
X70.172Y6.994
X70.2Y6.882
X70.23Y6.77
X70.262Y6.66
X70.295Y6.55
X70.329Y6.441
X70.365Y6.333
X70.403Y6.226
X70.442Y6.12
X70.482Y6.014
X70.524Y5.91
X70.567Y5.807
X70.612Y5.705
X70.658Y5.603
X70.706Y5.503
X70.755Y5.404
X70.805Y5.306
X70.857Y5.209
X70.91Y5.113
G0Z10
X62.24Y26.28
G1Z-2F500
X62.54Y26.58F1000
X62.739Y26.78Z-1.866
X63.139Y27.18Z-0.373
G0Z10
X59.78
G1Z-0.373F500
X60.18Y26.78Z-1.866
X60.38Y26.58Z-2F1000
X60.68Y26.28
G0Z10
X53.48
G1Z-2F500
X53.78Y26.58F1000
X53.98Y26.78Z-1.866
X54.38Y27.18Z-0.373
G0Z10
X51.02
G1Z-0.373F500
X51.42Y26.78Z-1.866
X51.62Y26.58Z-2F1000
X51.92Y26.28
G0Z10
X25.22Y26.38
G1Z-2F500
X25.42Y26.58F1000
X25.62Y26.78Z-1.866
X26.02Y27.18Z-0.373
G0Z10
X25.22Y26.38
G1Z-2F500
G0Z10
X22.7Y26.78
G1Z-1.866
X22.9Y26.58Z-2F1000
X23.2Y26.28
G0Z10
X22.7Y26.78
G1Z-1.866F500
G0Z10
X22.299Y27.18
G1Z-0.373
X22.7Y26.78Z-1.866
G0Z10
X5.92Y26.28
G1Z-2
X6.22Y26.58F1000
X6.42Y26.78Z-1.866
X6.82Y27.18Z-0.373
G0Z10
X3.1
G1Z-0.373F500
X3.5Y26.78Z-1.866
X3.7Y26.58Z-2F1000
X4Y26.28
G0Z10
X3.1Y0.1
G1Z-0.373F500
X3.9Y0.9Z-3.358
X4Y1Z-3.545
Z-3.732
Y26.28F1000
X5.92
Y15.4
Y15.375
X5.921Y15.35
X5.922Y15.326
X5.924Y15.301
X5.927Y15.277
X5.93Y15.253
X5.934Y15.229
X5.939Y15.204
X5.944Y15.18
X5.949Y15.157
X5.956Y15.133
X5.963Y15.109
X5.97Y15.086
X5.978Y15.063
X5.987Y15.04
X5.996Y15.017
X6.005Y14.994
X6.016Y14.972
X6.026Y14.95
X6.038Y14.928
X6.049Y14.907
X6.062Y14.885
X6.075Y14.865
X6.088Y14.844
X6.102Y14.824
X6.116Y14.804
X6.131Y14.784
X6.146Y14.765
X6.162Y14.746
X6.179Y14.728
X6.195Y14.71
X6.212Y14.692
X6.23Y14.675
X6.248Y14.659
X6.266Y14.642
X6.285Y14.626
X6.304Y14.611
X6.324Y14.596
X6.344Y14.582
X6.364Y14.568
X6.385Y14.555
X6.405Y14.542
X6.427Y14.529
X6.448Y14.518
X6.47Y14.506
X6.492Y14.496
X6.514Y14.485
X6.537Y14.476
X6.56Y14.467
X6.583Y14.458
X6.606Y14.45
X6.629Y14.443
X6.653Y14.436
X6.677Y14.429
X6.7Y14.424
X6.724Y14.419
X6.749Y14.414
X6.773Y14.41
X6.797Y14.407
X6.821Y14.404
X6.846Y14.402
X6.87Y14.401
X6.895Y14.4
X6.92
X22.2
X22.224
X22.249Y14.401
X22.273Y14.402
X22.298Y14.404
X22.322Y14.407
X22.346Y14.41
X22.37Y14.414
X22.395Y14.419
X22.419Y14.424
X22.442Y14.429
X22.466Y14.436
X22.49Y14.443
X22.513Y14.45
X22.536Y14.458
X22.559Y14.467
X22.582Y14.476
X22.605Y14.485
X22.627Y14.496
X22.649Y14.506
X22.671Y14.518
X22.692Y14.529
X22.714Y14.542
X22.734Y14.555
X22.755Y14.568
X22.775Y14.582
X22.795Y14.596
X22.815Y14.611
X22.834Y14.626
X22.853Y14.642
X22.871Y14.659
X22.889Y14.675
X22.907Y14.692
X22.924Y14.71
X22.94Y14.728
X22.957Y14.746
X22.973Y14.765
X22.988Y14.784
X23.003Y14.804
X23.017Y14.824
X23.031Y14.844
X23.044Y14.865
X23.057Y14.885
X23.07Y14.907
X23.081Y14.928
X23.093Y14.95
X23.103Y14.972
X23.114Y14.994
X23.123Y15.017
X23.132Y15.04
X23.141Y15.063
X23.149Y15.086
X23.156Y15.109
X23.163Y15.133
X23.17Y15.157
X23.175Y15.18
X23.18Y15.204
X23.185Y15.229
X23.189Y15.253
X23.192Y15.277
X23.195Y15.301
X23.197Y15.326
X23.198Y15.35
X23.199Y15.375
X23.2Y15.4
Y26.28
X25.12
Y1
X23.2
Y11.88
X23.199Y11.904
X23.198Y11.929
X23.197Y11.953
X23.195Y11.978
X23.192Y12.002
X23.189Y12.026
X23.185Y12.05
X23.18Y12.075
X23.175Y12.099
X23.17Y12.122
X23.163Y12.146
X23.156Y12.17
X23.149Y12.193
X23.141Y12.216
X23.132Y12.239
X23.123Y12.262
X23.114Y12.285
X23.103Y12.307
X23.093Y12.329
X23.081Y12.351
X23.07Y12.372
X23.057Y12.394
X23.044Y12.414
X23.031Y12.435
X23.017Y12.455
X23.003Y12.475
X22.988Y12.495
X22.973Y12.514
X22.957Y12.533
X22.94Y12.551
X22.924Y12.569
X22.907Y12.587
X22.889Y12.604
X22.871Y12.62
X22.853Y12.637
X22.834Y12.653
X22.815Y12.668
X22.795Y12.683
X22.775Y12.697
X22.755Y12.711
X22.734Y12.724
X22.714Y12.737
X22.692Y12.75
X22.671Y12.761
X22.649Y12.773
X22.627Y12.783
X22.605Y12.794
X22.582Y12.803
X22.559Y12.812
X22.536Y12.821
X22.513Y12.829
X22.49Y12.836
X22.466Y12.843
X22.442Y12.85
X22.419Y12.855
X22.395Y12.86
X22.37Y12.865
X22.346Y12.869
X22.322Y12.872
X22.298Y12.875
X22.273Y12.877
X22.249Y12.878
X22.224Y12.879
X22.2Y12.88
X6.92
X6.895Y12.879
X6.87Y12.878
X6.846Y12.877
X6.821Y12.875
X6.797Y12.872
X6.773Y12.869
X6.749Y12.865
X6.724Y12.86
X6.7Y12.855
X6.677Y12.85
X6.653Y12.843
X6.629Y12.836
X6.606Y12.829
X6.583Y12.821
X6.56Y12.812
X6.537Y12.803
X6.514Y12.794
X6.492Y12.783
X6.47Y12.773
X6.448Y12.761
X6.427Y12.75
X6.405Y12.737
X6.385Y12.724
X6.364Y12.711
X6.344Y12.697
X6.324Y12.683
X6.304Y12.668
X6.285Y12.653
X6.266Y12.637
X6.248Y12.62
X6.23Y12.604
X6.212Y12.587
X6.195Y12.569
X6.179Y12.551
X6.162Y12.533
X6.146Y12.514
X6.131Y12.495
X6.116Y12.475
X6.102Y12.455
X6.088Y12.435
X6.075Y12.414
X6.062Y12.394
X6.049Y12.372
X6.038Y12.351
X6.026Y12.329
X6.016Y12.307
X6.005Y12.285
X5.996Y12.262
X5.987Y12.239
X5.978Y12.216
X5.97Y12.193
X5.963Y12.17
X5.956Y12.146
X5.949Y12.122
X5.944Y12.099
X5.939Y12.075
X5.934Y12.05
X5.93Y12.026
X5.927Y12.002
X5.924Y11.978
X5.922Y11.953
X5.921Y11.929
X5.92Y11.904
Y11.88
Y1
X4
G0Z10
X5.92
G1Z-3.545F500
X6.02Y0.9Z-3.358F1000
X6.82Y0.1Z-0.373
G0Z10
X22.299
G1Z-0.373F500
X23.1Y0.9Z-3.358
X23.2Y1Z-3.545
G0Z10
X25.12
G1Z-3.545
X25.22Y0.9Z-3.358F1000
X26.02Y0.1Z-0.373
G0Z10
X33.051Y4.313
G1Z-3.732F500
X32.989Y4.422F1000
X32.928Y4.532
X32.87Y4.643
X32.812Y4.755
X32.756Y4.868
X32.702Y4.982
X32.649Y5.098
X32.598Y5.214
X32.548Y5.331
X32.5Y5.45
X32.453Y5.569
X32.408Y5.689
X32.364Y5.81
X32.322Y5.932
X32.282Y6.055
X32.243Y6.179
X32.206Y6.304
X32.17Y6.429
X32.136Y6.555
X32.103Y6.682
X32.073Y6.81
X32.043Y6.938
X32.016Y7.067
X31.99Y7.196
X31.965Y7.327
X31.943Y7.457
X31.922Y7.589
X31.902Y7.721
X31.884Y7.853
X31.868Y7.986
X31.854Y8.119
X31.841Y8.253
X31.83Y8.387
X31.821Y8.522
X31.813Y8.657
X31.807Y8.792
X31.803Y8.928
X31.8Y9.063
Y9.199
Y9.349
X31.803Y9.498
X31.808Y9.646
X31.815Y9.792
X31.823Y9.938
X31.833Y10.082
X31.845Y10.225
X31.859Y10.366
X31.875Y10.507
X31.892Y10.646
X31.911Y10.784
X31.932Y10.921
X31.955Y11.056
X31.979Y11.19
X32.005Y11.323
X32.033Y11.455
X32.062Y11.585
X32.093Y11.714
X32.126Y11.842
X32.16Y11.968
X32.196Y12.093
X32.234Y12.217
X32.273Y12.34
X32.313Y12.461
X32.355Y12.58
X32.399Y12.699
X32.444Y12.816
X32.491Y12.932
X32.539Y13.046
X32.589Y13.159
X32.64Y13.27
X32.692Y13.38
X32.746Y13.489
X32.802Y13.597
X32.859Y13.703
X32.917Y13.807
X32.977Y13.91
X33.038Y14.012
X33.1Y14.112
X33.164Y14.211
X33.229Y14.309
X33.295Y14.405
X33.363Y14.499
X33.432Y14.592
X33.503Y14.684
X33.574Y14.774
X33.647Y14.863
X33.721Y14.95
X33.797Y15.036
X33.874Y15.12
X33.952Y15.203
X34.031Y15.285
X34.111Y15.365
X34.193Y15.443
X34.276Y15.52
X34.36Y15.596
X34.445Y15.67
X34.532Y15.742
X34.62Y15.813
X34.709Y15.883
X34.799Y15.95
X34.89Y16.017
X34.983Y16.082
X35.076Y16.145
X35.171Y16.207
X35.267Y16.267
X35.364Y16.326
X35.463Y16.383
X35.562Y16.438
X35.663Y16.492
X35.765Y16.545
X35.867Y16.595
X35.971Y16.645
X36.077Y16.692
X36.183Y16.738
X36.29Y16.782
X36.399Y16.825
X36.509Y16.866
X36.62Y16.905
X36.732Y16.943
X36.845Y16.978
X36.959Y17.013
X37.074Y17.045
X37.19Y17.076
X37.308Y17.105
X37.427Y17.132
X37.546Y17.157
X37.667Y17.181
X37.789Y17.203
X37.912Y17.223
X38.036Y17.241
X38.161Y17.257
X38.287Y17.272
X38.414Y17.284
X38.543Y17.295
X38.672Y17.304
X38.802Y17.311
X38.934Y17.316
X39.066Y17.318
X39.2Y17.319
X39.328
X39.455Y17.316
X39.581Y17.312
X39.706Y17.305
X39.83Y17.298
X39.952Y17.288
X40.073Y17.277
X40.193Y17.264
X40.311Y17.249
X40.429Y17.233
X40.545Y17.215
X40.659Y17.195
X40.773Y17.174
X40.885Y17.151
X40.995Y17.126
X41.105Y17.1
X41.213Y17.072
X41.32Y17.042
X41.426Y17.011
X41.53Y16.978
X41.633Y16.944
X41.735Y16.908
X41.836Y16.87
X41.935Y16.831
X42.034Y16.79
X42.131Y16.747
X42.226Y16.703
X42.321Y16.658
X42.414Y16.61
X42.507Y16.561
X42.598Y16.511
X42.687Y16.459
X42.776Y16.405
X42.864Y16.35
X42.95Y16.293
X43.035Y16.234
X43.119Y16.174
X43.202Y16.112
X43.284Y16.048
X43.365Y15.983
X43.445Y15.916
X43.523Y15.847
X43.601Y15.776
X43.677Y15.704
X43.753Y15.63
X43.827Y15.554
X43.9Y15.476
X43.972Y15.397
X44.044Y15.316
X44.114Y15.233
X44.182Y15.147
X44.25Y15.061
X44.317Y14.972
X44.383Y14.881
X44.447Y14.788
X44.511Y14.694
X44.573Y14.597
X44.634Y14.498
X44.694Y14.398
X44.753Y14.295
X44.811Y14.191
X44.868Y14.084
X44.923Y13.975
X44.977Y13.864
X45.03Y13.751
X45.082Y13.636
X45.132Y13.519
X45.182Y13.4
X45.23Y13.279
X45.276Y13.155
X45.322Y13.03
X45.366Y12.902
X45.408Y12.772
X45.45Y12.64
X45.49Y12.506
X45.528Y12.369
X45.566Y12.231
X45.601Y12.09
X45.636Y11.947
X45.669Y11.802
X45.7Y11.655
X45.73Y11.505
X45.758Y11.353
X45.785Y11.2
X45.811Y11.044
X45.835Y10.885
X45.857Y10.725
X45.878Y10.562
X45.897Y10.397
X45.915Y10.23
X45.931Y10.061
X45.945Y9.89
X45.958Y9.716
X45.969Y9.54
X45.974Y9.44
X34.359
X34.335Y9.439
X34.311Y9.438
X34.286Y9.437
X34.262Y9.435
X34.238Y9.432
X34.214Y9.429
X34.19Y9.425
X34.166Y9.421
X34.142Y9.416
X34.118Y9.41
X34.094Y9.404
X34.071Y9.397
X34.048Y9.39
X34.025Y9.382
X34.002Y9.373
X33.979Y9.364
X33.957Y9.355
X33.934Y9.345
X33.912Y9.334
X33.891Y9.323
X33.869Y9.311
X33.848Y9.299
X33.827Y9.286
X33.807Y9.273
X33.787Y9.259
X33.767Y9.245
X33.748Y9.23
X33.728Y9.215
X33.71Y9.2
X33.691Y9.184
X33.673Y9.167
X33.656Y9.15
X33.639Y9.133
X33.622Y9.115
X33.606Y9.097
X33.59Y9.078
X33.575Y9.059
X33.56Y9.04
X33.545Y9.02
X33.531Y9
X33.518Y8.98
X33.505Y8.959
X33.493Y8.938
X33.481Y8.917
X33.469Y8.895
X33.459Y8.873
X33.448Y8.851
X33.438Y8.829
X33.429Y8.806
X33.421Y8.784
X33.412Y8.761
X33.405Y8.737
X33.398Y8.714
X33.392Y8.69
X33.386Y8.667
X33.38Y8.643
X33.376Y8.619
X33.372Y8.595
X33.368Y8.571
X33.365Y8.547
X33.363Y8.522
X33.361Y8.498
X33.36Y8.474
Y8.449
Y8.425
Y8.401
X33.362Y8.376
X33.363Y8.352
X33.366Y8.328
X33.369Y8.303
X33.372Y8.279
X33.391Y8.163
X33.411Y8.048
X33.432Y7.934
X33.454Y7.821
X33.477Y7.709
X33.501Y7.597
X33.526Y7.487
X33.552Y7.377
X33.579Y7.269
X33.607Y7.161
X33.636Y7.054
X33.666Y6.948
X33.698Y6.843
X33.73Y6.739
X33.763Y6.635
X33.798Y6.533
X33.833Y6.432
X33.87Y6.331
X33.908Y6.232
X33.947Y6.133
X33.987Y6.035
X34.028Y5.939
X34.07Y5.843
X34.113Y5.748
X34.158Y5.654
X34.203Y5.561
X34.25Y5.47
X34.298Y5.379
X34.347Y5.289
X34.397Y5.2
X34.448Y5.112
X34.5Y5.025
X34.554Y4.94
X34.609Y4.855
X34.664Y4.771
X34.721Y4.689
X34.78Y4.608
X34.839Y4.527
X34.899Y4.448
X34.961Y4.37
X35.024Y4.293
X35.087Y4.217
X35.152Y4.143
X35.219Y4.069
X35.286Y3.997
X35.354Y3.926
X35.424Y3.856
X35.494Y3.788
X35.566Y3.72
X35.638Y3.654
X35.712Y3.589
X35.787Y3.526
X35.863Y3.464
X35.94Y3.403
X36.018Y3.343
X36.097Y3.285
X36.177Y3.227
X36.258Y3.172
X36.34Y3.117
X36.423Y3.064
X36.507Y3.013
X36.592Y2.962
X36.677Y2.913
X36.764Y2.866
X36.852Y2.819
X36.94Y2.775
X37.029Y2.731
X37.12Y2.689
X37.211Y2.648
X37.302Y2.609
X37.395Y2.57
X37.489Y2.534
X37.583Y2.498
X37.678Y2.464
X37.774Y2.432
X37.871Y2.4
X37.968Y2.37
X38.066Y2.342
X38.165Y2.314
X38.265Y2.288
X38.365Y2.264
X38.466Y2.24
X38.568Y2.218
X38.671Y2.198
X38.774Y2.178
X38.878Y2.16
X38.982Y2.143
X39.088Y2.128
X39.194Y2.114
X39.3Y2.101
X39.408Y2.089
X39.516Y2.078
X39.625Y2.069
X39.734Y2.061
X39.844Y2.055
X39.955Y2.049
X40.066Y2.045
X40.179Y2.042
X40.291Y2.04
X40.403
X40.475
X40.547Y2.041
X40.619Y2.042
X40.691Y2.044
X40.763Y2.046
X40.835Y2.049
X40.907Y2.053
X40.978Y2.057
X41.05Y2.061
X41.121Y2.066
X41.193Y2.072
X41.264Y2.078
X41.335Y2.084
X41.406Y2.092
X41.477Y2.099
X41.548Y2.107
X41.619Y2.116
X41.69Y2.125
X41.76Y2.135
X41.831Y2.145
X41.901Y2.155
X41.972Y2.166
X42.042Y2.178
X42.112Y2.19
X42.182Y2.203
X42.252Y2.216
X42.322Y2.229
X42.392Y2.243
X42.462Y2.258
X42.532Y2.273
X42.601Y2.288
X42.671Y2.304
X42.74Y2.32
X42.81Y2.337
X42.879Y2.355
X42.948Y2.372
X43.017Y2.391
X43.086Y2.409
X43.155Y2.428
X43.224Y2.448
X43.293Y2.468
X43.361Y2.489
X43.43Y2.51
X43.498Y2.531
X43.567Y2.553
X43.635Y2.575
X43.703Y2.598
X43.839Y2.644
X43.975Y2.693
X44.111Y2.743
X44.246Y2.795
X44.381Y2.848
X44.516Y2.903
X44.65Y2.96
X44.785Y3.018
X44.918Y3.078
X45.052Y3.139
X45.185Y3.202
X45.319Y3.267
X45.451Y3.333
X45.584Y3.4
X45.68Y3.45
Y2.305
X45.579Y2.242
X45.459Y2.17
X45.34Y2.1
X45.221Y2.031
X45.103Y1.965
X44.985Y1.9
X44.867Y1.837
X44.749Y1.775
X44.631Y1.716
X44.514Y1.658
X44.455Y1.63
X44.396Y1.602
X44.337Y1.575
X44.278Y1.548
X44.219Y1.522
X44.16Y1.496
X44.101Y1.47
X44.042Y1.445
X43.982Y1.42
X43.923Y1.396
X43.863Y1.372
X43.804Y1.348
X43.744Y1.325
X43.684Y1.302
X43.624Y1.28
X43.563Y1.258
X43.503Y1.236
X43.442Y1.215
X43.382Y1.195
X43.32Y1.174
X43.259Y1.154
X43.198Y1.135
X43.136Y1.115
X43.074Y1.097
X43.012Y1.078
X42.949Y1.06
X42.887Y1.043
X42.823Y1.025
X42.76Y1.008
X42.696Y0.992
X42.632Y0.976
X42.568Y0.96
X42.503Y0.945
X42.438Y0.93
X42.373Y0.915
X42.307Y0.901
X42.241Y0.887
X42.174Y0.874
X42.107Y0.86
X42.04Y0.848
X41.972Y0.835
X41.904Y0.823
X41.835Y0.812
X41.766Y0.801
X41.696Y0.79
X41.626Y0.779
X41.556Y0.769
X41.484Y0.759
X41.413Y0.75
X41.341Y0.741
X41.268Y0.733
X41.195Y0.724
X41.121Y0.716
X41.047Y0.709
X40.972Y0.702
X40.897Y0.695
X40.821Y0.689
X40.744Y0.683
X40.667Y0.677
X40.589Y0.672
X40.511Y0.667
X40.432Y0.663
X40.352Y0.659
X40.272Y0.655
X40.191Y0.652
X40.109Y0.649
X40.027Y0.646
X39.944Y0.644
X39.776Y0.641
X39.606Y0.64
X39.522
X39.369Y0.641
X39.22Y0.644
X39.072Y0.651
X38.926Y0.659
X38.782Y0.67
X38.639Y0.683
X38.498Y0.699
X38.359Y0.717
X38.221Y0.737
X38.084Y0.759
X37.949Y0.783
X37.816Y0.81
X37.684Y0.839
X37.554Y0.869
X37.426Y0.902
X37.298Y0.937
X37.173Y0.974
X37.049Y1.013
X36.926Y1.054
X36.805Y1.097
X36.685Y1.142
X36.567Y1.189
X36.45Y1.237
X36.335Y1.288
X36.221Y1.34
X36.108Y1.395
X35.997Y1.451
X35.887Y1.509
X35.779Y1.568
X35.672Y1.63
X35.567Y1.693
X35.463Y1.758
X35.36Y1.824
X35.259Y1.892
X35.159Y1.962
X35.061Y2.034
X34.963Y2.107
X34.868Y2.182
X34.773Y2.258
X34.68Y2.337
X34.589Y2.416
X34.499Y2.497
X34.41Y2.58
X34.322Y2.664
X34.236Y2.75
X34.151Y2.837
X34.068Y2.926
X33.986Y3.016
X33.906Y3.108
X33.827Y3.201
X33.749Y3.295
X33.673Y3.391
X33.598Y3.489
X33.524Y3.587
X33.452Y3.687
X33.382Y3.788
X33.313Y3.891
X33.245Y3.995
X33.179Y4.1
X33.114Y4.206
X33.051Y4.313
G0Z10
X34.22Y9.824
G1Z-3.732F500
X34.244Y9.819F1000
X34.269Y9.814
X34.293Y9.81
X34.317Y9.807
X34.341Y9.804
X34.366Y9.802
X34.39Y9.801
X34.415Y9.8
X34.44
X43.479
X43.504
X43.529Y9.801
X43.553Y9.802
X43.578Y9.804
X43.602Y9.807
X43.626Y9.81
X43.65Y9.814
X43.675Y9.819
X43.699Y9.824
X43.723Y9.829
X43.746Y9.836
X43.77Y9.843
X43.793Y9.85
X43.816Y9.858
X43.839Y9.867
X43.862Y9.876
X43.885Y9.885
X43.907Y9.896
X43.929Y9.906
X43.951Y9.918
X43.972Y9.929
X43.994Y9.942
X44.015Y9.955
X44.035Y9.968
X44.055Y9.982
X44.075Y9.996
X44.095Y10.011
X44.114Y10.027
X44.133Y10.042
X44.151Y10.059
X44.169Y10.075
X44.187Y10.092
X44.204Y10.11
X44.221Y10.128
X44.237Y10.146
X44.253Y10.165
X44.268Y10.184
X44.283Y10.204
X44.297Y10.224
X44.311Y10.244
X44.324Y10.265
X44.337Y10.286
X44.35Y10.307
X44.362Y10.328
X44.373Y10.35
X44.384Y10.372
X44.394Y10.394
X44.403Y10.417
X44.413Y10.44
X44.421Y10.463
X44.429Y10.486
X44.436Y10.509
X44.443Y10.533
X44.45Y10.557
X44.455Y10.581
X44.46Y10.605
X44.465Y10.629
X44.469Y10.653
X44.472Y10.677
X44.475Y10.702
X44.477Y10.726
X44.478Y10.751
X44.479Y10.775
Y10.8
Y10.824
X44.478Y10.849
X44.474Y10.941
X44.468Y11.033
X44.461Y11.124
X44.454Y11.215
X44.445Y11.305
X44.436Y11.395
X44.425Y11.485
X44.413Y11.573
X44.401Y11.662
X44.387Y11.749
X44.373Y11.836
X44.357Y11.923
X44.34Y12.009
X44.323Y12.095
X44.304Y12.179
X44.284Y12.264
X44.264Y12.348
X44.242Y12.431
X44.219Y12.513
X44.196Y12.595
X44.171Y12.677
X44.145Y12.758
X44.118Y12.838
X44.09Y12.918
X44.062Y12.996
X44.032Y13.075
X44.001Y13.152
X43.969Y13.229
X43.936Y13.306
X43.902Y13.381
X43.867Y13.456
X43.831Y13.53
X43.793Y13.604
X43.755Y13.676
X43.716Y13.748
X43.676Y13.819
X43.634Y13.89
X43.592Y13.959
X43.549Y14.028
X43.504Y14.096
X43.459Y14.164
X43.412Y14.23
X43.365Y14.295
X43.316Y14.36
X43.267Y14.424
X43.216Y14.487
X43.165Y14.549
X43.112Y14.61
X43.059Y14.67
X43.004Y14.729
X42.949Y14.787
X42.892Y14.844
X42.835Y14.9
X42.776Y14.955
X42.717Y15.009
X42.657Y15.063
X42.595Y15.115
X42.533Y15.166
X42.47Y15.215
X42.406Y15.264
X42.342Y15.312
X42.276Y15.358
X42.209Y15.404
X42.142Y15.448
X42.074Y15.491
X42.005Y15.533
X41.935Y15.574
X41.865Y15.614
X41.793Y15.652
X41.721Y15.69
X41.648Y15.726
X41.575Y15.761
X41.501Y15.794
X41.426Y15.827
X41.35Y15.858
X41.274Y15.888
X41.197Y15.917
X41.119Y15.945
X41.041Y15.971
X40.962Y15.996
X40.883Y16.02
X40.802Y16.043
X40.722Y16.064
X40.641Y16.084
X40.559Y16.103
X40.477Y16.121
X40.394Y16.137
X40.31Y16.153
X40.227Y16.167
X40.142Y16.179
X40.057Y16.191
X39.972Y16.201
X39.886Y16.21
X39.8Y16.218
X39.713Y16.225
X39.626Y16.23
X39.538Y16.234
X39.45Y16.237
X39.362Y16.239
X39.274
X39.18
X39.088Y16.237
X38.995Y16.234
X38.904Y16.23
X38.813Y16.225
X38.722Y16.219
X38.632Y16.212
X38.542Y16.203
X38.453Y16.194
X38.364Y16.183
X38.276Y16.171
X38.188Y16.158
X38.101Y16.144
X38.014Y16.129
X37.928Y16.112
X37.843Y16.095
X37.758Y16.076
X37.674Y16.056
X37.59Y16.035
X37.506Y16.013
X37.424Y15.989
X37.342Y15.965
X37.26Y15.939
X37.18Y15.912
X37.099Y15.884
X37.02Y15.855
X36.941Y15.824
X36.863Y15.793
X36.785Y15.76
X36.708Y15.726
X36.632Y15.691
X36.556Y15.655
X36.482Y15.617
X36.408Y15.579
X36.334Y15.539
X36.262Y15.498
X36.19Y15.456
X36.119Y15.413
X36.049Y15.369
X35.979Y15.323
X35.911Y15.277
X35.843Y15.229
X35.776Y15.181
X35.71Y15.131
X35.645Y15.08
X35.58Y15.028
X35.517Y14.975
X35.454Y14.921
X35.393Y14.866
X35.332Y14.81
X35.272Y14.753
X35.213Y14.696
X35.155Y14.637
X35.097Y14.577
X35.041Y14.516
X34.986Y14.454
X34.931Y14.391
X34.878Y14.328
X34.825Y14.263
X34.774Y14.198
X34.723Y14.132
X34.673Y14.064
X34.624Y13.997
X34.577Y13.928
X34.53Y13.858
X34.484Y13.788
X34.439Y13.716
X34.395Y13.644
X34.351Y13.571
X34.309Y13.498
X34.268Y13.423
X34.227Y13.348
X34.188Y13.272
X34.149Y13.196
X34.111Y13.118
X34.075Y13.04
X34.039Y12.961
X34.004Y12.882
X33.97Y12.801
X33.937Y12.721
X33.904Y12.639
X33.873Y12.557
X33.842Y12.474
X33.813Y12.39
X33.784Y12.306
X33.756Y12.22
X33.729Y12.135
X33.702Y12.048
X33.677Y11.961
X33.653Y11.874
X33.629Y11.785
X33.606Y11.696
X33.584Y11.607
X33.563Y11.516
X33.542Y11.426
X33.523Y11.334
X33.504Y11.242
X33.486Y11.149
X33.469Y11.056
X33.454Y10.971
X33.45Y10.947
X33.447Y10.922
X33.444Y10.898
X33.442Y10.873
X33.441Y10.849
X33.44Y10.824
Y10.8
Y10.775
X33.441Y10.751
X33.442Y10.726
X33.444Y10.702
X33.447Y10.677
X33.45Y10.653
X33.454Y10.629
X33.459Y10.605
X33.464Y10.581
X33.469Y10.557
X33.476Y10.533
X33.482Y10.509
X33.49Y10.486
X33.498Y10.463
X33.506Y10.44
X33.516Y10.417
X33.525Y10.394
X33.535Y10.372
X33.546Y10.35
X33.557Y10.328
X33.569Y10.307
X33.582Y10.286
X33.595Y10.265
X33.608Y10.244
X33.622Y10.224
X33.636Y10.204
X33.651Y10.184
X33.666Y10.165
X33.682Y10.146
X33.698Y10.128
X33.715Y10.11
X33.732Y10.093
X33.75Y10.075
X33.768Y10.059
X33.786Y10.042
X33.805Y10.027
X33.824Y10.011
X33.844Y9.996
X33.864Y9.982
X33.884Y9.968
X33.904Y9.955
X33.925Y9.942
X33.947Y9.929
X33.968Y9.918
X33.99Y9.906
X34.012Y9.896
X34.034Y9.885
X34.057Y9.876
X34.08Y9.867
X34.103Y9.858
X34.126Y9.85
X34.149Y9.843
X34.173Y9.836
X34.196Y9.829
X34.22Y9.824
G0Z10
X45.974Y9.443
G1Z-3.704F500
X46.1Y9.316Z-3.271F1000
X46.146Y9.279Z-3.12
X46.3Y9.124Z-2.555
X46.329Y9.102Z-2.461
X46.5Y8.931Z-1.833
X46.516Y8.92Z-1.782
X46.7Y8.735Z-1.104
X46.707Y8.732Z-1.083
X46.9Y8.538Z-0.368
G0Z10
X45.68Y3.446
G1Z-3.723F500
X45.682Y3.45F1000
X45.689Y3.46Z-3.697
X45.726Y3.527Z-3.558
X45.758Y3.58Z-3.439
X45.771Y3.602Z-3.389
X45.816Y3.674Z-3.222
X45.833Y3.7Z-3.157
X45.86Y3.75Z-3.059
X45.903Y3.825Z-2.894
X45.949Y3.896Z-2.725
X45.952Y3.9Z-2.716
X45.991Y3.974Z-2.568
X46.034Y4.047Z-2.407
X46.069Y4.1Z-2.276
X46.079Y4.12Z-2.242
X46.12Y4.197Z-2.085
X46.164Y4.269Z-1.924
X46.186Y4.3Z-1.842
X46.206Y4.344Z-1.768
X46.247Y4.42Z-1.61
X46.292Y4.488Z-1.445
X46.301Y4.5Z-1.412
X46.331Y4.568Z-1.299
X46.373Y4.641Z-1.144
X46.416Y4.7Z-0.983
X46.419Y4.709Z-0.973
X46.454Y4.792Z-0.829
X46.499Y4.861Z-0.674
X46.536Y4.9Z-0.536
X46.541Y4.933Z-0.516
X46.576Y5.016Z-0.364
X46.629Y5.072Z-0.187
G0Z10
X45.68Y2.306
G1Z-3.664F500
X45.771Y2.26Z-3.39F1000
X45.781Y2.253Z-3.353
X45.917Y2.172Z-2.841
X46.048Y2.103Z-2.356
X46.144Y2.06Z-1.999
X46.181Y2.034Z-1.862
X46.326Y1.948Z-1.313
X46.455Y1.889Z-0.838
X46.566Y1.86Z-0.421
G0Z10
X51.02Y0.1
G1Z-0.373F500
X51.82Y0.9Z-3.358
X51.92Y1Z-3.545
Z-3.732
Y26.28F1000
X53.48
Y1
X51.92
G0Z10
X53.48
G1Z-3.545F500
X53.58Y0.899Z-3.358F1000
X54.38Y0.1Z-0.373
G0Z10
X59.78
G1Z-0.373F500
X60.58Y0.9Z-3.358
X60.68Y1Z-3.545
Z-3.732
Y26.28F1000
X62.24
Y1
X60.68
G0Z10
X62.24
G1Z-3.545F500
X62.339Y0.899Z-3.358F1000
X63.139Y0.1Z-0.373
G0Z10
X69.626Y4.322
G1Z-3.732F500
X69.558Y4.431F1000
X69.491Y4.541
X69.425Y4.652
X69.362Y4.765
X69.3Y4.879
X69.24Y4.994
X69.181Y5.111
X69.124Y5.229
X69.069Y5.348
X69.015Y5.468
X68.964Y5.59
X68.914Y5.713
X68.866Y5.837
X68.819Y5.962
X68.775Y6.088
X68.732Y6.216
X68.691Y6.345
X68.652Y6.475
X68.615Y6.607
X68.579Y6.739
X68.546Y6.873
X68.514Y7.007
X68.484Y7.143
X68.457Y7.28
X68.431Y7.418
X68.407Y7.558
X68.385Y7.698
X68.365Y7.839
X68.347Y7.982
X68.332Y8.125
X68.318Y8.27
X68.306Y8.416
X68.297Y8.562
X68.289Y8.71
X68.284Y8.859
X68.281Y9.009
X68.28Y9.159
X68.281Y9.298
X68.284Y9.436
X68.289Y9.573
X68.297Y9.709
X68.307Y9.844
X68.319Y9.979
X68.333Y10.113
X68.349Y10.246
X68.367Y10.378
X68.387Y10.51
X68.41Y10.64
X68.434Y10.77
X68.46Y10.899
X68.489Y11.027
X68.519Y11.154
X68.551Y11.28
X68.585Y11.406
X68.621Y11.53
X68.659Y11.654
X68.699Y11.776
X68.741Y11.898
X68.785Y12.019
X68.83Y12.138
X68.878Y12.257
X68.927Y12.375
X68.978Y12.492
X69.03Y12.607
X69.085Y12.722
X69.141Y12.836
X69.199Y12.948
X69.259Y13.06
X69.321Y13.17
X69.384Y13.279
X69.449Y13.388
X69.515Y13.495
X69.583Y13.601
X69.653Y13.705
X69.725Y13.809
X69.798Y13.911
X69.873Y14.013
X69.949Y14.113
X70.027Y14.211
X70.106Y14.309
X70.187Y14.405
X70.27Y14.5
X70.354Y14.594
X70.439Y14.686
X70.526Y14.778
X70.615Y14.867
X70.705Y14.956
X70.796Y15.043
X70.889Y15.129
X70.983Y15.213
X71.079Y15.296
X71.176Y15.377
X71.275Y15.457
X71.374Y15.536
X71.476Y15.613
X71.578Y15.689
X71.682Y15.763
X71.787Y15.836
X71.893Y15.907
X72.001Y15.976
X72.11Y16.044
X72.22Y16.111
X72.332Y16.176
X72.444Y16.239
X72.558Y16.301
X72.673Y16.361
X72.79Y16.419
X72.907Y16.476
X73.026Y16.531
X73.145Y16.584
X73.266Y16.635
X73.388Y16.685
X73.511Y16.733
X73.635Y16.78
X73.761Y16.824
X73.887Y16.867
X74.014Y16.908
X74.142Y16.947
X74.272Y16.984
X74.402Y17.02
X74.533Y17.053
X74.666Y17.085
X74.799Y17.114
X74.933Y17.142
X75.069Y17.168
X75.205Y17.192
X75.342Y17.214
X75.48Y17.234
X75.618Y17.251
X75.758Y17.267
X75.899Y17.281
X76.04Y17.293
X76.182Y17.302
X76.325Y17.31
X76.469Y17.315
X76.614Y17.318
X76.76Y17.319
X76.915Y17.318
X77.069Y17.315
X77.222Y17.31
X77.374Y17.303
X77.525Y17.293
X77.674Y17.282
X77.823Y17.269
X77.971Y17.253
X78.118Y17.236
X78.263Y17.216
X78.408Y17.195
X78.551Y17.172
X78.693Y17.147
X78.834Y17.12
X78.974Y17.091
X79.112Y17.06
X79.25Y17.027
X79.386Y16.992
X79.521Y16.956
X79.655Y16.918
X79.787Y16.878
X79.919Y16.836
X80.049Y16.793
X80.177Y16.748
X80.305Y16.701
X80.431Y16.652
X80.556Y16.602
X80.68Y16.55
X80.802Y16.496
X80.923Y16.44
X81.043Y16.383
X81.161Y16.325
X81.278Y16.264
X81.393Y16.203
X81.508Y16.139
X81.62Y16.074
X81.732Y16.008
X81.842Y15.939
X81.95Y15.87
X82.058Y15.799
X82.163Y15.726
X82.268Y15.652
X82.371Y15.576
X82.472Y15.499
X82.572Y15.421
X82.67Y15.341
X82.767Y15.259
X82.863Y15.176
X82.956Y15.092
X83.049Y15.007
X83.14Y14.92
X83.229Y14.831
X83.317Y14.742
X83.403Y14.65
X83.487Y14.558
X83.571Y14.464
X83.652Y14.369
X83.732Y14.273
X83.81Y14.175
X83.887Y14.076
X83.962Y13.976
X84.035Y13.875
X84.107Y13.772
X84.177Y13.668
X84.245Y13.563
X84.312Y13.456
X84.377Y13.349
X84.44Y13.24
X84.501Y13.13
X84.561Y13.018
X84.619Y12.906
X84.675Y12.792
X84.73Y12.677
X84.783Y12.561
X84.833Y12.444
X84.883Y12.326
X84.93Y12.206
X84.975Y12.086
X85.019Y11.964
X85.061Y11.841
X85.1Y11.717
X85.138Y11.592
X85.174Y11.466
X85.208Y11.339
X85.241Y11.21
X85.271Y11.081
X85.299Y10.95
X85.325Y10.819
X85.35Y10.686
X85.372Y10.553
X85.392Y10.418
X85.41Y10.282
X85.426Y10.145
X85.44Y10.007
X85.452Y9.869
X85.462Y9.729
X85.47Y9.588
X85.475Y9.446
X85.478Y9.303
X85.479Y9.159
X85.478Y9.004
X85.475Y8.849
X85.47Y8.696
X85.462Y8.543
X85.453Y8.393
X85.441Y8.243
X85.427Y8.094
X85.411Y7.947
X85.393Y7.801
X85.373Y7.657
X85.351Y7.513
X85.327Y7.371
X85.301Y7.231
X85.274Y7.091
X85.244Y6.953
X85.212Y6.816
X85.178Y6.681
X85.143Y6.547
X85.105Y6.414
X85.066Y6.283
X85.025Y6.152
X84.982Y6.024
X84.937Y5.896
X84.89Y5.77
X84.842Y5.646
X84.791Y5.522
X84.739Y5.4
X84.686Y5.28
X84.63Y5.161
X84.573Y5.043
X84.514Y4.926
X84.453Y4.811
X84.391Y4.698
X84.327Y4.586
X84.261Y4.475
X84.194Y4.365
X84.125Y4.258
X84.054Y4.151
X83.982Y4.046
X83.908Y3.942
X83.832Y3.84
X83.755Y3.739
X83.676Y3.64
X83.596Y3.542
X83.514Y3.445
X83.43Y3.35
X83.345Y3.257
X83.259Y3.165
X83.171Y3.074
X83.081Y2.985
X82.99Y2.897
X82.897Y2.811
X82.802Y2.727
X82.707Y2.643
X82.609Y2.562
X82.51Y2.482
X82.41Y2.403
X82.308Y2.326
X82.205Y2.251
X82.1Y2.177
X81.994Y2.105
X81.886Y2.034
X81.777Y1.965
X81.666Y1.897
X81.554Y1.831
X81.44Y1.767
X81.325Y1.704
X81.209Y1.643
X81.091Y1.584
X80.971Y1.526
X80.85Y1.47
X80.728Y1.416
X80.605Y1.363
X80.48Y1.312
X80.353Y1.263
X80.225Y1.216
X80.096Y1.17
X79.965Y1.126
X79.834Y1.084
X79.7Y1.044
X79.566Y1.005
X79.429Y0.969
X79.292Y0.934
X79.153Y0.901
X79.013Y0.87
X78.872Y0.841
X78.729Y0.813
X78.585Y0.788
X78.44Y0.765
X78.294Y0.743
X78.146Y0.724
X77.997Y0.706
X77.846Y0.691
X77.695Y0.677
X77.542Y0.666
X77.388Y0.656
X77.233Y0.649
X77.076Y0.644
X76.918Y0.641
X76.76Y0.64
X76.609Y0.641
X76.459Y0.644
X76.311Y0.649
X76.163Y0.657
X76.017Y0.667
X75.871Y0.678
X75.727Y0.692
X75.584Y0.708
X75.442Y0.726
X75.301Y0.746
X75.161Y0.768
X75.022Y0.792
X74.884Y0.818
X74.747Y0.846
X74.612Y0.876
X74.478Y0.908
X74.345Y0.942
X74.213Y0.977
X74.082Y1.015
X73.952Y1.054
X73.824Y1.095
X73.697Y1.138
X73.571Y1.183
X73.446Y1.23
X73.322Y1.279
X73.2Y1.329
X73.079Y1.381
X72.959Y1.435
X72.841Y1.49
X72.724Y1.548
X72.608Y1.607
X72.493Y1.667
X72.379Y1.73
X72.267Y1.794
X72.157Y1.859
X72.047Y1.927
X71.939Y1.995
X71.832Y2.066
X71.727Y2.138
X71.623Y2.212
X71.52Y2.287
X71.419Y2.364
X71.319Y2.443
X71.22Y2.523
X71.123Y2.604
X71.027Y2.687
X70.933Y2.772
X70.84Y2.858
X70.749Y2.945
X70.659Y3.035
X70.57Y3.125
X70.483Y3.217
X70.398Y3.31
X70.314Y3.405
X70.231Y3.502
X70.15Y3.599
X70.07Y3.698
X69.992Y3.799
X69.916Y3.901
X69.841Y4.004
X69.768Y4.109
X69.696Y4.215
X69.626Y4.322
G0Z10
X70.91Y5.113
G1Z-3.732F500
X70.965Y5.018F1000
X71.021Y4.924
X71.079Y4.831
X71.138Y4.74
X71.198Y4.649
X71.259Y4.56
X71.322Y4.472
X71.387Y4.385
X71.452Y4.299
X71.519Y4.215
X71.588Y4.132
X71.657Y4.05
X71.728Y3.969
X71.8Y3.89
X71.874Y3.812
X71.949Y3.735
X72.025Y3.66
X72.102Y3.586
X72.18Y3.513
X72.26Y3.442
X72.341Y3.372
X72.423Y3.304
X72.506Y3.237
X72.59Y3.171
X72.676Y3.107
X72.762Y3.044
X72.85Y2.983
X72.939Y2.923
X73.029Y2.865
X73.12Y2.808
X73.212Y2.753
X73.305Y2.699
X73.399Y2.647
X73.494Y2.596
X73.59Y2.547
X73.687Y2.5
X73.785Y2.454
X73.883Y2.41
X73.983Y2.367
X74.084Y2.326
X74.185Y2.287
X74.288Y2.249
X74.391Y2.213
X74.495Y2.178
X74.6Y2.145
X74.705Y2.114
X74.812Y2.084
X74.919Y2.057
X75.027Y2.03
X75.136Y2.006
X75.245Y1.983
X75.355Y1.962
X75.466Y1.942
X75.578Y1.924
X75.69Y1.908
X75.803Y1.894
X75.916Y1.881
X76.03Y1.87
X76.145Y1.86
X76.26Y1.853
X76.376Y1.847
X76.492Y1.843
X76.609Y1.84
X76.726
X76.851
X76.976Y1.843
X77.1Y1.847
X77.223Y1.853
X77.345Y1.86
X77.467Y1.869
X77.588Y1.879
X77.708Y1.892
X77.827Y1.905
X77.946Y1.921
X78.064Y1.938
X78.181Y1.956
X78.297Y1.976
X78.413Y1.998
X78.527Y2.021
X78.641Y2.046
X78.754Y2.073
X78.866Y2.101
X78.977Y2.131
X79.088Y2.162
X79.197Y2.195
X79.306Y2.23
X79.413Y2.266
X79.52Y2.304
X79.626Y2.344
X79.73Y2.385
X79.834Y2.427
X79.937Y2.471
X80.038Y2.517
X80.139Y2.564
X80.239Y2.613
X80.337Y2.664
X80.435Y2.716
X80.531Y2.77
X80.627Y2.825
X80.721Y2.881
X80.814Y2.94
X80.906Y2.999
X80.996Y3.061
X81.086Y3.124
X81.174Y3.188
X81.261Y3.254
X81.347Y3.321
X81.431Y3.39
X81.515Y3.46
X81.597Y3.531
X81.677Y3.605
X81.756Y3.679
X81.834Y3.755
X81.911Y3.832
X81.986Y3.911
X82.06Y3.991
X82.133Y4.072
X82.204Y4.155
X82.273Y4.239
X82.341Y4.324
X82.408Y4.41
X82.474Y4.498
X82.537Y4.587
X82.6Y4.677
X82.661Y4.769
X82.72Y4.862
X82.778Y4.955
X82.834Y5.05
X82.889Y5.146
X82.943Y5.244
X82.995Y5.342
X83.045Y5.442
X83.094Y5.542
X83.141Y5.644
X83.187Y5.746
X83.231Y5.85
X83.274Y5.955
X83.315Y6.061
X83.355Y6.167
X83.393Y6.275
X83.429Y6.384
X83.464Y6.493
X83.497Y6.604
X83.529Y6.715
X83.56Y6.828
X83.588Y6.941
X83.616Y7.055
X83.641Y7.17
X83.665Y7.286
X83.688Y7.403
X83.709Y7.521
X83.728Y7.64
X83.746Y7.759
X83.762Y7.879
X83.777Y8
X83.79Y8.122
X83.802Y8.245
X83.812Y8.368
X83.82Y8.493
X83.827Y8.618
X83.833Y8.743
X83.837Y8.87
X83.839Y8.997
Y9.127
Y9.246
X83.836Y9.364
X83.831Y9.482
X83.825Y9.599
X83.817Y9.716
X83.807Y9.832
X83.796Y9.948
X83.783Y10.063
X83.768Y10.177
X83.752Y10.291
X83.734Y10.404
X83.714Y10.516
X83.692Y10.628
X83.669Y10.739
X83.644Y10.849
X83.618Y10.959
X83.59Y11.068
X83.56Y11.176
X83.529Y11.283
X83.496Y11.39
X83.461Y11.495
X83.425Y11.6
X83.387Y11.704
X83.348Y11.808
X83.307Y11.91
X83.264Y12.011
X83.22Y12.112
X83.175Y12.212
X83.128Y12.31
X83.079Y12.408
X83.029Y12.505
X82.978Y12.601
X82.925Y12.696
X82.87Y12.79
X82.814Y12.883
X82.757Y12.974
X82.698Y13.065
X82.638Y13.155
X82.576Y13.244
X82.513Y13.331
X82.449Y13.418
X82.383Y13.503
X82.316Y13.587
X82.247Y13.67
X82.178Y13.752
X82.107Y13.833
X82.034Y13.913
X81.96Y13.991
X81.885Y14.068
X81.809Y14.144
X81.732Y14.218
X81.653Y14.292
X81.573Y14.364
X81.492Y14.435
X81.409Y14.504
X81.326Y14.573
X81.241Y14.64
X81.155Y14.705
X81.069Y14.769
X80.98Y14.832
X80.891Y14.894
X80.801Y14.954
X80.71Y15.013
X80.617Y15.07
X80.524Y15.126
X80.429Y15.18
X80.334Y15.233
X80.238Y15.285
X80.14Y15.335
X80.042Y15.384
X79.942Y15.431
X79.842Y15.477
X79.741Y15.521
X79.639Y15.564
X79.536Y15.605
X79.432Y15.645
X79.327Y15.683
X79.221Y15.72
X79.115Y15.755
X79.008Y15.788
X78.9Y15.82
X78.791Y15.851
X78.681Y15.879
X78.571Y15.907
X78.46Y15.932
X78.348Y15.956
X78.235Y15.979
X78.122Y15.999
X78.008Y16.019
X77.893Y16.036
X77.778Y16.052
X77.662Y16.066
X77.545Y16.079
X77.428Y16.09
X77.31Y16.099
X77.192Y16.106
X77.073Y16.112
X76.953Y16.116
X76.833Y16.119
X76.712
X76.596Y16.118
X76.481Y16.116
X76.367Y16.111
X76.253Y16.105
X76.139Y16.097
X76.026Y16.088
X75.914Y16.076
X75.802Y16.064
X75.691Y16.049
X75.58Y16.033
X75.47Y16.015
X75.361Y15.995
X75.252Y15.974
X75.145Y15.951
X75.037Y15.926
X74.931Y15.9
X74.825Y15.872
X74.72Y15.843
X74.615Y15.812
X74.512Y15.779
X74.409Y15.745
X74.307Y15.709
X74.206Y15.672
X74.106Y15.633
X74.006Y15.593
X73.908Y15.551
X73.81Y15.508
X73.713Y15.463
X73.617Y15.416
X73.522Y15.369
X73.428Y15.319
X73.335Y15.269
X73.242Y15.216
X73.151Y15.163
X73.061Y15.108
X72.972Y15.051
X72.884Y14.993
X72.797Y14.934
X72.71Y14.874
X72.625Y14.812
X72.541Y14.748
X72.459Y14.684
X72.377Y14.618
X72.296Y14.55
X72.217Y14.482
X72.138Y14.412
X72.061Y14.341
X71.985Y14.269
X71.91Y14.195
X71.837Y14.121
X71.764Y14.045
X71.693Y13.967
X71.623Y13.889
X71.554Y13.81
X71.487Y13.729
X71.421Y13.647
X71.356Y13.564
X71.292Y13.48
X71.23Y13.395
X71.169Y13.309
X71.109Y13.222
X71.051Y13.134
X70.994Y13.045
X70.938Y12.954
X70.884Y12.863
X70.831Y12.771
X70.78Y12.678
X70.73Y12.583
X70.681Y12.488
X70.634Y12.392
X70.588Y12.295
X70.543Y12.197
X70.5Y12.099
X70.459Y11.999
X70.419Y11.899
X70.38Y11.797
X70.343Y11.695
X70.308Y11.592
X70.274Y11.489
X70.241Y11.384
X70.21Y11.279
X70.181Y11.173
X70.153Y11.066
X70.126Y10.959
X70.101Y10.85
X70.078Y10.742
X70.056Y10.632
X70.036Y10.522
X70.018Y10.411
X70.001Y10.299
X69.985Y10.187
X69.971Y10.075
X69.959Y9.961
X69.949Y9.847
X69.94Y9.733
X69.932Y9.618
X69.927Y9.502
X69.923Y9.386
X69.92Y9.27
Y9.153
Y9.027
X69.923Y8.902
X69.927Y8.777
X69.932Y8.653
X69.939Y8.529
X69.948Y8.407
X69.958Y8.285
X69.97Y8.164
X69.983Y8.043
X69.998Y7.924
X70.015Y7.805
X70.033Y7.686
X70.052Y7.569
X70.073Y7.452
X70.095Y7.337
X70.119Y7.222
X70.145Y7.108
X70.172Y6.994
X70.2Y6.882
X70.23Y6.77
X70.262Y6.66
X70.295Y6.55
X70.329Y6.441
X70.365Y6.333
X70.403Y6.226
X70.442Y6.12
X70.482Y6.014
X70.524Y5.91
X70.567Y5.807
X70.612Y5.705
X70.658Y5.603
X70.706Y5.503
X70.755Y5.404
X70.805Y5.306
X70.857Y5.209
X70.91Y5.113
G0Z10
X62.24Y26.28
G1Z-3.545F500
X62.339Y26.38Z-3.358F1000
X63.139Y27.18Z-0.373
G0Z10
X59.78
G1Z-0.373F500
X60.58Y26.38Z-3.358
X60.68Y26.28Z-3.545
G0Z10
X53.48
G1Z-3.545
X53.58Y26.38Z-3.358F1000
X54.38Y27.18Z-0.373
G0Z10
X51.02
G1Z-0.373F500
X51.82Y26.38Z-3.358
X51.92Y26.28Z-3.545
G0Z10
X25.22Y26.38
G1Z-3.358
X26.02Y27.18Z-0.373F1000
G0Z10
X25.22Y26.38
G1Z-3.358F500
G0Z10
X22.7Y26.78
G1Z-1.866
X23.1Y26.38Z-3.358
X23.2Y26.28Z-3.545
G0Z10
X5.92
G1Z-3.545
X6.02Y26.38Z-3.358F1000
X6.82Y27.18Z-0.373
G0Z10
X3.1
G1Z-0.373F500
X3.9Y26.38Z-3.358
X4Y26.28Z-3.545
G0Z10
 
