(Created with grbl post processor 2024/12/13 12:46)
G21
(G-code Generated with Fabex and NC library)
G17G90
(Tool: D = 3.0 mm  type END flutes 2)
S12000M03
G00 Z10.0

G0X0Y0Z10
X-18.23Y-27.661
G1Z-1F500
X82.064F1000
X82.819Y-27.811
X83.418Y-28.707
Y-129.617
X82.819Y-130.513
X82.064Y-130.663
X-18.23
X-18.985Y-130.513
X-19.583Y-129.617
Y-28.707
X-18.985Y-27.811
X-18.23Y-27.661
Z-2F500
X82.064F1000
X82.819Y-27.811
X83.418Y-28.707
Y-129.617
X82.819Y-130.513
X82.064Y-130.663
X-18.23
X-18.985Y-130.513
X-19.583Y-129.617
Y-28.707
X-18.985Y-27.811
X-18.23Y-27.661
Z-3F500
X82.064F1000
X82.819Y-27.811
X83.418Y-28.707
Y-129.617
X82.819Y-130.513
X82.064Y-130.663
X-18.23
X-18.985Y-130.513
X-19.583Y-129.617
Y-28.707
X-18.985Y-27.811
X-18.23Y-27.661
Z-4F500
X82.064F1000
X82.819Y-27.811
X83.418Y-28.707
Y-129.617
X82.819Y-130.513
X82.064Y-130.663
X-18.23
X-18.985Y-130.513
X-19.583Y-129.617
Y-28.707
X-18.985Y-27.811
X-18.23Y-27.661
Z-5F500
X82.064F1000
X82.819Y-27.811
X83.418Y-28.707
Y-129.617
X82.819Y-130.513
X82.064Y-130.663
X-18.23
X-18.985Y-130.513
X-19.583Y-129.617
Y-28.707
X-18.985Y-27.811
X-18.23Y-27.661
Z-6F500
X82.064F1000
X82.819Y-27.811
X83.418Y-28.707
Y-129.617
X82.819Y-130.513
X82.064Y-130.663
X-18.23
X-18.985Y-130.513
X-19.583Y-129.617
Y-28.707
X-18.985Y-27.811
X-18.23Y-27.661
Z-7F500
X82.064F1000
X82.819Y-27.811
X83.418Y-28.707
Y-129.617
X82.819Y-130.513
X82.064Y-130.663
X-18.23
X-18.985Y-130.513
X-19.583Y-129.617
Y-28.707
X-18.985Y-27.811
X-18.23Y-27.661
Z-8F500
X82.064F1000
X82.819Y-27.811
X83.418Y-28.707
Y-129.617
X82.819Y-130.513
X82.064Y-130.663
X-18.23
X-18.985Y-130.513
X-19.583Y-129.617
Y-28.707
X-18.985Y-27.811
X-18.23Y-27.661
Z-9F500
X82.064F1000
X82.819Y-27.811
X83.418Y-28.707
Y-129.617
X82.819Y-130.513
X82.064Y-130.663
X-18.23
X-18.985Y-130.513
X-19.583Y-129.617
Y-28.707
X-18.985Y-27.811
X-18.23Y-27.661
Z-10F500
X82.064F1000
X82.819Y-27.811
X83.418Y-28.707
Y-129.617
X82.819Y-130.513
X82.064Y-130.663
X-18.23
X-18.985Y-130.513
X-19.583Y-129.617
Y-28.707
X-18.985Y-27.811
X-18.23Y-27.661
G0Z10
X-74.435Y19.817
G1Z-1F500
X-75.19Y19.667F1000
X-175.19
X-176.028Y19.5
X-176.838Y20.713
Y121.623
X-176.24Y122.519
X-175.485Y122.669
X-75.19
X-74.435Y122.519
X-73.836Y121.623
Y20.713
X-74.435Y19.817
Z-2F500
X-75.19Y19.667F1000
X-175.19
X-176.028Y19.5
X-176.838Y20.713
Y121.623
X-176.24Y122.519
X-175.485Y122.669
X-75.19
X-74.435Y122.519
X-73.836Y121.623
Y20.713
X-74.435Y19.817
Z-3F500
X-75.19Y19.667F1000
X-175.19
X-176.028Y19.5
X-176.838Y20.713
Y121.623
X-176.24Y122.519
X-175.485Y122.669
X-75.19
X-74.435Y122.519
X-73.836Y121.623
Y20.713
X-74.435Y19.817
Z-4F500
X-75.19Y19.667F1000
X-175.19
X-176.028Y19.5
X-176.838Y20.713
Y121.623
X-176.24Y122.519
X-175.485Y122.669
X-75.19
X-74.435Y122.519
X-73.836Y121.623
Y20.713
X-74.435Y19.817
Z-5F500
X-75.19Y19.667F1000
X-175.19
X-176.028Y19.5
X-176.838Y20.713
Y121.623
X-176.24Y122.519
X-175.485Y122.669
X-75.19
X-74.435Y122.519
X-73.836Y121.623
Y20.713
X-74.435Y19.817
Z-6F500
X-75.19Y19.667F1000
X-175.19
X-176.028Y19.5
X-176.838Y20.713
Y121.623
X-176.24Y122.519
X-175.485Y122.669
X-75.19
X-74.435Y122.519
X-73.836Y121.623
Y20.713
X-74.435Y19.817
Z-7F500
X-75.19Y19.667F1000
X-175.19
X-176.028Y19.5
X-176.838Y20.713
Y121.623
X-176.24Y122.519
X-175.485Y122.669
X-75.19
X-74.435Y122.519
X-73.836Y121.623
Y20.713
X-74.435Y19.817
Z-8F500
X-75.19Y19.667F1000
X-175.19
X-176.028Y19.5
X-176.838Y20.713
Y121.623
X-176.24Y122.519
X-175.485Y122.669
X-75.19
X-74.435Y122.519
X-73.836Y121.623
Y20.713
X-74.435Y19.817
Z-9F500
X-75.19Y19.667F1000
X-175.19
X-176.028Y19.5
X-176.838Y20.713
Y121.623
X-176.24Y122.519
X-175.485Y122.669
X-75.19
X-74.435Y122.519
X-73.836Y121.623
Y20.713
X-74.435Y19.817
Z-10F500
X-75.19Y19.667F1000
X-175.19
X-176.028Y19.5
X-176.838Y20.713
Y121.623
X-176.24Y122.519
X-175.485Y122.669
X-75.19
X-74.435Y122.519
X-73.836Y121.623
Y20.713
X-74.435Y19.817
G0Z10
X73.836Y28.707
G1Z-1F500
Y129.617F1000
X74.435Y130.513
X75.19Y130.663
X175.485
X176.24Y130.513
X176.838Y129.617
Y28.707
X176.24Y27.811
X175.485Y27.661
X75.484
X74.647Y27.494
X73.836Y28.707
Z-2F500
Y129.617F1000
X74.435Y130.513
X75.19Y130.663
X175.485
X176.24Y130.513
X176.838Y129.617
Y28.707
X176.24Y27.811
X175.485Y27.661
X75.484
X74.647Y27.494
X73.836Y28.707
Z-3F500
Y129.617F1000
X74.435Y130.513
X75.19Y130.663
X175.485
X176.24Y130.513
X176.838Y129.617
Y28.707
X176.24Y27.811
X175.485Y27.661
X75.484
X74.647Y27.494
X73.836Y28.707
Z-4F500
Y129.617F1000
X74.435Y130.513
X75.19Y130.663
X175.485
X176.24Y130.513
X176.838Y129.617
Y28.707
X176.24Y27.811
X175.485Y27.661
X75.484
X74.647Y27.494
X73.836Y28.707
Z-5F500
Y129.617F1000
X74.435Y130.513
X75.19Y130.663
X175.485
X176.24Y130.513
X176.838Y129.617
Y28.707
X176.24Y27.811
X175.485Y27.661
X75.484
X74.647Y27.494
X73.836Y28.707
Z-6F500
Y129.617F1000
X74.435Y130.513
X75.19Y130.663
X175.485
X176.24Y130.513
X176.838Y129.617
Y28.707
X176.24Y27.811
X175.485Y27.661
X75.484
X74.647Y27.494
X73.836Y28.707
Z-7F500
Y129.617F1000
X74.435Y130.513
X75.19Y130.663
X175.485
X176.24Y130.513
X176.838Y129.617
Y28.707
X176.24Y27.811
X175.485Y27.661
X75.484
X74.647Y27.494
X73.836Y28.707
Z-8F500
Y129.617F1000
X74.435Y130.513
X75.19Y130.663
X175.485
X176.24Y130.513
X176.838Y129.617
Y28.707
X176.24Y27.811
X175.485Y27.661
X75.484
X74.647Y27.494
X73.836Y28.707
Z-9F500
Y129.617F1000
X74.435Y130.513
X75.19Y130.663
X175.485
X176.24Y130.513
X176.838Y129.617
Y28.707
X176.24Y27.811
X175.485Y27.661
X75.484
X74.647Y27.494
X73.836Y28.707
Z-10F500
Y129.617F1000
X74.435Y130.513
X75.19Y130.663
X175.485
X176.24Y130.513
X176.838Y129.617
Y28.707
X176.24Y27.811
X175.485Y27.661
X75.484
X74.647Y27.494
X73.836Y28.707
G0Z10
 
