(Created with grbl post processor 2024/01/13 06:53)
G21
(G-code generated with BlenderCAM and NC library)
G17G90
(Tool: D = 3.0 mm  type END flutes 2)
S12000M03
G00 Z10.0

G0X0Y0Z10
X-18.082Y-27.661
G1Z-1F500
X81.917F1000
X81.953Y-27.662
X81.99Y-27.663
X82.027Y-27.665
X82.064Y-27.668
X82.1Y-27.672
X82.137Y-27.677
X82.173Y-27.683
X82.21Y-27.69
X82.246Y-27.698
X82.282Y-27.706
X82.317Y-27.715
X82.352Y-27.726
X82.388Y-27.737
X82.422Y-27.749
X82.457Y-27.762
X82.491Y-27.775
X82.525Y-27.79
X82.558Y-27.805
X82.591Y-27.821
X82.624Y-27.838
X82.656Y-27.856
X82.688Y-27.875
X82.72Y-27.894
X82.75Y-27.914
X82.781Y-27.935
X82.811Y-27.956
X82.84Y-27.979
X82.869Y-28.002
X82.897Y-28.025
X82.924Y-28.05
X82.951Y-28.075
X82.978Y-28.1
X83.003Y-28.127
X83.028Y-28.154
X83.053Y-28.181
X83.077Y-28.21
X83.1Y-28.238
X83.122Y-28.268
X83.143Y-28.297
X83.165Y-28.329
X83.185Y-28.36
X83.204Y-28.391
X83.223Y-28.423
X83.241Y-28.455
X83.257Y-28.488
X83.274Y-28.521
X83.289Y-28.554
X83.303Y-28.588
X83.317Y-28.622
X83.33Y-28.657
X83.342Y-28.692
X83.353Y-28.727
X83.363Y-28.762
X83.373Y-28.798
X83.381Y-28.833
X83.389Y-28.869
X83.396Y-28.906
X83.401Y-28.942
X83.406Y-28.978
X83.41Y-29.015
X83.414Y-29.052
X83.416Y-29.088
X83.417Y-29.125
X83.418Y-29.162
Y-129.162
X83.417Y-129.199
X83.416Y-129.236
X83.414Y-129.272
X83.41Y-129.309
X83.406Y-129.346
X83.401Y-129.382
X83.396Y-129.419
X83.389Y-129.455
X83.381Y-129.491
X83.373Y-129.527
X83.363Y-129.562
X83.353Y-129.598
X83.342Y-129.633
X83.33Y-129.667
X83.317Y-129.702
X83.303Y-129.736
X83.289Y-129.77
X83.274Y-129.803
X83.257Y-129.836
X83.241Y-129.869
X83.223Y-129.901
X83.204Y-129.933
X83.185Y-129.965
X83.164Y-129.996
X83.143Y-130.027
X83.122Y-130.057
X83.1Y-130.086
X83.077Y-130.115
X83.053Y-130.143
X83.028Y-130.17
X83.003Y-130.197
X82.978Y-130.224
X82.951Y-130.249
X82.924Y-130.274
X82.897Y-130.299
X82.869Y-130.323
X82.84Y-130.346
X82.811Y-130.368
X82.781Y-130.389
X82.75Y-130.41
X82.72Y-130.43
X82.688Y-130.45
X82.656Y-130.468
X82.624Y-130.486
X82.591Y-130.503
X82.558Y-130.519
X82.525Y-130.534
X82.491Y-130.549
X82.457Y-130.562
X82.422Y-130.575
X82.388Y-130.587
X82.352Y-130.598
X82.317Y-130.609
X82.282Y-130.618
X82.246Y-130.627
X82.209Y-130.634
X82.173Y-130.641
X82.137Y-130.647
X82.1Y-130.652
X82.064Y-130.656
X82.027Y-130.659
X81.99Y-130.661
X81.953Y-130.663
X81.917
X-18.082
X-18.119
X-18.156Y-130.661
X-18.193Y-130.659
X-18.229Y-130.656
X-18.266Y-130.652
X-18.302Y-130.647
X-18.339Y-130.641
X-18.375Y-130.634
X-18.411Y-130.627
X-18.447Y-130.618
X-18.483Y-130.609
X-18.518Y-130.598
X-18.553Y-130.587
X-18.588Y-130.575
X-18.623Y-130.562
X-18.657Y-130.549
X-18.691Y-130.534
X-18.724Y-130.519
X-18.757Y-130.503
X-18.79Y-130.486
X-18.822Y-130.468
X-18.854Y-130.45
X-18.885Y-130.43
X-18.916Y-130.41
X-18.946Y-130.389
X-18.976Y-130.368
X-19.006Y-130.346
X-19.034Y-130.323
X-19.062Y-130.299
X-19.09Y-130.274
X-19.117Y-130.249
X-19.143Y-130.224
X-19.169Y-130.197
X-19.194Y-130.17
X-19.219Y-130.143
X-19.242Y-130.115
X-19.265Y-130.086
X-19.288Y-130.057
X-19.309Y-130.027
X-19.331Y-129.995
X-19.351Y-129.965
X-19.37Y-129.933
X-19.388Y-129.901
X-19.406Y-129.869
X-19.423Y-129.836
X-19.439Y-129.803
X-19.455Y-129.77
X-19.469Y-129.736
X-19.483Y-129.702
X-19.496Y-129.667
X-19.508Y-129.633
X-19.519Y-129.598
X-19.529Y-129.562
X-19.538Y-129.527
X-19.547Y-129.491
X-19.555Y-129.455
X-19.561Y-129.419
X-19.567Y-129.382
X-19.572Y-129.346
X-19.576Y-129.309
X-19.579Y-129.272
X-19.582Y-129.236
X-19.583Y-129.199
Y-129.162
Y-29.162
Y-29.125
X-19.582Y-29.088
X-19.579Y-29.052
X-19.576Y-29.015
X-19.572Y-28.978
X-19.567Y-28.942
X-19.561Y-28.906
X-19.555Y-28.869
X-19.547Y-28.833
X-19.538Y-28.798
X-19.529Y-28.762
X-19.519Y-28.727
X-19.508Y-28.692
X-19.496Y-28.657
X-19.483Y-28.622
X-19.469Y-28.588
X-19.455Y-28.554
X-19.439Y-28.521
X-19.423Y-28.488
X-19.406Y-28.455
X-19.388Y-28.423
X-19.37Y-28.391
X-19.351Y-28.36
X-19.33Y-28.328
X-19.309Y-28.297
X-19.288Y-28.268
X-19.265Y-28.238
X-19.242Y-28.21
X-19.219Y-28.181
X-19.194Y-28.154
X-19.169Y-28.127
X-19.143Y-28.1
X-19.117Y-28.075
X-19.09Y-28.05
X-19.062Y-28.025
X-19.034Y-28.002
X-19.006Y-27.979
X-18.976Y-27.956
X-18.946Y-27.935
X-18.916Y-27.914
X-18.885Y-27.894
X-18.854Y-27.875
X-18.822Y-27.856
X-18.79Y-27.838
X-18.757Y-27.821
X-18.724Y-27.805
X-18.691Y-27.79
X-18.657Y-27.775
X-18.623Y-27.762
X-18.588Y-27.749
X-18.553Y-27.737
X-18.518Y-27.726
X-18.483Y-27.715
X-18.447Y-27.706
X-18.411Y-27.698
X-18.375Y-27.69
X-18.339Y-27.683
X-18.302Y-27.677
X-18.266Y-27.672
X-18.229Y-27.668
X-18.193Y-27.665
X-18.156Y-27.663
X-18.119Y-27.662
X-18.082Y-27.661
Z-2F500
X81.917F1000
X81.953Y-27.662
X81.99Y-27.663
X82.027Y-27.665
X82.064Y-27.668
X82.1Y-27.672
X82.137Y-27.677
X82.173Y-27.683
X82.21Y-27.69
X82.246Y-27.698
X82.282Y-27.706
X82.317Y-27.715
X82.352Y-27.726
X82.388Y-27.737
X82.422Y-27.749
X82.457Y-27.762
X82.491Y-27.775
X82.525Y-27.79
X82.558Y-27.805
X82.591Y-27.821
X82.624Y-27.838
X82.656Y-27.856
X82.688Y-27.875
X82.72Y-27.894
X82.75Y-27.914
X82.781Y-27.935
X82.811Y-27.956
X82.84Y-27.979
X82.869Y-28.002
X82.897Y-28.025
X82.924Y-28.05
X82.951Y-28.075
X82.978Y-28.1
X83.003Y-28.127
X83.028Y-28.154
X83.053Y-28.181
X83.077Y-28.21
X83.1Y-28.238
X83.122Y-28.268
X83.143Y-28.297
X83.165Y-28.329
X83.185Y-28.36
X83.204Y-28.391
X83.223Y-28.423
X83.241Y-28.455
X83.257Y-28.488
X83.274Y-28.521
X83.289Y-28.554
X83.303Y-28.588
X83.317Y-28.622
X83.33Y-28.657
X83.342Y-28.692
X83.353Y-28.727
X83.363Y-28.762
X83.373Y-28.798
X83.381Y-28.833
X83.389Y-28.869
X83.396Y-28.906
X83.401Y-28.942
X83.406Y-28.978
X83.41Y-29.015
X83.414Y-29.052
X83.416Y-29.088
X83.417Y-29.125
X83.418Y-29.162
Y-129.162
X83.417Y-129.199
X83.416Y-129.236
X83.414Y-129.272
X83.41Y-129.309
X83.406Y-129.346
X83.401Y-129.382
X83.396Y-129.419
X83.389Y-129.455
X83.381Y-129.491
X83.373Y-129.527
X83.363Y-129.562
X83.353Y-129.598
X83.342Y-129.633
X83.33Y-129.667
X83.317Y-129.702
X83.303Y-129.736
X83.289Y-129.77
X83.274Y-129.803
X83.257Y-129.836
X83.241Y-129.869
X83.223Y-129.901
X83.204Y-129.933
X83.185Y-129.965
X83.164Y-129.996
X83.143Y-130.027
X83.122Y-130.057
X83.1Y-130.086
X83.077Y-130.115
X83.053Y-130.143
X83.028Y-130.17
X83.003Y-130.197
X82.978Y-130.224
X82.951Y-130.249
X82.924Y-130.274
X82.897Y-130.299
X82.869Y-130.323
X82.84Y-130.346
X82.811Y-130.368
X82.781Y-130.389
X82.75Y-130.41
X82.72Y-130.43
X82.688Y-130.45
X82.656Y-130.468
X82.624Y-130.486
X82.591Y-130.503
X82.558Y-130.519
X82.525Y-130.534
X82.491Y-130.549
X82.457Y-130.562
X82.422Y-130.575
X82.388Y-130.587
X82.352Y-130.598
X82.317Y-130.609
X82.282Y-130.618
X82.246Y-130.627
X82.209Y-130.634
X82.173Y-130.641
X82.137Y-130.647
X82.1Y-130.652
X82.064Y-130.656
X82.027Y-130.659
X81.99Y-130.661
X81.953Y-130.663
X81.917
X-18.082
X-18.119
X-18.156Y-130.661
X-18.193Y-130.659
X-18.229Y-130.656
X-18.266Y-130.652
X-18.302Y-130.647
X-18.339Y-130.641
X-18.375Y-130.634
X-18.411Y-130.627
X-18.447Y-130.618
X-18.483Y-130.609
X-18.518Y-130.598
X-18.553Y-130.587
X-18.588Y-130.575
X-18.623Y-130.562
X-18.657Y-130.549
X-18.691Y-130.534
X-18.724Y-130.519
X-18.757Y-130.503
X-18.79Y-130.486
X-18.822Y-130.468
X-18.854Y-130.45
X-18.885Y-130.43
X-18.916Y-130.41
X-18.946Y-130.389
X-18.976Y-130.368
X-19.006Y-130.346
X-19.034Y-130.323
X-19.062Y-130.299
X-19.09Y-130.274
X-19.117Y-130.249
X-19.143Y-130.224
X-19.169Y-130.197
X-19.194Y-130.17
X-19.219Y-130.143
X-19.242Y-130.115
X-19.265Y-130.086
X-19.288Y-130.057
X-19.309Y-130.027
X-19.331Y-129.995
X-19.351Y-129.965
X-19.37Y-129.933
X-19.388Y-129.901
X-19.406Y-129.869
X-19.423Y-129.836
X-19.439Y-129.803
X-19.455Y-129.77
X-19.469Y-129.736
X-19.483Y-129.702
X-19.496Y-129.667
X-19.508Y-129.633
X-19.519Y-129.598
X-19.529Y-129.562
X-19.538Y-129.527
X-19.547Y-129.491
X-19.555Y-129.455
X-19.561Y-129.419
X-19.567Y-129.382
X-19.572Y-129.346
X-19.576Y-129.309
X-19.579Y-129.272
X-19.582Y-129.236
X-19.583Y-129.199
Y-129.162
Y-29.162
Y-29.125
X-19.582Y-29.088
X-19.579Y-29.052
X-19.576Y-29.015
X-19.572Y-28.978
X-19.567Y-28.942
X-19.561Y-28.906
X-19.555Y-28.869
X-19.547Y-28.833
X-19.538Y-28.798
X-19.529Y-28.762
X-19.519Y-28.727
X-19.508Y-28.692
X-19.496Y-28.657
X-19.483Y-28.622
X-19.469Y-28.588
X-19.455Y-28.554
X-19.439Y-28.521
X-19.423Y-28.488
X-19.406Y-28.455
X-19.388Y-28.423
X-19.37Y-28.391
X-19.351Y-28.36
X-19.33Y-28.328
X-19.309Y-28.297
X-19.288Y-28.268
X-19.265Y-28.238
X-19.242Y-28.21
X-19.219Y-28.181
X-19.194Y-28.154
X-19.169Y-28.127
X-19.143Y-28.1
X-19.117Y-28.075
X-19.09Y-28.05
X-19.062Y-28.025
X-19.034Y-28.002
X-19.006Y-27.979
X-18.976Y-27.956
X-18.946Y-27.935
X-18.916Y-27.914
X-18.885Y-27.894
X-18.854Y-27.875
X-18.822Y-27.856
X-18.79Y-27.838
X-18.757Y-27.821
X-18.724Y-27.805
X-18.691Y-27.79
X-18.657Y-27.775
X-18.623Y-27.762
X-18.588Y-27.749
X-18.553Y-27.737
X-18.518Y-27.726
X-18.483Y-27.715
X-18.447Y-27.706
X-18.411Y-27.698
X-18.375Y-27.69
X-18.339Y-27.683
X-18.302Y-27.677
X-18.266Y-27.672
X-18.229Y-27.668
X-18.193Y-27.665
X-18.156Y-27.663
X-18.119Y-27.662
X-18.082Y-27.661
Z-3F500
X81.917F1000
X81.953Y-27.662
X81.99Y-27.663
X82.027Y-27.665
X82.064Y-27.668
X82.1Y-27.672
X82.137Y-27.677
X82.173Y-27.683
X82.21Y-27.69
X82.246Y-27.698
X82.282Y-27.706
X82.317Y-27.715
X82.352Y-27.726
X82.388Y-27.737
X82.422Y-27.749
X82.457Y-27.762
X82.491Y-27.775
X82.525Y-27.79
X82.558Y-27.805
X82.591Y-27.821
X82.624Y-27.838
X82.656Y-27.856
X82.688Y-27.875
X82.72Y-27.894
X82.75Y-27.914
X82.781Y-27.935
X82.811Y-27.956
X82.84Y-27.979
X82.869Y-28.002
X82.897Y-28.025
X82.924Y-28.05
X82.951Y-28.075
X82.978Y-28.1
X83.003Y-28.127
X83.028Y-28.154
X83.053Y-28.181
X83.077Y-28.21
X83.1Y-28.238
X83.122Y-28.268
X83.143Y-28.297
X83.165Y-28.329
X83.185Y-28.36
X83.204Y-28.391
X83.223Y-28.423
X83.241Y-28.455
X83.257Y-28.488
X83.274Y-28.521
X83.289Y-28.554
X83.303Y-28.588
X83.317Y-28.622
X83.33Y-28.657
X83.342Y-28.692
X83.353Y-28.727
X83.363Y-28.762
X83.373Y-28.798
X83.381Y-28.833
X83.389Y-28.869
X83.396Y-28.906
X83.401Y-28.942
X83.406Y-28.978
X83.41Y-29.015
X83.414Y-29.052
X83.416Y-29.088
X83.417Y-29.125
X83.418Y-29.162
Y-129.162
X83.417Y-129.199
X83.416Y-129.236
X83.414Y-129.272
X83.41Y-129.309
X83.406Y-129.346
X83.401Y-129.382
X83.396Y-129.419
X83.389Y-129.455
X83.381Y-129.491
X83.373Y-129.527
X83.363Y-129.562
X83.353Y-129.598
X83.342Y-129.633
X83.33Y-129.667
X83.317Y-129.702
X83.303Y-129.736
X83.289Y-129.77
X83.274Y-129.803
X83.257Y-129.836
X83.241Y-129.869
X83.223Y-129.901
X83.204Y-129.933
X83.185Y-129.965
X83.164Y-129.996
X83.143Y-130.027
X83.122Y-130.057
X83.1Y-130.086
X83.077Y-130.115
X83.053Y-130.143
X83.028Y-130.17
X83.003Y-130.197
X82.978Y-130.224
X82.951Y-130.249
X82.924Y-130.274
X82.897Y-130.299
X82.869Y-130.323
X82.84Y-130.346
X82.811Y-130.368
X82.781Y-130.389
X82.75Y-130.41
X82.72Y-130.43
X82.688Y-130.45
X82.656Y-130.468
X82.624Y-130.486
X82.591Y-130.503
X82.558Y-130.519
X82.525Y-130.534
X82.491Y-130.549
X82.457Y-130.562
X82.422Y-130.575
X82.388Y-130.587
X82.352Y-130.598
X82.317Y-130.609
X82.282Y-130.618
X82.246Y-130.627
X82.209Y-130.634
X82.173Y-130.641
X82.137Y-130.647
X82.1Y-130.652
X82.064Y-130.656
X82.027Y-130.659
X81.99Y-130.661
X81.953Y-130.663
X81.917
X-18.082
X-18.119
X-18.156Y-130.661
X-18.193Y-130.659
X-18.229Y-130.656
X-18.266Y-130.652
X-18.302Y-130.647
X-18.339Y-130.641
X-18.375Y-130.634
X-18.411Y-130.627
X-18.447Y-130.618
X-18.483Y-130.609
X-18.518Y-130.598
X-18.553Y-130.587
X-18.588Y-130.575
X-18.623Y-130.562
X-18.657Y-130.549
X-18.691Y-130.534
X-18.724Y-130.519
X-18.757Y-130.503
X-18.79Y-130.486
X-18.822Y-130.468
X-18.854Y-130.45
X-18.885Y-130.43
X-18.916Y-130.41
X-18.946Y-130.389
X-18.976Y-130.368
X-19.006Y-130.346
X-19.034Y-130.323
X-19.062Y-130.299
X-19.09Y-130.274
X-19.117Y-130.249
X-19.143Y-130.224
X-19.169Y-130.197
X-19.194Y-130.17
X-19.219Y-130.143
X-19.242Y-130.115
X-19.265Y-130.086
X-19.288Y-130.057
X-19.309Y-130.027
X-19.331Y-129.995
X-19.351Y-129.965
X-19.37Y-129.933
X-19.388Y-129.901
X-19.406Y-129.869
X-19.423Y-129.836
X-19.439Y-129.803
X-19.455Y-129.77
X-19.469Y-129.736
X-19.483Y-129.702
X-19.496Y-129.667
X-19.508Y-129.633
X-19.519Y-129.598
X-19.529Y-129.562
X-19.538Y-129.527
X-19.547Y-129.491
X-19.555Y-129.455
X-19.561Y-129.419
X-19.567Y-129.382
X-19.572Y-129.346
X-19.576Y-129.309
X-19.579Y-129.272
X-19.582Y-129.236
X-19.583Y-129.199
Y-129.162
Y-29.162
Y-29.125
X-19.582Y-29.088
X-19.579Y-29.052
X-19.576Y-29.015
X-19.572Y-28.978
X-19.567Y-28.942
X-19.561Y-28.906
X-19.555Y-28.869
X-19.547Y-28.833
X-19.538Y-28.798
X-19.529Y-28.762
X-19.519Y-28.727
X-19.508Y-28.692
X-19.496Y-28.657
X-19.483Y-28.622
X-19.469Y-28.588
X-19.455Y-28.554
X-19.439Y-28.521
X-19.423Y-28.488
X-19.406Y-28.455
X-19.388Y-28.423
X-19.37Y-28.391
X-19.351Y-28.36
X-19.33Y-28.328
X-19.309Y-28.297
X-19.288Y-28.268
X-19.265Y-28.238
X-19.242Y-28.21
X-19.219Y-28.181
X-19.194Y-28.154
X-19.169Y-28.127
X-19.143Y-28.1
X-19.117Y-28.075
X-19.09Y-28.05
X-19.062Y-28.025
X-19.034Y-28.002
X-19.006Y-27.979
X-18.976Y-27.956
X-18.946Y-27.935
X-18.916Y-27.914
X-18.885Y-27.894
X-18.854Y-27.875
X-18.822Y-27.856
X-18.79Y-27.838
X-18.757Y-27.821
X-18.724Y-27.805
X-18.691Y-27.79
X-18.657Y-27.775
X-18.623Y-27.762
X-18.588Y-27.749
X-18.553Y-27.737
X-18.518Y-27.726
X-18.483Y-27.715
X-18.447Y-27.706
X-18.411Y-27.698
X-18.375Y-27.69
X-18.339Y-27.683
X-18.302Y-27.677
X-18.266Y-27.672
X-18.229Y-27.668
X-18.193Y-27.665
X-18.156Y-27.663
X-18.119Y-27.662
X-18.082Y-27.661
Z-4F500
X81.917F1000
X81.953Y-27.662
X81.99Y-27.663
X82.027Y-27.665
X82.064Y-27.668
X82.1Y-27.672
X82.137Y-27.677
X82.173Y-27.683
X82.21Y-27.69
X82.246Y-27.698
X82.282Y-27.706
X82.317Y-27.715
X82.352Y-27.726
X82.388Y-27.737
X82.422Y-27.749
X82.457Y-27.762
X82.491Y-27.775
X82.525Y-27.79
X82.558Y-27.805
X82.591Y-27.821
X82.624Y-27.838
X82.656Y-27.856
X82.688Y-27.875
X82.72Y-27.894
X82.75Y-27.914
X82.781Y-27.935
X82.811Y-27.956
X82.84Y-27.979
X82.869Y-28.002
X82.897Y-28.025
X82.924Y-28.05
X82.951Y-28.075
X82.978Y-28.1
X83.003Y-28.127
X83.028Y-28.154
X83.053Y-28.181
X83.077Y-28.21
X83.1Y-28.238
X83.122Y-28.268
X83.143Y-28.297
X83.165Y-28.329
X83.185Y-28.36
X83.204Y-28.391
X83.223Y-28.423
X83.241Y-28.455
X83.257Y-28.488
X83.274Y-28.521
X83.289Y-28.554
X83.303Y-28.588
X83.317Y-28.622
X83.33Y-28.657
X83.342Y-28.692
X83.353Y-28.727
X83.363Y-28.762
X83.373Y-28.798
X83.381Y-28.833
X83.389Y-28.869
X83.396Y-28.906
X83.401Y-28.942
X83.406Y-28.978
X83.41Y-29.015
X83.414Y-29.052
X83.416Y-29.088
X83.417Y-29.125
X83.418Y-29.162
Y-129.162
X83.417Y-129.199
X83.416Y-129.236
X83.414Y-129.272
X83.41Y-129.309
X83.406Y-129.346
X83.401Y-129.382
X83.396Y-129.419
X83.389Y-129.455
X83.381Y-129.491
X83.373Y-129.527
X83.363Y-129.562
X83.353Y-129.598
X83.342Y-129.633
X83.33Y-129.667
X83.317Y-129.702
X83.303Y-129.736
X83.289Y-129.77
X83.274Y-129.803
X83.257Y-129.836
X83.241Y-129.869
X83.223Y-129.901
X83.204Y-129.933
X83.185Y-129.965
X83.164Y-129.996
X83.143Y-130.027
X83.122Y-130.057
X83.1Y-130.086
X83.077Y-130.115
X83.053Y-130.143
X83.028Y-130.17
X83.003Y-130.197
X82.978Y-130.224
X82.951Y-130.249
X82.924Y-130.274
X82.897Y-130.299
X82.869Y-130.323
X82.84Y-130.346
X82.811Y-130.368
X82.781Y-130.389
X82.75Y-130.41
X82.72Y-130.43
X82.688Y-130.45
X82.656Y-130.468
X82.624Y-130.486
X82.591Y-130.503
X82.558Y-130.519
X82.525Y-130.534
X82.491Y-130.549
X82.457Y-130.562
X82.422Y-130.575
X82.388Y-130.587
X82.352Y-130.598
X82.317Y-130.609
X82.282Y-130.618
X82.246Y-130.627
X82.209Y-130.634
X82.173Y-130.641
X82.137Y-130.647
X82.1Y-130.652
X82.064Y-130.656
X82.027Y-130.659
X81.99Y-130.661
X81.953Y-130.663
X81.917
X-18.082
X-18.119
X-18.156Y-130.661
X-18.193Y-130.659
X-18.229Y-130.656
X-18.266Y-130.652
X-18.302Y-130.647
X-18.339Y-130.641
X-18.375Y-130.634
X-18.411Y-130.627
X-18.447Y-130.618
X-18.483Y-130.609
X-18.518Y-130.598
X-18.553Y-130.587
X-18.588Y-130.575
X-18.623Y-130.562
X-18.657Y-130.549
X-18.691Y-130.534
X-18.724Y-130.519
X-18.757Y-130.503
X-18.79Y-130.486
X-18.822Y-130.468
X-18.854Y-130.45
X-18.885Y-130.43
X-18.916Y-130.41
X-18.946Y-130.389
X-18.976Y-130.368
X-19.006Y-130.346
X-19.034Y-130.323
X-19.062Y-130.299
X-19.09Y-130.274
X-19.117Y-130.249
X-19.143Y-130.224
X-19.169Y-130.197
X-19.194Y-130.17
X-19.219Y-130.143
X-19.242Y-130.115
X-19.265Y-130.086
X-19.288Y-130.057
X-19.309Y-130.027
X-19.331Y-129.995
X-19.351Y-129.965
X-19.37Y-129.933
X-19.388Y-129.901
X-19.406Y-129.869
X-19.423Y-129.836
X-19.439Y-129.803
X-19.455Y-129.77
X-19.469Y-129.736
X-19.483Y-129.702
X-19.496Y-129.667
X-19.508Y-129.633
X-19.519Y-129.598
X-19.529Y-129.562
X-19.538Y-129.527
X-19.547Y-129.491
X-19.555Y-129.455
X-19.561Y-129.419
X-19.567Y-129.382
X-19.572Y-129.346
X-19.576Y-129.309
X-19.579Y-129.272
X-19.582Y-129.236
X-19.583Y-129.199
Y-129.162
Y-29.162
Y-29.125
X-19.582Y-29.088
X-19.579Y-29.052
X-19.576Y-29.015
X-19.572Y-28.978
X-19.567Y-28.942
X-19.561Y-28.906
X-19.555Y-28.869
X-19.547Y-28.833
X-19.538Y-28.798
X-19.529Y-28.762
X-19.519Y-28.727
X-19.508Y-28.692
X-19.496Y-28.657
X-19.483Y-28.622
X-19.469Y-28.588
X-19.455Y-28.554
X-19.439Y-28.521
X-19.423Y-28.488
X-19.406Y-28.455
X-19.388Y-28.423
X-19.37Y-28.391
X-19.351Y-28.36
X-19.33Y-28.328
X-19.309Y-28.297
X-19.288Y-28.268
X-19.265Y-28.238
X-19.242Y-28.21
X-19.219Y-28.181
X-19.194Y-28.154
X-19.169Y-28.127
X-19.143Y-28.1
X-19.117Y-28.075
X-19.09Y-28.05
X-19.062Y-28.025
X-19.034Y-28.002
X-19.006Y-27.979
X-18.976Y-27.956
X-18.946Y-27.935
X-18.916Y-27.914
X-18.885Y-27.894
X-18.854Y-27.875
X-18.822Y-27.856
X-18.79Y-27.838
X-18.757Y-27.821
X-18.724Y-27.805
X-18.691Y-27.79
X-18.657Y-27.775
X-18.623Y-27.762
X-18.588Y-27.749
X-18.553Y-27.737
X-18.518Y-27.726
X-18.483Y-27.715
X-18.447Y-27.706
X-18.411Y-27.698
X-18.375Y-27.69
X-18.339Y-27.683
X-18.302Y-27.677
X-18.266Y-27.672
X-18.229Y-27.668
X-18.193Y-27.665
X-18.156Y-27.663
X-18.119Y-27.662
X-18.082Y-27.661
Z-5F500
X81.917F1000
X81.953Y-27.662
X81.99Y-27.663
X82.027Y-27.665
X82.064Y-27.668
X82.1Y-27.672
X82.137Y-27.677
X82.173Y-27.683
X82.21Y-27.69
X82.246Y-27.698
X82.282Y-27.706
X82.317Y-27.715
X82.352Y-27.726
X82.388Y-27.737
X82.422Y-27.749
X82.457Y-27.762
X82.491Y-27.775
X82.525Y-27.79
X82.558Y-27.805
X82.591Y-27.821
X82.624Y-27.838
X82.656Y-27.856
X82.688Y-27.875
X82.72Y-27.894
X82.75Y-27.914
X82.781Y-27.935
X82.811Y-27.956
X82.84Y-27.979
X82.869Y-28.002
X82.897Y-28.025
X82.924Y-28.05
X82.951Y-28.075
X82.978Y-28.1
X83.003Y-28.127
X83.028Y-28.154
X83.053Y-28.181
X83.077Y-28.21
X83.1Y-28.238
X83.122Y-28.268
X83.143Y-28.297
X83.165Y-28.329
X83.185Y-28.36
X83.204Y-28.391
X83.223Y-28.423
X83.241Y-28.455
X83.257Y-28.488
X83.274Y-28.521
X83.289Y-28.554
X83.303Y-28.588
X83.317Y-28.622
X83.33Y-28.657
X83.342Y-28.692
X83.353Y-28.727
X83.363Y-28.762
X83.373Y-28.798
X83.381Y-28.833
X83.389Y-28.869
X83.396Y-28.906
X83.401Y-28.942
X83.406Y-28.978
X83.41Y-29.015
X83.414Y-29.052
X83.416Y-29.088
X83.417Y-29.125
X83.418Y-29.162
Y-129.162
X83.417Y-129.199
X83.416Y-129.236
X83.414Y-129.272
X83.41Y-129.309
X83.406Y-129.346
X83.401Y-129.382
X83.396Y-129.419
X83.389Y-129.455
X83.381Y-129.491
X83.373Y-129.527
X83.363Y-129.562
X83.353Y-129.598
X83.342Y-129.633
X83.33Y-129.667
X83.317Y-129.702
X83.303Y-129.736
X83.289Y-129.77
X83.274Y-129.803
X83.257Y-129.836
X83.241Y-129.869
X83.223Y-129.901
X83.204Y-129.933
X83.185Y-129.965
X83.164Y-129.996
X83.143Y-130.027
X83.122Y-130.057
X83.1Y-130.086
X83.077Y-130.115
X83.053Y-130.143
X83.028Y-130.17
X83.003Y-130.197
X82.978Y-130.224
X82.951Y-130.249
X82.924Y-130.274
X82.897Y-130.299
X82.869Y-130.323
X82.84Y-130.346
X82.811Y-130.368
X82.781Y-130.389
X82.75Y-130.41
X82.72Y-130.43
X82.688Y-130.45
X82.656Y-130.468
X82.624Y-130.486
X82.591Y-130.503
X82.558Y-130.519
X82.525Y-130.534
X82.491Y-130.549
X82.457Y-130.562
X82.422Y-130.575
X82.388Y-130.587
X82.352Y-130.598
X82.317Y-130.609
X82.282Y-130.618
X82.246Y-130.627
X82.209Y-130.634
X82.173Y-130.641
X82.137Y-130.647
X82.1Y-130.652
X82.064Y-130.656
X82.027Y-130.659
X81.99Y-130.661
X81.953Y-130.663
X81.917
X-18.082
X-18.119
X-18.156Y-130.661
X-18.193Y-130.659
X-18.229Y-130.656
X-18.266Y-130.652
X-18.302Y-130.647
X-18.339Y-130.641
X-18.375Y-130.634
X-18.411Y-130.627
X-18.447Y-130.618
X-18.483Y-130.609
X-18.518Y-130.598
X-18.553Y-130.587
X-18.588Y-130.575
X-18.623Y-130.562
X-18.657Y-130.549
X-18.691Y-130.534
X-18.724Y-130.519
X-18.757Y-130.503
X-18.79Y-130.486
X-18.822Y-130.468
X-18.854Y-130.45
X-18.885Y-130.43
X-18.916Y-130.41
X-18.946Y-130.389
X-18.976Y-130.368
X-19.006Y-130.346
X-19.034Y-130.323
X-19.062Y-130.299
X-19.09Y-130.274
X-19.117Y-130.249
X-19.143Y-130.224
X-19.169Y-130.197
X-19.194Y-130.17
X-19.219Y-130.143
X-19.242Y-130.115
X-19.265Y-130.086
X-19.288Y-130.057
X-19.309Y-130.027
X-19.331Y-129.995
X-19.351Y-129.965
X-19.37Y-129.933
X-19.388Y-129.901
X-19.406Y-129.869
X-19.423Y-129.836
X-19.439Y-129.803
X-19.455Y-129.77
X-19.469Y-129.736
X-19.483Y-129.702
X-19.496Y-129.667
X-19.508Y-129.633
X-19.519Y-129.598
X-19.529Y-129.562
X-19.538Y-129.527
X-19.547Y-129.491
X-19.555Y-129.455
X-19.561Y-129.419
X-19.567Y-129.382
X-19.572Y-129.346
X-19.576Y-129.309
X-19.579Y-129.272
X-19.582Y-129.236
X-19.583Y-129.199
Y-129.162
Y-29.162
Y-29.125
X-19.582Y-29.088
X-19.579Y-29.052
X-19.576Y-29.015
X-19.572Y-28.978
X-19.567Y-28.942
X-19.561Y-28.906
X-19.555Y-28.869
X-19.547Y-28.833
X-19.538Y-28.798
X-19.529Y-28.762
X-19.519Y-28.727
X-19.508Y-28.692
X-19.496Y-28.657
X-19.483Y-28.622
X-19.469Y-28.588
X-19.455Y-28.554
X-19.439Y-28.521
X-19.423Y-28.488
X-19.406Y-28.455
X-19.388Y-28.423
X-19.37Y-28.391
X-19.351Y-28.36
X-19.33Y-28.328
X-19.309Y-28.297
X-19.288Y-28.268
X-19.265Y-28.238
X-19.242Y-28.21
X-19.219Y-28.181
X-19.194Y-28.154
X-19.169Y-28.127
X-19.143Y-28.1
X-19.117Y-28.075
X-19.09Y-28.05
X-19.062Y-28.025
X-19.034Y-28.002
X-19.006Y-27.979
X-18.976Y-27.956
X-18.946Y-27.935
X-18.916Y-27.914
X-18.885Y-27.894
X-18.854Y-27.875
X-18.822Y-27.856
X-18.79Y-27.838
X-18.757Y-27.821
X-18.724Y-27.805
X-18.691Y-27.79
X-18.657Y-27.775
X-18.623Y-27.762
X-18.588Y-27.749
X-18.553Y-27.737
X-18.518Y-27.726
X-18.483Y-27.715
X-18.447Y-27.706
X-18.411Y-27.698
X-18.375Y-27.69
X-18.339Y-27.683
X-18.302Y-27.677
X-18.266Y-27.672
X-18.229Y-27.668
X-18.193Y-27.665
X-18.156Y-27.663
X-18.119Y-27.662
X-18.082Y-27.661
Z-6F500
X81.917F1000
X81.953Y-27.662
X81.99Y-27.663
X82.027Y-27.665
X82.064Y-27.668
X82.1Y-27.672
X82.137Y-27.677
X82.173Y-27.683
X82.21Y-27.69
X82.246Y-27.698
X82.282Y-27.706
X82.317Y-27.715
X82.352Y-27.726
X82.388Y-27.737
X82.422Y-27.749
X82.457Y-27.762
X82.491Y-27.775
X82.525Y-27.79
X82.558Y-27.805
X82.591Y-27.821
X82.624Y-27.838
X82.656Y-27.856
X82.688Y-27.875
X82.72Y-27.894
X82.75Y-27.914
X82.781Y-27.935
X82.811Y-27.956
X82.84Y-27.979
X82.869Y-28.002
X82.897Y-28.025
X82.924Y-28.05
X82.951Y-28.075
X82.978Y-28.1
X83.003Y-28.127
X83.028Y-28.154
X83.053Y-28.181
X83.077Y-28.21
X83.1Y-28.238
X83.122Y-28.268
X83.143Y-28.297
X83.165Y-28.329
X83.185Y-28.36
X83.204Y-28.391
X83.223Y-28.423
X83.241Y-28.455
X83.257Y-28.488
X83.274Y-28.521
X83.289Y-28.554
X83.303Y-28.588
X83.317Y-28.622
X83.33Y-28.657
X83.342Y-28.692
X83.353Y-28.727
X83.363Y-28.762
X83.373Y-28.798
X83.381Y-28.833
X83.389Y-28.869
X83.396Y-28.906
X83.401Y-28.942
X83.406Y-28.978
X83.41Y-29.015
X83.414Y-29.052
X83.416Y-29.088
X83.417Y-29.125
X83.418Y-29.162
Y-129.162
X83.417Y-129.199
X83.416Y-129.236
X83.414Y-129.272
X83.41Y-129.309
X83.406Y-129.346
X83.401Y-129.382
X83.396Y-129.419
X83.389Y-129.455
X83.381Y-129.491
X83.373Y-129.527
X83.363Y-129.562
X83.353Y-129.598
X83.342Y-129.633
X83.33Y-129.667
X83.317Y-129.702
X83.303Y-129.736
X83.289Y-129.77
X83.274Y-129.803
X83.257Y-129.836
X83.241Y-129.869
X83.223Y-129.901
X83.204Y-129.933
X83.185Y-129.965
X83.164Y-129.996
X83.143Y-130.027
X83.122Y-130.057
X83.1Y-130.086
X83.077Y-130.115
X83.053Y-130.143
X83.028Y-130.17
X83.003Y-130.197
X82.978Y-130.224
X82.951Y-130.249
X82.924Y-130.274
X82.897Y-130.299
X82.869Y-130.323
X82.84Y-130.346
X82.811Y-130.368
X82.781Y-130.389
X82.75Y-130.41
X82.72Y-130.43
X82.688Y-130.45
X82.656Y-130.468
X82.624Y-130.486
X82.591Y-130.503
X82.558Y-130.519
X82.525Y-130.534
X82.491Y-130.549
X82.457Y-130.562
X82.422Y-130.575
X82.388Y-130.587
X82.352Y-130.598
X82.317Y-130.609
X82.282Y-130.618
X82.246Y-130.627
X82.209Y-130.634
X82.173Y-130.641
X82.137Y-130.647
X82.1Y-130.652
X82.064Y-130.656
X82.027Y-130.659
X81.99Y-130.661
X81.953Y-130.663
X81.917
X-18.082
X-18.119
X-18.156Y-130.661
X-18.193Y-130.659
X-18.229Y-130.656
X-18.266Y-130.652
X-18.302Y-130.647
X-18.339Y-130.641
X-18.375Y-130.634
X-18.411Y-130.627
X-18.447Y-130.618
X-18.483Y-130.609
X-18.518Y-130.598
X-18.553Y-130.587
X-18.588Y-130.575
X-18.623Y-130.562
X-18.657Y-130.549
X-18.691Y-130.534
X-18.724Y-130.519
X-18.757Y-130.503
X-18.79Y-130.486
X-18.822Y-130.468
X-18.854Y-130.45
X-18.885Y-130.43
X-18.916Y-130.41
X-18.946Y-130.389
X-18.976Y-130.368
X-19.006Y-130.346
X-19.034Y-130.323
X-19.062Y-130.299
X-19.09Y-130.274
X-19.117Y-130.249
X-19.143Y-130.224
X-19.169Y-130.197
X-19.194Y-130.17
X-19.219Y-130.143
X-19.242Y-130.115
X-19.265Y-130.086
X-19.288Y-130.057
X-19.309Y-130.027
X-19.331Y-129.995
X-19.351Y-129.965
X-19.37Y-129.933
X-19.388Y-129.901
X-19.406Y-129.869
X-19.423Y-129.836
X-19.439Y-129.803
X-19.455Y-129.77
X-19.469Y-129.736
X-19.483Y-129.702
X-19.496Y-129.667
X-19.508Y-129.633
X-19.519Y-129.598
X-19.529Y-129.562
X-19.538Y-129.527
X-19.547Y-129.491
X-19.555Y-129.455
X-19.561Y-129.419
X-19.567Y-129.382
X-19.572Y-129.346
X-19.576Y-129.309
X-19.579Y-129.272
X-19.582Y-129.236
X-19.583Y-129.199
Y-129.162
Y-29.162
Y-29.125
X-19.582Y-29.088
X-19.579Y-29.052
X-19.576Y-29.015
X-19.572Y-28.978
X-19.567Y-28.942
X-19.561Y-28.906
X-19.555Y-28.869
X-19.547Y-28.833
X-19.538Y-28.798
X-19.529Y-28.762
X-19.519Y-28.727
X-19.508Y-28.692
X-19.496Y-28.657
X-19.483Y-28.622
X-19.469Y-28.588
X-19.455Y-28.554
X-19.439Y-28.521
X-19.423Y-28.488
X-19.406Y-28.455
X-19.388Y-28.423
X-19.37Y-28.391
X-19.351Y-28.36
X-19.33Y-28.328
X-19.309Y-28.297
X-19.288Y-28.268
X-19.265Y-28.238
X-19.242Y-28.21
X-19.219Y-28.181
X-19.194Y-28.154
X-19.169Y-28.127
X-19.143Y-28.1
X-19.117Y-28.075
X-19.09Y-28.05
X-19.062Y-28.025
X-19.034Y-28.002
X-19.006Y-27.979
X-18.976Y-27.956
X-18.946Y-27.935
X-18.916Y-27.914
X-18.885Y-27.894
X-18.854Y-27.875
X-18.822Y-27.856
X-18.79Y-27.838
X-18.757Y-27.821
X-18.724Y-27.805
X-18.691Y-27.79
X-18.657Y-27.775
X-18.623Y-27.762
X-18.588Y-27.749
X-18.553Y-27.737
X-18.518Y-27.726
X-18.483Y-27.715
X-18.447Y-27.706
X-18.411Y-27.698
X-18.375Y-27.69
X-18.339Y-27.683
X-18.302Y-27.677
X-18.266Y-27.672
X-18.229Y-27.668
X-18.193Y-27.665
X-18.156Y-27.663
X-18.119Y-27.662
X-18.082Y-27.661
Z-7F500
X81.917F1000
X81.953Y-27.662
X81.99Y-27.663
X82.027Y-27.665
X82.064Y-27.668
X82.1Y-27.672
X82.137Y-27.677
X82.173Y-27.683
X82.21Y-27.69
X82.246Y-27.698
X82.282Y-27.706
X82.317Y-27.715
X82.352Y-27.726
X82.388Y-27.737
X82.422Y-27.749
X82.457Y-27.762
X82.491Y-27.775
X82.525Y-27.79
X82.558Y-27.805
X82.591Y-27.821
X82.624Y-27.838
X82.656Y-27.856
X82.688Y-27.875
X82.72Y-27.894
X82.75Y-27.914
X82.781Y-27.935
X82.811Y-27.956
X82.84Y-27.979
X82.869Y-28.002
X82.897Y-28.025
X82.924Y-28.05
X82.951Y-28.075
X82.978Y-28.1
X83.003Y-28.127
X83.028Y-28.154
X83.053Y-28.181
X83.077Y-28.21
X83.1Y-28.238
X83.122Y-28.268
X83.143Y-28.297
X83.165Y-28.329
X83.185Y-28.36
X83.204Y-28.391
X83.223Y-28.423
X83.241Y-28.455
X83.257Y-28.488
X83.274Y-28.521
X83.289Y-28.554
X83.303Y-28.588
X83.317Y-28.622
X83.33Y-28.657
X83.342Y-28.692
X83.353Y-28.727
X83.363Y-28.762
X83.373Y-28.798
X83.381Y-28.833
X83.389Y-28.869
X83.396Y-28.906
X83.401Y-28.942
X83.406Y-28.978
X83.41Y-29.015
X83.414Y-29.052
X83.416Y-29.088
X83.417Y-29.125
X83.418Y-29.162
Y-129.162
X83.417Y-129.199
X83.416Y-129.236
X83.414Y-129.272
X83.41Y-129.309
X83.406Y-129.346
X83.401Y-129.382
X83.396Y-129.419
X83.389Y-129.455
X83.381Y-129.491
X83.373Y-129.527
X83.363Y-129.562
X83.353Y-129.598
X83.342Y-129.633
X83.33Y-129.667
X83.317Y-129.702
X83.303Y-129.736
X83.289Y-129.77
X83.274Y-129.803
X83.257Y-129.836
X83.241Y-129.869
X83.223Y-129.901
X83.204Y-129.933
X83.185Y-129.965
X83.164Y-129.996
X83.143Y-130.027
X83.122Y-130.057
X83.1Y-130.086
X83.077Y-130.115
X83.053Y-130.143
X83.028Y-130.17
X83.003Y-130.197
X82.978Y-130.224
X82.951Y-130.249
X82.924Y-130.274
X82.897Y-130.299
X82.869Y-130.323
X82.84Y-130.346
X82.811Y-130.368
X82.781Y-130.389
X82.75Y-130.41
X82.72Y-130.43
X82.688Y-130.45
X82.656Y-130.468
X82.624Y-130.486
X82.591Y-130.503
X82.558Y-130.519
X82.525Y-130.534
X82.491Y-130.549
X82.457Y-130.562
X82.422Y-130.575
X82.388Y-130.587
X82.352Y-130.598
X82.317Y-130.609
X82.282Y-130.618
X82.246Y-130.627
X82.209Y-130.634
X82.173Y-130.641
X82.137Y-130.647
X82.1Y-130.652
X82.064Y-130.656
X82.027Y-130.659
X81.99Y-130.661
X81.953Y-130.663
X81.917
X-18.082
X-18.119
X-18.156Y-130.661
X-18.193Y-130.659
X-18.229Y-130.656
X-18.266Y-130.652
X-18.302Y-130.647
X-18.339Y-130.641
X-18.375Y-130.634
X-18.411Y-130.627
X-18.447Y-130.618
X-18.483Y-130.609
X-18.518Y-130.598
X-18.553Y-130.587
X-18.588Y-130.575
X-18.623Y-130.562
X-18.657Y-130.549
X-18.691Y-130.534
X-18.724Y-130.519
X-18.757Y-130.503
X-18.79Y-130.486
X-18.822Y-130.468
X-18.854Y-130.45
X-18.885Y-130.43
X-18.916Y-130.41
X-18.946Y-130.389
X-18.976Y-130.368
X-19.006Y-130.346
X-19.034Y-130.323
X-19.062Y-130.299
X-19.09Y-130.274
X-19.117Y-130.249
X-19.143Y-130.224
X-19.169Y-130.197
X-19.194Y-130.17
X-19.219Y-130.143
X-19.242Y-130.115
X-19.265Y-130.086
X-19.288Y-130.057
X-19.309Y-130.027
X-19.331Y-129.995
X-19.351Y-129.965
X-19.37Y-129.933
X-19.388Y-129.901
X-19.406Y-129.869
X-19.423Y-129.836
X-19.439Y-129.803
X-19.455Y-129.77
X-19.469Y-129.736
X-19.483Y-129.702
X-19.496Y-129.667
X-19.508Y-129.633
X-19.519Y-129.598
X-19.529Y-129.562
X-19.538Y-129.527
X-19.547Y-129.491
X-19.555Y-129.455
X-19.561Y-129.419
X-19.567Y-129.382
X-19.572Y-129.346
X-19.576Y-129.309
X-19.579Y-129.272
X-19.582Y-129.236
X-19.583Y-129.199
Y-129.162
Y-29.162
Y-29.125
X-19.582Y-29.088
X-19.579Y-29.052
X-19.576Y-29.015
X-19.572Y-28.978
X-19.567Y-28.942
X-19.561Y-28.906
X-19.555Y-28.869
X-19.547Y-28.833
X-19.538Y-28.798
X-19.529Y-28.762
X-19.519Y-28.727
X-19.508Y-28.692
X-19.496Y-28.657
X-19.483Y-28.622
X-19.469Y-28.588
X-19.455Y-28.554
X-19.439Y-28.521
X-19.423Y-28.488
X-19.406Y-28.455
X-19.388Y-28.423
X-19.37Y-28.391
X-19.351Y-28.36
X-19.33Y-28.328
X-19.309Y-28.297
X-19.288Y-28.268
X-19.265Y-28.238
X-19.242Y-28.21
X-19.219Y-28.181
X-19.194Y-28.154
X-19.169Y-28.127
X-19.143Y-28.1
X-19.117Y-28.075
X-19.09Y-28.05
X-19.062Y-28.025
X-19.034Y-28.002
X-19.006Y-27.979
X-18.976Y-27.956
X-18.946Y-27.935
X-18.916Y-27.914
X-18.885Y-27.894
X-18.854Y-27.875
X-18.822Y-27.856
X-18.79Y-27.838
X-18.757Y-27.821
X-18.724Y-27.805
X-18.691Y-27.79
X-18.657Y-27.775
X-18.623Y-27.762
X-18.588Y-27.749
X-18.553Y-27.737
X-18.518Y-27.726
X-18.483Y-27.715
X-18.447Y-27.706
X-18.411Y-27.698
X-18.375Y-27.69
X-18.339Y-27.683
X-18.302Y-27.677
X-18.266Y-27.672
X-18.229Y-27.668
X-18.193Y-27.665
X-18.156Y-27.663
X-18.119Y-27.662
X-18.082Y-27.661
Z-8F500
X81.917F1000
X81.953Y-27.662
X81.99Y-27.663
X82.027Y-27.665
X82.064Y-27.668
X82.1Y-27.672
X82.137Y-27.677
X82.173Y-27.683
X82.21Y-27.69
X82.246Y-27.698
X82.282Y-27.706
X82.317Y-27.715
X82.352Y-27.726
X82.388Y-27.737
X82.422Y-27.749
X82.457Y-27.762
X82.491Y-27.775
X82.525Y-27.79
X82.558Y-27.805
X82.591Y-27.821
X82.624Y-27.838
X82.656Y-27.856
X82.688Y-27.875
X82.72Y-27.894
X82.75Y-27.914
X82.781Y-27.935
X82.811Y-27.956
X82.84Y-27.979
X82.869Y-28.002
X82.897Y-28.025
X82.924Y-28.05
X82.951Y-28.075
X82.978Y-28.1
X83.003Y-28.127
X83.028Y-28.154
X83.053Y-28.181
X83.077Y-28.21
X83.1Y-28.238
X83.122Y-28.268
X83.143Y-28.297
X83.165Y-28.329
X83.185Y-28.36
X83.204Y-28.391
X83.223Y-28.423
X83.241Y-28.455
X83.257Y-28.488
X83.274Y-28.521
X83.289Y-28.554
X83.303Y-28.588
X83.317Y-28.622
X83.33Y-28.657
X83.342Y-28.692
X83.353Y-28.727
X83.363Y-28.762
X83.373Y-28.798
X83.381Y-28.833
X83.389Y-28.869
X83.396Y-28.906
X83.401Y-28.942
X83.406Y-28.978
X83.41Y-29.015
X83.414Y-29.052
X83.416Y-29.088
X83.417Y-29.125
X83.418Y-29.162
Y-129.162
X83.417Y-129.199
X83.416Y-129.236
X83.414Y-129.272
X83.41Y-129.309
X83.406Y-129.346
X83.401Y-129.382
X83.396Y-129.419
X83.389Y-129.455
X83.381Y-129.491
X83.373Y-129.527
X83.363Y-129.562
X83.353Y-129.598
X83.342Y-129.633
X83.33Y-129.667
X83.317Y-129.702
X83.303Y-129.736
X83.289Y-129.77
X83.274Y-129.803
X83.257Y-129.836
X83.241Y-129.869
X83.223Y-129.901
X83.204Y-129.933
X83.185Y-129.965
X83.164Y-129.996
X83.143Y-130.027
X83.122Y-130.057
X83.1Y-130.086
X83.077Y-130.115
X83.053Y-130.143
X83.028Y-130.17
X83.003Y-130.197
X82.978Y-130.224
X82.951Y-130.249
X82.924Y-130.274
X82.897Y-130.299
X82.869Y-130.323
X82.84Y-130.346
X82.811Y-130.368
X82.781Y-130.389
X82.75Y-130.41
X82.72Y-130.43
X82.688Y-130.45
X82.656Y-130.468
X82.624Y-130.486
X82.591Y-130.503
X82.558Y-130.519
X82.525Y-130.534
X82.491Y-130.549
X82.457Y-130.562
X82.422Y-130.575
X82.388Y-130.587
X82.352Y-130.598
X82.317Y-130.609
X82.282Y-130.618
X82.246Y-130.627
X82.209Y-130.634
X82.173Y-130.641
X82.137Y-130.647
X82.1Y-130.652
X82.064Y-130.656
X82.027Y-130.659
X81.99Y-130.661
X81.953Y-130.663
X81.917
X-18.082
X-18.119
X-18.156Y-130.661
X-18.193Y-130.659
X-18.229Y-130.656
X-18.266Y-130.652
X-18.302Y-130.647
X-18.339Y-130.641
X-18.375Y-130.634
X-18.411Y-130.627
X-18.447Y-130.618
X-18.483Y-130.609
X-18.518Y-130.598
X-18.553Y-130.587
X-18.588Y-130.575
X-18.623Y-130.562
X-18.657Y-130.549
X-18.691Y-130.534
X-18.724Y-130.519
X-18.757Y-130.503
X-18.79Y-130.486
X-18.822Y-130.468
X-18.854Y-130.45
X-18.885Y-130.43
X-18.916Y-130.41
X-18.946Y-130.389
X-18.976Y-130.368
X-19.006Y-130.346
X-19.034Y-130.323
X-19.062Y-130.299
X-19.09Y-130.274
X-19.117Y-130.249
X-19.143Y-130.224
X-19.169Y-130.197
X-19.194Y-130.17
X-19.219Y-130.143
X-19.242Y-130.115
X-19.265Y-130.086
X-19.288Y-130.057
X-19.309Y-130.027
X-19.331Y-129.995
X-19.351Y-129.965
X-19.37Y-129.933
X-19.388Y-129.901
X-19.406Y-129.869
X-19.423Y-129.836
X-19.439Y-129.803
X-19.455Y-129.77
X-19.469Y-129.736
X-19.483Y-129.702
X-19.496Y-129.667
X-19.508Y-129.633
X-19.519Y-129.598
X-19.529Y-129.562
X-19.538Y-129.527
X-19.547Y-129.491
X-19.555Y-129.455
X-19.561Y-129.419
X-19.567Y-129.382
X-19.572Y-129.346
X-19.576Y-129.309
X-19.579Y-129.272
X-19.582Y-129.236
X-19.583Y-129.199
Y-129.162
Y-29.162
Y-29.125
X-19.582Y-29.088
X-19.579Y-29.052
X-19.576Y-29.015
X-19.572Y-28.978
X-19.567Y-28.942
X-19.561Y-28.906
X-19.555Y-28.869
X-19.547Y-28.833
X-19.538Y-28.798
X-19.529Y-28.762
X-19.519Y-28.727
X-19.508Y-28.692
X-19.496Y-28.657
X-19.483Y-28.622
X-19.469Y-28.588
X-19.455Y-28.554
X-19.439Y-28.521
X-19.423Y-28.488
X-19.406Y-28.455
X-19.388Y-28.423
X-19.37Y-28.391
X-19.351Y-28.36
X-19.33Y-28.328
X-19.309Y-28.297
X-19.288Y-28.268
X-19.265Y-28.238
X-19.242Y-28.21
X-19.219Y-28.181
X-19.194Y-28.154
X-19.169Y-28.127
X-19.143Y-28.1
X-19.117Y-28.075
X-19.09Y-28.05
X-19.062Y-28.025
X-19.034Y-28.002
X-19.006Y-27.979
X-18.976Y-27.956
X-18.946Y-27.935
X-18.916Y-27.914
X-18.885Y-27.894
X-18.854Y-27.875
X-18.822Y-27.856
X-18.79Y-27.838
X-18.757Y-27.821
X-18.724Y-27.805
X-18.691Y-27.79
X-18.657Y-27.775
X-18.623Y-27.762
X-18.588Y-27.749
X-18.553Y-27.737
X-18.518Y-27.726
X-18.483Y-27.715
X-18.447Y-27.706
X-18.411Y-27.698
X-18.375Y-27.69
X-18.339Y-27.683
X-18.302Y-27.677
X-18.266Y-27.672
X-18.229Y-27.668
X-18.193Y-27.665
X-18.156Y-27.663
X-18.119Y-27.662
X-18.082Y-27.661
Z-9F500
X81.917F1000
X81.953Y-27.662
X81.99Y-27.663
X82.027Y-27.665
X82.064Y-27.668
X82.1Y-27.672
X82.137Y-27.677
X82.173Y-27.683
X82.21Y-27.69
X82.246Y-27.698
X82.282Y-27.706
X82.317Y-27.715
X82.352Y-27.726
X82.388Y-27.737
X82.422Y-27.749
X82.457Y-27.762
X82.491Y-27.775
X82.525Y-27.79
X82.558Y-27.805
X82.591Y-27.821
X82.624Y-27.838
X82.656Y-27.856
X82.688Y-27.875
X82.72Y-27.894
X82.75Y-27.914
X82.781Y-27.935
X82.811Y-27.956
X82.84Y-27.979
X82.869Y-28.002
X82.897Y-28.025
X82.924Y-28.05
X82.951Y-28.075
X82.978Y-28.1
X83.003Y-28.127
X83.028Y-28.154
X83.053Y-28.181
X83.077Y-28.21
X83.1Y-28.238
X83.122Y-28.268
X83.143Y-28.297
X83.165Y-28.329
X83.185Y-28.36
X83.204Y-28.391
X83.223Y-28.423
X83.241Y-28.455
X83.257Y-28.488
X83.274Y-28.521
X83.289Y-28.554
X83.303Y-28.588
X83.317Y-28.622
X83.33Y-28.657
X83.342Y-28.692
X83.353Y-28.727
X83.363Y-28.762
X83.373Y-28.798
X83.381Y-28.833
X83.389Y-28.869
X83.396Y-28.906
X83.401Y-28.942
X83.406Y-28.978
X83.41Y-29.015
X83.414Y-29.052
X83.416Y-29.088
X83.417Y-29.125
X83.418Y-29.162
Y-129.162
X83.417Y-129.199
X83.416Y-129.236
X83.414Y-129.272
X83.41Y-129.309
X83.406Y-129.346
X83.401Y-129.382
X83.396Y-129.419
X83.389Y-129.455
X83.381Y-129.491
X83.373Y-129.527
X83.363Y-129.562
X83.353Y-129.598
X83.342Y-129.633
X83.33Y-129.667
X83.317Y-129.702
X83.303Y-129.736
X83.289Y-129.77
X83.274Y-129.803
X83.257Y-129.836
X83.241Y-129.869
X83.223Y-129.901
X83.204Y-129.933
X83.185Y-129.965
X83.164Y-129.996
X83.143Y-130.027
X83.122Y-130.057
X83.1Y-130.086
X83.077Y-130.115
X83.053Y-130.143
X83.028Y-130.17
X83.003Y-130.197
X82.978Y-130.224
X82.951Y-130.249
X82.924Y-130.274
X82.897Y-130.299
X82.869Y-130.323
X82.84Y-130.346
X82.811Y-130.368
X82.781Y-130.389
X82.75Y-130.41
X82.72Y-130.43
X82.688Y-130.45
X82.656Y-130.468
X82.624Y-130.486
X82.591Y-130.503
X82.558Y-130.519
X82.525Y-130.534
X82.491Y-130.549
X82.457Y-130.562
X82.422Y-130.575
X82.388Y-130.587
X82.352Y-130.598
X82.317Y-130.609
X82.282Y-130.618
X82.246Y-130.627
X82.209Y-130.634
X82.173Y-130.641
X82.137Y-130.647
X82.1Y-130.652
X82.064Y-130.656
X82.027Y-130.659
X81.99Y-130.661
X81.953Y-130.663
X81.917
X-18.082
X-18.119
X-18.156Y-130.661
X-18.193Y-130.659
X-18.229Y-130.656
X-18.266Y-130.652
X-18.302Y-130.647
X-18.339Y-130.641
X-18.375Y-130.634
X-18.411Y-130.627
X-18.447Y-130.618
X-18.483Y-130.609
X-18.518Y-130.598
X-18.553Y-130.587
X-18.588Y-130.575
X-18.623Y-130.562
X-18.657Y-130.549
X-18.691Y-130.534
X-18.724Y-130.519
X-18.757Y-130.503
X-18.79Y-130.486
X-18.822Y-130.468
X-18.854Y-130.45
X-18.885Y-130.43
X-18.916Y-130.41
X-18.946Y-130.389
X-18.976Y-130.368
X-19.006Y-130.346
X-19.034Y-130.323
X-19.062Y-130.299
X-19.09Y-130.274
X-19.117Y-130.249
X-19.143Y-130.224
X-19.169Y-130.197
X-19.194Y-130.17
X-19.219Y-130.143
X-19.242Y-130.115
X-19.265Y-130.086
X-19.288Y-130.057
X-19.309Y-130.027
X-19.331Y-129.995
X-19.351Y-129.965
X-19.37Y-129.933
X-19.388Y-129.901
X-19.406Y-129.869
X-19.423Y-129.836
X-19.439Y-129.803
X-19.455Y-129.77
X-19.469Y-129.736
X-19.483Y-129.702
X-19.496Y-129.667
X-19.508Y-129.633
X-19.519Y-129.598
X-19.529Y-129.562
X-19.538Y-129.527
X-19.547Y-129.491
X-19.555Y-129.455
X-19.561Y-129.419
X-19.567Y-129.382
X-19.572Y-129.346
X-19.576Y-129.309
X-19.579Y-129.272
X-19.582Y-129.236
X-19.583Y-129.199
Y-129.162
Y-29.162
Y-29.125
X-19.582Y-29.088
X-19.579Y-29.052
X-19.576Y-29.015
X-19.572Y-28.978
X-19.567Y-28.942
X-19.561Y-28.906
X-19.555Y-28.869
X-19.547Y-28.833
X-19.538Y-28.798
X-19.529Y-28.762
X-19.519Y-28.727
X-19.508Y-28.692
X-19.496Y-28.657
X-19.483Y-28.622
X-19.469Y-28.588
X-19.455Y-28.554
X-19.439Y-28.521
X-19.423Y-28.488
X-19.406Y-28.455
X-19.388Y-28.423
X-19.37Y-28.391
X-19.351Y-28.36
X-19.33Y-28.328
X-19.309Y-28.297
X-19.288Y-28.268
X-19.265Y-28.238
X-19.242Y-28.21
X-19.219Y-28.181
X-19.194Y-28.154
X-19.169Y-28.127
X-19.143Y-28.1
X-19.117Y-28.075
X-19.09Y-28.05
X-19.062Y-28.025
X-19.034Y-28.002
X-19.006Y-27.979
X-18.976Y-27.956
X-18.946Y-27.935
X-18.916Y-27.914
X-18.885Y-27.894
X-18.854Y-27.875
X-18.822Y-27.856
X-18.79Y-27.838
X-18.757Y-27.821
X-18.724Y-27.805
X-18.691Y-27.79
X-18.657Y-27.775
X-18.623Y-27.762
X-18.588Y-27.749
X-18.553Y-27.737
X-18.518Y-27.726
X-18.483Y-27.715
X-18.447Y-27.706
X-18.411Y-27.698
X-18.375Y-27.69
X-18.339Y-27.683
X-18.302Y-27.677
X-18.266Y-27.672
X-18.229Y-27.668
X-18.193Y-27.665
X-18.156Y-27.663
X-18.119Y-27.662
X-18.082Y-27.661
Z-10F500
X81.917F1000
X81.953Y-27.662
X81.99Y-27.663
X82.027Y-27.665
X82.064Y-27.668
X82.1Y-27.672
X82.137Y-27.677
X82.173Y-27.683
X82.21Y-27.69
X82.246Y-27.698
X82.282Y-27.706
X82.317Y-27.715
X82.352Y-27.726
X82.388Y-27.737
X82.422Y-27.749
X82.457Y-27.762
X82.491Y-27.775
X82.525Y-27.79
X82.558Y-27.805
X82.591Y-27.821
X82.624Y-27.838
X82.656Y-27.856
X82.688Y-27.875
X82.72Y-27.894
X82.75Y-27.914
X82.781Y-27.935
X82.811Y-27.956
X82.84Y-27.979
X82.869Y-28.002
X82.897Y-28.025
X82.924Y-28.05
X82.951Y-28.075
X82.978Y-28.1
X83.003Y-28.127
X83.028Y-28.154
X83.053Y-28.181
X83.077Y-28.21
X83.1Y-28.238
X83.122Y-28.268
X83.143Y-28.297
X83.165Y-28.329
X83.185Y-28.36
X83.204Y-28.391
X83.223Y-28.423
X83.241Y-28.455
X83.257Y-28.488
X83.274Y-28.521
X83.289Y-28.554
X83.303Y-28.588
X83.317Y-28.622
X83.33Y-28.657
X83.342Y-28.692
X83.353Y-28.727
X83.363Y-28.762
X83.373Y-28.798
X83.381Y-28.833
X83.389Y-28.869
X83.396Y-28.906
X83.401Y-28.942
X83.406Y-28.978
X83.41Y-29.015
X83.414Y-29.052
X83.416Y-29.088
X83.417Y-29.125
X83.418Y-29.162
Y-129.162
X83.417Y-129.199
X83.416Y-129.236
X83.414Y-129.272
X83.41Y-129.309
X83.406Y-129.346
X83.401Y-129.382
X83.396Y-129.419
X83.389Y-129.455
X83.381Y-129.491
X83.373Y-129.527
X83.363Y-129.562
X83.353Y-129.598
X83.342Y-129.633
X83.33Y-129.667
X83.317Y-129.702
X83.303Y-129.736
X83.289Y-129.77
X83.274Y-129.803
X83.257Y-129.836
X83.241Y-129.869
X83.223Y-129.901
X83.204Y-129.933
X83.185Y-129.965
X83.164Y-129.996
X83.143Y-130.027
X83.122Y-130.057
X83.1Y-130.086
X83.077Y-130.115
X83.053Y-130.143
X83.028Y-130.17
X83.003Y-130.197
X82.978Y-130.224
X82.951Y-130.249
X82.924Y-130.274
X82.897Y-130.299
X82.869Y-130.323
X82.84Y-130.346
X82.811Y-130.368
X82.781Y-130.389
X82.75Y-130.41
X82.72Y-130.43
X82.688Y-130.45
X82.656Y-130.468
X82.624Y-130.486
X82.591Y-130.503
X82.558Y-130.519
X82.525Y-130.534
X82.491Y-130.549
X82.457Y-130.562
X82.422Y-130.575
X82.388Y-130.587
X82.352Y-130.598
X82.317Y-130.609
X82.282Y-130.618
X82.246Y-130.627
X82.209Y-130.634
X82.173Y-130.641
X82.137Y-130.647
X82.1Y-130.652
X82.064Y-130.656
X82.027Y-130.659
X81.99Y-130.661
X81.953Y-130.663
X81.917
X-18.082
X-18.119
X-18.156Y-130.661
X-18.193Y-130.659
X-18.229Y-130.656
X-18.266Y-130.652
X-18.302Y-130.647
X-18.339Y-130.641
X-18.375Y-130.634
X-18.411Y-130.627
X-18.447Y-130.618
X-18.483Y-130.609
X-18.518Y-130.598
X-18.553Y-130.587
X-18.588Y-130.575
X-18.623Y-130.562
X-18.657Y-130.549
X-18.691Y-130.534
X-18.724Y-130.519
X-18.757Y-130.503
X-18.79Y-130.486
X-18.822Y-130.468
X-18.854Y-130.45
X-18.885Y-130.43
X-18.916Y-130.41
X-18.946Y-130.389
X-18.976Y-130.368
X-19.006Y-130.346
X-19.034Y-130.323
X-19.062Y-130.299
X-19.09Y-130.274
X-19.117Y-130.249
X-19.143Y-130.224
X-19.169Y-130.197
X-19.194Y-130.17
X-19.219Y-130.143
X-19.242Y-130.115
X-19.265Y-130.086
X-19.288Y-130.057
X-19.309Y-130.027
X-19.331Y-129.995
X-19.351Y-129.965
X-19.37Y-129.933
X-19.388Y-129.901
X-19.406Y-129.869
X-19.423Y-129.836
X-19.439Y-129.803
X-19.455Y-129.77
X-19.469Y-129.736
X-19.483Y-129.702
X-19.496Y-129.667
X-19.508Y-129.633
X-19.519Y-129.598
X-19.529Y-129.562
X-19.538Y-129.527
X-19.547Y-129.491
X-19.555Y-129.455
X-19.561Y-129.419
X-19.567Y-129.382
X-19.572Y-129.346
X-19.576Y-129.309
X-19.579Y-129.272
X-19.582Y-129.236
X-19.583Y-129.199
Y-129.162
Y-29.162
Y-29.125
X-19.582Y-29.088
X-19.579Y-29.052
X-19.576Y-29.015
X-19.572Y-28.978
X-19.567Y-28.942
X-19.561Y-28.906
X-19.555Y-28.869
X-19.547Y-28.833
X-19.538Y-28.798
X-19.529Y-28.762
X-19.519Y-28.727
X-19.508Y-28.692
X-19.496Y-28.657
X-19.483Y-28.622
X-19.469Y-28.588
X-19.455Y-28.554
X-19.439Y-28.521
X-19.423Y-28.488
X-19.406Y-28.455
X-19.388Y-28.423
X-19.37Y-28.391
X-19.351Y-28.36
X-19.33Y-28.328
X-19.309Y-28.297
X-19.288Y-28.268
X-19.265Y-28.238
X-19.242Y-28.21
X-19.219Y-28.181
X-19.194Y-28.154
X-19.169Y-28.127
X-19.143Y-28.1
X-19.117Y-28.075
X-19.09Y-28.05
X-19.062Y-28.025
X-19.034Y-28.002
X-19.006Y-27.979
X-18.976Y-27.956
X-18.946Y-27.935
X-18.916Y-27.914
X-18.885Y-27.894
X-18.854Y-27.875
X-18.822Y-27.856
X-18.79Y-27.838
X-18.757Y-27.821
X-18.724Y-27.805
X-18.691Y-27.79
X-18.657Y-27.775
X-18.623Y-27.762
X-18.588Y-27.749
X-18.553Y-27.737
X-18.518Y-27.726
X-18.483Y-27.715
X-18.447Y-27.706
X-18.411Y-27.698
X-18.375Y-27.69
X-18.339Y-27.683
X-18.302Y-27.677
X-18.266Y-27.672
X-18.229Y-27.668
X-18.193Y-27.665
X-18.156Y-27.663
X-18.119Y-27.662
X-18.082Y-27.661
G0Z10
X-74.201Y20.187
G1Z-1F500
X-74.226Y20.159F1000
X-74.251Y20.132
X-74.276Y20.106
X-74.303Y20.08
X-74.33Y20.055
X-74.357Y20.031
X-74.385Y20.007
X-74.414Y19.984
X-74.443Y19.962
X-74.473Y19.94
X-74.504Y19.92
X-74.535Y19.899
X-74.566Y19.88
X-74.598Y19.862
X-74.63Y19.844
X-74.663Y19.827
X-74.696Y19.811
X-74.729Y19.795
X-74.763Y19.781
X-74.797Y19.767
X-74.832Y19.754
X-74.866Y19.742
X-74.902Y19.731
X-74.937Y19.721
X-74.973Y19.712
X-75.008Y19.703
X-75.045Y19.696
X-75.081Y19.689
X-75.117Y19.683
X-75.154Y19.678
X-75.19Y19.674
X-75.227Y19.671
X-75.264Y19.668
X-75.301Y19.667
X-75.337
X-175.337
X-175.374
X-175.411Y19.668
X-175.448Y19.671
X-175.484Y19.674
X-175.521Y19.678
X-175.557Y19.683
X-175.594Y19.689
X-175.63Y19.696
X-175.666Y19.703
X-175.702Y19.712
X-175.738Y19.721
X-175.773Y19.731
X-175.808Y19.742
X-175.843Y19.754
X-175.878Y19.767
X-175.912Y19.781
X-175.946Y19.795
X-175.979Y19.811
X-176.012Y19.827
X-176.045Y19.844
X-176.077Y19.862
X-176.109Y19.88
X-176.14Y19.899
X-176.171Y19.92
X-176.201Y19.94
X-176.231Y19.962
X-176.261Y19.984
X-176.289Y20.007
X-176.318Y20.031
X-176.345Y20.055
X-176.372Y20.08
X-176.398Y20.106
X-176.424Y20.132
X-176.449Y20.159
X-176.474Y20.187
X-176.497Y20.215
X-176.52Y20.244
X-176.543Y20.273
X-176.564Y20.303
X-176.586Y20.334
X-176.606Y20.365
X-176.625Y20.397
X-176.644Y20.428
X-176.661Y20.461
X-176.678Y20.493
X-176.694Y20.526
X-176.71Y20.56
X-176.724Y20.594
X-176.738Y20.628
X-176.751Y20.662
X-176.763Y20.697
X-176.774Y20.732
X-176.784Y20.768
X-176.793Y20.803
X-176.802Y20.839
X-176.81Y20.875
X-176.816Y20.911
X-176.822Y20.948
X-176.827Y20.984
X-176.831Y21.021
X-176.834Y21.057
X-176.837Y21.094
X-176.838Y21.131
Y21.168
Y121.168
Y121.204
X-176.837Y121.241
X-176.834Y121.278
X-176.831Y121.315
X-176.827Y121.351
X-176.822Y121.388
X-176.816Y121.424
X-176.81Y121.46
X-176.802Y121.496
X-176.793Y121.532
X-176.784Y121.568
X-176.774Y121.603
X-176.763Y121.638
X-176.751Y121.673
X-176.738Y121.708
X-176.724Y121.742
X-176.71Y121.776
X-176.694Y121.809
X-176.678Y121.842
X-176.661Y121.875
X-176.644Y121.907
X-176.625Y121.939
X-176.606Y121.97
X-176.585Y122.002
X-176.564Y122.032
X-176.543Y122.062
X-176.52Y122.091
X-176.497Y122.12
X-176.474Y122.148
X-176.449Y122.176
X-176.424Y122.203
X-176.398Y122.229
X-176.372Y122.255
X-176.345Y122.28
X-176.318Y122.304
X-176.289Y122.328
X-176.261Y122.351
X-176.231Y122.373
X-176.201Y122.395
X-176.171Y122.416
X-176.14Y122.436
X-176.109Y122.455
X-176.077Y122.474
X-176.045Y122.491
X-176.012Y122.508
X-175.979Y122.525
X-175.946Y122.54
X-175.912Y122.554
X-175.878Y122.568
X-175.843Y122.581
X-175.808Y122.593
X-175.773Y122.604
X-175.738Y122.614
X-175.702Y122.624
X-175.666Y122.632
X-175.63Y122.64
X-175.594Y122.647
X-175.557Y122.652
X-175.521Y122.657
X-175.484Y122.661
X-175.448Y122.665
X-175.411Y122.667
X-175.374Y122.668
X-175.337Y122.669
X-75.337
X-75.301Y122.668
X-75.264Y122.667
X-75.227Y122.665
X-75.19Y122.661
X-75.154Y122.657
X-75.117Y122.652
X-75.081Y122.647
X-75.044Y122.64
X-75.008Y122.632
X-74.973Y122.624
X-74.937Y122.614
X-74.902Y122.604
X-74.866Y122.593
X-74.832Y122.581
X-74.797Y122.568
X-74.763Y122.554
X-74.729Y122.54
X-74.696Y122.525
X-74.663Y122.508
X-74.63Y122.491
X-74.598Y122.474
X-74.566Y122.455
X-74.535Y122.436
X-74.504Y122.416
X-74.473Y122.395
X-74.443Y122.373
X-74.414Y122.351
X-74.385Y122.328
X-74.357Y122.304
X-74.33Y122.28
X-74.303Y122.255
X-74.276Y122.229
X-74.251Y122.203
X-74.226Y122.176
X-74.201Y122.148
X-74.178Y122.12
X-74.155Y122.091
X-74.132Y122.062
X-74.111Y122.032
X-74.089Y122.001
X-74.069Y121.97
X-74.05Y121.939
X-74.031Y121.907
X-74.014Y121.875
X-73.997Y121.842
X-73.98Y121.809
X-73.965Y121.776
X-73.951Y121.742
X-73.937Y121.708
X-73.924Y121.673
X-73.912Y121.638
X-73.901Y121.603
X-73.891Y121.568
X-73.881Y121.532
X-73.873Y121.496
X-73.865Y121.46
X-73.858Y121.424
X-73.853Y121.388
X-73.848Y121.351
X-73.844Y121.315
X-73.84Y121.278
X-73.838Y121.241
X-73.837Y121.204
X-73.836Y121.168
Y21.168
X-73.837Y21.131
X-73.838Y21.094
X-73.84Y21.057
X-73.844Y21.021
X-73.848Y20.984
X-73.853Y20.948
X-73.858Y20.911
X-73.865Y20.875
X-73.873Y20.839
X-73.881Y20.803
X-73.891Y20.768
X-73.901Y20.732
X-73.912Y20.697
X-73.924Y20.662
X-73.937Y20.628
X-73.951Y20.594
X-73.965Y20.56
X-73.98Y20.526
X-73.997Y20.493
X-74.014Y20.461
X-74.031Y20.428
X-74.05Y20.397
X-74.069Y20.365
X-74.09Y20.333
X-74.111Y20.303
X-74.132Y20.273
X-74.155Y20.244
X-74.178Y20.215
X-74.201Y20.187
Z-2F500
X-74.226Y20.159F1000
X-74.251Y20.132
X-74.276Y20.106
X-74.303Y20.08
X-74.33Y20.055
X-74.357Y20.031
X-74.385Y20.007
X-74.414Y19.984
X-74.443Y19.962
X-74.473Y19.94
X-74.504Y19.92
X-74.535Y19.899
X-74.566Y19.88
X-74.598Y19.862
X-74.63Y19.844
X-74.663Y19.827
X-74.696Y19.811
X-74.729Y19.795
X-74.763Y19.781
X-74.797Y19.767
X-74.832Y19.754
X-74.866Y19.742
X-74.902Y19.731
X-74.937Y19.721
X-74.973Y19.712
X-75.008Y19.703
X-75.045Y19.696
X-75.081Y19.689
X-75.117Y19.683
X-75.154Y19.678
X-75.19Y19.674
X-75.227Y19.671
X-75.264Y19.668
X-75.301Y19.667
X-75.337
X-175.337
X-175.374
X-175.411Y19.668
X-175.448Y19.671
X-175.484Y19.674
X-175.521Y19.678
X-175.557Y19.683
X-175.594Y19.689
X-175.63Y19.696
X-175.666Y19.703
X-175.702Y19.712
X-175.738Y19.721
X-175.773Y19.731
X-175.808Y19.742
X-175.843Y19.754
X-175.878Y19.767
X-175.912Y19.781
X-175.946Y19.795
X-175.979Y19.811
X-176.012Y19.827
X-176.045Y19.844
X-176.077Y19.862
X-176.109Y19.88
X-176.14Y19.899
X-176.171Y19.92
X-176.201Y19.94
X-176.231Y19.962
X-176.261Y19.984
X-176.289Y20.007
X-176.318Y20.031
X-176.345Y20.055
X-176.372Y20.08
X-176.398Y20.106
X-176.424Y20.132
X-176.449Y20.159
X-176.474Y20.187
X-176.497Y20.215
X-176.52Y20.244
X-176.543Y20.273
X-176.564Y20.303
X-176.586Y20.334
X-176.606Y20.365
X-176.625Y20.397
X-176.644Y20.428
X-176.661Y20.461
X-176.678Y20.493
X-176.694Y20.526
X-176.71Y20.56
X-176.724Y20.594
X-176.738Y20.628
X-176.751Y20.662
X-176.763Y20.697
X-176.774Y20.732
X-176.784Y20.768
X-176.793Y20.803
X-176.802Y20.839
X-176.81Y20.875
X-176.816Y20.911
X-176.822Y20.948
X-176.827Y20.984
X-176.831Y21.021
X-176.834Y21.057
X-176.837Y21.094
X-176.838Y21.131
Y21.168
Y121.168
Y121.204
X-176.837Y121.241
X-176.834Y121.278
X-176.831Y121.315
X-176.827Y121.351
X-176.822Y121.388
X-176.816Y121.424
X-176.81Y121.46
X-176.802Y121.496
X-176.793Y121.532
X-176.784Y121.568
X-176.774Y121.603
X-176.763Y121.638
X-176.751Y121.673
X-176.738Y121.708
X-176.724Y121.742
X-176.71Y121.776
X-176.694Y121.809
X-176.678Y121.842
X-176.661Y121.875
X-176.644Y121.907
X-176.625Y121.939
X-176.606Y121.97
X-176.585Y122.002
X-176.564Y122.032
X-176.543Y122.062
X-176.52Y122.091
X-176.497Y122.12
X-176.474Y122.148
X-176.449Y122.176
X-176.424Y122.203
X-176.398Y122.229
X-176.372Y122.255
X-176.345Y122.28
X-176.318Y122.304
X-176.289Y122.328
X-176.261Y122.351
X-176.231Y122.373
X-176.201Y122.395
X-176.171Y122.416
X-176.14Y122.436
X-176.109Y122.455
X-176.077Y122.474
X-176.045Y122.491
X-176.012Y122.508
X-175.979Y122.525
X-175.946Y122.54
X-175.912Y122.554
X-175.878Y122.568
X-175.843Y122.581
X-175.808Y122.593
X-175.773Y122.604
X-175.738Y122.614
X-175.702Y122.624
X-175.666Y122.632
X-175.63Y122.64
X-175.594Y122.647
X-175.557Y122.652
X-175.521Y122.657
X-175.484Y122.661
X-175.448Y122.665
X-175.411Y122.667
X-175.374Y122.668
X-175.337Y122.669
X-75.337
X-75.301Y122.668
X-75.264Y122.667
X-75.227Y122.665
X-75.19Y122.661
X-75.154Y122.657
X-75.117Y122.652
X-75.081Y122.647
X-75.044Y122.64
X-75.008Y122.632
X-74.973Y122.624
X-74.937Y122.614
X-74.902Y122.604
X-74.866Y122.593
X-74.832Y122.581
X-74.797Y122.568
X-74.763Y122.554
X-74.729Y122.54
X-74.696Y122.525
X-74.663Y122.508
X-74.63Y122.491
X-74.598Y122.474
X-74.566Y122.455
X-74.535Y122.436
X-74.504Y122.416
X-74.473Y122.395
X-74.443Y122.373
X-74.414Y122.351
X-74.385Y122.328
X-74.357Y122.304
X-74.33Y122.28
X-74.303Y122.255
X-74.276Y122.229
X-74.251Y122.203
X-74.226Y122.176
X-74.201Y122.148
X-74.178Y122.12
X-74.155Y122.091
X-74.132Y122.062
X-74.111Y122.032
X-74.089Y122.001
X-74.069Y121.97
X-74.05Y121.939
X-74.031Y121.907
X-74.014Y121.875
X-73.997Y121.842
X-73.98Y121.809
X-73.965Y121.776
X-73.951Y121.742
X-73.937Y121.708
X-73.924Y121.673
X-73.912Y121.638
X-73.901Y121.603
X-73.891Y121.568
X-73.881Y121.532
X-73.873Y121.496
X-73.865Y121.46
X-73.858Y121.424
X-73.853Y121.388
X-73.848Y121.351
X-73.844Y121.315
X-73.84Y121.278
X-73.838Y121.241
X-73.837Y121.204
X-73.836Y121.168
Y21.168
X-73.837Y21.131
X-73.838Y21.094
X-73.84Y21.057
X-73.844Y21.021
X-73.848Y20.984
X-73.853Y20.948
X-73.858Y20.911
X-73.865Y20.875
X-73.873Y20.839
X-73.881Y20.803
X-73.891Y20.768
X-73.901Y20.732
X-73.912Y20.697
X-73.924Y20.662
X-73.937Y20.628
X-73.951Y20.594
X-73.965Y20.56
X-73.98Y20.526
X-73.997Y20.493
X-74.014Y20.461
X-74.031Y20.428
X-74.05Y20.397
X-74.069Y20.365
X-74.09Y20.333
X-74.111Y20.303
X-74.132Y20.273
X-74.155Y20.244
X-74.178Y20.215
X-74.201Y20.187
Z-3F500
X-74.226Y20.159F1000
X-74.251Y20.132
X-74.276Y20.106
X-74.303Y20.08
X-74.33Y20.055
X-74.357Y20.031
X-74.385Y20.007
X-74.414Y19.984
X-74.443Y19.962
X-74.473Y19.94
X-74.504Y19.92
X-74.535Y19.899
X-74.566Y19.88
X-74.598Y19.862
X-74.63Y19.844
X-74.663Y19.827
X-74.696Y19.811
X-74.729Y19.795
X-74.763Y19.781
X-74.797Y19.767
X-74.832Y19.754
X-74.866Y19.742
X-74.902Y19.731
X-74.937Y19.721
X-74.973Y19.712
X-75.008Y19.703
X-75.045Y19.696
X-75.081Y19.689
X-75.117Y19.683
X-75.154Y19.678
X-75.19Y19.674
X-75.227Y19.671
X-75.264Y19.668
X-75.301Y19.667
X-75.337
X-175.337
X-175.374
X-175.411Y19.668
X-175.448Y19.671
X-175.484Y19.674
X-175.521Y19.678
X-175.557Y19.683
X-175.594Y19.689
X-175.63Y19.696
X-175.666Y19.703
X-175.702Y19.712
X-175.738Y19.721
X-175.773Y19.731
X-175.808Y19.742
X-175.843Y19.754
X-175.878Y19.767
X-175.912Y19.781
X-175.946Y19.795
X-175.979Y19.811
X-176.012Y19.827
X-176.045Y19.844
X-176.077Y19.862
X-176.109Y19.88
X-176.14Y19.899
X-176.171Y19.92
X-176.201Y19.94
X-176.231Y19.962
X-176.261Y19.984
X-176.289Y20.007
X-176.318Y20.031
X-176.345Y20.055
X-176.372Y20.08
X-176.398Y20.106
X-176.424Y20.132
X-176.449Y20.159
X-176.474Y20.187
X-176.497Y20.215
X-176.52Y20.244
X-176.543Y20.273
X-176.564Y20.303
X-176.586Y20.334
X-176.606Y20.365
X-176.625Y20.397
X-176.644Y20.428
X-176.661Y20.461
X-176.678Y20.493
X-176.694Y20.526
X-176.71Y20.56
X-176.724Y20.594
X-176.738Y20.628
X-176.751Y20.662
X-176.763Y20.697
X-176.774Y20.732
X-176.784Y20.768
X-176.793Y20.803
X-176.802Y20.839
X-176.81Y20.875
X-176.816Y20.911
X-176.822Y20.948
X-176.827Y20.984
X-176.831Y21.021
X-176.834Y21.057
X-176.837Y21.094
X-176.838Y21.131
Y21.168
Y121.168
Y121.204
X-176.837Y121.241
X-176.834Y121.278
X-176.831Y121.315
X-176.827Y121.351
X-176.822Y121.388
X-176.816Y121.424
X-176.81Y121.46
X-176.802Y121.496
X-176.793Y121.532
X-176.784Y121.568
X-176.774Y121.603
X-176.763Y121.638
X-176.751Y121.673
X-176.738Y121.708
X-176.724Y121.742
X-176.71Y121.776
X-176.694Y121.809
X-176.678Y121.842
X-176.661Y121.875
X-176.644Y121.907
X-176.625Y121.939
X-176.606Y121.97
X-176.585Y122.002
X-176.564Y122.032
X-176.543Y122.062
X-176.52Y122.091
X-176.497Y122.12
X-176.474Y122.148
X-176.449Y122.176
X-176.424Y122.203
X-176.398Y122.229
X-176.372Y122.255
X-176.345Y122.28
X-176.318Y122.304
X-176.289Y122.328
X-176.261Y122.351
X-176.231Y122.373
X-176.201Y122.395
X-176.171Y122.416
X-176.14Y122.436
X-176.109Y122.455
X-176.077Y122.474
X-176.045Y122.491
X-176.012Y122.508
X-175.979Y122.525
X-175.946Y122.54
X-175.912Y122.554
X-175.878Y122.568
X-175.843Y122.581
X-175.808Y122.593
X-175.773Y122.604
X-175.738Y122.614
X-175.702Y122.624
X-175.666Y122.632
X-175.63Y122.64
X-175.594Y122.647
X-175.557Y122.652
X-175.521Y122.657
X-175.484Y122.661
X-175.448Y122.665
X-175.411Y122.667
X-175.374Y122.668
X-175.337Y122.669
X-75.337
X-75.301Y122.668
X-75.264Y122.667
X-75.227Y122.665
X-75.19Y122.661
X-75.154Y122.657
X-75.117Y122.652
X-75.081Y122.647
X-75.044Y122.64
X-75.008Y122.632
X-74.973Y122.624
X-74.937Y122.614
X-74.902Y122.604
X-74.866Y122.593
X-74.832Y122.581
X-74.797Y122.568
X-74.763Y122.554
X-74.729Y122.54
X-74.696Y122.525
X-74.663Y122.508
X-74.63Y122.491
X-74.598Y122.474
X-74.566Y122.455
X-74.535Y122.436
X-74.504Y122.416
X-74.473Y122.395
X-74.443Y122.373
X-74.414Y122.351
X-74.385Y122.328
X-74.357Y122.304
X-74.33Y122.28
X-74.303Y122.255
X-74.276Y122.229
X-74.251Y122.203
X-74.226Y122.176
X-74.201Y122.148
X-74.178Y122.12
X-74.155Y122.091
X-74.132Y122.062
X-74.111Y122.032
X-74.089Y122.001
X-74.069Y121.97
X-74.05Y121.939
X-74.031Y121.907
X-74.014Y121.875
X-73.997Y121.842
X-73.98Y121.809
X-73.965Y121.776
X-73.951Y121.742
X-73.937Y121.708
X-73.924Y121.673
X-73.912Y121.638
X-73.901Y121.603
X-73.891Y121.568
X-73.881Y121.532
X-73.873Y121.496
X-73.865Y121.46
X-73.858Y121.424
X-73.853Y121.388
X-73.848Y121.351
X-73.844Y121.315
X-73.84Y121.278
X-73.838Y121.241
X-73.837Y121.204
X-73.836Y121.168
Y21.168
X-73.837Y21.131
X-73.838Y21.094
X-73.84Y21.057
X-73.844Y21.021
X-73.848Y20.984
X-73.853Y20.948
X-73.858Y20.911
X-73.865Y20.875
X-73.873Y20.839
X-73.881Y20.803
X-73.891Y20.768
X-73.901Y20.732
X-73.912Y20.697
X-73.924Y20.662
X-73.937Y20.628
X-73.951Y20.594
X-73.965Y20.56
X-73.98Y20.526
X-73.997Y20.493
X-74.014Y20.461
X-74.031Y20.428
X-74.05Y20.397
X-74.069Y20.365
X-74.09Y20.333
X-74.111Y20.303
X-74.132Y20.273
X-74.155Y20.244
X-74.178Y20.215
X-74.201Y20.187
Z-4F500
X-74.226Y20.159F1000
X-74.251Y20.132
X-74.276Y20.106
X-74.303Y20.08
X-74.33Y20.055
X-74.357Y20.031
X-74.385Y20.007
X-74.414Y19.984
X-74.443Y19.962
X-74.473Y19.94
X-74.504Y19.92
X-74.535Y19.899
X-74.566Y19.88
X-74.598Y19.862
X-74.63Y19.844
X-74.663Y19.827
X-74.696Y19.811
X-74.729Y19.795
X-74.763Y19.781
X-74.797Y19.767
X-74.832Y19.754
X-74.866Y19.742
X-74.902Y19.731
X-74.937Y19.721
X-74.973Y19.712
X-75.008Y19.703
X-75.045Y19.696
X-75.081Y19.689
X-75.117Y19.683
X-75.154Y19.678
X-75.19Y19.674
X-75.227Y19.671
X-75.264Y19.668
X-75.301Y19.667
X-75.337
X-175.337
X-175.374
X-175.411Y19.668
X-175.448Y19.671
X-175.484Y19.674
X-175.521Y19.678
X-175.557Y19.683
X-175.594Y19.689
X-175.63Y19.696
X-175.666Y19.703
X-175.702Y19.712
X-175.738Y19.721
X-175.773Y19.731
X-175.808Y19.742
X-175.843Y19.754
X-175.878Y19.767
X-175.912Y19.781
X-175.946Y19.795
X-175.979Y19.811
X-176.012Y19.827
X-176.045Y19.844
X-176.077Y19.862
X-176.109Y19.88
X-176.14Y19.899
X-176.171Y19.92
X-176.201Y19.94
X-176.231Y19.962
X-176.261Y19.984
X-176.289Y20.007
X-176.318Y20.031
X-176.345Y20.055
X-176.372Y20.08
X-176.398Y20.106
X-176.424Y20.132
X-176.449Y20.159
X-176.474Y20.187
X-176.497Y20.215
X-176.52Y20.244
X-176.543Y20.273
X-176.564Y20.303
X-176.586Y20.334
X-176.606Y20.365
X-176.625Y20.397
X-176.644Y20.428
X-176.661Y20.461
X-176.678Y20.493
X-176.694Y20.526
X-176.71Y20.56
X-176.724Y20.594
X-176.738Y20.628
X-176.751Y20.662
X-176.763Y20.697
X-176.774Y20.732
X-176.784Y20.768
X-176.793Y20.803
X-176.802Y20.839
X-176.81Y20.875
X-176.816Y20.911
X-176.822Y20.948
X-176.827Y20.984
X-176.831Y21.021
X-176.834Y21.057
X-176.837Y21.094
X-176.838Y21.131
Y21.168
Y121.168
Y121.204
X-176.837Y121.241
X-176.834Y121.278
X-176.831Y121.315
X-176.827Y121.351
X-176.822Y121.388
X-176.816Y121.424
X-176.81Y121.46
X-176.802Y121.496
X-176.793Y121.532
X-176.784Y121.568
X-176.774Y121.603
X-176.763Y121.638
X-176.751Y121.673
X-176.738Y121.708
X-176.724Y121.742
X-176.71Y121.776
X-176.694Y121.809
X-176.678Y121.842
X-176.661Y121.875
X-176.644Y121.907
X-176.625Y121.939
X-176.606Y121.97
X-176.585Y122.002
X-176.564Y122.032
X-176.543Y122.062
X-176.52Y122.091
X-176.497Y122.12
X-176.474Y122.148
X-176.449Y122.176
X-176.424Y122.203
X-176.398Y122.229
X-176.372Y122.255
X-176.345Y122.28
X-176.318Y122.304
X-176.289Y122.328
X-176.261Y122.351
X-176.231Y122.373
X-176.201Y122.395
X-176.171Y122.416
X-176.14Y122.436
X-176.109Y122.455
X-176.077Y122.474
X-176.045Y122.491
X-176.012Y122.508
X-175.979Y122.525
X-175.946Y122.54
X-175.912Y122.554
X-175.878Y122.568
X-175.843Y122.581
X-175.808Y122.593
X-175.773Y122.604
X-175.738Y122.614
X-175.702Y122.624
X-175.666Y122.632
X-175.63Y122.64
X-175.594Y122.647
X-175.557Y122.652
X-175.521Y122.657
X-175.484Y122.661
X-175.448Y122.665
X-175.411Y122.667
X-175.374Y122.668
X-175.337Y122.669
X-75.337
X-75.301Y122.668
X-75.264Y122.667
X-75.227Y122.665
X-75.19Y122.661
X-75.154Y122.657
X-75.117Y122.652
X-75.081Y122.647
X-75.044Y122.64
X-75.008Y122.632
X-74.973Y122.624
X-74.937Y122.614
X-74.902Y122.604
X-74.866Y122.593
X-74.832Y122.581
X-74.797Y122.568
X-74.763Y122.554
X-74.729Y122.54
X-74.696Y122.525
X-74.663Y122.508
X-74.63Y122.491
X-74.598Y122.474
X-74.566Y122.455
X-74.535Y122.436
X-74.504Y122.416
X-74.473Y122.395
X-74.443Y122.373
X-74.414Y122.351
X-74.385Y122.328
X-74.357Y122.304
X-74.33Y122.28
X-74.303Y122.255
X-74.276Y122.229
X-74.251Y122.203
X-74.226Y122.176
X-74.201Y122.148
X-74.178Y122.12
X-74.155Y122.091
X-74.132Y122.062
X-74.111Y122.032
X-74.089Y122.001
X-74.069Y121.97
X-74.05Y121.939
X-74.031Y121.907
X-74.014Y121.875
X-73.997Y121.842
X-73.98Y121.809
X-73.965Y121.776
X-73.951Y121.742
X-73.937Y121.708
X-73.924Y121.673
X-73.912Y121.638
X-73.901Y121.603
X-73.891Y121.568
X-73.881Y121.532
X-73.873Y121.496
X-73.865Y121.46
X-73.858Y121.424
X-73.853Y121.388
X-73.848Y121.351
X-73.844Y121.315
X-73.84Y121.278
X-73.838Y121.241
X-73.837Y121.204
X-73.836Y121.168
Y21.168
X-73.837Y21.131
X-73.838Y21.094
X-73.84Y21.057
X-73.844Y21.021
X-73.848Y20.984
X-73.853Y20.948
X-73.858Y20.911
X-73.865Y20.875
X-73.873Y20.839
X-73.881Y20.803
X-73.891Y20.768
X-73.901Y20.732
X-73.912Y20.697
X-73.924Y20.662
X-73.937Y20.628
X-73.951Y20.594
X-73.965Y20.56
X-73.98Y20.526
X-73.997Y20.493
X-74.014Y20.461
X-74.031Y20.428
X-74.05Y20.397
X-74.069Y20.365
X-74.09Y20.333
X-74.111Y20.303
X-74.132Y20.273
X-74.155Y20.244
X-74.178Y20.215
X-74.201Y20.187
Z-5F500
X-74.226Y20.159F1000
X-74.251Y20.132
X-74.276Y20.106
X-74.303Y20.08
X-74.33Y20.055
X-74.357Y20.031
X-74.385Y20.007
X-74.414Y19.984
X-74.443Y19.962
X-74.473Y19.94
X-74.504Y19.92
X-74.535Y19.899
X-74.566Y19.88
X-74.598Y19.862
X-74.63Y19.844
X-74.663Y19.827
X-74.696Y19.811
X-74.729Y19.795
X-74.763Y19.781
X-74.797Y19.767
X-74.832Y19.754
X-74.866Y19.742
X-74.902Y19.731
X-74.937Y19.721
X-74.973Y19.712
X-75.008Y19.703
X-75.045Y19.696
X-75.081Y19.689
X-75.117Y19.683
X-75.154Y19.678
X-75.19Y19.674
X-75.227Y19.671
X-75.264Y19.668
X-75.301Y19.667
X-75.337
X-175.337
X-175.374
X-175.411Y19.668
X-175.448Y19.671
X-175.484Y19.674
X-175.521Y19.678
X-175.557Y19.683
X-175.594Y19.689
X-175.63Y19.696
X-175.666Y19.703
X-175.702Y19.712
X-175.738Y19.721
X-175.773Y19.731
X-175.808Y19.742
X-175.843Y19.754
X-175.878Y19.767
X-175.912Y19.781
X-175.946Y19.795
X-175.979Y19.811
X-176.012Y19.827
X-176.045Y19.844
X-176.077Y19.862
X-176.109Y19.88
X-176.14Y19.899
X-176.171Y19.92
X-176.201Y19.94
X-176.231Y19.962
X-176.261Y19.984
X-176.289Y20.007
X-176.318Y20.031
X-176.345Y20.055
X-176.372Y20.08
X-176.398Y20.106
X-176.424Y20.132
X-176.449Y20.159
X-176.474Y20.187
X-176.497Y20.215
X-176.52Y20.244
X-176.543Y20.273
X-176.564Y20.303
X-176.586Y20.334
X-176.606Y20.365
X-176.625Y20.397
X-176.644Y20.428
X-176.661Y20.461
X-176.678Y20.493
X-176.694Y20.526
X-176.71Y20.56
X-176.724Y20.594
X-176.738Y20.628
X-176.751Y20.662
X-176.763Y20.697
X-176.774Y20.732
X-176.784Y20.768
X-176.793Y20.803
X-176.802Y20.839
X-176.81Y20.875
X-176.816Y20.911
X-176.822Y20.948
X-176.827Y20.984
X-176.831Y21.021
X-176.834Y21.057
X-176.837Y21.094
X-176.838Y21.131
Y21.168
Y121.168
Y121.204
X-176.837Y121.241
X-176.834Y121.278
X-176.831Y121.315
X-176.827Y121.351
X-176.822Y121.388
X-176.816Y121.424
X-176.81Y121.46
X-176.802Y121.496
X-176.793Y121.532
X-176.784Y121.568
X-176.774Y121.603
X-176.763Y121.638
X-176.751Y121.673
X-176.738Y121.708
X-176.724Y121.742
X-176.71Y121.776
X-176.694Y121.809
X-176.678Y121.842
X-176.661Y121.875
X-176.644Y121.907
X-176.625Y121.939
X-176.606Y121.97
X-176.585Y122.002
X-176.564Y122.032
X-176.543Y122.062
X-176.52Y122.091
X-176.497Y122.12
X-176.474Y122.148
X-176.449Y122.176
X-176.424Y122.203
X-176.398Y122.229
X-176.372Y122.255
X-176.345Y122.28
X-176.318Y122.304
X-176.289Y122.328
X-176.261Y122.351
X-176.231Y122.373
X-176.201Y122.395
X-176.171Y122.416
X-176.14Y122.436
X-176.109Y122.455
X-176.077Y122.474
X-176.045Y122.491
X-176.012Y122.508
X-175.979Y122.525
X-175.946Y122.54
X-175.912Y122.554
X-175.878Y122.568
X-175.843Y122.581
X-175.808Y122.593
X-175.773Y122.604
X-175.738Y122.614
X-175.702Y122.624
X-175.666Y122.632
X-175.63Y122.64
X-175.594Y122.647
X-175.557Y122.652
X-175.521Y122.657
X-175.484Y122.661
X-175.448Y122.665
X-175.411Y122.667
X-175.374Y122.668
X-175.337Y122.669
X-75.337
X-75.301Y122.668
X-75.264Y122.667
X-75.227Y122.665
X-75.19Y122.661
X-75.154Y122.657
X-75.117Y122.652
X-75.081Y122.647
X-75.044Y122.64
X-75.008Y122.632
X-74.973Y122.624
X-74.937Y122.614
X-74.902Y122.604
X-74.866Y122.593
X-74.832Y122.581
X-74.797Y122.568
X-74.763Y122.554
X-74.729Y122.54
X-74.696Y122.525
X-74.663Y122.508
X-74.63Y122.491
X-74.598Y122.474
X-74.566Y122.455
X-74.535Y122.436
X-74.504Y122.416
X-74.473Y122.395
X-74.443Y122.373
X-74.414Y122.351
X-74.385Y122.328
X-74.357Y122.304
X-74.33Y122.28
X-74.303Y122.255
X-74.276Y122.229
X-74.251Y122.203
X-74.226Y122.176
X-74.201Y122.148
X-74.178Y122.12
X-74.155Y122.091
X-74.132Y122.062
X-74.111Y122.032
X-74.089Y122.001
X-74.069Y121.97
X-74.05Y121.939
X-74.031Y121.907
X-74.014Y121.875
X-73.997Y121.842
X-73.98Y121.809
X-73.965Y121.776
X-73.951Y121.742
X-73.937Y121.708
X-73.924Y121.673
X-73.912Y121.638
X-73.901Y121.603
X-73.891Y121.568
X-73.881Y121.532
X-73.873Y121.496
X-73.865Y121.46
X-73.858Y121.424
X-73.853Y121.388
X-73.848Y121.351
X-73.844Y121.315
X-73.84Y121.278
X-73.838Y121.241
X-73.837Y121.204
X-73.836Y121.168
Y21.168
X-73.837Y21.131
X-73.838Y21.094
X-73.84Y21.057
X-73.844Y21.021
X-73.848Y20.984
X-73.853Y20.948
X-73.858Y20.911
X-73.865Y20.875
X-73.873Y20.839
X-73.881Y20.803
X-73.891Y20.768
X-73.901Y20.732
X-73.912Y20.697
X-73.924Y20.662
X-73.937Y20.628
X-73.951Y20.594
X-73.965Y20.56
X-73.98Y20.526
X-73.997Y20.493
X-74.014Y20.461
X-74.031Y20.428
X-74.05Y20.397
X-74.069Y20.365
X-74.09Y20.333
X-74.111Y20.303
X-74.132Y20.273
X-74.155Y20.244
X-74.178Y20.215
X-74.201Y20.187
Z-6F500
X-74.226Y20.159F1000
X-74.251Y20.132
X-74.276Y20.106
X-74.303Y20.08
X-74.33Y20.055
X-74.357Y20.031
X-74.385Y20.007
X-74.414Y19.984
X-74.443Y19.962
X-74.473Y19.94
X-74.504Y19.92
X-74.535Y19.899
X-74.566Y19.88
X-74.598Y19.862
X-74.63Y19.844
X-74.663Y19.827
X-74.696Y19.811
X-74.729Y19.795
X-74.763Y19.781
X-74.797Y19.767
X-74.832Y19.754
X-74.866Y19.742
X-74.902Y19.731
X-74.937Y19.721
X-74.973Y19.712
X-75.008Y19.703
X-75.045Y19.696
X-75.081Y19.689
X-75.117Y19.683
X-75.154Y19.678
X-75.19Y19.674
X-75.227Y19.671
X-75.264Y19.668
X-75.301Y19.667
X-75.337
X-175.337
X-175.374
X-175.411Y19.668
X-175.448Y19.671
X-175.484Y19.674
X-175.521Y19.678
X-175.557Y19.683
X-175.594Y19.689
X-175.63Y19.696
X-175.666Y19.703
X-175.702Y19.712
X-175.738Y19.721
X-175.773Y19.731
X-175.808Y19.742
X-175.843Y19.754
X-175.878Y19.767
X-175.912Y19.781
X-175.946Y19.795
X-175.979Y19.811
X-176.012Y19.827
X-176.045Y19.844
X-176.077Y19.862
X-176.109Y19.88
X-176.14Y19.899
X-176.171Y19.92
X-176.201Y19.94
X-176.231Y19.962
X-176.261Y19.984
X-176.289Y20.007
X-176.318Y20.031
X-176.345Y20.055
X-176.372Y20.08
X-176.398Y20.106
X-176.424Y20.132
X-176.449Y20.159
X-176.474Y20.187
X-176.497Y20.215
X-176.52Y20.244
X-176.543Y20.273
X-176.564Y20.303
X-176.586Y20.334
X-176.606Y20.365
X-176.625Y20.397
X-176.644Y20.428
X-176.661Y20.461
X-176.678Y20.493
X-176.694Y20.526
X-176.71Y20.56
X-176.724Y20.594
X-176.738Y20.628
X-176.751Y20.662
X-176.763Y20.697
X-176.774Y20.732
X-176.784Y20.768
X-176.793Y20.803
X-176.802Y20.839
X-176.81Y20.875
X-176.816Y20.911
X-176.822Y20.948
X-176.827Y20.984
X-176.831Y21.021
X-176.834Y21.057
X-176.837Y21.094
X-176.838Y21.131
Y21.168
Y121.168
Y121.204
X-176.837Y121.241
X-176.834Y121.278
X-176.831Y121.315
X-176.827Y121.351
X-176.822Y121.388
X-176.816Y121.424
X-176.81Y121.46
X-176.802Y121.496
X-176.793Y121.532
X-176.784Y121.568
X-176.774Y121.603
X-176.763Y121.638
X-176.751Y121.673
X-176.738Y121.708
X-176.724Y121.742
X-176.71Y121.776
X-176.694Y121.809
X-176.678Y121.842
X-176.661Y121.875
X-176.644Y121.907
X-176.625Y121.939
X-176.606Y121.97
X-176.585Y122.002
X-176.564Y122.032
X-176.543Y122.062
X-176.52Y122.091
X-176.497Y122.12
X-176.474Y122.148
X-176.449Y122.176
X-176.424Y122.203
X-176.398Y122.229
X-176.372Y122.255
X-176.345Y122.28
X-176.318Y122.304
X-176.289Y122.328
X-176.261Y122.351
X-176.231Y122.373
X-176.201Y122.395
X-176.171Y122.416
X-176.14Y122.436
X-176.109Y122.455
X-176.077Y122.474
X-176.045Y122.491
X-176.012Y122.508
X-175.979Y122.525
X-175.946Y122.54
X-175.912Y122.554
X-175.878Y122.568
X-175.843Y122.581
X-175.808Y122.593
X-175.773Y122.604
X-175.738Y122.614
X-175.702Y122.624
X-175.666Y122.632
X-175.63Y122.64
X-175.594Y122.647
X-175.557Y122.652
X-175.521Y122.657
X-175.484Y122.661
X-175.448Y122.665
X-175.411Y122.667
X-175.374Y122.668
X-175.337Y122.669
X-75.337
X-75.301Y122.668
X-75.264Y122.667
X-75.227Y122.665
X-75.19Y122.661
X-75.154Y122.657
X-75.117Y122.652
X-75.081Y122.647
X-75.044Y122.64
X-75.008Y122.632
X-74.973Y122.624
X-74.937Y122.614
X-74.902Y122.604
X-74.866Y122.593
X-74.832Y122.581
X-74.797Y122.568
X-74.763Y122.554
X-74.729Y122.54
X-74.696Y122.525
X-74.663Y122.508
X-74.63Y122.491
X-74.598Y122.474
X-74.566Y122.455
X-74.535Y122.436
X-74.504Y122.416
X-74.473Y122.395
X-74.443Y122.373
X-74.414Y122.351
X-74.385Y122.328
X-74.357Y122.304
X-74.33Y122.28
X-74.303Y122.255
X-74.276Y122.229
X-74.251Y122.203
X-74.226Y122.176
X-74.201Y122.148
X-74.178Y122.12
X-74.155Y122.091
X-74.132Y122.062
X-74.111Y122.032
X-74.089Y122.001
X-74.069Y121.97
X-74.05Y121.939
X-74.031Y121.907
X-74.014Y121.875
X-73.997Y121.842
X-73.98Y121.809
X-73.965Y121.776
X-73.951Y121.742
X-73.937Y121.708
X-73.924Y121.673
X-73.912Y121.638
X-73.901Y121.603
X-73.891Y121.568
X-73.881Y121.532
X-73.873Y121.496
X-73.865Y121.46
X-73.858Y121.424
X-73.853Y121.388
X-73.848Y121.351
X-73.844Y121.315
X-73.84Y121.278
X-73.838Y121.241
X-73.837Y121.204
X-73.836Y121.168
Y21.168
X-73.837Y21.131
X-73.838Y21.094
X-73.84Y21.057
X-73.844Y21.021
X-73.848Y20.984
X-73.853Y20.948
X-73.858Y20.911
X-73.865Y20.875
X-73.873Y20.839
X-73.881Y20.803
X-73.891Y20.768
X-73.901Y20.732
X-73.912Y20.697
X-73.924Y20.662
X-73.937Y20.628
X-73.951Y20.594
X-73.965Y20.56
X-73.98Y20.526
X-73.997Y20.493
X-74.014Y20.461
X-74.031Y20.428
X-74.05Y20.397
X-74.069Y20.365
X-74.09Y20.333
X-74.111Y20.303
X-74.132Y20.273
X-74.155Y20.244
X-74.178Y20.215
X-74.201Y20.187
Z-7F500
X-74.226Y20.159F1000
X-74.251Y20.132
X-74.276Y20.106
X-74.303Y20.08
X-74.33Y20.055
X-74.357Y20.031
X-74.385Y20.007
X-74.414Y19.984
X-74.443Y19.962
X-74.473Y19.94
X-74.504Y19.92
X-74.535Y19.899
X-74.566Y19.88
X-74.598Y19.862
X-74.63Y19.844
X-74.663Y19.827
X-74.696Y19.811
X-74.729Y19.795
X-74.763Y19.781
X-74.797Y19.767
X-74.832Y19.754
X-74.866Y19.742
X-74.902Y19.731
X-74.937Y19.721
X-74.973Y19.712
X-75.008Y19.703
X-75.045Y19.696
X-75.081Y19.689
X-75.117Y19.683
X-75.154Y19.678
X-75.19Y19.674
X-75.227Y19.671
X-75.264Y19.668
X-75.301Y19.667
X-75.337
X-175.337
X-175.374
X-175.411Y19.668
X-175.448Y19.671
X-175.484Y19.674
X-175.521Y19.678
X-175.557Y19.683
X-175.594Y19.689
X-175.63Y19.696
X-175.666Y19.703
X-175.702Y19.712
X-175.738Y19.721
X-175.773Y19.731
X-175.808Y19.742
X-175.843Y19.754
X-175.878Y19.767
X-175.912Y19.781
X-175.946Y19.795
X-175.979Y19.811
X-176.012Y19.827
X-176.045Y19.844
X-176.077Y19.862
X-176.109Y19.88
X-176.14Y19.899
X-176.171Y19.92
X-176.201Y19.94
X-176.231Y19.962
X-176.261Y19.984
X-176.289Y20.007
X-176.318Y20.031
X-176.345Y20.055
X-176.372Y20.08
X-176.398Y20.106
X-176.424Y20.132
X-176.449Y20.159
X-176.474Y20.187
X-176.497Y20.215
X-176.52Y20.244
X-176.543Y20.273
X-176.564Y20.303
X-176.586Y20.334
X-176.606Y20.365
X-176.625Y20.397
X-176.644Y20.428
X-176.661Y20.461
X-176.678Y20.493
X-176.694Y20.526
X-176.71Y20.56
X-176.724Y20.594
X-176.738Y20.628
X-176.751Y20.662
X-176.763Y20.697
X-176.774Y20.732
X-176.784Y20.768
X-176.793Y20.803
X-176.802Y20.839
X-176.81Y20.875
X-176.816Y20.911
X-176.822Y20.948
X-176.827Y20.984
X-176.831Y21.021
X-176.834Y21.057
X-176.837Y21.094
X-176.838Y21.131
Y21.168
Y121.168
Y121.204
X-176.837Y121.241
X-176.834Y121.278
X-176.831Y121.315
X-176.827Y121.351
X-176.822Y121.388
X-176.816Y121.424
X-176.81Y121.46
X-176.802Y121.496
X-176.793Y121.532
X-176.784Y121.568
X-176.774Y121.603
X-176.763Y121.638
X-176.751Y121.673
X-176.738Y121.708
X-176.724Y121.742
X-176.71Y121.776
X-176.694Y121.809
X-176.678Y121.842
X-176.661Y121.875
X-176.644Y121.907
X-176.625Y121.939
X-176.606Y121.97
X-176.585Y122.002
X-176.564Y122.032
X-176.543Y122.062
X-176.52Y122.091
X-176.497Y122.12
X-176.474Y122.148
X-176.449Y122.176
X-176.424Y122.203
X-176.398Y122.229
X-176.372Y122.255
X-176.345Y122.28
X-176.318Y122.304
X-176.289Y122.328
X-176.261Y122.351
X-176.231Y122.373
X-176.201Y122.395
X-176.171Y122.416
X-176.14Y122.436
X-176.109Y122.455
X-176.077Y122.474
X-176.045Y122.491
X-176.012Y122.508
X-175.979Y122.525
X-175.946Y122.54
X-175.912Y122.554
X-175.878Y122.568
X-175.843Y122.581
X-175.808Y122.593
X-175.773Y122.604
X-175.738Y122.614
X-175.702Y122.624
X-175.666Y122.632
X-175.63Y122.64
X-175.594Y122.647
X-175.557Y122.652
X-175.521Y122.657
X-175.484Y122.661
X-175.448Y122.665
X-175.411Y122.667
X-175.374Y122.668
X-175.337Y122.669
X-75.337
X-75.301Y122.668
X-75.264Y122.667
X-75.227Y122.665
X-75.19Y122.661
X-75.154Y122.657
X-75.117Y122.652
X-75.081Y122.647
X-75.044Y122.64
X-75.008Y122.632
X-74.973Y122.624
X-74.937Y122.614
X-74.902Y122.604
X-74.866Y122.593
X-74.832Y122.581
X-74.797Y122.568
X-74.763Y122.554
X-74.729Y122.54
X-74.696Y122.525
X-74.663Y122.508
X-74.63Y122.491
X-74.598Y122.474
X-74.566Y122.455
X-74.535Y122.436
X-74.504Y122.416
X-74.473Y122.395
X-74.443Y122.373
X-74.414Y122.351
X-74.385Y122.328
X-74.357Y122.304
X-74.33Y122.28
X-74.303Y122.255
X-74.276Y122.229
X-74.251Y122.203
X-74.226Y122.176
X-74.201Y122.148
X-74.178Y122.12
X-74.155Y122.091
X-74.132Y122.062
X-74.111Y122.032
X-74.089Y122.001
X-74.069Y121.97
X-74.05Y121.939
X-74.031Y121.907
X-74.014Y121.875
X-73.997Y121.842
X-73.98Y121.809
X-73.965Y121.776
X-73.951Y121.742
X-73.937Y121.708
X-73.924Y121.673
X-73.912Y121.638
X-73.901Y121.603
X-73.891Y121.568
X-73.881Y121.532
X-73.873Y121.496
X-73.865Y121.46
X-73.858Y121.424
X-73.853Y121.388
X-73.848Y121.351
X-73.844Y121.315
X-73.84Y121.278
X-73.838Y121.241
X-73.837Y121.204
X-73.836Y121.168
Y21.168
X-73.837Y21.131
X-73.838Y21.094
X-73.84Y21.057
X-73.844Y21.021
X-73.848Y20.984
X-73.853Y20.948
X-73.858Y20.911
X-73.865Y20.875
X-73.873Y20.839
X-73.881Y20.803
X-73.891Y20.768
X-73.901Y20.732
X-73.912Y20.697
X-73.924Y20.662
X-73.937Y20.628
X-73.951Y20.594
X-73.965Y20.56
X-73.98Y20.526
X-73.997Y20.493
X-74.014Y20.461
X-74.031Y20.428
X-74.05Y20.397
X-74.069Y20.365
X-74.09Y20.333
X-74.111Y20.303
X-74.132Y20.273
X-74.155Y20.244
X-74.178Y20.215
X-74.201Y20.187
Z-8F500
X-74.226Y20.159F1000
X-74.251Y20.132
X-74.276Y20.106
X-74.303Y20.08
X-74.33Y20.055
X-74.357Y20.031
X-74.385Y20.007
X-74.414Y19.984
X-74.443Y19.962
X-74.473Y19.94
X-74.504Y19.92
X-74.535Y19.899
X-74.566Y19.88
X-74.598Y19.862
X-74.63Y19.844
X-74.663Y19.827
X-74.696Y19.811
X-74.729Y19.795
X-74.763Y19.781
X-74.797Y19.767
X-74.832Y19.754
X-74.866Y19.742
X-74.902Y19.731
X-74.937Y19.721
X-74.973Y19.712
X-75.008Y19.703
X-75.045Y19.696
X-75.081Y19.689
X-75.117Y19.683
X-75.154Y19.678
X-75.19Y19.674
X-75.227Y19.671
X-75.264Y19.668
X-75.301Y19.667
X-75.337
X-175.337
X-175.374
X-175.411Y19.668
X-175.448Y19.671
X-175.484Y19.674
X-175.521Y19.678
X-175.557Y19.683
X-175.594Y19.689
X-175.63Y19.696
X-175.666Y19.703
X-175.702Y19.712
X-175.738Y19.721
X-175.773Y19.731
X-175.808Y19.742
X-175.843Y19.754
X-175.878Y19.767
X-175.912Y19.781
X-175.946Y19.795
X-175.979Y19.811
X-176.012Y19.827
X-176.045Y19.844
X-176.077Y19.862
X-176.109Y19.88
X-176.14Y19.899
X-176.171Y19.92
X-176.201Y19.94
X-176.231Y19.962
X-176.261Y19.984
X-176.289Y20.007
X-176.318Y20.031
X-176.345Y20.055
X-176.372Y20.08
X-176.398Y20.106
X-176.424Y20.132
X-176.449Y20.159
X-176.474Y20.187
X-176.497Y20.215
X-176.52Y20.244
X-176.543Y20.273
X-176.564Y20.303
X-176.586Y20.334
X-176.606Y20.365
X-176.625Y20.397
X-176.644Y20.428
X-176.661Y20.461
X-176.678Y20.493
X-176.694Y20.526
X-176.71Y20.56
X-176.724Y20.594
X-176.738Y20.628
X-176.751Y20.662
X-176.763Y20.697
X-176.774Y20.732
X-176.784Y20.768
X-176.793Y20.803
X-176.802Y20.839
X-176.81Y20.875
X-176.816Y20.911
X-176.822Y20.948
X-176.827Y20.984
X-176.831Y21.021
X-176.834Y21.057
X-176.837Y21.094
X-176.838Y21.131
Y21.168
Y121.168
Y121.204
X-176.837Y121.241
X-176.834Y121.278
X-176.831Y121.315
X-176.827Y121.351
X-176.822Y121.388
X-176.816Y121.424
X-176.81Y121.46
X-176.802Y121.496
X-176.793Y121.532
X-176.784Y121.568
X-176.774Y121.603
X-176.763Y121.638
X-176.751Y121.673
X-176.738Y121.708
X-176.724Y121.742
X-176.71Y121.776
X-176.694Y121.809
X-176.678Y121.842
X-176.661Y121.875
X-176.644Y121.907
X-176.625Y121.939
X-176.606Y121.97
X-176.585Y122.002
X-176.564Y122.032
X-176.543Y122.062
X-176.52Y122.091
X-176.497Y122.12
X-176.474Y122.148
X-176.449Y122.176
X-176.424Y122.203
X-176.398Y122.229
X-176.372Y122.255
X-176.345Y122.28
X-176.318Y122.304
X-176.289Y122.328
X-176.261Y122.351
X-176.231Y122.373
X-176.201Y122.395
X-176.171Y122.416
X-176.14Y122.436
X-176.109Y122.455
X-176.077Y122.474
X-176.045Y122.491
X-176.012Y122.508
X-175.979Y122.525
X-175.946Y122.54
X-175.912Y122.554
X-175.878Y122.568
X-175.843Y122.581
X-175.808Y122.593
X-175.773Y122.604
X-175.738Y122.614
X-175.702Y122.624
X-175.666Y122.632
X-175.63Y122.64
X-175.594Y122.647
X-175.557Y122.652
X-175.521Y122.657
X-175.484Y122.661
X-175.448Y122.665
X-175.411Y122.667
X-175.374Y122.668
X-175.337Y122.669
X-75.337
X-75.301Y122.668
X-75.264Y122.667
X-75.227Y122.665
X-75.19Y122.661
X-75.154Y122.657
X-75.117Y122.652
X-75.081Y122.647
X-75.044Y122.64
X-75.008Y122.632
X-74.973Y122.624
X-74.937Y122.614
X-74.902Y122.604
X-74.866Y122.593
X-74.832Y122.581
X-74.797Y122.568
X-74.763Y122.554
X-74.729Y122.54
X-74.696Y122.525
X-74.663Y122.508
X-74.63Y122.491
X-74.598Y122.474
X-74.566Y122.455
X-74.535Y122.436
X-74.504Y122.416
X-74.473Y122.395
X-74.443Y122.373
X-74.414Y122.351
X-74.385Y122.328
X-74.357Y122.304
X-74.33Y122.28
X-74.303Y122.255
X-74.276Y122.229
X-74.251Y122.203
X-74.226Y122.176
X-74.201Y122.148
X-74.178Y122.12
X-74.155Y122.091
X-74.132Y122.062
X-74.111Y122.032
X-74.089Y122.001
X-74.069Y121.97
X-74.05Y121.939
X-74.031Y121.907
X-74.014Y121.875
X-73.997Y121.842
X-73.98Y121.809
X-73.965Y121.776
X-73.951Y121.742
X-73.937Y121.708
X-73.924Y121.673
X-73.912Y121.638
X-73.901Y121.603
X-73.891Y121.568
X-73.881Y121.532
X-73.873Y121.496
X-73.865Y121.46
X-73.858Y121.424
X-73.853Y121.388
X-73.848Y121.351
X-73.844Y121.315
X-73.84Y121.278
X-73.838Y121.241
X-73.837Y121.204
X-73.836Y121.168
Y21.168
X-73.837Y21.131
X-73.838Y21.094
X-73.84Y21.057
X-73.844Y21.021
X-73.848Y20.984
X-73.853Y20.948
X-73.858Y20.911
X-73.865Y20.875
X-73.873Y20.839
X-73.881Y20.803
X-73.891Y20.768
X-73.901Y20.732
X-73.912Y20.697
X-73.924Y20.662
X-73.937Y20.628
X-73.951Y20.594
X-73.965Y20.56
X-73.98Y20.526
X-73.997Y20.493
X-74.014Y20.461
X-74.031Y20.428
X-74.05Y20.397
X-74.069Y20.365
X-74.09Y20.333
X-74.111Y20.303
X-74.132Y20.273
X-74.155Y20.244
X-74.178Y20.215
X-74.201Y20.187
Z-9F500
X-74.226Y20.159F1000
X-74.251Y20.132
X-74.276Y20.106
X-74.303Y20.08
X-74.33Y20.055
X-74.357Y20.031
X-74.385Y20.007
X-74.414Y19.984
X-74.443Y19.962
X-74.473Y19.94
X-74.504Y19.92
X-74.535Y19.899
X-74.566Y19.88
X-74.598Y19.862
X-74.63Y19.844
X-74.663Y19.827
X-74.696Y19.811
X-74.729Y19.795
X-74.763Y19.781
X-74.797Y19.767
X-74.832Y19.754
X-74.866Y19.742
X-74.902Y19.731
X-74.937Y19.721
X-74.973Y19.712
X-75.008Y19.703
X-75.045Y19.696
X-75.081Y19.689
X-75.117Y19.683
X-75.154Y19.678
X-75.19Y19.674
X-75.227Y19.671
X-75.264Y19.668
X-75.301Y19.667
X-75.337
X-175.337
X-175.374
X-175.411Y19.668
X-175.448Y19.671
X-175.484Y19.674
X-175.521Y19.678
X-175.557Y19.683
X-175.594Y19.689
X-175.63Y19.696
X-175.666Y19.703
X-175.702Y19.712
X-175.738Y19.721
X-175.773Y19.731
X-175.808Y19.742
X-175.843Y19.754
X-175.878Y19.767
X-175.912Y19.781
X-175.946Y19.795
X-175.979Y19.811
X-176.012Y19.827
X-176.045Y19.844
X-176.077Y19.862
X-176.109Y19.88
X-176.14Y19.899
X-176.171Y19.92
X-176.201Y19.94
X-176.231Y19.962
X-176.261Y19.984
X-176.289Y20.007
X-176.318Y20.031
X-176.345Y20.055
X-176.372Y20.08
X-176.398Y20.106
X-176.424Y20.132
X-176.449Y20.159
X-176.474Y20.187
X-176.497Y20.215
X-176.52Y20.244
X-176.543Y20.273
X-176.564Y20.303
X-176.586Y20.334
X-176.606Y20.365
X-176.625Y20.397
X-176.644Y20.428
X-176.661Y20.461
X-176.678Y20.493
X-176.694Y20.526
X-176.71Y20.56
X-176.724Y20.594
X-176.738Y20.628
X-176.751Y20.662
X-176.763Y20.697
X-176.774Y20.732
X-176.784Y20.768
X-176.793Y20.803
X-176.802Y20.839
X-176.81Y20.875
X-176.816Y20.911
X-176.822Y20.948
X-176.827Y20.984
X-176.831Y21.021
X-176.834Y21.057
X-176.837Y21.094
X-176.838Y21.131
Y21.168
Y121.168
Y121.204
X-176.837Y121.241
X-176.834Y121.278
X-176.831Y121.315
X-176.827Y121.351
X-176.822Y121.388
X-176.816Y121.424
X-176.81Y121.46
X-176.802Y121.496
X-176.793Y121.532
X-176.784Y121.568
X-176.774Y121.603
X-176.763Y121.638
X-176.751Y121.673
X-176.738Y121.708
X-176.724Y121.742
X-176.71Y121.776
X-176.694Y121.809
X-176.678Y121.842
X-176.661Y121.875
X-176.644Y121.907
X-176.625Y121.939
X-176.606Y121.97
X-176.585Y122.002
X-176.564Y122.032
X-176.543Y122.062
X-176.52Y122.091
X-176.497Y122.12
X-176.474Y122.148
X-176.449Y122.176
X-176.424Y122.203
X-176.398Y122.229
X-176.372Y122.255
X-176.345Y122.28
X-176.318Y122.304
X-176.289Y122.328
X-176.261Y122.351
X-176.231Y122.373
X-176.201Y122.395
X-176.171Y122.416
X-176.14Y122.436
X-176.109Y122.455
X-176.077Y122.474
X-176.045Y122.491
X-176.012Y122.508
X-175.979Y122.525
X-175.946Y122.54
X-175.912Y122.554
X-175.878Y122.568
X-175.843Y122.581
X-175.808Y122.593
X-175.773Y122.604
X-175.738Y122.614
X-175.702Y122.624
X-175.666Y122.632
X-175.63Y122.64
X-175.594Y122.647
X-175.557Y122.652
X-175.521Y122.657
X-175.484Y122.661
X-175.448Y122.665
X-175.411Y122.667
X-175.374Y122.668
X-175.337Y122.669
X-75.337
X-75.301Y122.668
X-75.264Y122.667
X-75.227Y122.665
X-75.19Y122.661
X-75.154Y122.657
X-75.117Y122.652
X-75.081Y122.647
X-75.044Y122.64
X-75.008Y122.632
X-74.973Y122.624
X-74.937Y122.614
X-74.902Y122.604
X-74.866Y122.593
X-74.832Y122.581
X-74.797Y122.568
X-74.763Y122.554
X-74.729Y122.54
X-74.696Y122.525
X-74.663Y122.508
X-74.63Y122.491
X-74.598Y122.474
X-74.566Y122.455
X-74.535Y122.436
X-74.504Y122.416
X-74.473Y122.395
X-74.443Y122.373
X-74.414Y122.351
X-74.385Y122.328
X-74.357Y122.304
X-74.33Y122.28
X-74.303Y122.255
X-74.276Y122.229
X-74.251Y122.203
X-74.226Y122.176
X-74.201Y122.148
X-74.178Y122.12
X-74.155Y122.091
X-74.132Y122.062
X-74.111Y122.032
X-74.089Y122.001
X-74.069Y121.97
X-74.05Y121.939
X-74.031Y121.907
X-74.014Y121.875
X-73.997Y121.842
X-73.98Y121.809
X-73.965Y121.776
X-73.951Y121.742
X-73.937Y121.708
X-73.924Y121.673
X-73.912Y121.638
X-73.901Y121.603
X-73.891Y121.568
X-73.881Y121.532
X-73.873Y121.496
X-73.865Y121.46
X-73.858Y121.424
X-73.853Y121.388
X-73.848Y121.351
X-73.844Y121.315
X-73.84Y121.278
X-73.838Y121.241
X-73.837Y121.204
X-73.836Y121.168
Y21.168
X-73.837Y21.131
X-73.838Y21.094
X-73.84Y21.057
X-73.844Y21.021
X-73.848Y20.984
X-73.853Y20.948
X-73.858Y20.911
X-73.865Y20.875
X-73.873Y20.839
X-73.881Y20.803
X-73.891Y20.768
X-73.901Y20.732
X-73.912Y20.697
X-73.924Y20.662
X-73.937Y20.628
X-73.951Y20.594
X-73.965Y20.56
X-73.98Y20.526
X-73.997Y20.493
X-74.014Y20.461
X-74.031Y20.428
X-74.05Y20.397
X-74.069Y20.365
X-74.09Y20.333
X-74.111Y20.303
X-74.132Y20.273
X-74.155Y20.244
X-74.178Y20.215
X-74.201Y20.187
Z-10F500
X-74.226Y20.159F1000
X-74.251Y20.132
X-74.276Y20.106
X-74.303Y20.08
X-74.33Y20.055
X-74.357Y20.031
X-74.385Y20.007
X-74.414Y19.984
X-74.443Y19.962
X-74.473Y19.94
X-74.504Y19.92
X-74.535Y19.899
X-74.566Y19.88
X-74.598Y19.862
X-74.63Y19.844
X-74.663Y19.827
X-74.696Y19.811
X-74.729Y19.795
X-74.763Y19.781
X-74.797Y19.767
X-74.832Y19.754
X-74.866Y19.742
X-74.902Y19.731
X-74.937Y19.721
X-74.973Y19.712
X-75.008Y19.703
X-75.045Y19.696
X-75.081Y19.689
X-75.117Y19.683
X-75.154Y19.678
X-75.19Y19.674
X-75.227Y19.671
X-75.264Y19.668
X-75.301Y19.667
X-75.337
X-175.337
X-175.374
X-175.411Y19.668
X-175.448Y19.671
X-175.484Y19.674
X-175.521Y19.678
X-175.557Y19.683
X-175.594Y19.689
X-175.63Y19.696
X-175.666Y19.703
X-175.702Y19.712
X-175.738Y19.721
X-175.773Y19.731
X-175.808Y19.742
X-175.843Y19.754
X-175.878Y19.767
X-175.912Y19.781
X-175.946Y19.795
X-175.979Y19.811
X-176.012Y19.827
X-176.045Y19.844
X-176.077Y19.862
X-176.109Y19.88
X-176.14Y19.899
X-176.171Y19.92
X-176.201Y19.94
X-176.231Y19.962
X-176.261Y19.984
X-176.289Y20.007
X-176.318Y20.031
X-176.345Y20.055
X-176.372Y20.08
X-176.398Y20.106
X-176.424Y20.132
X-176.449Y20.159
X-176.474Y20.187
X-176.497Y20.215
X-176.52Y20.244
X-176.543Y20.273
X-176.564Y20.303
X-176.586Y20.334
X-176.606Y20.365
X-176.625Y20.397
X-176.644Y20.428
X-176.661Y20.461
X-176.678Y20.493
X-176.694Y20.526
X-176.71Y20.56
X-176.724Y20.594
X-176.738Y20.628
X-176.751Y20.662
X-176.763Y20.697
X-176.774Y20.732
X-176.784Y20.768
X-176.793Y20.803
X-176.802Y20.839
X-176.81Y20.875
X-176.816Y20.911
X-176.822Y20.948
X-176.827Y20.984
X-176.831Y21.021
X-176.834Y21.057
X-176.837Y21.094
X-176.838Y21.131
Y21.168
Y121.168
Y121.204
X-176.837Y121.241
X-176.834Y121.278
X-176.831Y121.315
X-176.827Y121.351
X-176.822Y121.388
X-176.816Y121.424
X-176.81Y121.46
X-176.802Y121.496
X-176.793Y121.532
X-176.784Y121.568
X-176.774Y121.603
X-176.763Y121.638
X-176.751Y121.673
X-176.738Y121.708
X-176.724Y121.742
X-176.71Y121.776
X-176.694Y121.809
X-176.678Y121.842
X-176.661Y121.875
X-176.644Y121.907
X-176.625Y121.939
X-176.606Y121.97
X-176.585Y122.002
X-176.564Y122.032
X-176.543Y122.062
X-176.52Y122.091
X-176.497Y122.12
X-176.474Y122.148
X-176.449Y122.176
X-176.424Y122.203
X-176.398Y122.229
X-176.372Y122.255
X-176.345Y122.28
X-176.318Y122.304
X-176.289Y122.328
X-176.261Y122.351
X-176.231Y122.373
X-176.201Y122.395
X-176.171Y122.416
X-176.14Y122.436
X-176.109Y122.455
X-176.077Y122.474
X-176.045Y122.491
X-176.012Y122.508
X-175.979Y122.525
X-175.946Y122.54
X-175.912Y122.554
X-175.878Y122.568
X-175.843Y122.581
X-175.808Y122.593
X-175.773Y122.604
X-175.738Y122.614
X-175.702Y122.624
X-175.666Y122.632
X-175.63Y122.64
X-175.594Y122.647
X-175.557Y122.652
X-175.521Y122.657
X-175.484Y122.661
X-175.448Y122.665
X-175.411Y122.667
X-175.374Y122.668
X-175.337Y122.669
X-75.337
X-75.301Y122.668
X-75.264Y122.667
X-75.227Y122.665
X-75.19Y122.661
X-75.154Y122.657
X-75.117Y122.652
X-75.081Y122.647
X-75.044Y122.64
X-75.008Y122.632
X-74.973Y122.624
X-74.937Y122.614
X-74.902Y122.604
X-74.866Y122.593
X-74.832Y122.581
X-74.797Y122.568
X-74.763Y122.554
X-74.729Y122.54
X-74.696Y122.525
X-74.663Y122.508
X-74.63Y122.491
X-74.598Y122.474
X-74.566Y122.455
X-74.535Y122.436
X-74.504Y122.416
X-74.473Y122.395
X-74.443Y122.373
X-74.414Y122.351
X-74.385Y122.328
X-74.357Y122.304
X-74.33Y122.28
X-74.303Y122.255
X-74.276Y122.229
X-74.251Y122.203
X-74.226Y122.176
X-74.201Y122.148
X-74.178Y122.12
X-74.155Y122.091
X-74.132Y122.062
X-74.111Y122.032
X-74.089Y122.001
X-74.069Y121.97
X-74.05Y121.939
X-74.031Y121.907
X-74.014Y121.875
X-73.997Y121.842
X-73.98Y121.809
X-73.965Y121.776
X-73.951Y121.742
X-73.937Y121.708
X-73.924Y121.673
X-73.912Y121.638
X-73.901Y121.603
X-73.891Y121.568
X-73.881Y121.532
X-73.873Y121.496
X-73.865Y121.46
X-73.858Y121.424
X-73.853Y121.388
X-73.848Y121.351
X-73.844Y121.315
X-73.84Y121.278
X-73.838Y121.241
X-73.837Y121.204
X-73.836Y121.168
Y21.168
X-73.837Y21.131
X-73.838Y21.094
X-73.84Y21.057
X-73.844Y21.021
X-73.848Y20.984
X-73.853Y20.948
X-73.858Y20.911
X-73.865Y20.875
X-73.873Y20.839
X-73.881Y20.803
X-73.891Y20.768
X-73.901Y20.732
X-73.912Y20.697
X-73.924Y20.662
X-73.937Y20.628
X-73.951Y20.594
X-73.965Y20.56
X-73.98Y20.526
X-73.997Y20.493
X-74.014Y20.461
X-74.031Y20.428
X-74.05Y20.397
X-74.069Y20.365
X-74.09Y20.333
X-74.111Y20.303
X-74.132Y20.273
X-74.155Y20.244
X-74.178Y20.215
X-74.201Y20.187
G0Z10
X73.838Y29.088
G1Z-1F500
X73.837Y29.125F1000
X73.836Y29.162
Y129.162
X73.837Y129.199
X73.838Y129.236
X73.84Y129.272
X73.844Y129.309
X73.848Y129.346
X73.853Y129.382
X73.858Y129.419
X73.865Y129.455
X73.873Y129.491
X73.881Y129.527
X73.891Y129.562
X73.901Y129.598
X73.912Y129.633
X73.924Y129.667
X73.937Y129.702
X73.951Y129.736
X73.965Y129.77
X73.98Y129.803
X73.997Y129.836
X74.014Y129.869
X74.031Y129.901
X74.05Y129.933
X74.069Y129.965
X74.09Y129.996
X74.111Y130.027
X74.132Y130.057
X74.155Y130.086
X74.178Y130.115
X74.201Y130.143
X74.226Y130.17
X74.251Y130.197
X74.276Y130.224
X74.303Y130.249
X74.33Y130.274
X74.357Y130.299
X74.385Y130.323
X74.414Y130.346
X74.443Y130.368
X74.473Y130.389
X74.504Y130.41
X74.535Y130.43
X74.566Y130.45
X74.598Y130.468
X74.63Y130.486
X74.663Y130.503
X74.696Y130.519
X74.729Y130.534
X74.763Y130.549
X74.797Y130.562
X74.832Y130.575
X74.866Y130.587
X74.902Y130.598
X74.937Y130.609
X74.973Y130.618
X75.008Y130.627
X75.045Y130.634
X75.081Y130.641
X75.117Y130.647
X75.154Y130.652
X75.19Y130.656
X75.227Y130.659
X75.264Y130.661
X75.301Y130.663
X75.337
X175.337
X175.374
X175.411Y130.661
X175.448Y130.659
X175.484Y130.656
X175.521Y130.652
X175.557Y130.647
X175.594Y130.641
X175.63Y130.634
X175.666Y130.627
X175.702Y130.618
X175.738Y130.609
X175.773Y130.598
X175.808Y130.587
X175.843Y130.575
X175.878Y130.562
X175.912Y130.549
X175.946Y130.534
X175.979Y130.519
X176.012Y130.503
X176.045Y130.486
X176.077Y130.468
X176.109Y130.45
X176.14Y130.43
X176.171Y130.41
X176.201Y130.389
X176.231Y130.368
X176.261Y130.346
X176.289Y130.323
X176.318Y130.299
X176.345Y130.274
X176.372Y130.249
X176.398Y130.224
X176.424Y130.197
X176.449Y130.17
X176.474Y130.143
X176.497Y130.115
X176.52Y130.086
X176.543Y130.057
X176.564Y130.027
X176.586Y129.995
X176.606Y129.965
X176.625Y129.933
X176.644Y129.901
X176.661Y129.869
X176.678Y129.836
X176.694Y129.803
X176.71Y129.77
X176.724Y129.736
X176.738Y129.702
X176.751Y129.667
X176.763Y129.633
X176.774Y129.598
X176.784Y129.562
X176.793Y129.527
X176.802Y129.491
X176.81Y129.455
X176.816Y129.419
X176.822Y129.382
X176.827Y129.346
X176.831Y129.309
X176.834Y129.272
X176.837Y129.236
X176.838Y129.199
Y129.162
Y29.162
Y29.125
X176.837Y29.088
X176.834Y29.052
X176.831Y29.015
X176.827Y28.978
X176.822Y28.942
X176.816Y28.906
X176.81Y28.869
X176.802Y28.833
X176.793Y28.798
X176.784Y28.762
X176.774Y28.727
X176.763Y28.692
X176.751Y28.657
X176.738Y28.622
X176.724Y28.588
X176.71Y28.554
X176.694Y28.521
X176.678Y28.488
X176.661Y28.455
X176.644Y28.423
X176.625Y28.391
X176.606Y28.36
X176.585Y28.328
X176.564Y28.297
X176.543Y28.268
X176.52Y28.238
X176.497Y28.21
X176.474Y28.181
X176.449Y28.154
X176.424Y28.127
X176.398Y28.1
X176.372Y28.075
X176.345Y28.05
X176.318Y28.025
X176.289Y28.002
X176.261Y27.979
X176.231Y27.956
X176.201Y27.935
X176.171Y27.914
X176.14Y27.894
X176.109Y27.875
X176.077Y27.856
X176.045Y27.838
X176.012Y27.821
X175.979Y27.805
X175.946Y27.79
X175.912Y27.775
X175.878Y27.762
X175.843Y27.749
X175.808Y27.737
X175.773Y27.726
X175.738Y27.715
X175.702Y27.706
X175.666Y27.698
X175.63Y27.69
X175.594Y27.683
X175.557Y27.677
X175.521Y27.672
X175.484Y27.668
X175.448Y27.665
X175.411Y27.663
X175.374Y27.662
X175.337Y27.661
X75.337
X75.301Y27.662
X75.264Y27.663
X75.227Y27.665
X75.19Y27.668
X75.154Y27.672
X75.117Y27.677
X75.081Y27.683
X75.044Y27.69
X75.008Y27.698
X74.973Y27.706
X74.937Y27.715
X74.902Y27.726
X74.866Y27.737
X74.832Y27.749
X74.797Y27.762
X74.763Y27.775
X74.729Y27.79
X74.696Y27.805
X74.663Y27.821
X74.63Y27.838
X74.598Y27.856
X74.566Y27.875
X74.535Y27.894
X74.504Y27.914
X74.473Y27.935
X74.443Y27.956
X74.414Y27.979
X74.385Y28.002
X74.357Y28.025
X74.33Y28.05
X74.303Y28.075
X74.276Y28.1
X74.251Y28.127
X74.226Y28.154
X74.201Y28.181
X74.178Y28.21
X74.155Y28.238
X74.132Y28.268
X74.111Y28.297
X74.089Y28.329
X74.069Y28.36
X74.05Y28.391
X74.031Y28.423
X74.014Y28.455
X73.997Y28.488
X73.98Y28.521
X73.965Y28.554
X73.951Y28.588
X73.937Y28.622
X73.924Y28.657
X73.912Y28.692
X73.901Y28.727
X73.891Y28.762
X73.881Y28.798
X73.873Y28.833
X73.865Y28.869
X73.858Y28.906
X73.853Y28.942
X73.848Y28.978
X73.844Y29.015
X73.84Y29.052
X73.838Y29.088
Z-2F500
X73.837Y29.125F1000
X73.836Y29.162
Y129.162
X73.837Y129.199
X73.838Y129.236
X73.84Y129.272
X73.844Y129.309
X73.848Y129.346
X73.853Y129.382
X73.858Y129.419
X73.865Y129.455
X73.873Y129.491
X73.881Y129.527
X73.891Y129.562
X73.901Y129.598
X73.912Y129.633
X73.924Y129.667
X73.937Y129.702
X73.951Y129.736
X73.965Y129.77
X73.98Y129.803
X73.997Y129.836
X74.014Y129.869
X74.031Y129.901
X74.05Y129.933
X74.069Y129.965
X74.09Y129.996
X74.111Y130.027
X74.132Y130.057
X74.155Y130.086
X74.178Y130.115
X74.201Y130.143
X74.226Y130.17
X74.251Y130.197
X74.276Y130.224
X74.303Y130.249
X74.33Y130.274
X74.357Y130.299
X74.385Y130.323
X74.414Y130.346
X74.443Y130.368
X74.473Y130.389
X74.504Y130.41
X74.535Y130.43
X74.566Y130.45
X74.598Y130.468
X74.63Y130.486
X74.663Y130.503
X74.696Y130.519
X74.729Y130.534
X74.763Y130.549
X74.797Y130.562
X74.832Y130.575
X74.866Y130.587
X74.902Y130.598
X74.937Y130.609
X74.973Y130.618
X75.008Y130.627
X75.045Y130.634
X75.081Y130.641
X75.117Y130.647
X75.154Y130.652
X75.19Y130.656
X75.227Y130.659
X75.264Y130.661
X75.301Y130.663
X75.337
X175.337
X175.374
X175.411Y130.661
X175.448Y130.659
X175.484Y130.656
X175.521Y130.652
X175.557Y130.647
X175.594Y130.641
X175.63Y130.634
X175.666Y130.627
X175.702Y130.618
X175.738Y130.609
X175.773Y130.598
X175.808Y130.587
X175.843Y130.575
X175.878Y130.562
X175.912Y130.549
X175.946Y130.534
X175.979Y130.519
X176.012Y130.503
X176.045Y130.486
X176.077Y130.468
X176.109Y130.45
X176.14Y130.43
X176.171Y130.41
X176.201Y130.389
X176.231Y130.368
X176.261Y130.346
X176.289Y130.323
X176.318Y130.299
X176.345Y130.274
X176.372Y130.249
X176.398Y130.224
X176.424Y130.197
X176.449Y130.17
X176.474Y130.143
X176.497Y130.115
X176.52Y130.086
X176.543Y130.057
X176.564Y130.027
X176.586Y129.995
X176.606Y129.965
X176.625Y129.933
X176.644Y129.901
X176.661Y129.869
X176.678Y129.836
X176.694Y129.803
X176.71Y129.77
X176.724Y129.736
X176.738Y129.702
X176.751Y129.667
X176.763Y129.633
X176.774Y129.598
X176.784Y129.562
X176.793Y129.527
X176.802Y129.491
X176.81Y129.455
X176.816Y129.419
X176.822Y129.382
X176.827Y129.346
X176.831Y129.309
X176.834Y129.272
X176.837Y129.236
X176.838Y129.199
Y129.162
Y29.162
Y29.125
X176.837Y29.088
X176.834Y29.052
X176.831Y29.015
X176.827Y28.978
X176.822Y28.942
X176.816Y28.906
X176.81Y28.869
X176.802Y28.833
X176.793Y28.798
X176.784Y28.762
X176.774Y28.727
X176.763Y28.692
X176.751Y28.657
X176.738Y28.622
X176.724Y28.588
X176.71Y28.554
X176.694Y28.521
X176.678Y28.488
X176.661Y28.455
X176.644Y28.423
X176.625Y28.391
X176.606Y28.36
X176.585Y28.328
X176.564Y28.297
X176.543Y28.268
X176.52Y28.238
X176.497Y28.21
X176.474Y28.181
X176.449Y28.154
X176.424Y28.127
X176.398Y28.1
X176.372Y28.075
X176.345Y28.05
X176.318Y28.025
X176.289Y28.002
X176.261Y27.979
X176.231Y27.956
X176.201Y27.935
X176.171Y27.914
X176.14Y27.894
X176.109Y27.875
X176.077Y27.856
X176.045Y27.838
X176.012Y27.821
X175.979Y27.805
X175.946Y27.79
X175.912Y27.775
X175.878Y27.762
X175.843Y27.749
X175.808Y27.737
X175.773Y27.726
X175.738Y27.715
X175.702Y27.706
X175.666Y27.698
X175.63Y27.69
X175.594Y27.683
X175.557Y27.677
X175.521Y27.672
X175.484Y27.668
X175.448Y27.665
X175.411Y27.663
X175.374Y27.662
X175.337Y27.661
X75.337
X75.301Y27.662
X75.264Y27.663
X75.227Y27.665
X75.19Y27.668
X75.154Y27.672
X75.117Y27.677
X75.081Y27.683
X75.044Y27.69
X75.008Y27.698
X74.973Y27.706
X74.937Y27.715
X74.902Y27.726
X74.866Y27.737
X74.832Y27.749
X74.797Y27.762
X74.763Y27.775
X74.729Y27.79
X74.696Y27.805
X74.663Y27.821
X74.63Y27.838
X74.598Y27.856
X74.566Y27.875
X74.535Y27.894
X74.504Y27.914
X74.473Y27.935
X74.443Y27.956
X74.414Y27.979
X74.385Y28.002
X74.357Y28.025
X74.33Y28.05
X74.303Y28.075
X74.276Y28.1
X74.251Y28.127
X74.226Y28.154
X74.201Y28.181
X74.178Y28.21
X74.155Y28.238
X74.132Y28.268
X74.111Y28.297
X74.089Y28.329
X74.069Y28.36
X74.05Y28.391
X74.031Y28.423
X74.014Y28.455
X73.997Y28.488
X73.98Y28.521
X73.965Y28.554
X73.951Y28.588
X73.937Y28.622
X73.924Y28.657
X73.912Y28.692
X73.901Y28.727
X73.891Y28.762
X73.881Y28.798
X73.873Y28.833
X73.865Y28.869
X73.858Y28.906
X73.853Y28.942
X73.848Y28.978
X73.844Y29.015
X73.84Y29.052
X73.838Y29.088
Z-3F500
X73.837Y29.125F1000
X73.836Y29.162
Y129.162
X73.837Y129.199
X73.838Y129.236
X73.84Y129.272
X73.844Y129.309
X73.848Y129.346
X73.853Y129.382
X73.858Y129.419
X73.865Y129.455
X73.873Y129.491
X73.881Y129.527
X73.891Y129.562
X73.901Y129.598
X73.912Y129.633
X73.924Y129.667
X73.937Y129.702
X73.951Y129.736
X73.965Y129.77
X73.98Y129.803
X73.997Y129.836
X74.014Y129.869
X74.031Y129.901
X74.05Y129.933
X74.069Y129.965
X74.09Y129.996
X74.111Y130.027
X74.132Y130.057
X74.155Y130.086
X74.178Y130.115
X74.201Y130.143
X74.226Y130.17
X74.251Y130.197
X74.276Y130.224
X74.303Y130.249
X74.33Y130.274
X74.357Y130.299
X74.385Y130.323
X74.414Y130.346
X74.443Y130.368
X74.473Y130.389
X74.504Y130.41
X74.535Y130.43
X74.566Y130.45
X74.598Y130.468
X74.63Y130.486
X74.663Y130.503
X74.696Y130.519
X74.729Y130.534
X74.763Y130.549
X74.797Y130.562
X74.832Y130.575
X74.866Y130.587
X74.902Y130.598
X74.937Y130.609
X74.973Y130.618
X75.008Y130.627
X75.045Y130.634
X75.081Y130.641
X75.117Y130.647
X75.154Y130.652
X75.19Y130.656
X75.227Y130.659
X75.264Y130.661
X75.301Y130.663
X75.337
X175.337
X175.374
X175.411Y130.661
X175.448Y130.659
X175.484Y130.656
X175.521Y130.652
X175.557Y130.647
X175.594Y130.641
X175.63Y130.634
X175.666Y130.627
X175.702Y130.618
X175.738Y130.609
X175.773Y130.598
X175.808Y130.587
X175.843Y130.575
X175.878Y130.562
X175.912Y130.549
X175.946Y130.534
X175.979Y130.519
X176.012Y130.503
X176.045Y130.486
X176.077Y130.468
X176.109Y130.45
X176.14Y130.43
X176.171Y130.41
X176.201Y130.389
X176.231Y130.368
X176.261Y130.346
X176.289Y130.323
X176.318Y130.299
X176.345Y130.274
X176.372Y130.249
X176.398Y130.224
X176.424Y130.197
X176.449Y130.17
X176.474Y130.143
X176.497Y130.115
X176.52Y130.086
X176.543Y130.057
X176.564Y130.027
X176.586Y129.995
X176.606Y129.965
X176.625Y129.933
X176.644Y129.901
X176.661Y129.869
X176.678Y129.836
X176.694Y129.803
X176.71Y129.77
X176.724Y129.736
X176.738Y129.702
X176.751Y129.667
X176.763Y129.633
X176.774Y129.598
X176.784Y129.562
X176.793Y129.527
X176.802Y129.491
X176.81Y129.455
X176.816Y129.419
X176.822Y129.382
X176.827Y129.346
X176.831Y129.309
X176.834Y129.272
X176.837Y129.236
X176.838Y129.199
Y129.162
Y29.162
Y29.125
X176.837Y29.088
X176.834Y29.052
X176.831Y29.015
X176.827Y28.978
X176.822Y28.942
X176.816Y28.906
X176.81Y28.869
X176.802Y28.833
X176.793Y28.798
X176.784Y28.762
X176.774Y28.727
X176.763Y28.692
X176.751Y28.657
X176.738Y28.622
X176.724Y28.588
X176.71Y28.554
X176.694Y28.521
X176.678Y28.488
X176.661Y28.455
X176.644Y28.423
X176.625Y28.391
X176.606Y28.36
X176.585Y28.328
X176.564Y28.297
X176.543Y28.268
X176.52Y28.238
X176.497Y28.21
X176.474Y28.181
X176.449Y28.154
X176.424Y28.127
X176.398Y28.1
X176.372Y28.075
X176.345Y28.05
X176.318Y28.025
X176.289Y28.002
X176.261Y27.979
X176.231Y27.956
X176.201Y27.935
X176.171Y27.914
X176.14Y27.894
X176.109Y27.875
X176.077Y27.856
X176.045Y27.838
X176.012Y27.821
X175.979Y27.805
X175.946Y27.79
X175.912Y27.775
X175.878Y27.762
X175.843Y27.749
X175.808Y27.737
X175.773Y27.726
X175.738Y27.715
X175.702Y27.706
X175.666Y27.698
X175.63Y27.69
X175.594Y27.683
X175.557Y27.677
X175.521Y27.672
X175.484Y27.668
X175.448Y27.665
X175.411Y27.663
X175.374Y27.662
X175.337Y27.661
X75.337
X75.301Y27.662
X75.264Y27.663
X75.227Y27.665
X75.19Y27.668
X75.154Y27.672
X75.117Y27.677
X75.081Y27.683
X75.044Y27.69
X75.008Y27.698
X74.973Y27.706
X74.937Y27.715
X74.902Y27.726
X74.866Y27.737
X74.832Y27.749
X74.797Y27.762
X74.763Y27.775
X74.729Y27.79
X74.696Y27.805
X74.663Y27.821
X74.63Y27.838
X74.598Y27.856
X74.566Y27.875
X74.535Y27.894
X74.504Y27.914
X74.473Y27.935
X74.443Y27.956
X74.414Y27.979
X74.385Y28.002
X74.357Y28.025
X74.33Y28.05
X74.303Y28.075
X74.276Y28.1
X74.251Y28.127
X74.226Y28.154
X74.201Y28.181
X74.178Y28.21
X74.155Y28.238
X74.132Y28.268
X74.111Y28.297
X74.089Y28.329
X74.069Y28.36
X74.05Y28.391
X74.031Y28.423
X74.014Y28.455
X73.997Y28.488
X73.98Y28.521
X73.965Y28.554
X73.951Y28.588
X73.937Y28.622
X73.924Y28.657
X73.912Y28.692
X73.901Y28.727
X73.891Y28.762
X73.881Y28.798
X73.873Y28.833
X73.865Y28.869
X73.858Y28.906
X73.853Y28.942
X73.848Y28.978
X73.844Y29.015
X73.84Y29.052
X73.838Y29.088
Z-4F500
X73.837Y29.125F1000
X73.836Y29.162
Y129.162
X73.837Y129.199
X73.838Y129.236
X73.84Y129.272
X73.844Y129.309
X73.848Y129.346
X73.853Y129.382
X73.858Y129.419
X73.865Y129.455
X73.873Y129.491
X73.881Y129.527
X73.891Y129.562
X73.901Y129.598
X73.912Y129.633
X73.924Y129.667
X73.937Y129.702
X73.951Y129.736
X73.965Y129.77
X73.98Y129.803
X73.997Y129.836
X74.014Y129.869
X74.031Y129.901
X74.05Y129.933
X74.069Y129.965
X74.09Y129.996
X74.111Y130.027
X74.132Y130.057
X74.155Y130.086
X74.178Y130.115
X74.201Y130.143
X74.226Y130.17
X74.251Y130.197
X74.276Y130.224
X74.303Y130.249
X74.33Y130.274
X74.357Y130.299
X74.385Y130.323
X74.414Y130.346
X74.443Y130.368
X74.473Y130.389
X74.504Y130.41
X74.535Y130.43
X74.566Y130.45
X74.598Y130.468
X74.63Y130.486
X74.663Y130.503
X74.696Y130.519
X74.729Y130.534
X74.763Y130.549
X74.797Y130.562
X74.832Y130.575
X74.866Y130.587
X74.902Y130.598
X74.937Y130.609
X74.973Y130.618
X75.008Y130.627
X75.045Y130.634
X75.081Y130.641
X75.117Y130.647
X75.154Y130.652
X75.19Y130.656
X75.227Y130.659
X75.264Y130.661
X75.301Y130.663
X75.337
X175.337
X175.374
X175.411Y130.661
X175.448Y130.659
X175.484Y130.656
X175.521Y130.652
X175.557Y130.647
