(Created with grbl post processor 2025/12/09 12:33)
G21
(G-code Generated with Fabex and NC library)
G17G90
S12000M03
G00 Z10.0

G0X0Y0Z10
X5Y12.441
G1Z-3.732F500
X5.004Y12.46F1000
X5.071Y12.645
X5.155Y12.823
X5.256Y12.991
X5.373Y13.149
X5.504Y13.295
X5.65Y13.426
X5.808Y13.543
X5.968Y13.64
X5.808Y13.736
X5.65Y13.853
X5.504Y13.984
X5.373Y14.13
X5.256Y14.288
X5.155Y14.456
X5.071Y14.634
X5.004Y14.819
X5Y14.838
Y12.441
G0Z10
X23.151Y13.64
G1Z-3.732F500
X23.311Y13.543F1000
X23.469Y13.426
X23.615Y13.295
X23.746Y13.149
X23.863Y12.991
X23.964Y12.823
X24.048Y12.645
X24.115Y12.46
X24.12Y12.441
Y14.838
X24.115Y14.819
X24.048Y14.634
X23.964Y14.456
X23.863Y14.288
X23.746Y14.13
X23.615Y13.984
X23.469Y13.853
X23.311Y13.736
X23.151Y13.64
X22.907Y14.076
X22.774Y14.013
X22.635Y13.964
X22.492Y13.928
X22.347Y13.906
X22.212Y13.9
X6.907
X6.772Y13.906
X6.627Y13.928
X6.484Y13.964
X6.345Y14.013
X6.212Y14.076
X6.086Y14.152
X5.968Y14.24
X5.858Y14.338
X5.76Y14.448
X5.672Y14.566
X5.596Y14.692
X5.533Y14.825
X5.484Y14.964
X5.448Y15.107
X5.426Y15.252
X5.42Y15.387
Y25.78
X4.5
Y1.5
X5.42
Y11.892
X5.426Y12.027
X5.448Y12.172
X5.484Y12.315
X5.533Y12.454
X5.596Y12.587
X5.672Y12.713
X5.76Y12.831
X5.858Y12.941
X5.968Y13.039
X6.086Y13.127
X6.212Y13.203
X6.345Y13.266
X6.484Y13.315
X6.627Y13.351
X6.772Y13.373
X6.907Y13.38
X22.212
X22.347Y13.373
X22.492Y13.351
X22.635Y13.315
X22.774Y13.266
X22.907Y13.203
X23.033Y13.127
X23.151Y13.039
X23.261Y12.941
X23.359Y12.831
X23.447Y12.713
X23.523Y12.587
X23.586Y12.454
X23.635Y12.315
X23.671Y12.172
X23.693Y12.027
X23.699Y11.892
Y1.5
X24.62
Y25.78
X23.699
Y15.387
X23.693Y15.252
X23.671Y15.107
X23.635Y14.964
X23.586Y14.825
X23.523Y14.692
X23.447Y14.566
X23.359Y14.448
X23.261Y14.338
X23.151Y14.24
X23.033Y14.152
X22.907Y14.076
G0Z10
X32.579Y11.594
G1Z-3.732F500
X32.549Y11.472F1000
X32.522Y11.348
X32.495Y11.224
X32.471Y11.098
X32.448Y10.97
X32.426Y10.842
X32.406Y10.712
X32.388Y10.581
X32.371Y10.448
X32.356Y10.314
X32.343Y10.179
X32.332Y10.043
X32.322Y9.905
X32.314Y9.767
X32.308Y9.627
X32.303Y9.486
X32.3Y9.343
Y9.199
Y9.07
X32.303Y8.94
X32.307Y8.811
X32.313Y8.682
X32.32Y8.553
X32.329Y8.425
X32.339Y8.297
X32.351Y8.17
X32.365Y8.043
X32.38Y7.916
X32.397Y7.79
X32.416Y7.665
X32.436Y7.54
X32.457Y7.415
X32.481Y7.291
X32.505Y7.168
X32.532Y7.046
X32.559Y6.924
X32.589Y6.803
X32.619Y6.682
X32.652Y6.563
X32.686Y6.444
X32.721Y6.326
X32.758Y6.208
X32.796Y6.092
X32.836Y5.976
X32.877Y5.862
X32.92Y5.748
X32.964Y5.635
X33.01Y5.523
X33.057Y5.412
X33.105Y5.303
X33.155Y5.194
X33.206Y5.086
X33.259Y4.979
X33.313Y4.874
X33.368Y4.769
X33.425Y4.666
X33.483Y4.564
X33.543Y4.463
X33.604Y4.363
X33.666Y4.264
X33.729Y4.167
X33.794Y4.071
X33.86Y3.976
X33.928Y3.883
X33.996Y3.79
X34.066Y3.7
X34.138Y3.61
X34.21Y3.522
X34.284Y3.435
X34.359Y3.349
X34.436Y3.265
X34.513Y3.183
X34.592Y3.101
X34.672Y3.021
X34.754Y2.943
X34.836Y2.866
X34.92Y2.791
X35.005Y2.717
X35.092Y2.644
X35.179Y2.573
X35.268Y2.504
X35.358Y2.436
X35.449Y2.369
X35.542Y2.305
X35.636Y2.241
X35.731Y2.18
X35.828Y2.119
X35.925Y2.061
X36.024Y2.004
X36.125Y1.949
X36.226Y1.895
X36.329Y1.843
X36.434Y1.793
X36.539Y1.744
X36.646Y1.697
X36.755Y1.652
X36.865Y1.609
X36.976Y1.567
X37.089Y1.527
X37.203Y1.489
X37.318Y1.453
X37.435Y1.418
X37.554Y1.386
X37.674Y1.355
X37.795Y1.326
X37.918Y1.299
X38.043Y1.274
X38.169Y1.252
X38.297Y1.231
X38.426Y1.212
X38.557Y1.195
X38.69Y1.181
X38.824Y1.168
X38.96Y1.158
X39.097Y1.15
X39.236Y1.144
X39.377Y1.141
X39.524Y1.14
X39.687
X39.852Y1.143
X40.013Y1.146
X40.172Y1.152
X40.328Y1.158
X40.405Y1.162
X40.482Y1.166
X40.557Y1.171
X40.632Y1.176
X40.707Y1.181
X40.781Y1.187
X40.854Y1.193
X40.926Y1.2
X40.998Y1.207
X41.07Y1.214
X41.141Y1.221
X41.211Y1.229
X41.28Y1.237
X41.35Y1.246
X41.418Y1.255
X41.486Y1.264
X41.554Y1.274
X41.621Y1.284
X41.687Y1.294
X41.753Y1.305
X41.819Y1.316
X41.884Y1.328
X41.949Y1.339
X42.013Y1.352
X42.077Y1.364
X42.14Y1.377
X42.203Y1.39
X42.265Y1.404
X42.328Y1.417
X42.389Y1.432
X42.451Y1.446
X42.512Y1.461
X42.573Y1.476
X42.633Y1.492
X42.693Y1.508
X42.753Y1.524
X42.812Y1.541
X42.872Y1.558
X42.931Y1.576
X42.989Y1.593
X43.048Y1.612
X43.106Y1.63
X43.164Y1.649
X43.222Y1.668
X43.279Y1.688
X43.337Y1.708
X43.394Y1.728
X43.451Y1.749
X43.508Y1.77
X43.565Y1.792
X43.622Y1.814
X43.678Y1.836
X43.735Y1.859
X43.847Y1.906
X43.96Y1.954
X44.072Y2.004
X44.184Y2.055
X44.296Y2.109
X44.409Y2.164
X44.521Y2.22
X44.634Y2.279
X44.747Y2.339
X44.86Y2.402
X44.974Y2.466
X45.088Y2.532
X45.18Y2.586
Y2.647
X45.05Y2.589
X44.911Y2.528
X44.772Y2.468
X44.632Y2.41
X44.492Y2.354
X44.351Y2.299
X44.21Y2.246
X44.069Y2.195
X43.998Y2.17
X43.927Y2.146
X43.856Y2.122
X43.785Y2.098
X43.713Y2.075
X43.642Y2.052
X43.571Y2.03
X43.499Y2.008
X43.427Y1.986
X43.355Y1.966
X43.283Y1.945
X43.211Y1.925
X43.139Y1.906
X43.067Y1.887
X42.995Y1.868
X42.922Y1.85
X42.849Y1.832
X42.777Y1.815
X42.704Y1.799
X42.631Y1.783
X42.558Y1.767
X42.485Y1.752
X42.411Y1.737
X42.338Y1.723
X42.265Y1.709
X42.191Y1.696
X42.117Y1.684
X42.043Y1.671
X41.969Y1.66
X41.895Y1.649
X41.821Y1.638
X41.747Y1.628
X41.673Y1.619
X41.598Y1.61
X41.524Y1.601
X41.449Y1.593
X41.375Y1.586
X41.3Y1.579
X41.225Y1.573
X41.15Y1.567
X41.075Y1.562
X41Y1.557
X40.924Y1.553
X40.849Y1.549
X40.773Y1.546
X40.698Y1.544
X40.622Y1.542
X40.547Y1.541
X40.471Y1.54
X40.393
X40.274
X40.155Y1.542
X40.037Y1.546
X39.92Y1.55
X39.803Y1.556
X39.687Y1.563
X39.572Y1.572
X39.457Y1.582
X39.343Y1.593
X39.229Y1.606
X39.116Y1.619
X39.003Y1.635
X38.891Y1.651
X38.78Y1.67
X38.669Y1.689
X38.559Y1.71
X38.45Y1.732
X38.341Y1.756
X38.233Y1.781
X38.126Y1.808
X38.019Y1.836
X37.913Y1.865
X37.808Y1.896
X37.703Y1.929
X37.6Y1.963
X37.496Y1.998
X37.394Y2.035
X37.293Y2.073
X37.192Y2.113
X37.092Y2.155
X36.993Y2.198
X36.894Y2.242
X36.797Y2.288
X36.7Y2.335
X36.605Y2.384
X36.51Y2.435
X36.416Y2.487
X36.323Y2.54
X36.231Y2.595
X36.141Y2.651
X36.051Y2.709
X35.962Y2.768
X35.874Y2.829
X35.787Y2.891
X35.702Y2.955
X35.617Y3.02
X35.534Y3.087
X35.452Y3.155
X35.371Y3.224
X35.291Y3.294
X35.212Y3.366
X35.134Y3.44
X35.058Y3.514
X34.983Y3.59
X34.909Y3.667
X34.837Y3.746
X34.765Y3.826
X34.695Y3.906
X34.627Y3.989
X34.559Y4.072
X34.493Y4.156
X34.428Y4.242
X34.364Y4.329
X34.302Y4.416
X34.241Y4.505
X34.181Y4.595
X34.122Y4.687
X34.065Y4.779
X34.009Y4.872
X33.955Y4.966
X33.901Y5.061
X33.849Y5.157
X33.798Y5.254
X33.749Y5.353
X33.7Y5.452
X33.653Y5.551
X33.607Y5.652
X33.563Y5.754
X33.519Y5.857
X33.477Y5.96
X33.436Y6.065
X33.396Y6.17
X33.358Y6.277
X33.32Y6.384
X33.284Y6.492
X33.249Y6.601
X33.215Y6.71
X33.182Y6.821
X33.151Y6.932
X33.12Y7.044
X33.091Y7.157
X33.063Y7.271
X33.036Y7.386
X33.01Y7.502
X32.985Y7.618
X32.961Y7.735
X32.939Y7.853
X32.917Y7.972
X32.896Y8.092
X32.877Y8.211
X32.862Y8.342
X32.86Y8.487
X32.871Y8.631
X32.896Y8.773
X32.935Y8.912
X32.987Y9.046
X33.052Y9.175
X33.128Y9.298
X33.217Y9.412
X33.315Y9.517
X33.424Y9.612
X33.476Y9.65
X33.39Y9.727
X33.291Y9.834
X33.203Y9.949
X33.127Y10.073
X33.063Y10.203
X33.011Y10.339
X32.974Y10.479
X32.949Y10.622
X32.939Y10.767
X32.943Y10.912
X32.96Y11.045
X32.979Y11.154
X32.997Y11.252
X33.016Y11.35
X33.036Y11.447
X33.056Y11.544
X33.078Y11.64
X33.101Y11.735
X33.124Y11.83
X33.148Y11.924
X33.174Y12.018
X33.2Y12.111
X33.227Y12.203
X33.255Y12.295
X33.284Y12.386
X33.314Y12.477
X33.345Y12.567
X33.377Y12.656
X33.41Y12.745
X33.443Y12.833
X33.478Y12.921
X33.514Y13.008
X33.551Y13.094
X33.588Y13.179
X33.627Y13.264
X33.667Y13.348
X33.708Y13.431
X33.75Y13.514
X33.793Y13.596
X33.837Y13.677
X33.882Y13.758
X33.928Y13.838
X33.975Y13.917
X34.023Y13.995
X34.072Y14.072
X34.123Y14.149
X34.174Y14.224
X34.226Y14.299
X34.28Y14.373
X34.334Y14.447
X34.39Y14.519
X34.447Y14.59
X34.504Y14.661
X34.563Y14.73
X34.623Y14.799
X34.684Y14.866
X34.746Y14.933
X34.809Y14.998
X34.873Y15.063
X34.938Y15.126
X35.004Y15.189
X35.071Y15.25
X35.139Y15.31
X35.209Y15.369
X35.279Y15.427
X35.35Y15.484
X35.422Y15.54
X35.494Y15.594
X35.568Y15.647
X35.643Y15.699
X35.719Y15.75
X35.795Y15.8
X35.872Y15.848
X35.951Y15.895
X36.03Y15.941
X36.109Y15.986
X36.19Y16.029
X36.271Y16.071
X36.353Y16.112
X36.436Y16.151
X36.52Y16.19
X36.604Y16.226
X36.689Y16.262
X36.774Y16.296
X36.861Y16.329
X36.947Y16.361
X37.035Y16.391
X37.123Y16.42
X37.212Y16.448
X37.301Y16.474
X37.391Y16.5
X37.481Y16.523
X37.572Y16.546
X37.663Y16.567
X37.755Y16.587
X37.847Y16.606
X37.94Y16.624
X38.033Y16.64
X38.127Y16.655
X38.221Y16.669
X38.316Y16.681
X38.411Y16.692
X38.507Y16.702
X38.603Y16.711
X38.699Y16.719
X38.796Y16.725
X38.894Y16.73
X38.991Y16.734
X39.089Y16.737
X39.188Y16.739
X39.288
X39.384
X39.48Y16.737
X39.575Y16.733
X39.67Y16.728
X39.764Y16.722
X39.858Y16.715
X39.952Y16.706
X40.045Y16.696
X40.138Y16.685
X40.231Y16.672
X40.323Y16.658
X40.414Y16.642
X40.505Y16.625
X40.596Y16.607
X40.686Y16.587
X40.776Y16.566
X40.865Y16.544
X40.953Y16.52
X41.041Y16.495
X41.128Y16.468
X41.215Y16.44
X41.301Y16.411
X41.386Y16.38
X41.471Y16.348
X41.555Y16.314
X41.639Y16.279
X41.722Y16.243
X41.804Y16.206
X41.885Y16.167
X41.965Y16.126
X42.045Y16.085
X42.124Y16.042
X42.202Y15.998
X42.279Y15.952
X42.355Y15.905
X42.431Y15.857
X42.505Y15.808
X42.579Y15.757
X42.651Y15.705
X42.723Y15.652
X42.793Y15.597
X42.863Y15.542
X42.932Y15.485
X42.999Y15.427
X43.066Y15.368
X43.131Y15.308
X43.196Y15.247
X43.259Y15.184
X43.321Y15.121
X43.382Y15.056
X43.442Y14.991
X43.501Y14.924
X43.559Y14.856
X43.616Y14.788
X43.671Y14.718
X43.726Y14.648
X43.779Y14.577
X43.831Y14.504
X43.882Y14.431
X43.931Y14.357
X43.98Y14.282
X44.027Y14.207
X44.073Y14.13
X44.118Y14.053
X44.162Y13.975
X44.205Y13.896
X44.246Y13.817
X44.286Y13.737
X44.325Y13.656
X44.363Y13.574
X44.4Y13.492
X44.436Y13.409
X44.47Y13.325
X44.504Y13.241
X44.536Y13.156
X44.567Y13.07
X44.597Y12.984
X44.625Y12.898
X44.653Y12.81
X44.679Y12.723
X44.705Y12.634
X44.729Y12.545
X44.752Y12.456
X44.774Y12.366
X44.795Y12.275
X44.815Y12.184
X44.834Y12.093
X44.851Y12.001
X44.868Y11.908
X44.883Y11.815
X44.897Y11.721
X44.911Y11.627
X44.923Y11.533
X44.934Y11.438
X44.944Y11.343
X44.953Y11.247
X44.961Y11.15
X44.968Y11.054
X44.974Y10.956
X44.978Y10.862
Y10.731
X44.965Y10.588
X44.938Y10.448
X44.898Y10.311
X44.845Y10.178
X44.78Y10.051
X44.709Y9.94
X45.439
X45.432Y10.017
X45.417Y10.181
X45.4Y10.342
X45.381Y10.502
X45.361Y10.659
X45.34Y10.814
X45.317Y10.966
X45.292Y11.116
X45.266Y11.264
X45.239Y11.41
X45.21Y11.553
X45.18Y11.694
X45.149Y11.833
X45.116Y11.97
X45.082Y12.104
X45.046Y12.236
X45.01Y12.366
X44.972Y12.494
X44.932Y12.619
X44.892Y12.742
X44.85Y12.863
X44.807Y12.982
X44.763Y13.098
X44.718Y13.213
X44.672Y13.325
X44.624Y13.435
X44.576Y13.543
X44.526Y13.648
X44.476Y13.752
X44.424Y13.853
X44.371Y13.953
X44.318Y14.05
X44.263Y14.145
X44.207Y14.238
X44.151Y14.33
X44.093Y14.419
X44.035Y14.506
X43.975Y14.592
X43.915Y14.675
X43.853Y14.757
X43.791Y14.836
X43.728Y14.914
X43.664Y14.99
X43.599Y15.064
X43.533Y15.137
X43.467Y15.208
X43.399Y15.277
X43.33Y15.344
X43.261Y15.41
X43.19Y15.474
X43.119Y15.536
X43.047Y15.597
X42.974Y15.656
X42.899Y15.714
X42.824Y15.77
X42.748Y15.825
X42.67Y15.878
X42.592Y15.93
X42.513Y15.98
X42.432Y16.029
X42.351Y16.076
X42.268Y16.122
X42.184Y16.166
X42.099Y16.209
X42.013Y16.251
X41.926Y16.291
X41.837Y16.33
X41.748Y16.367
X41.657Y16.403
X41.564Y16.438
X41.471Y16.471
X41.376Y16.502
X41.28Y16.533
X41.183Y16.561
X41.084Y16.589
X40.984Y16.615
X40.883Y16.639
X40.78Y16.662
X40.676Y16.683
X40.57Y16.703
X40.464Y16.721
X40.356Y16.738
X40.246Y16.753
X40.135Y16.767
X40.023Y16.779
X39.909Y16.79
X39.795Y16.799
X39.678Y16.806
X39.561Y16.812
X39.442Y16.816
X39.321Y16.819
X39.2
X39.074
X38.949Y16.816
X38.825Y16.811
X38.702Y16.805
X38.58Y16.796
X38.46Y16.786
X38.34Y16.774
X38.222Y16.761
X38.104Y16.746
X37.988Y16.729
X37.873Y16.71
X37.759Y16.689
X37.646Y16.667
X37.534Y16.644
X37.424Y16.618
X37.314Y16.591
X37.206Y16.563
X37.098Y16.532
X36.992Y16.501
X36.887Y16.467
X36.783Y16.432
X36.68Y16.396
X36.578Y16.358
X36.477Y16.318
X36.377Y16.277
X36.279Y16.235
X36.181Y16.191
X36.085Y16.145
X35.989Y16.098
X35.895Y16.05
X35.802Y16
X35.71Y15.948
X35.619Y15.896
X35.529Y15.841
X35.441Y15.786
X35.353Y15.729
X35.266Y15.67
X35.181Y15.61
X35.096Y15.549
X35.013Y15.486
X34.931Y15.422
X34.85Y15.356
X34.77Y15.289
X34.691Y15.221
X34.613Y15.151
X34.536Y15.08
X34.461Y15.007
X34.386Y14.933
X34.313Y14.858
X34.241Y14.781
X34.17Y14.703
X34.1Y14.623
X34.031Y14.542
X33.963Y14.46
X33.897Y14.376
X33.831Y14.291
X33.767Y14.205
X33.704Y14.117
X33.642Y14.027
X33.582Y13.937
X33.523Y13.845
X33.464Y13.751
X33.408Y13.656
X33.352Y13.56
X33.297Y13.463
X33.244Y13.364
X33.193Y13.263
X33.142Y13.162
X33.093Y13.058
X33.045Y12.954
X32.998Y12.848
X32.953Y12.741
X32.909Y12.632
X32.867Y12.522
X32.826Y12.411
X32.786Y12.298
X32.748Y12.184
X32.711Y12.069
X32.676Y11.952
X32.642Y11.834
X32.61Y11.715
X32.579Y11.594
G0Z10
X52.42Y1.5
G1Z-3.732F500
X52.98F1000
Y25.78
X52.42
Y1.5
G0Z10
X61.18
G1Z-3.732F500
X61.74F1000
Y25.78
X61.18
Y1.5
G0Z10
X69.576Y5.442
G1Z-3.732F500
X69.63Y5.332F1000
X69.685Y5.222
X69.741Y5.114
X69.799Y5.007
X69.859Y4.902
X69.92Y4.797
X69.983Y4.694
X70.047Y4.592
X70.113Y4.492
X70.18Y4.392
X70.248Y4.294
X70.318Y4.198
X70.39Y4.102
X70.463Y4.008
X70.537Y3.915
X70.613Y3.824
X70.69Y3.734
X70.769Y3.645
X70.849Y3.558
X70.931Y3.472
X71.013Y3.387
X71.097Y3.304
X71.183Y3.222
X71.27Y3.141
X71.358Y3.062
X71.448Y2.985
X71.539Y2.908
X71.631Y2.833
X71.724Y2.76
X71.819Y2.688
X71.915Y2.618
X72.013Y2.549
X72.111Y2.481
X72.211Y2.415
X72.313Y2.35
X72.415Y2.287
X72.519Y2.226
X72.624Y2.166
X72.73Y2.107
X72.838Y2.05
X72.947Y1.995
X73.057Y1.941
X73.168Y1.889
X73.28Y1.839
X73.394Y1.79
X73.509Y1.743
X73.625Y1.697
X73.742Y1.653
X73.861Y1.611
X73.981Y1.57
X74.102Y1.531
X74.224Y1.494
X74.347Y1.459
X74.471Y1.425
X74.597Y1.393
X74.724Y1.363
X74.852Y1.335
X74.981Y1.309
X75.111Y1.284
X75.242Y1.261
X75.375Y1.241
X75.508Y1.222
X75.643Y1.205
X75.779Y1.19
X75.915Y1.176
X76.053Y1.165
X76.193Y1.156
X76.333Y1.149
X76.474Y1.144
X76.616Y1.141
X76.76Y1.14
X76.912Y1.141
X77.063Y1.144
X77.212Y1.149
X77.361Y1.156
X77.508Y1.165
X77.654Y1.176
X77.799Y1.188
X77.942Y1.203
X78.084Y1.22
X78.225Y1.238
X78.364Y1.259
X78.502Y1.281
X78.639Y1.305
X78.775Y1.331
X78.909Y1.359
X79.042Y1.388
X79.173Y1.419
X79.303Y1.452
X79.432Y1.487
X79.559Y1.523
X79.685Y1.562
X79.81Y1.601
X79.933Y1.643
X80.055Y1.686
X80.176Y1.731
X80.295Y1.777
X80.412Y1.825
X80.529Y1.874
X80.644Y1.925
X80.757Y1.978
X80.869Y2.032
X80.98Y2.088
X81.089Y2.145
X81.197Y2.204
X81.304Y2.264
X81.409Y2.326
X81.513Y2.389
X81.615Y2.454
X81.716Y2.52
X81.815Y2.588
X81.913Y2.657
X82.01Y2.728
X82.105Y2.8
X82.199Y2.873
X82.291Y2.948
X82.382Y3.024
X82.472Y3.102
X82.56Y3.181
X82.646Y3.261
X82.731Y3.343
X82.815Y3.426
X82.897Y3.51
X82.978Y3.596
X83.058Y3.684
X83.136Y3.772
X83.212Y3.862
X83.287Y3.954
X83.36Y4.046
X83.432Y4.14
X83.503Y4.236
X83.572Y4.333
X83.64Y4.431
X83.706Y4.53
X83.77Y4.631
X83.833Y4.734
X83.895Y4.837
X83.955Y4.942
X84.013Y5.048
X84.07Y5.156
X84.125Y5.265
X84.179Y5.376
X84.231Y5.487
X84.281Y5.6
X84.33Y5.715
X84.377Y5.831
X84.423Y5.948
X84.466Y6.066
X84.509Y6.186
X84.549Y6.307
X84.588Y6.43
X84.625Y6.554
X84.66Y6.679
X84.694Y6.805
X84.726Y6.933
X84.756Y7.063
X84.784Y7.193
X84.81Y7.325
X84.835Y7.458
X84.858Y7.593
X84.878Y7.729
X84.897Y7.866
X84.914Y8.005
X84.93Y8.144
X84.943Y8.286
X84.954Y8.428
X84.963Y8.572
X84.97Y8.717
X84.975Y8.863
X84.978Y9.011
X84.979Y9.159
X84.978Y9.296
X84.975Y9.431
X84.97Y9.565
X84.963Y9.698
X84.954Y9.83
X84.942Y9.961
X84.929Y10.091
X84.914Y10.22
X84.897Y10.348
X84.878Y10.474
X84.857Y10.6
X84.834Y10.725
X84.81Y10.849
X84.783Y10.971
X84.755Y11.093
X84.724Y11.213
X84.692Y11.333
X84.659Y11.451
X84.623Y11.568
X84.586Y11.684
X84.547Y11.799
X84.506Y11.913
X84.463Y12.026
X84.419Y12.138
X84.373Y12.249
X84.326Y12.358
X84.276Y12.467
X84.225Y12.574
X84.173Y12.68
X84.119Y12.785
X84.063Y12.889
X84.005Y12.992
X83.946Y13.094
X83.886Y13.195
X83.823Y13.294
X83.76Y13.392
X83.694Y13.489
X83.627Y13.585
X83.559Y13.68
X83.489Y13.774
X83.417Y13.866
X83.344Y13.957
X83.27Y14.047
X83.194Y14.136
X83.116Y14.223
X83.037Y14.31
X82.956Y14.395
X82.874Y14.479
X82.791Y14.561
X82.706Y14.643
X82.62Y14.723
X82.532Y14.801
X82.442Y14.879
X82.352Y14.955
X82.26Y15.03
X82.166Y15.104
X82.071Y15.176
X81.975Y15.247
X81.877Y15.316
X81.778Y15.384
X81.677Y15.451
X81.575Y15.516
X81.472Y15.58
X81.367Y15.643
X81.261Y15.704
X81.154Y15.764
X81.045Y15.822
X80.935Y15.878
X80.824Y15.934
X80.711Y15.987
X80.597Y16.04
X80.482Y16.09
X80.366Y16.139
X80.248Y16.187
X80.129Y16.233
X80.008Y16.277
X79.886Y16.32
X79.764Y16.361
X79.639Y16.4
X79.514Y16.438
X79.387Y16.474
X79.259Y16.509
X79.13Y16.541
X79Y16.572
X78.869Y16.602
X78.736Y16.629
X78.602Y16.655
X78.467Y16.679
X78.331Y16.701
X78.194Y16.721
X78.055Y16.74
X77.916Y16.756
X77.775Y16.771
X77.633Y16.784
X77.49Y16.795
X77.346Y16.803
X77.201Y16.81
X77.055Y16.815
X76.908Y16.818
X76.76Y16.819
X76.621Y16.818
X76.484Y16.815
X76.348Y16.81
X76.212Y16.803
X76.078Y16.794
X75.944Y16.783
X75.811Y16.77
X75.678Y16.755
X75.547Y16.738
X75.417Y16.719
X75.287Y16.699
X75.159Y16.676
X75.031Y16.652
X74.904Y16.625
X74.778Y16.597
X74.653Y16.568
X74.529Y16.536
X74.406Y16.503
X74.284Y16.468
X74.163Y16.431
X74.043Y16.392
X73.924Y16.352
X73.806Y16.31
X73.69Y16.266
X73.574Y16.221
X73.459Y16.174
X73.345Y16.126
X73.232Y16.075
X73.121Y16.024
X73.01Y15.97
X72.901Y15.915
X72.793Y15.859
X72.686Y15.801
X72.58Y15.742
X72.475Y15.681
X72.372Y15.618
X72.269Y15.554
X72.168Y15.489
X72.068Y15.422
X71.969Y15.354
X71.872Y15.284
X71.776Y15.213
X71.681Y15.141
X71.587Y15.067
X71.495Y14.992
X71.404Y14.915
X71.314Y14.838
X71.225Y14.759
X71.138Y14.678
X71.053Y14.597
X70.968Y14.514
X70.885Y14.429
X70.804Y14.344
X70.723Y14.257
X70.645Y14.169
X70.567Y14.08
X70.491Y13.99
X70.417Y13.899
X70.344Y13.806
X70.273Y13.713
X70.202Y13.618
X70.134Y13.522
X70.067Y13.425
X70.002Y13.327
X69.938Y13.227
X69.875Y13.127
X69.815Y13.026
X69.755Y12.923
X69.698Y12.82
X69.642Y12.716
X69.587Y12.61
X69.535Y12.504
X69.484Y12.396
X69.434Y12.288
X69.387Y12.179
X69.34Y12.068
X69.296Y11.957
X69.254Y11.845
X69.213Y11.732
X69.173Y11.618
X69.136Y11.503
X69.1Y11.387
X69.067Y11.27
X69.034Y11.153
X69.004Y11.034
X68.976Y10.915
X68.949Y10.795
X68.925Y10.674
X68.902Y10.552
X68.881Y10.43
X68.862Y10.306
X68.845Y10.182
X68.83Y10.057
X68.816Y9.931
X68.805Y9.804
X68.796Y9.677
X68.789Y9.549
X68.784Y9.42
X68.781Y9.29
X68.78Y9.159
X68.781Y9.016
X68.784Y8.873
X68.789Y8.732
X68.796Y8.591
X68.805Y8.452
X68.816Y8.314
X68.829Y8.176
X68.844Y8.04
X68.861Y7.905
X68.88Y7.771
X68.9Y7.638
X68.923Y7.506
X68.947Y7.376
X68.974Y7.246
X69.002Y7.118
X69.032Y6.99
X69.063Y6.864
X69.097Y6.739
X69.132Y6.616
X69.169Y6.493
X69.207Y6.371
X69.248Y6.251
X69.29Y6.132
X69.333Y6.014
X69.378Y5.897
X69.425Y5.782
X69.474Y5.667
X69.524Y5.554
X69.576Y5.442
X70.1Y5.626
X70.055Y5.737
X70.01Y5.848
X69.967Y5.96
X69.926Y6.074
X69.887Y6.188
X69.849Y6.303
X69.812Y6.419
X69.777Y6.536
X69.744Y6.653
X69.712Y6.771
X69.682Y6.891
X69.654Y7.011
X69.627Y7.132
X69.602Y7.254
X69.578Y7.376
X69.557Y7.5
X69.536Y7.624
X69.518Y7.748
X69.5Y7.874
X69.485Y8
X69.471Y8.127
X69.459Y8.255
X69.448Y8.383
X69.44Y8.512
X69.432Y8.642
X69.427Y8.772
X69.423Y8.903
X69.42Y9.035
Y9.169
X69.421Y9.293
X69.423Y9.416
X69.428Y9.54
X69.434Y9.663
X69.442Y9.785
X69.452Y9.907
X69.463Y10.028
X69.477Y10.149
X69.492Y10.269
X69.508Y10.388
X69.527Y10.507
X69.547Y10.625
X69.568Y10.743
X69.592Y10.86
X69.617Y10.976
X69.644Y11.091
X69.672Y11.206
X69.703Y11.32
X69.734Y11.434
X69.768Y11.546
X69.803Y11.658
X69.84Y11.769
X69.878Y11.879
X69.918Y11.988
X69.96Y12.097
X70.003Y12.204
X70.048Y12.311
X70.094Y12.417
X70.142Y12.522
X70.191Y12.626
X70.242Y12.729
X70.295Y12.831
X70.349Y12.932
X70.404Y13.032
X70.462Y13.131
X70.52Y13.229
X70.58Y13.326
X70.642Y13.422
X70.705Y13.517
X70.769Y13.61
X70.835Y13.703
X70.902Y13.794
X70.971Y13.884
X71.041Y13.973
X71.113Y14.061
X71.186Y14.148
X71.26Y14.233
X71.336Y14.318
X71.413Y14.4
X71.491Y14.482
X71.57Y14.562
X71.651Y14.641
X71.733Y14.719
X71.817Y14.795
X71.901Y14.871
X71.987Y14.944
X72.074Y15.016
X72.163Y15.087
X72.252Y15.157
X72.343Y15.225
X72.435Y15.291
X72.528Y15.356
X72.622Y15.42
X72.717Y15.482
X72.813Y15.542
X72.911Y15.601
X73.009Y15.659
X73.108Y15.715
X73.209Y15.769
X73.31Y15.822
X73.413Y15.873
X73.516Y15.923
X73.62Y15.971
X73.726Y16.017
X73.832Y16.062
X73.939Y16.105
X74.047Y16.147
X74.156Y16.186
X74.265Y16.224
X74.376Y16.261
X74.487Y16.295
X74.599Y16.328
X74.712Y16.36
X74.825Y16.389
X74.94Y16.417
X75.055Y16.443
X75.17Y16.467
X75.287Y16.49
X75.404Y16.51
X75.521Y16.529
X75.64Y16.547
X75.759Y16.562
X75.878Y16.575
X75.998Y16.587
X76.119Y16.597
X76.24Y16.605
X76.361Y16.612
X76.482Y16.616
X76.606Y16.619
X76.728
X76.856Y16.618
X76.983Y16.616
X77.11Y16.611
X77.237Y16.605
X77.362Y16.596
X77.487Y16.586
X77.612Y16.574
X77.736Y16.561
X77.859Y16.545
X77.982Y16.528
X78.104Y16.509
X78.225Y16.489
X78.346Y16.466
X78.466Y16.442
X78.585Y16.416
X78.704Y16.389
X78.822Y16.36
X78.939Y16.329
X79.055Y16.296
X79.17Y16.261
X79.285Y16.225
X79.399Y16.187
X79.511Y16.148
X79.623Y16.107
X79.735Y16.064
X79.845Y16.02
X79.954Y15.974
X80.063Y15.926
X80.17Y15.877
X80.276Y15.826
X80.382Y15.773
X80.486Y15.719
X80.59Y15.663
X80.692Y15.606
X80.793Y15.547
X80.894Y15.487
X80.993Y15.425
X81.091Y15.362
X81.187Y15.297
X81.283Y15.231
X81.378Y15.163
X81.471Y15.093
X81.563Y15.023
X81.654Y14.951
X81.744Y14.877
X81.832Y14.802
X81.919Y14.725
X82.005Y14.648
X82.089Y14.568
X82.173Y14.488
X82.254Y14.406
X82.335Y14.323
X82.414Y14.238
X82.492Y14.152
X82.568Y14.065
X82.643Y13.977
X82.716Y13.887
X82.788Y13.796
X82.859Y13.705
X82.928Y13.611
X82.995Y13.517
X83.061Y13.421
X83.126Y13.325
X83.189Y13.227
X83.25Y13.128
X83.31Y13.028
X83.369Y12.927
X83.425Y12.825
X83.48Y12.721
X83.534Y12.617
X83.586Y12.512
X83.636Y12.406
X83.685Y12.299
X83.732Y12.191
X83.777Y12.082
X83.82Y11.972
X83.862Y11.861
X83.902Y11.749
X83.941Y11.637
X83.978Y11.524
X84.013Y11.41
X84.046Y11.294
X84.077Y11.179
X84.107Y11.062
X84.135Y10.945
X84.162Y10.827
X84.186Y10.709
X84.209Y10.589
X84.23Y10.469
X84.249Y10.349
X84.266Y10.227
X84.281Y10.105
X84.295Y9.983
X84.307Y9.86
X84.317Y9.736
X84.325Y9.612
X84.332Y9.487
X84.336Y9.362
X84.339Y9.236
Y9.112
Y8.978
X84.336Y8.844
X84.332Y8.711
X84.326Y8.579
X84.318Y8.447
X84.309Y8.316
X84.298Y8.186
X84.286Y8.057
X84.272Y7.928
X84.256Y7.8
X84.239Y7.673
X84.22Y7.546
X84.199Y7.421
X84.176Y7.296
X84.152Y7.172
X84.126Y7.049
X84.099Y6.927
X84.07Y6.805
X84.039Y6.685
X84.006Y6.565
X83.972Y6.446
X83.936Y6.328
X83.899Y6.211
X83.859Y6.095
X83.818Y5.98
X83.776Y5.866
X83.731Y5.753
X83.685Y5.64
X83.638Y5.529
X83.588Y5.419
X83.537Y5.31
X83.484Y5.202
X83.43Y5.095
X83.374Y4.99
X83.316Y4.885
X83.256Y4.782
X83.195Y4.679
X83.133Y4.578
X83.068Y4.478
X83.002Y4.38
X82.935Y4.283
X82.865Y4.187
X82.794Y4.092
X82.722Y3.999
X82.648Y3.907
X82.572Y3.816
X82.495Y3.727
X82.417Y3.639
X82.336Y3.553
X82.255Y3.468
X82.172Y3.385
X82.087Y3.303
X82.001Y3.223
X81.913Y3.144
X81.825Y3.067
X81.734Y2.991
X81.643Y2.917
X81.55Y2.845
X81.455Y2.774
X81.36Y2.705
X81.263Y2.637
X81.165Y2.572
X81.066Y2.507
X80.965Y2.445
X80.864Y2.384
X80.761Y2.325
X80.657Y2.267
X80.552Y2.212
X80.445Y2.158
X80.338Y2.105
X80.23Y2.055
X80.12Y2.006
X80.01Y1.959
X79.899Y1.913
X79.786Y1.87
X79.673Y1.828
X79.559Y1.788
X79.444Y1.749
X79.328Y1.713
X79.211Y1.678
X79.093Y1.644
X78.975Y1.613
X78.855Y1.583
X78.735Y1.555
X78.614Y1.529
X78.492Y1.504
X78.37Y1.481
X78.246Y1.46
X78.122Y1.441
X77.997Y1.423
X77.872Y1.407
X77.746Y1.393
X77.619Y1.38
X77.491Y1.369
X77.363Y1.36
X77.234Y1.353
X77.104Y1.347
X76.974Y1.343
X76.843Y1.34
X76.71
X76.585Y1.341
X76.461Y1.343
X76.337Y1.348
X76.213Y1.355
X76.09Y1.363
X75.968Y1.373
X75.846Y1.385
X75.725Y1.399
X75.604Y1.415
X75.484Y1.433
X75.365Y1.452
X75.246Y1.473
X75.128Y1.496
X75.011Y1.521
X74.895Y1.548
X74.779Y1.576
X74.664Y1.607
X74.549Y1.639
X74.436Y1.673
X74.323Y1.708
X74.211Y1.746
X74.1Y1.785
X73.99Y1.826
X73.881Y1.869
X73.772Y1.913
X73.665Y1.96
X73.558Y2.008
X73.453Y2.058
X73.348Y2.109
X73.245Y2.162
X73.142Y2.217
X73.041Y2.274
X72.941Y2.332
X72.842Y2.392
X72.744Y2.454
X72.647Y2.517
X72.551Y2.582
X72.456Y2.648
X72.363Y2.716
X72.271Y2.786
X72.18Y2.857
X72.09Y2.93
X72.002Y3.004
X71.915Y3.08
X71.829Y3.157
X71.744Y3.236
X71.661Y3.316
X71.58Y3.397
X71.499Y3.481
X71.42Y3.565
X71.342Y3.651
X71.266Y3.738
X71.191Y3.826
X71.118Y3.916
X71.046Y4.007
X70.976Y4.1
X70.907Y4.193
X70.839Y4.288
X70.773Y4.384
X70.709Y4.482
X70.646Y4.58
X70.584Y4.68
X70.524Y4.781
X70.466Y4.883
X70.409Y4.986
X70.354Y5.09
X70.3Y5.195
X70.248Y5.301
X70.197Y5.409
X70.148Y5.517
X70.1Y5.626
G0Z10
 
