(Created with grbl post processor 2024/12/13 12:46)
G21
(G-code Generated with Fabex and NC library)
G17G90
(Tool: D = 3.0 mm  type END flutes 2)
S12000M03
G00 Z10.0

G0X0Y0Z10
X-101.01Y-9.967
G1Z-1F500
X-101.014Y-9.93F1000
X-101.377Y-4.998
X-101.379Y-4.962
X-101.501Y-0.018
Y0.018
X-101.379Y4.962
X-101.377Y4.998
X-101.014Y9.93
X-101.01Y9.967
X-100.405Y14.875
X-100.399Y14.911
X-99.554Y19.783
X-99.547Y19.819
X-98.463Y24.644
X-98.454Y24.68
X-97.135Y29.446
X-97.125Y29.481
X-95.573Y34.177
X-95.561Y34.212
X-93.781Y38.825
X-93.767Y38.859
X-91.763Y43.38
X-91.747Y43.413
X-89.524Y47.83
X-89.507Y47.863
X-87.069Y52.166
X-87.05Y52.197
X-84.405Y56.375
X-84.384Y56.406
X-81.537Y60.449
X-81.515Y60.478
X-78.473Y64.377
X-78.449Y64.405
X-75.219Y68.15
X-75.194Y68.177
X-71.785Y71.759
X-71.759Y71.785
X-68.177Y75.194
X-68.15Y75.219
X-64.405Y78.449
X-64.377Y78.473
X-60.478Y81.515
X-60.449Y81.537
X-56.406Y84.384
X-56.375Y84.405
X-52.197Y87.05
X-52.166Y87.069
X-47.863Y89.507
X-47.83Y89.524
X-43.413Y91.747
X-43.38Y91.763
X-38.859Y93.767
X-38.825Y93.781
X-34.212Y95.561
X-34.177Y95.573
X-29.481Y97.125
X-29.446Y97.135
X-24.68Y98.454
X-24.644Y98.463
X-19.819Y99.547
X-19.783Y99.554
X-14.911Y100.399
X-14.875Y100.405
X-9.967Y101.01
X-9.93Y101.014
X-4.998Y101.377
X-4.962Y101.379
X-0.018Y101.501
X0.018
X4.962Y101.379
X4.998Y101.377
X9.93Y101.014
X9.967Y101.01
X14.875Y100.405
X14.911Y100.399
X19.783Y99.554
X19.819Y99.547
X24.644Y98.463
X24.68Y98.454
X29.446Y97.135
X29.481Y97.125
X34.177Y95.573
X34.212Y95.561
X38.825Y93.781
X38.859Y93.767
X43.38Y91.763
X43.413Y91.747
X47.83Y89.524
X47.863Y89.507
X52.166Y87.069
X52.197Y87.05
X56.375Y84.405
X56.406Y84.384
X60.449Y81.537
X60.478Y81.515
X64.377Y78.473
X64.405Y78.449
X68.15Y75.219
X68.177Y75.194
X71.759Y71.785
X71.785Y71.759
X75.194Y68.177
X75.219Y68.15
X78.449Y64.405
X78.473Y64.377
X81.515Y60.478
X81.537Y60.449
X84.384Y56.406
X84.405Y56.375
X87.05Y52.197
X87.069Y52.166
X89.507Y47.863
X89.524Y47.83
X91.747Y43.413
X91.763Y43.38
X93.767Y38.859
X93.781Y38.825
X95.561Y34.212
X95.573Y34.177
X97.125Y29.481
X97.135Y29.446
X98.454Y24.68
X98.463Y24.644
X99.547Y19.819
X99.554Y19.783
X100.399Y14.911
X100.405Y14.875
X101.01Y9.967
X101.014Y9.93
X101.377Y4.998
X101.379Y4.962
X101.501Y0.018
Y-0.018
X101.379Y-4.962
X101.377Y-4.998
X101.014Y-9.93
X101.01Y-9.967
X100.405Y-14.875
X100.399Y-14.911
X99.554Y-19.783
X99.547Y-19.819
X98.463Y-24.644
X98.454Y-24.68
X97.135Y-29.446
X97.125Y-29.481
X95.573Y-34.177
X95.561Y-34.212
X93.781Y-38.825
X93.767Y-38.859
X91.763Y-43.38
X91.747Y-43.413
X89.524Y-47.83
X89.507Y-47.863
X87.069Y-52.166
X87.05Y-52.197
X84.405Y-56.375
X84.384Y-56.406
X81.537Y-60.449
X81.515Y-60.478
X78.473Y-64.377
X78.449Y-64.405
X75.219Y-68.15
X75.194Y-68.177
X71.785Y-71.759
X71.759Y-71.785
X68.177Y-75.194
X68.15Y-75.219
X64.405Y-78.449
X64.377Y-78.473
X60.478Y-81.515
X60.449Y-81.537
X56.406Y-84.384
X56.375Y-84.405
X52.197Y-87.05
X52.166Y-87.069
X47.863Y-89.507
X47.83Y-89.524
X43.413Y-91.747
X43.38Y-91.763
X38.859Y-93.767
X38.825Y-93.781
X34.212Y-95.561
X34.177Y-95.573
X29.481Y-97.125
X29.446Y-97.135
X24.68Y-98.454
X24.644Y-98.463
X19.819Y-99.547
X19.783Y-99.554
X14.911Y-100.399
X14.875Y-100.405
X9.967Y-101.01
X9.93Y-101.014
X4.998Y-101.377
X4.962Y-101.379
X0.018Y-101.501
X-0.018
X-4.962Y-101.379
X-4.998Y-101.377
X-9.93Y-101.014
X-9.967Y-101.01
X-14.875Y-100.405
X-14.911Y-100.399
X-19.783Y-99.554
X-19.819Y-99.547
X-24.644Y-98.463
X-24.68Y-98.454
X-29.446Y-97.135
X-29.481Y-97.125
X-34.177Y-95.573
X-34.212Y-95.561
X-38.825Y-93.781
X-38.859Y-93.767
X-43.38Y-91.763
X-43.413Y-91.747
X-47.83Y-89.524
X-47.863Y-89.507
X-52.166Y-87.069
X-52.197Y-87.05
X-56.375Y-84.405
X-56.406Y-84.384
X-60.449Y-81.537
X-60.478Y-81.515
X-64.377Y-78.473
X-64.405Y-78.449
X-68.15Y-75.219
X-68.177Y-75.194
X-71.759Y-71.785
X-71.785Y-71.759
X-75.194Y-68.177
X-75.219Y-68.15
X-78.449Y-64.405
X-78.473Y-64.377
X-81.515Y-60.478
X-81.537Y-60.449
X-84.384Y-56.406
X-84.405Y-56.375
X-87.05Y-52.197
X-87.069Y-52.166
X-89.507Y-47.863
X-89.524Y-47.83
X-91.747Y-43.413
X-91.763Y-43.38
X-93.767Y-38.859
X-93.781Y-38.825
X-95.561Y-34.212
X-95.573Y-34.177
X-97.125Y-29.481
X-97.135Y-29.446
X-98.454Y-24.68
X-98.463Y-24.644
X-99.547Y-19.819
X-99.554Y-19.783
X-100.399Y-14.911
X-100.405Y-14.875
X-101.01Y-9.967
Z-2F500
X-101.014Y-9.93F1000
X-101.377Y-4.998
X-101.379Y-4.962
X-101.501Y-0.018
Y0.018
X-101.379Y4.962
X-101.377Y4.998
X-101.014Y9.93
X-101.01Y9.967
X-100.405Y14.875
X-100.399Y14.911
X-99.554Y19.783
X-99.547Y19.819
X-98.463Y24.644
X-98.454Y24.68
X-97.135Y29.446
X-97.125Y29.481
X-95.573Y34.177
X-95.561Y34.212
X-93.781Y38.825
X-93.767Y38.859
X-91.763Y43.38
X-91.747Y43.413
X-89.524Y47.83
X-89.507Y47.863
X-87.069Y52.166
X-87.05Y52.197
X-84.405Y56.375
X-84.384Y56.406
X-81.537Y60.449
X-81.515Y60.478
X-78.473Y64.377
X-78.449Y64.405
X-75.219Y68.15
X-75.194Y68.177
X-71.785Y71.759
X-71.759Y71.785
X-68.177Y75.194
X-68.15Y75.219
X-64.405Y78.449
X-64.377Y78.473
X-60.478Y81.515
X-60.449Y81.537
X-56.406Y84.384
X-56.375Y84.405
X-52.197Y87.05
X-52.166Y87.069
X-47.863Y89.507
X-47.83Y89.524
X-43.413Y91.747
X-43.38Y91.763
X-38.859Y93.767
X-38.825Y93.781
X-34.212Y95.561
X-34.177Y95.573
X-29.481Y97.125
X-29.446Y97.135
X-24.68Y98.454
X-24.644Y98.463
X-19.819Y99.547
X-19.783Y99.554
X-14.911Y100.399
X-14.875Y100.405
X-9.967Y101.01
X-9.93Y101.014
X-4.998Y101.377
X-4.962Y101.379
X-0.018Y101.501
X0.018
X4.962Y101.379
X4.998Y101.377
X9.93Y101.014
X9.967Y101.01
X14.875Y100.405
X14.911Y100.399
X19.783Y99.554
X19.819Y99.547
X24.644Y98.463
X24.68Y98.454
X29.446Y97.135
X29.481Y97.125
X34.177Y95.573
X34.212Y95.561
X38.825Y93.781
X38.859Y93.767
X43.38Y91.763
X43.413Y91.747
X47.83Y89.524
X47.863Y89.507
X52.166Y87.069
X52.197Y87.05
X56.375Y84.405
X56.406Y84.384
X60.449Y81.537
X60.478Y81.515
X64.377Y78.473
X64.405Y78.449
X68.15Y75.219
X68.177Y75.194
X71.759Y71.785
X71.785Y71.759
X75.194Y68.177
X75.219Y68.15
X78.449Y64.405
X78.473Y64.377
X81.515Y60.478
X81.537Y60.449
X84.384Y56.406
X84.405Y56.375
X87.05Y52.197
X87.069Y52.166
X89.507Y47.863
X89.524Y47.83
X91.747Y43.413
X91.763Y43.38
X93.767Y38.859
X93.781Y38.825
X95.561Y34.212
X95.573Y34.177
X97.125Y29.481
X97.135Y29.446
X98.454Y24.68
X98.463Y24.644
X99.547Y19.819
X99.554Y19.783
X100.399Y14.911
X100.405Y14.875
X101.01Y9.967
X101.014Y9.93
X101.377Y4.998
X101.379Y4.962
X101.501Y0.018
Y-0.018
X101.379Y-4.962
X101.377Y-4.998
X101.014Y-9.93
X101.01Y-9.967
X100.405Y-14.875
X100.399Y-14.911
X99.554Y-19.783
X99.547Y-19.819
X98.463Y-24.644
X98.454Y-24.68
X97.135Y-29.446
X97.125Y-29.481
X95.573Y-34.177
X95.561Y-34.212
X93.781Y-38.825
X93.767Y-38.859
X91.763Y-43.38
X91.747Y-43.413
X89.524Y-47.83
X89.507Y-47.863
X87.069Y-52.166
X87.05Y-52.197
X84.405Y-56.375
X84.384Y-56.406
X81.537Y-60.449
X81.515Y-60.478
X78.473Y-64.377
X78.449Y-64.405
X75.219Y-68.15
X75.194Y-68.177
X71.785Y-71.759
X71.759Y-71.785
X68.177Y-75.194
X68.15Y-75.219
X64.405Y-78.449
X64.377Y-78.473
X60.478Y-81.515
X60.449Y-81.537
X56.406Y-84.384
X56.375Y-84.405
X52.197Y-87.05
X52.166Y-87.069
X47.863Y-89.507
X47.83Y-89.524
X43.413Y-91.747
X43.38Y-91.763
X38.859Y-93.767
X38.825Y-93.781
X34.212Y-95.561
X34.177Y-95.573
X29.481Y-97.125
X29.446Y-97.135
X24.68Y-98.454
X24.644Y-98.463
X19.819Y-99.547
X19.783Y-99.554
X14.911Y-100.399
X14.875Y-100.405
X9.967Y-101.01
X9.93Y-101.014
X4.998Y-101.377
X4.962Y-101.379
X0.018Y-101.501
X-0.018
X-4.962Y-101.379
X-4.998Y-101.377
X-9.93Y-101.014
X-9.967Y-101.01
X-14.875Y-100.405
X-14.911Y-100.399
X-19.783Y-99.554
X-19.819Y-99.547
X-24.644Y-98.463
X-24.68Y-98.454
X-29.446Y-97.135
X-29.481Y-97.125
X-34.177Y-95.573
X-34.212Y-95.561
X-38.825Y-93.781
X-38.859Y-93.767
X-43.38Y-91.763
X-43.413Y-91.747
X-47.83Y-89.524
X-47.863Y-89.507
X-52.166Y-87.069
X-52.197Y-87.05
X-56.375Y-84.405
X-56.406Y-84.384
X-60.449Y-81.537
X-60.478Y-81.515
X-64.377Y-78.473
X-64.405Y-78.449
X-68.15Y-75.219
X-68.177Y-75.194
X-71.759Y-71.785
X-71.785Y-71.759
X-75.194Y-68.177
X-75.219Y-68.15
X-78.449Y-64.405
X-78.473Y-64.377
X-81.515Y-60.478
X-81.537Y-60.449
X-84.384Y-56.406
X-84.405Y-56.375
X-87.05Y-52.197
X-87.069Y-52.166
X-89.507Y-47.863
X-89.524Y-47.83
X-91.747Y-43.413
X-91.763Y-43.38
X-93.767Y-38.859
X-93.781Y-38.825
X-95.561Y-34.212
X-95.573Y-34.177
X-97.125Y-29.481
X-97.135Y-29.446
X-98.454Y-24.68
X-98.463Y-24.644
X-99.547Y-19.819
X-99.554Y-19.783
X-100.399Y-14.911
X-100.405Y-14.875
X-101.01Y-9.967
Z-3F500
X-101.014Y-9.93F1000
X-101.377Y-4.998
X-101.379Y-4.962
X-101.501Y-0.018
Y0.018
X-101.379Y4.962
X-101.377Y4.998
X-101.014Y9.93
X-101.01Y9.967
X-100.405Y14.875
X-100.399Y14.911
X-99.554Y19.783
X-99.547Y19.819
X-98.463Y24.644
X-98.454Y24.68
X-97.135Y29.446
X-97.125Y29.481
X-95.573Y34.177
X-95.561Y34.212
X-93.781Y38.825
X-93.767Y38.859
X-91.763Y43.38
X-91.747Y43.413
X-89.524Y47.83
X-89.507Y47.863
X-87.069Y52.166
X-87.05Y52.197
X-84.405Y56.375
X-84.384Y56.406
X-81.537Y60.449
X-81.515Y60.478
X-78.473Y64.377
X-78.449Y64.405
X-75.219Y68.15
X-75.194Y68.177
X-71.785Y71.759
X-71.759Y71.785
X-68.177Y75.194
X-68.15Y75.219
X-64.405Y78.449
X-64.377Y78.473
X-60.478Y81.515
X-60.449Y81.537
X-56.406Y84.384
X-56.375Y84.405
X-52.197Y87.05
X-52.166Y87.069
X-47.863Y89.507
X-47.83Y89.524
X-43.413Y91.747
X-43.38Y91.763
X-38.859Y93.767
X-38.825Y93.781
X-34.212Y95.561
X-34.177Y95.573
X-29.481Y97.125
X-29.446Y97.135
X-24.68Y98.454
X-24.644Y98.463
X-19.819Y99.547
X-19.783Y99.554
X-14.911Y100.399
X-14.875Y100.405
X-9.967Y101.01
X-9.93Y101.014
X-4.998Y101.377
X-4.962Y101.379
X-0.018Y101.501
X0.018
X4.962Y101.379
X4.998Y101.377
X9.93Y101.014
X9.967Y101.01
X14.875Y100.405
X14.911Y100.399
X19.783Y99.554
X19.819Y99.547
X24.644Y98.463
X24.68Y98.454
X29.446Y97.135
X29.481Y97.125
X34.177Y95.573
X34.212Y95.561
X38.825Y93.781
X38.859Y93.767
X43.38Y91.763
X43.413Y91.747
X47.83Y89.524
X47.863Y89.507
X52.166Y87.069
X52.197Y87.05
X56.375Y84.405
X56.406Y84.384
X60.449Y81.537
X60.478Y81.515
X64.377Y78.473
X64.405Y78.449
X68.15Y75.219
X68.177Y75.194
X71.759Y71.785
X71.785Y71.759
X75.194Y68.177
X75.219Y68.15
X78.449Y64.405
X78.473Y64.377
X81.515Y60.478
X81.537Y60.449
X84.384Y56.406
X84.405Y56.375
X87.05Y52.197
X87.069Y52.166
X89.507Y47.863
X89.524Y47.83
X91.747Y43.413
X91.763Y43.38
X93.767Y38.859
X93.781Y38.825
X95.561Y34.212
X95.573Y34.177
X97.125Y29.481
X97.135Y29.446
X98.454Y24.68
X98.463Y24.644
X99.547Y19.819
X99.554Y19.783
X100.399Y14.911
X100.405Y14.875
X101.01Y9.967
X101.014Y9.93
X101.377Y4.998
X101.379Y4.962
X101.501Y0.018
Y-0.018
X101.379Y-4.962
X101.377Y-4.998
X101.014Y-9.93
X101.01Y-9.967
X100.405Y-14.875
X100.399Y-14.911
X99.554Y-19.783
X99.547Y-19.819
X98.463Y-24.644
X98.454Y-24.68
X97.135Y-29.446
X97.125Y-29.481
X95.573Y-34.177
X95.561Y-34.212
X93.781Y-38.825
X93.767Y-38.859
X91.763Y-43.38
X91.747Y-43.413
X89.524Y-47.83
X89.507Y-47.863
X87.069Y-52.166
X87.05Y-52.197
X84.405Y-56.375
X84.384Y-56.406
X81.537Y-60.449
X81.515Y-60.478
X78.473Y-64.377
X78.449Y-64.405
X75.219Y-68.15
X75.194Y-68.177
X71.785Y-71.759
X71.759Y-71.785
X68.177Y-75.194
X68.15Y-75.219
X64.405Y-78.449
X64.377Y-78.473
X60.478Y-81.515
X60.449Y-81.537
X56.406Y-84.384
X56.375Y-84.405
X52.197Y-87.05
X52.166Y-87.069
X47.863Y-89.507
X47.83Y-89.524
X43.413Y-91.747
X43.38Y-91.763
X38.859Y-93.767
X38.825Y-93.781
X34.212Y-95.561
X34.177Y-95.573
X29.481Y-97.125
X29.446Y-97.135
X24.68Y-98.454
X24.644Y-98.463
X19.819Y-99.547
X19.783Y-99.554
X14.911Y-100.399
X14.875Y-100.405
X9.967Y-101.01
X9.93Y-101.014
X4.998Y-101.377
X4.962Y-101.379
X0.018Y-101.501
X-0.018
X-4.962Y-101.379
X-4.998Y-101.377
X-9.93Y-101.014
X-9.967Y-101.01
X-14.875Y-100.405
X-14.911Y-100.399
X-19.783Y-99.554
X-19.819Y-99.547
X-24.644Y-98.463
X-24.68Y-98.454
X-29.446Y-97.135
X-29.481Y-97.125
X-34.177Y-95.573
X-34.212Y-95.561
X-38.825Y-93.781
X-38.859Y-93.767
X-43.38Y-91.763
X-43.413Y-91.747
X-47.83Y-89.524
X-47.863Y-89.507
X-52.166Y-87.069
X-52.197Y-87.05
X-56.375Y-84.405
X-56.406Y-84.384
X-60.449Y-81.537
X-60.478Y-81.515
X-64.377Y-78.473
X-64.405Y-78.449
X-68.15Y-75.219
X-68.177Y-75.194
X-71.759Y-71.785
X-71.785Y-71.759
X-75.194Y-68.177
X-75.219Y-68.15
X-78.449Y-64.405
X-78.473Y-64.377
X-81.515Y-60.478
X-81.537Y-60.449
X-84.384Y-56.406
X-84.405Y-56.375
X-87.05Y-52.197
X-87.069Y-52.166
X-89.507Y-47.863
X-89.524Y-47.83
X-91.747Y-43.413
X-91.763Y-43.38
X-93.767Y-38.859
X-93.781Y-38.825
X-95.561Y-34.212
X-95.573Y-34.177
X-97.125Y-29.481
X-97.135Y-29.446
X-98.454Y-24.68
X-98.463Y-24.644
X-99.547Y-19.819
X-99.554Y-19.783
X-100.399Y-14.911
X-100.405Y-14.875
X-101.01Y-9.967
Z-4F500
X-101.014Y-9.93F1000
X-101.377Y-4.998
X-101.379Y-4.962
X-101.501Y-0.018
Y0.018
X-101.379Y4.962
X-101.377Y4.998
X-101.014Y9.93
X-101.01Y9.967
X-100.405Y14.875
X-100.399Y14.911
X-99.554Y19.783
X-99.547Y19.819
X-98.463Y24.644
X-98.454Y24.68
X-97.135Y29.446
X-97.125Y29.481
X-95.573Y34.177
X-95.561Y34.212
X-93.781Y38.825
X-93.767Y38.859
X-91.763Y43.38
X-91.747Y43.413
X-89.524Y47.83
X-89.507Y47.863
X-87.069Y52.166
X-87.05Y52.197
X-84.405Y56.375
X-84.384Y56.406
X-81.537Y60.449
X-81.515Y60.478
X-78.473Y64.377
X-78.449Y64.405
X-75.219Y68.15
X-75.194Y68.177
X-71.785Y71.759
X-71.759Y71.785
X-68.177Y75.194
X-68.15Y75.219
X-64.405Y78.449
X-64.377Y78.473
X-60.478Y81.515
X-60.449Y81.537
X-56.406Y84.384
X-56.375Y84.405
X-52.197Y87.05
X-52.166Y87.069
X-47.863Y89.507
X-47.83Y89.524
X-43.413Y91.747
X-43.38Y91.763
X-38.859Y93.767
X-38.825Y93.781
X-34.212Y95.561
X-34.177Y95.573
X-29.481Y97.125
X-29.446Y97.135
X-24.68Y98.454
X-24.644Y98.463
X-19.819Y99.547
X-19.783Y99.554
X-14.911Y100.399
X-14.875Y100.405
X-9.967Y101.01
X-9.93Y101.014
X-4.998Y101.377
X-4.962Y101.379
X-0.018Y101.501
X0.018
X4.962Y101.379
X4.998Y101.377
X9.93Y101.014
X9.967Y101.01
X14.875Y100.405
X14.911Y100.399
X19.783Y99.554
X19.819Y99.547
X24.644Y98.463
X24.68Y98.454
X29.446Y97.135
X29.481Y97.125
X34.177Y95.573
X34.212Y95.561
X38.825Y93.781
X38.859Y93.767
X43.38Y91.763
X43.413Y91.747
X47.83Y89.524
X47.863Y89.507
X52.166Y87.069
X52.197Y87.05
X56.375Y84.405
X56.406Y84.384
X60.449Y81.537
X60.478Y81.515
X64.377Y78.473
X64.405Y78.449
X68.15Y75.219
X68.177Y75.194
X71.759Y71.785
X71.785Y71.759
X75.194Y68.177
X75.219Y68.15
X78.449Y64.405
X78.473Y64.377
X81.515Y60.478
X81.537Y60.449
X84.384Y56.406
X84.405Y56.375
X87.05Y52.197
X87.069Y52.166
X89.507Y47.863
X89.524Y47.83
X91.747Y43.413
X91.763Y43.38
X93.767Y38.859
X93.781Y38.825
X95.561Y34.212
X95.573Y34.177
X97.125Y29.481
X97.135Y29.446
X98.454Y24.68
X98.463Y24.644
X99.547Y19.819
X99.554Y19.783
X100.399Y14.911
X100.405Y14.875
X101.01Y9.967
X101.014Y9.93
X101.377Y4.998
X101.379Y4.962
X101.501Y0.018
Y-0.018
X101.379Y-4.962
X101.377Y-4.998
X101.014Y-9.93
X101.01Y-9.967
X100.405Y-14.875
X100.399Y-14.911
X99.554Y-19.783
X99.547Y-19.819
X98.463Y-24.644
X98.454Y-24.68
X97.135Y-29.446
X97.125Y-29.481
X95.573Y-34.177
X95.561Y-34.212
X93.781Y-38.825
X93.767Y-38.859
X91.763Y-43.38
X91.747Y-43.413
X89.524Y-47.83
X89.507Y-47.863
X87.069Y-52.166
X87.05Y-52.197
X84.405Y-56.375
X84.384Y-56.406
X81.537Y-60.449
X81.515Y-60.478
X78.473Y-64.377
X78.449Y-64.405
X75.219Y-68.15
X75.194Y-68.177
X71.785Y-71.759
X71.759Y-71.785
X68.177Y-75.194
X68.15Y-75.219
X64.405Y-78.449
X64.377Y-78.473
X60.478Y-81.515
X60.449Y-81.537
X56.406Y-84.384
X56.375Y-84.405
X52.197Y-87.05
X52.166Y-87.069
X47.863Y-89.507
X47.83Y-89.524
X43.413Y-91.747
X43.38Y-91.763
X38.859Y-93.767
X38.825Y-93.781
X34.212Y-95.561
X34.177Y-95.573
X29.481Y-97.125
X29.446Y-97.135
X24.68Y-98.454
X24.644Y-98.463
X19.819Y-99.547
X19.783Y-99.554
X14.911Y-100.399
X14.875Y-100.405
X9.967Y-101.01
X9.93Y-101.014
X4.998Y-101.377
X4.962Y-101.379
X0.018Y-101.501
X-0.018
X-4.962Y-101.379
X-4.998Y-101.377
X-9.93Y-101.014
X-9.967Y-101.01
X-14.875Y-100.405
X-14.911Y-100.399
X-19.783Y-99.554
X-19.819Y-99.547
X-24.644Y-98.463
X-24.68Y-98.454
X-29.446Y-97.135
X-29.481Y-97.125
X-34.177Y-95.573
X-34.212Y-95.561
X-38.825Y-93.781
X-38.859Y-93.767
X-43.38Y-91.763
X-43.413Y-91.747
X-47.83Y-89.524
X-47.863Y-89.507
X-52.166Y-87.069
X-52.197Y-87.05
X-56.375Y-84.405
X-56.406Y-84.384
X-60.449Y-81.537
X-60.478Y-81.515
X-64.377Y-78.473
X-64.405Y-78.449
X-68.15Y-75.219
X-68.177Y-75.194
X-71.759Y-71.785
X-71.785Y-71.759
X-75.194Y-68.177
X-75.219Y-68.15
X-78.449Y-64.405
X-78.473Y-64.377
X-81.515Y-60.478
X-81.537Y-60.449
X-84.384Y-56.406
X-84.405Y-56.375
X-87.05Y-52.197
X-87.069Y-52.166
X-89.507Y-47.863
X-89.524Y-47.83
X-91.747Y-43.413
X-91.763Y-43.38
X-93.767Y-38.859
X-93.781Y-38.825
X-95.561Y-34.212
X-95.573Y-34.177
X-97.125Y-29.481
X-97.135Y-29.446
X-98.454Y-24.68
X-98.463Y-24.644
X-99.547Y-19.819
X-99.554Y-19.783
X-100.399Y-14.911
X-100.405Y-14.875
X-101.01Y-9.967
Z-5F500
X-101.014Y-9.93F1000
X-101.377Y-4.998
X-101.379Y-4.962
X-101.501Y-0.018
Y0.018
X-101.379Y4.962
X-101.377Y4.998
X-101.014Y9.93
X-101.01Y9.967
X-100.405Y14.875
X-100.399Y14.911
X-99.554Y19.783
X-99.547Y19.819
X-98.463Y24.644
X-98.454Y24.68
X-97.135Y29.446
X-97.125Y29.481
X-95.573Y34.177
X-95.561Y34.212
X-93.781Y38.825
X-93.767Y38.859
X-91.763Y43.38
X-91.747Y43.413
X-89.524Y47.83
X-89.507Y47.863
X-87.069Y52.166
X-87.05Y52.197
X-84.405Y56.375
X-84.384Y56.406
X-81.537Y60.449
X-81.515Y60.478
X-78.473Y64.377
X-78.449Y64.405
X-75.219Y68.15
X-75.194Y68.177
X-71.785Y71.759
X-71.759Y71.785
X-68.177Y75.194
X-68.15Y75.219
X-64.405Y78.449
X-64.377Y78.473
X-60.478Y81.515
X-60.449Y81.537
X-56.406Y84.384
X-56.375Y84.405
X-52.197Y87.05
X-52.166Y87.069
X-47.863Y89.507
X-47.83Y89.524
X-43.413Y91.747
X-43.38Y91.763
X-38.859Y93.767
X-38.825Y93.781
X-34.212Y95.561
X-34.177Y95.573
X-29.481Y97.125
X-29.446Y97.135
X-24.68Y98.454
X-24.644Y98.463
X-19.819Y99.547
X-19.783Y99.554
X-14.911Y100.399
X-14.875Y100.405
X-9.967Y101.01
X-9.93Y101.014
X-4.998Y101.377
X-4.962Y101.379
X-0.018Y101.501
X0.018
X4.962Y101.379
X4.998Y101.377
X9.93Y101.014
X9.967Y101.01
X14.875Y100.405
X14.911Y100.399
X19.783Y99.554
X19.819Y99.547
X24.644Y98.463
X24.68Y98.454
X29.446Y97.135
X29.481Y97.125
X34.177Y95.573
X34.212Y95.561
X38.825Y93.781
X38.859Y93.767
X43.38Y91.763
X43.413Y91.747
X47.83Y89.524
X47.863Y89.507
X52.166Y87.069
X52.197Y87.05
X56.375Y84.405
X56.406Y84.384
X60.449Y81.537
X60.478Y81.515
X64.377Y78.473
X64.405Y78.449
X68.15Y75.219
X68.177Y75.194
X71.759Y71.785
X71.785Y71.759
X75.194Y68.177
X75.219Y68.15
X78.449Y64.405
X78.473Y64.377
X81.515Y60.478
X81.537Y60.449
X84.384Y56.406
X84.405Y56.375
X87.05Y52.197
X87.069Y52.166
X89.507Y47.863
X89.524Y47.83
X91.747Y43.413
X91.763Y43.38
X93.767Y38.859
X93.781Y38.825
X95.561Y34.212
X95.573Y34.177
X97.125Y29.481
X97.135Y29.446
X98.454Y24.68
X98.463Y24.644
X99.547Y19.819
X99.554Y19.783
X100.399Y14.911
X100.405Y14.875
X101.01Y9.967
X101.014Y9.93
X101.377Y4.998
X101.379Y4.962
X101.501Y0.018
Y-0.018
X101.379Y-4.962
X101.377Y-4.998
X101.014Y-9.93
X101.01Y-9.967
X100.405Y-14.875
X100.399Y-14.911
X99.554Y-19.783
X99.547Y-19.819
X98.463Y-24.644
X98.454Y-24.68
X97.135Y-29.446
X97.125Y-29.481
X95.573Y-34.177
X95.561Y-34.212
X93.781Y-38.825
X93.767Y-38.859
X91.763Y-43.38
X91.747Y-43.413
X89.524Y-47.83
X89.507Y-47.863
X87.069Y-52.166
X87.05Y-52.197
X84.405Y-56.375
X84.384Y-56.406
X81.537Y-60.449
X81.515Y-60.478
X78.473Y-64.377
X78.449Y-64.405
X75.219Y-68.15
X75.194Y-68.177
X71.785Y-71.759
X71.759Y-71.785
X68.177Y-75.194
X68.15Y-75.219
X64.405Y-78.449
X64.377Y-78.473
X60.478Y-81.515
X60.449Y-81.537
X56.406Y-84.384
X56.375Y-84.405
X52.197Y-87.05
X52.166Y-87.069
X47.863Y-89.507
X47.83Y-89.524
X43.413Y-91.747
X43.38Y-91.763
X38.859Y-93.767
X38.825Y-93.781
X34.212Y-95.561
X34.177Y-95.573
X29.481Y-97.125
X29.446Y-97.135
X24.68Y-98.454
X24.644Y-98.463
X19.819Y-99.547
X19.783Y-99.554
X14.911Y-100.399
X14.875Y-100.405
X9.967Y-101.01
X9.93Y-101.014
X4.998Y-101.377
X4.962Y-101.379
X0.018Y-101.501
X-0.018
X-4.962Y-101.379
X-4.998Y-101.377
X-9.93Y-101.014
X-9.967Y-101.01
X-14.875Y-100.405
X-14.911Y-100.399
X-19.783Y-99.554
X-19.819Y-99.547
X-24.644Y-98.463
X-24.68Y-98.454
X-29.446Y-97.135
X-29.481Y-97.125
X-34.177Y-95.573
X-34.212Y-95.561
X-38.825Y-93.781
X-38.859Y-93.767
X-43.38Y-91.763
X-43.413Y-91.747
X-47.83Y-89.524
X-47.863Y-89.507
X-52.166Y-87.069
X-52.197Y-87.05
X-56.375Y-84.405
X-56.406Y-84.384
X-60.449Y-81.537
X-60.478Y-81.515
X-64.377Y-78.473
X-64.405Y-78.449
X-68.15Y-75.219
X-68.177Y-75.194
X-71.759Y-71.785
X-71.785Y-71.759
X-75.194Y-68.177
X-75.219Y-68.15
X-78.449Y-64.405
X-78.473Y-64.377
X-81.515Y-60.478
X-81.537Y-60.449
X-84.384Y-56.406
X-84.405Y-56.375
X-87.05Y-52.197
X-87.069Y-52.166
X-89.507Y-47.863
X-89.524Y-47.83
X-91.747Y-43.413
X-91.763Y-43.38
X-93.767Y-38.859
X-93.781Y-38.825
X-95.561Y-34.212
X-95.573Y-34.177
X-97.125Y-29.481
X-97.135Y-29.446
X-98.454Y-24.68
X-98.463Y-24.644
X-99.547Y-19.819
X-99.554Y-19.783
X-100.399Y-14.911
X-100.405Y-14.875
X-101.01Y-9.967
Z-6F500
X-101.014Y-9.93F1000
X-101.377Y-4.998
X-101.379Y-4.962
X-101.501Y-0.018
Y0.018
X-101.379Y4.962
X-101.377Y4.998
X-101.014Y9.93
X-101.01Y9.967
X-100.405Y14.875
X-100.399Y14.911
X-99.554Y19.783
X-99.547Y19.819
X-98.463Y24.644
X-98.454Y24.68
X-97.135Y29.446
X-97.125Y29.481
X-95.573Y34.177
X-95.561Y34.212
X-93.781Y38.825
X-93.767Y38.859
X-91.763Y43.38
X-91.747Y43.413
X-89.524Y47.83
X-89.507Y47.863
X-87.069Y52.166
X-87.05Y52.197
X-84.405Y56.375
X-84.384Y56.406
X-81.537Y60.449
X-81.515Y60.478
X-78.473Y64.377
X-78.449Y64.405
X-75.219Y68.15
X-75.194Y68.177
X-71.785Y71.759
X-71.759Y71.785
X-68.177Y75.194
X-68.15Y75.219
X-64.405Y78.449
X-64.377Y78.473
X-60.478Y81.515
X-60.449Y81.537
X-56.406Y84.384
X-56.375Y84.405
X-52.197Y87.05
X-52.166Y87.069
X-47.863Y89.507
X-47.83Y89.524
X-43.413Y91.747
X-43.38Y91.763
X-38.859Y93.767
X-38.825Y93.781
X-34.212Y95.561
X-34.177Y95.573
X-29.481Y97.125
X-29.446Y97.135
X-24.68Y98.454
X-24.644Y98.463
X-19.819Y99.547
X-19.783Y99.554
X-14.911Y100.399
X-14.875Y100.405
X-9.967Y101.01
X-9.93Y101.014
X-4.998Y101.377
X-4.962Y101.379
X-0.018Y101.501
X0.018
X4.962Y101.379
X4.998Y101.377
X9.93Y101.014
X9.967Y101.01
X14.875Y100.405
X14.911Y100.399
X19.783Y99.554
X19.819Y99.547
X24.644Y98.463
X24.68Y98.454
X29.446Y97.135
X29.481Y97.125
X34.177Y95.573
X34.212Y95.561
X38.825Y93.781
X38.859Y93.767
X43.38Y91.763
X43.413Y91.747
X47.83Y89.524
X47.863Y89.507
X52.166Y87.069
X52.197Y87.05
X56.375Y84.405
X56.406Y84.384
X60.449Y81.537
X60.478Y81.515
X64.377Y78.473
X64.405Y78.449
X68.15Y75.219
X68.177Y75.194
X71.759Y71.785
X71.785Y71.759
X75.194Y68.177
X75.219Y68.15
X78.449Y64.405
X78.473Y64.377
X81.515Y60.478
X81.537Y60.449
X84.384Y56.406
X84.405Y56.375
X87.05Y52.197
X87.069Y52.166
X89.507Y47.863
X89.524Y47.83
X91.747Y43.413
X91.763Y43.38
X93.767Y38.859
X93.781Y38.825
X95.561Y34.212
X95.573Y34.177
X97.125Y29.481
X97.135Y29.446
X98.454Y24.68
X98.463Y24.644
X99.547Y19.819
X99.554Y19.783
X100.399Y14.911
X100.405Y14.875
X101.01Y9.967
X101.014Y9.93
X101.377Y4.998
X101.379Y4.962
X101.501Y0.018
Y-0.018
X101.379Y-4.962
X101.377Y-4.998
X101.014Y-9.93
X101.01Y-9.967
X100.405Y-14.875
X100.399Y-14.911
X99.554Y-19.783
X99.547Y-19.819
X98.463Y-24.644
X98.454Y-24.68
X97.135Y-29.446
X97.125Y-29.481
X95.573Y-34.177
X95.561Y-34.212
X93.781Y-38.825
X93.767Y-38.859
X91.763Y-43.38
X91.747Y-43.413
X89.524Y-47.83
X89.507Y-47.863
X87.069Y-52.166
X87.05Y-52.197
X84.405Y-56.375
X84.384Y-56.406
X81.537Y-60.449
X81.515Y-60.478
X78.473Y-64.377
X78.449Y-64.405
X75.219Y-68.15
X75.194Y-68.177
X71.785Y-71.759
X71.759Y-71.785
X68.177Y-75.194
X68.15Y-75.219
X64.405Y-78.449
X64.377Y-78.473
X60.478Y-81.515
X60.449Y-81.537
X56.406Y-84.384
X56.375Y-84.405
X52.197Y-87.05
X52.166Y-87.069
X47.863Y-89.507
X47.83Y-89.524
X43.413Y-91.747
X43.38Y-91.763
X38.859Y-93.767
X38.825Y-93.781
X34.212Y-95.561
X34.177Y-95.573
X29.481Y-97.125
X29.446Y-97.135
X24.68Y-98.454
X24.644Y-98.463
X19.819Y-99.547
X19.783Y-99.554
X14.911Y-100.399
X14.875Y-100.405
X9.967Y-101.01
X9.93Y-101.014
X4.998Y-101.377
X4.962Y-101.379
X0.018Y-101.501
X-0.018
X-4.962Y-101.379
X-4.998Y-101.377
X-9.93Y-101.014
X-9.967Y-101.01
X-14.875Y-100.405
X-14.911Y-100.399
X-19.783Y-99.554
X-19.819Y-99.547
X-24.644Y-98.463
X-24.68Y-98.454
X-29.446Y-97.135
X-29.481Y-97.125
X-34.177Y-95.573
X-34.212Y-95.561
X-38.825Y-93.781
X-38.859Y-93.767
X-43.38Y-91.763
X-43.413Y-91.747
X-47.83Y-89.524
X-47.863Y-89.507
X-52.166Y-87.069
X-52.197Y-87.05
X-56.375Y-84.405
X-56.406Y-84.384
X-60.449Y-81.537
X-60.478Y-81.515
X-64.377Y-78.473
X-64.405Y-78.449
X-68.15Y-75.219
X-68.177Y-75.194
X-71.759Y-71.785
X-71.785Y-71.759
X-75.194Y-68.177
X-75.219Y-68.15
X-78.449Y-64.405
X-78.473Y-64.377
X-81.515Y-60.478
X-81.537Y-60.449
X-84.384Y-56.406
X-84.405Y-56.375
X-87.05Y-52.197
X-87.069Y-52.166
X-89.507Y-47.863
X-89.524Y-47.83
X-91.747Y-43.413
X-91.763Y-43.38
X-93.767Y-38.859
X-93.781Y-38.825
X-95.561Y-34.212
X-95.573Y-34.177
X-97.125Y-29.481
X-97.135Y-29.446
X-98.454Y-24.68
X-98.463Y-24.644
X-99.547Y-19.819
X-99.554Y-19.783
X-100.399Y-14.911
X-100.405Y-14.875
X-101.01Y-9.967
Z-7F500
X-101.014Y-9.93F1000
X-101.377Y-4.998
X-101.379Y-4.962
X-101.501Y-0.018
Y0.018
X-101.379Y4.962
X-101.377Y4.998
X-101.014Y9.93
X-101.01Y9.967
X-100.405Y14.875
X-100.399Y14.911
X-99.554Y19.783
X-99.547Y19.819
X-98.463Y24.644
X-98.454Y24.68
X-97.135Y29.446
X-97.125Y29.481
X-95.573Y34.177
X-95.561Y34.212
X-93.781Y38.825
X-93.767Y38.859
X-91.763Y43.38
X-91.747Y43.413
X-89.524Y47.83
X-89.507Y47.863
X-87.069Y52.166
X-87.05Y52.197
X-84.405Y56.375
X-84.384Y56.406
X-81.537Y60.449
X-81.515Y60.478
X-78.473Y64.377
X-78.449Y64.405
X-75.219Y68.15
X-75.194Y68.177
X-71.785Y71.759
X-71.759Y71.785
X-68.177Y75.194
X-68.15Y75.219
X-64.405Y78.449
X-64.377Y78.473
X-60.478Y81.515
X-60.449Y81.537
X-56.406Y84.384
X-56.375Y84.405
X-52.197Y87.05
X-52.166Y87.069
X-47.863Y89.507
X-47.83Y89.524
X-43.413Y91.747
X-43.38Y91.763
X-38.859Y93.767
X-38.825Y93.781
X-34.212Y95.561
X-34.177Y95.573
X-29.481Y97.125
X-29.446Y97.135
X-24.68Y98.454
X-24.644Y98.463
X-19.819Y99.547
X-19.783Y99.554
X-14.911Y100.399
X-14.875Y100.405
X-9.967Y101.01
X-9.93Y101.014
X-4.998Y101.377
X-4.962Y101.379
X-0.018Y101.501
X0.018
X4.962Y101.379
X4.998Y101.377
X9.93Y101.014
X9.967Y101.01
X14.875Y100.405
X14.911Y100.399
X19.783Y99.554
X19.819Y99.547
X24.644Y98.463
X24.68Y98.454
X29.446Y97.135
X29.481Y97.125
X34.177Y95.573
X34.212Y95.561
X38.825Y93.781
X38.859Y93.767
X43.38Y91.763
X43.413Y91.747
X47.83Y89.524
X47.863Y89.507
X52.166Y87.069
X52.197Y87.05
X56.375Y84.405
X56.406Y84.384
X60.449Y81.537
X60.478Y81.515
X64.377Y78.473
X64.405Y78.449
X68.15Y75.219
X68.177Y75.194
X71.759Y71.785
X71.785Y71.759
X75.194Y68.177
X75.219Y68.15
X78.449Y64.405
X78.473Y64.377
X81.515Y60.478
X81.537Y60.449
X84.384Y56.406
X84.405Y56.375
X87.05Y52.197
X87.069Y52.166
X89.507Y47.863
X89.524Y47.83
X91.747Y43.413
X91.763Y43.38
X93.767Y38.859
X93.781Y38.825
X95.561Y34.212
X95.573Y34.177
X97.125Y29.481
X97.135Y29.446
X98.454Y24.68
X98.463Y24.644
X99.547Y19.819
X99.554Y19.783
X100.399Y14.911
X100.405Y14.875
X101.01Y9.967
X101.014Y9.93
X101.377Y4.998
X101.379Y4.962
X101.501Y0.018
Y-0.018
X101.379Y-4.962
X101.377Y-4.998
X101.014Y-9.93
X101.01Y-9.967
X100.405Y-14.875
X100.399Y-14.911
X99.554Y-19.783
X99.547Y-19.819
X98.463Y-24.644
X98.454Y-24.68
X97.135Y-29.446
X97.125Y-29.481
X95.573Y-34.177
X95.561Y-34.212
X93.781Y-38.825
X93.767Y-38.859
X91.763Y-43.38
X91.747Y-43.413
X89.524Y-47.83
X89.507Y-47.863
X87.069Y-52.166
X87.05Y-52.197
X84.405Y-56.375
X84.384Y-56.406
X81.537Y-60.449
X81.515Y-60.478
X78.473Y-64.377
X78.449Y-64.405
X75.219Y-68.15
X75.194Y-68.177
X71.785Y-71.759
X71.759Y-71.785
X68.177Y-75.194
X68.15Y-75.219
X64.405Y-78.449
X64.377Y-78.473
X60.478Y-81.515
X60.449Y-81.537
X56.406Y-84.384
X56.375Y-84.405
X52.197Y-87.05
X52.166Y-87.069
X47.863Y-89.507
X47.83Y-89.524
X43.413Y-91.747
X43.38Y-91.763
X38.859Y-93.767
X38.825Y-93.781
X34.212Y-95.561
X34.177Y-95.573
X29.481Y-97.125
X29.446Y-97.135
X24.68Y-98.454
X24.644Y-98.463
X19.819Y-99.547
X19.783Y-99.554
X14.911Y-100.399
X14.875Y-100.405
X9.967Y-101.01
X9.93Y-101.014
X4.998Y-101.377
X4.962Y-101.379
X0.018Y-101.501
X-0.018
X-4.962Y-101.379
X-4.998Y-101.377
X-9.93Y-101.014
X-9.967Y-101.01
X-14.875Y-100.405
X-14.911Y-100.399
X-19.783Y-99.554
X-19.819Y-99.547
X-24.644Y-98.463
X-24.68Y-98.454
X-29.446Y-97.135
X-29.481Y-97.125
X-34.177Y-95.573
X-34.212Y-95.561
X-38.825Y-93.781
X-38.859Y-93.767
X-43.38Y-91.763
X-43.413Y-91.747
X-47.83Y-89.524
X-47.863Y-89.507
X-52.166Y-87.069
X-52.197Y-87.05
X-56.375Y-84.405
X-56.406Y-84.384
X-60.449Y-81.537
X-60.478Y-81.515
X-64.377Y-78.473
X-64.405Y-78.449
X-68.15Y-75.219
X-68.177Y-75.194
X-71.759Y-71.785
X-71.785Y-71.759
X-75.194Y-68.177
X-75.219Y-68.15
X-78.449Y-64.405
X-78.473Y-64.377
X-81.515Y-60.478
X-81.537Y-60.449
X-84.384Y-56.406
X-84.405Y-56.375
X-87.05Y-52.197
X-87.069Y-52.166
X-89.507Y-47.863
X-89.524Y-47.83
X-91.747Y-43.413
X-91.763Y-43.38
X-93.767Y-38.859
X-93.781Y-38.825
X-95.561Y-34.212
X-95.573Y-34.177
X-97.125Y-29.481
X-97.135Y-29.446
X-98.454Y-24.68
X-98.463Y-24.644
X-99.547Y-19.819
X-99.554Y-19.783
X-100.399Y-14.911
X-100.405Y-14.875
X-101.01Y-9.967
Z-8F500
X-101.014Y-9.93F1000
X-101.377Y-4.998
X-101.379Y-4.962
X-101.501Y-0.018
Y0.018
X-101.379Y4.962
X-101.377Y4.998
X-101.014Y9.93
X-101.01Y9.967
X-100.405Y14.875
X-100.399Y14.911
X-99.554Y19.783
X-99.547Y19.819
X-98.463Y24.644
X-98.454Y24.68
X-97.135Y29.446
X-97.125Y29.481
X-95.573Y34.177
X-95.561Y34.212
X-93.781Y38.825
X-93.767Y38.859
X-91.763Y43.38
X-91.747Y43.413
X-89.524Y47.83
X-89.507Y47.863
X-87.069Y52.166
X-87.05Y52.197
X-84.405Y56.375
X-84.384Y56.406
X-81.537Y60.449
X-81.515Y60.478
X-78.473Y64.377
X-78.449Y64.405
X-75.219Y68.15
X-75.194Y68.177
X-71.785Y71.759
X-71.759Y71.785
X-68.177Y75.194
X-68.15Y75.219
X-64.405Y78.449
X-64.377Y78.473
X-60.478Y81.515
X-60.449Y81.537
X-56.406Y84.384
X-56.375Y84.405
X-52.197Y87.05
X-52.166Y87.069
X-47.863Y89.507
X-47.83Y89.524
X-43.413Y91.747
X-43.38Y91.763
X-38.859Y93.767
X-38.825Y93.781
X-34.212Y95.561
X-34.177Y95.573
X-29.481Y97.125
X-29.446Y97.135
X-24.68Y98.454
X-24.644Y98.463
X-19.819Y99.547
X-19.783Y99.554
X-14.911Y100.399
X-14.875Y100.405
X-9.967Y101.01
X-9.93Y101.014
X-4.998Y101.377
X-4.962Y101.379
X-0.018Y101.501
X0.018
X4.962Y101.379
X4.998Y101.377
X9.93Y101.014
X9.967Y101.01
X14.875Y100.405
X14.911Y100.399
X19.783Y99.554
X19.819Y99.547
X24.644Y98.463
X24.68Y98.454
X29.446Y97.135
X29.481Y97.125
X34.177Y95.573
X34.212Y95.561
X38.825Y93.781
X38.859Y93.767
X43.38Y91.763
X43.413Y91.747
X47.83Y89.524
X47.863Y89.507
X52.166Y87.069
X52.197Y87.05
X56.375Y84.405
X56.406Y84.384
X60.449Y81.537
X60.478Y81.515
X64.377Y78.473
X64.405Y78.449
X68.15Y75.219
X68.177Y75.194
X71.759Y71.785
X71.785Y71.759
X75.194Y68.177
X75.219Y68.15
X78.449Y64.405
X78.473Y64.377
X81.515Y60.478
X81.537Y60.449
X84.384Y56.406
X84.405Y56.375
X87.05Y52.197
X87.069Y52.166
X89.507Y47.863
X89.524Y47.83
X91.747Y43.413
X91.763Y43.38
X93.767Y38.859
X93.781Y38.825
X95.561Y34.212
X95.573Y34.177
X97.125Y29.481
X97.135Y29.446
X98.454Y24.68
X98.463Y24.644
X99.547Y19.819
X99.554Y19.783
X100.399Y14.911
X100.405Y14.875
X101.01Y9.967
X101.014Y9.93
X101.377Y4.998
X101.379Y4.962
X101.501Y0.018
Y-0.018
X101.379Y-4.962
X101.377Y-4.998
X101.014Y-9.93
X101.01Y-9.967
X100.405Y-14.875
X100.399Y-14.911
X99.554Y-19.783
X99.547Y-19.819
X98.463Y-24.644
X98.454Y-24.68
X97.135Y-29.446
X97.125Y-29.481
X95.573Y-34.177
X95.561Y-34.212
X93.781Y-38.825
X93.767Y-38.859
X91.763Y-43.38
X91.747Y-43.413
X89.524Y-47.83
X89.507Y-47.863
X87.069Y-52.166
X87.05Y-52.197
X84.405Y-56.375
X84.384Y-56.406
X81.537Y-60.449
X81.515Y-60.478
X78.473Y-64.377
X78.449Y-64.405
X75.219Y-68.15
X75.194Y-68.177
X71.785Y-71.759
X71.759Y-71.785
X68.177Y-75.194
X68.15Y-75.219
X64.405Y-78.449
X64.377Y-78.473
X60.478Y-81.515
X60.449Y-81.537
X56.406Y-84.384
X56.375Y-84.405
X52.197Y-87.05
X52.166Y-87.069
X47.863Y-89.507
X47.83Y-89.524
X43.413Y-91.747
X43.38Y-91.763
X38.859Y-93.767
X38.825Y-93.781
X34.212Y-95.561
X34.177Y-95.573
X29.481Y-97.125
X29.446Y-97.135
X24.68Y-98.454
X24.644Y-98.463
X19.819Y-99.547
X19.783Y-99.554
X14.911Y-100.399
X14.875Y-100.405
X9.967Y-101.01
X9.93Y-101.014
X4.998Y-101.377
X4.962Y-101.379
X0.018Y-101.501
X-0.018
X-4.962Y-101.379
X-4.998Y-101.377
X-9.93Y-101.014
X-9.967Y-101.01
X-14.875Y-100.405
X-14.911Y-100.399
X-19.783Y-99.554
X-19.819Y-99.547
X-24.644Y-98.463
X-24.68Y-98.454
X-29.446Y-97.135
X-29.481Y-97.125
X-34.177Y-95.573
X-34.212Y-95.561
X-38.825Y-93.781
X-38.859Y-93.767
X-43.38Y-91.763
X-43.413Y-91.747
X-47.83Y-89.524
X-47.863Y-89.507
X-52.166Y-87.069
X-52.197Y-87.05
X-56.375Y-84.405
X-56.406Y-84.384
X-60.449Y-81.537
X-60.478Y-81.515
X-64.377Y-78.473
X-64.405Y-78.449
X-68.15Y-75.219
X-68.177Y-75.194
X-71.759Y-71.785
X-71.785Y-71.759
X-75.194Y-68.177
X-75.219Y-68.15
X-78.449Y-64.405
X-78.473Y-64.377
X-81.515Y-60.478
X-81.537Y-60.449
X-84.384Y-56.406
X-84.405Y-56.375
X-87.05Y-52.197
X-87.069Y-52.166
X-89.507Y-47.863
X-89.524Y-47.83
X-91.747Y-43.413
X-91.763Y-43.38
X-93.767Y-38.859
X-93.781Y-38.825
X-95.561Y-34.212
X-95.573Y-34.177
X-97.125Y-29.481
X-97.135Y-29.446
X-98.454Y-24.68
X-98.463Y-24.644
X-99.547Y-19.819
X-99.554Y-19.783
X-100.399Y-14.911
X-100.405Y-14.875
X-101.01Y-9.967
Z-9F500
X-101.014Y-9.93F1000
X-101.377Y-4.998
X-101.379Y-4.962
X-101.501Y-0.018
Y0.018
X-101.379Y4.962
X-101.377Y4.998
X-101.014Y9.93
X-101.01Y9.967
X-100.405Y14.875
X-100.399Y14.911
X-99.554Y19.783
X-99.547Y19.819
X-98.463Y24.644
X-98.454Y24.68
X-97.135Y29.446
X-97.125Y29.481
X-95.573Y34.177
X-95.561Y34.212
X-93.781Y38.825
X-93.767Y38.859
X-91.763Y43.38
X-91.747Y43.413
X-89.524Y47.83
X-89.507Y47.863
X-87.069Y52.166
X-87.05Y52.197
X-84.405Y56.375
X-84.384Y56.406
X-81.537Y60.449
X-81.515Y60.478
X-78.473Y64.377
X-78.449Y64.405
X-75.219Y68.15
X-75.194Y68.177
X-71.785Y71.759
X-71.759Y71.785
X-68.177Y75.194
X-68.15Y75.219
X-64.405Y78.449
X-64.377Y78.473
X-60.478Y81.515
X-60.449Y81.537
X-56.406Y84.384
X-56.375Y84.405
X-52.197Y87.05
X-52.166Y87.069
X-47.863Y89.507
X-47.83Y89.524
X-43.413Y91.747
X-43.38Y91.763
X-38.859Y93.767
X-38.825Y93.781
X-34.212Y95.561
X-34.177Y95.573
X-29.481Y97.125
X-29.446Y97.135
X-24.68Y98.454
X-24.644Y98.463
X-19.819Y99.547
X-19.783Y99.554
X-14.911Y100.399
X-14.875Y100.405
X-9.967Y101.01
X-9.93Y101.014
X-4.998Y101.377
X-4.962Y101.379
X-0.018Y101.501
X0.018
X4.962Y101.379
X4.998Y101.377
X9.93Y101.014
X9.967Y101.01
X14.875Y100.405
X14.911Y100.399
X19.783Y99.554
X19.819Y99.547
X24.644Y98.463
X24.68Y98.454
X29.446Y97.135
X29.481Y97.125
X34.177Y95.573
X34.212Y95.561
X38.825Y93.781
X38.859Y93.767
X43.38Y91.763
X43.413Y91.747
X47.83Y89.524
X47.863Y89.507
X52.166Y87.069
X52.197Y87.05
X56.375Y84.405
X56.406Y84.384
X60.449Y81.537
X60.478Y81.515
X64.377Y78.473
X64.405Y78.449
X68.15Y75.219
X68.177Y75.194
X71.759Y71.785
X71.785Y71.759
X75.194Y68.177
X75.219Y68.15
X78.449Y64.405
X78.473Y64.377
X81.515Y60.478
X81.537Y60.449
X84.384Y56.406
X84.405Y56.375
X87.05Y52.197
X87.069Y52.166
X89.507Y47.863
X89.524Y47.83
X91.747Y43.413
X91.763Y43.38
X93.767Y38.859
X93.781Y38.825
X95.561Y34.212
X95.573Y34.177
X97.125Y29.481
X97.135Y29.446
X98.454Y24.68
X98.463Y24.644
X99.547Y19.819
X99.554Y19.783
X100.399Y14.911
X100.405Y14.875
X101.01Y9.967
X101.014Y9.93
X101.377Y4.998
X101.379Y4.962
X101.501Y0.018
Y-0.018
X101.379Y-4.962
X101.377Y-4.998
X101.014Y-9.93
X101.01Y-9.967
X100.405Y-14.875
X100.399Y-14.911
X99.554Y-19.783
X99.547Y-19.819
X98.463Y-24.644
X98.454Y-24.68
X97.135Y-29.446
X97.125Y-29.481
X95.573Y-34.177
X95.561Y-34.212
X93.781Y-38.825
X93.767Y-38.859
X91.763Y-43.38
X91.747Y-43.413
X89.524Y-47.83
X89.507Y-47.863
X87.069Y-52.166
X87.05Y-52.197
X84.405Y-56.375
X84.384Y-56.406
X81.537Y-60.449
X81.515Y-60.478
X78.473Y-64.377
X78.449Y-64.405
X75.219Y-68.15
X75.194Y-68.177
X71.785Y-71.759
X71.759Y-71.785
X68.177Y-75.194
X68.15Y-75.219
X64.405Y-78.449
X64.377Y-78.473
X60.478Y-81.515
X60.449Y-81.537
X56.406Y-84.384
X56.375Y-84.405
X52.197Y-87.05
X52.166Y-87.069
X47.863Y-89.507
X47.83Y-89.524
X43.413Y-91.747
X43.38Y-91.763
X38.859Y-93.767
X38.825Y-93.781
X34.212Y-95.561
X34.177Y-95.573
X29.481Y-97.125
X29.446Y-97.135
X24.68Y-98.454
X24.644Y-98.463
X19.819Y-99.547
X19.783Y-99.554
X14.911Y-100.399
X14.875Y-100.405
X9.967Y-101.01
X9.93Y-101.014
X4.998Y-101.377
X4.962Y-101.379
X0.018Y-101.501
X-0.018
X-4.962Y-101.379
X-4.998Y-101.377
X-9.93Y-101.014
X-9.967Y-101.01
X-14.875Y-100.405
X-14.911Y-100.399
X-19.783Y-99.554
X-19.819Y-99.547
X-24.644Y-98.463
X-24.68Y-98.454
X-29.446Y-97.135
X-29.481Y-97.125
X-34.177Y-95.573
X-34.212Y-95.561
X-38.825Y-93.781
X-38.859Y-93.767
X-43.38Y-91.763
X-43.413Y-91.747
X-47.83Y-89.524
X-47.863Y-89.507
X-52.166Y-87.069
X-52.197Y-87.05
X-56.375Y-84.405
X-56.406Y-84.384
X-60.449Y-81.537
X-60.478Y-81.515
X-64.377Y-78.473
X-64.405Y-78.449
X-68.15Y-75.219
X-68.177Y-75.194
X-71.759Y-71.785
X-71.785Y-71.759
X-75.194Y-68.177
X-75.219Y-68.15
X-78.449Y-64.405
X-78.473Y-64.377
X-81.515Y-60.478
X-81.537Y-60.449
X-84.384Y-56.406
X-84.405Y-56.375
X-87.05Y-52.197
X-87.069Y-52.166
X-89.507Y-47.863
X-89.524Y-47.83
X-91.747Y-43.413
X-91.763Y-43.38
X-93.767Y-38.859
X-93.781Y-38.825
X-95.561Y-34.212
X-95.573Y-34.177
X-97.125Y-29.481
X-97.135Y-29.446
X-98.454Y-24.68
X-98.463Y-24.644
X-99.547Y-19.819
X-99.554Y-19.783
X-100.399Y-14.911
X-100.405Y-14.875
X-101.01Y-9.967
Z-10F500
X-101.014Y-9.93F1000
X-101.377Y-4.998
X-101.379Y-4.962
X-101.501Y-0.018
Y0.018
X-101.379Y4.962
X-101.377Y4.998
X-101.014Y9.93
X-101.01Y9.967
X-100.405Y14.875
X-100.399Y14.911
X-99.554Y19.783
X-99.547Y19.819
X-98.463Y24.644
X-98.454Y24.68
X-97.135Y29.446
X-97.125Y29.481
X-95.573Y34.177
X-95.561Y34.212
X-93.781Y38.825
X-93.767Y38.859
X-91.763Y43.38
X-91.747Y43.413
X-89.524Y47.83
X-89.507Y47.863
X-87.069Y52.166
X-87.05Y52.197
X-84.405Y56.375
X-84.384Y56.406
X-81.537Y60.449
X-81.515Y60.478
X-78.473Y64.377
X-78.449Y64.405
X-75.219Y68.15
X-75.194Y68.177
X-71.785Y71.759
X-71.759Y71.785
X-68.177Y75.194
X-68.15Y75.219
X-64.405Y78.449
X-64.377Y78.473
X-60.478Y81.515
X-60.449Y81.537
X-56.406Y84.384
X-56.375Y84.405
X-52.197Y87.05
X-52.166Y87.069
X-47.863Y89.507
X-47.83Y89.524
X-43.413Y91.747
X-43.38Y91.763
X-38.859Y93.767
X-38.825Y93.781
X-34.212Y95.561
X-34.177Y95.573
X-29.481Y97.125
X-29.446Y97.135
X-24.68Y98.454
X-24.644Y98.463
X-19.819Y99.547
X-19.783Y99.554
X-14.911Y100.399
X-14.875Y100.405
X-9.967Y101.01
X-9.93Y101.014
X-4.998Y101.377
X-4.962Y101.379
X-0.018Y101.501
X0.018
X4.962Y101.379
X4.998Y101.377
X9.93Y101.014
X9.967Y101.01
X14.875Y100.405
X14.911Y100.399
X19.783Y99.554
X19.819Y99.547
X24.644Y98.463
X24.68Y98.454
X29.446Y97.135
X29.481Y97.125
X34.177Y95.573
X34.212Y95.561
X38.825Y93.781
X38.859Y93.767
X43.38Y91.763
X43.413Y91.747
X47.83Y89.524
X47.863Y89.507
X52.166Y87.069
X52.197Y87.05
X56.375Y84.405
X56.406Y84.384
X60.449Y81.537
X60.478Y81.515
X64.377Y78.473
X64.405Y78.449
X68.15Y75.219
X68.177Y75.194
X71.759Y71.785
X71.785Y71.759
X75.194Y68.177
X75.219Y68.15
X78.449Y64.405
X78.473Y64.377
X81.515Y60.478
X81.537Y60.449
X84.384Y56.406
X84.405Y56.375
X87.05Y52.197
X87.069Y52.166
X89.507Y47.863
X89.524Y47.83
X91.747Y43.413
X91.763Y43.38
X93.767Y38.859
X93.781Y38.825
X95.561Y34.212
X95.573Y34.177
X97.125Y29.481
X97.135Y29.446
X98.454Y24.68
X98.463Y24.644
X99.547Y19.819
X99.554Y19.783
X100.399Y14.911
X100.405Y14.875
X101.01Y9.967
X101.014Y9.93
X101.377Y4.998
X101.379Y4.962
X101.501Y0.018
Y-0.018
X101.379Y-4.962
X101.377Y-4.998
X101.014Y-9.93
X101.01Y-9.967
X100.405Y-14.875
X100.399Y-14.911
X99.554Y-19.783
X99.547Y-19.819
X98.463Y-24.644
X98.454Y-24.68
X97.135Y-29.446
X97.125Y-29.481
X95.573Y-34.177
X95.561Y-34.212
X93.781Y-38.825
X93.767Y-38.859
X91.763Y-43.38
X91.747Y-43.413
X89.524Y-47.83
X89.507Y-47.863
X87.069Y-52.166
X87.05Y-52.197
X84.405Y-56.375
X84.384Y-56.406
X81.537Y-60.449
X81.515Y-60.478
X78.473Y-64.377
X78.449Y-64.405
X75.219Y-68.15
X75.194Y-68.177
X71.785Y-71.759
X71.759Y-71.785
X68.177Y-75.194
X68.15Y-75.219
X64.405Y-78.449
X64.377Y-78.473
X60.478Y-81.515
X60.449Y-81.537
X56.406Y-84.384
X56.375Y-84.405
X52.197Y-87.05
X52.166Y-87.069
X47.863Y-89.507
X47.83Y-89.524
X43.413Y-91.747
X43.38Y-91.763
X38.859Y-93.767
X38.825Y-93.781
X34.212Y-95.561
X34.177Y-95.573
X29.481Y-97.125
X29.446Y-97.135
X24.68Y-98.454
X24.644Y-98.463
X19.819Y-99.547
X19.783Y-99.554
X14.911Y-100.399
X14.875Y-100.405
X9.967Y-101.01
X9.93Y-101.014
X4.998Y-101.377
X4.962Y-101.379
X0.018Y-101.501
X-0.018
X-4.962Y-101.379
X-4.998Y-101.377
X-9.93Y-101.014
X-9.967Y-101.01
X-14.875Y-100.405
X-14.911Y-100.399
X-19.783Y-99.554
X-19.819Y-99.547
X-24.644Y-98.463
X-24.68Y-98.454
X-29.446Y-97.135
X-29.481Y-97.125
X-34.177Y-95.573
X-34.212Y-95.561
X-38.825Y-93.781
X-38.859Y-93.767
X-43.38Y-91.763
X-43.413Y-91.747
X-47.83Y-89.524
X-47.863Y-89.507
X-52.166Y-87.069
X-52.197Y-87.05
X-56.375Y-84.405
X-56.406Y-84.384
X-60.449Y-81.537
X-60.478Y-81.515
X-64.377Y-78.473
X-64.405Y-78.449
X-68.15Y-75.219
X-68.177Y-75.194
X-71.759Y-71.785
X-71.785Y-71.759
X-75.194Y-68.177
X-75.219Y-68.15
X-78.449Y-64.405
X-78.473Y-64.377
X-81.515Y-60.478
X-81.537Y-60.449
X-84.384Y-56.406
X-84.405Y-56.375
X-87.05Y-52.197
X-87.069Y-52.166
X-89.507Y-47.863
X-89.524Y-47.83
X-91.747Y-43.413
X-91.763Y-43.38
X-93.767Y-38.859
X-93.781Y-38.825
X-95.561Y-34.212
X-95.573Y-34.177
X-97.125Y-29.481
X-97.135Y-29.446
X-98.454Y-24.68
X-98.463Y-24.644
X-99.547Y-19.819
X-99.554Y-19.783
X-100.399Y-14.911
X-100.405Y-14.875
X-101.01Y-9.967
G0Z10
 
