(Created with grbl post processor 2024/09/04 21:15)
G21
(G-code Generated with BlenderCAM and NC library)
G17G90
(Tool: D = 3.0 mm  type END flutes 2)
S12000M03
G00 Z10.0

G0X0Y0Z10
X-101.008Y-9.985
G1Z-1F500
X-101.012Y-9.948F1000
X-101.015Y-9.912
X-101.376Y-5.017
X-101.378Y-4.98
X-101.38Y-4.943
X-101.5Y-0.036
X-101.501Y0
X-101.5Y0.036
X-101.38Y4.943
X-101.378Y4.98
X-101.376Y5.017
X-101.015Y9.912
X-101.012Y9.948
X-101.008Y9.985
X-100.407Y14.856
X-100.402Y14.893
X-100.396Y14.929
X-99.557Y19.765
X-99.55Y19.801
X-99.543Y19.837
X-98.467Y24.626
X-98.459Y24.662
X-98.449Y24.698
X-97.14Y29.428
X-97.13Y29.464
X-97.119Y29.499
X-95.579Y34.159
X-95.567Y34.194
X-95.554Y34.229
X-93.788Y38.808
X-93.774Y38.842
X-93.76Y38.876
X-91.771Y43.363
X-91.755Y43.397
X-91.739Y43.43
X-89.532Y47.814
X-89.515Y47.847
X-89.498Y47.879
X-87.078Y52.15
X-87.06Y52.181
X-87.04Y52.213
X-84.415Y56.36
X-84.394Y56.39
X-84.374Y56.421
X-81.547Y60.434
X-81.526Y60.464
X-81.504Y60.493
X-78.484Y64.362
X-78.461Y64.391
X-78.437Y64.419
X-75.231Y68.136
X-75.207Y68.163
X-75.182Y68.19
X-71.797Y71.745
X-71.772Y71.772
X-71.745Y71.797
X-68.19Y75.182
X-68.163Y75.207
X-68.136Y75.231
X-64.419Y78.437
X-64.391Y78.461
X-64.362Y78.484
X-60.493Y81.504
X-60.464Y81.526
X-60.434Y81.547
X-56.421Y84.374
X-56.39Y84.395
X-56.36Y84.415
X-52.213Y87.04
X-52.181Y87.06
X-52.15Y87.078
X-47.879Y89.498
X-47.847Y89.515
X-47.814Y89.532
X-43.43Y91.739
X-43.397Y91.755
X-43.363Y91.771
X-38.876Y93.76
X-38.842Y93.774
X-38.808Y93.788
X-34.229Y95.554
X-34.194Y95.567
X-34.159Y95.579
X-29.499Y97.119
X-29.464Y97.13
X-29.428Y97.14
X-24.698Y98.449
X-24.662Y98.459
X-24.626Y98.467
X-19.837Y99.543
X-19.801Y99.55
X-19.765Y99.557
X-14.929Y100.396
X-14.893Y100.402
X-14.856Y100.407
X-9.985Y101.008
X-9.948Y101.012
X-9.912Y101.015
X-5.017Y101.376
X-4.98Y101.378
X-4.943Y101.38
X-0.036Y101.5
X0Y101.501
X0.036Y101.5
X4.943Y101.38
X4.98Y101.378
X5.017Y101.376
X9.912Y101.015
X9.948Y101.012
X9.985Y101.008
X14.856Y100.407
X14.893Y100.402
X14.929Y100.396
X19.765Y99.557
X19.801Y99.55
X19.837Y99.543
X24.626Y98.467
X24.662Y98.459
X24.698Y98.449
X29.428Y97.14
X29.464Y97.13
X29.499Y97.119
X34.159Y95.579
X34.194Y95.567
X34.229Y95.554
X38.808Y93.788
X38.842Y93.774
X38.876Y93.76
X43.363Y91.771
X43.397Y91.755
X43.43Y91.739
X47.814Y89.532
X47.847Y89.515
X47.879Y89.498
X52.15Y87.078
X52.181Y87.06
X52.213Y87.04
X56.36Y84.415
X56.39Y84.394
X56.421Y84.374
X60.434Y81.547
X60.464Y81.526
X60.493Y81.504
X64.362Y78.484
X64.391Y78.461
X64.419Y78.437
X68.136Y75.231
X68.163Y75.207
X68.19Y75.182
X71.745Y71.797
X71.772Y71.772
X71.797Y71.745
X75.182Y68.19
X75.207Y68.163
X75.231Y68.136
X78.437Y64.419
X78.461Y64.391
X78.484Y64.362
X81.504Y60.493
X81.526Y60.464
X81.547Y60.434
X84.374Y56.421
X84.395Y56.39
X84.415Y56.36
X87.04Y52.213
X87.06Y52.181
X87.078Y52.15
X89.498Y47.879
X89.515Y47.847
X89.532Y47.814
X91.739Y43.43
X91.755Y43.397
X91.771Y43.363
X93.76Y38.876
X93.774Y38.842
X93.788Y38.808
X95.554Y34.229
X95.567Y34.194
X95.579Y34.159
X97.119Y29.499
X97.13Y29.464
X97.14Y29.428
X98.449Y24.698
X98.459Y24.662
X98.467Y24.626
X99.543Y19.837
X99.55Y19.801
X99.557Y19.765
X100.396Y14.929
X100.402Y14.893
X100.407Y14.856
X101.008Y9.985
X101.012Y9.948
X101.015Y9.912
X101.376Y5.017
X101.378Y4.98
X101.38Y4.943
X101.5Y0.036
X101.501Y0
X101.5Y-0.036
X101.38Y-4.943
X101.378Y-4.98
X101.376Y-5.017
X101.015Y-9.912
X101.012Y-9.948
X101.008Y-9.985
X100.407Y-14.856
X100.402Y-14.893
X100.396Y-14.929
X99.557Y-19.765
X99.55Y-19.801
X99.543Y-19.837
X98.467Y-24.626
X98.459Y-24.662
X98.449Y-24.698
X97.14Y-29.428
X97.13Y-29.464
X97.119Y-29.499
X95.579Y-34.159
X95.567Y-34.194
X95.554Y-34.229
X93.788Y-38.808
X93.774Y-38.842
X93.76Y-38.876
X91.771Y-43.363
X91.755Y-43.397
X91.739Y-43.43
X89.532Y-47.814
X89.515Y-47.847
X89.498Y-47.879
X87.078Y-52.15
X87.06Y-52.181
X87.04Y-52.213
X84.415Y-56.36
X84.394Y-56.39
X84.374Y-56.421
X81.547Y-60.434
X81.526Y-60.464
X81.504Y-60.493
X78.484Y-64.362
X78.461Y-64.391
X78.437Y-64.419
X75.231Y-68.136
X75.207Y-68.163
X75.182Y-68.19
X71.797Y-71.745
X71.772Y-71.772
X71.745Y-71.797
X68.19Y-75.182
X68.163Y-75.207
X68.136Y-75.231
X64.419Y-78.437
X64.391Y-78.461
X64.362Y-78.484
X60.493Y-81.504
X60.464Y-81.526
X60.434Y-81.547
X56.421Y-84.374
X56.39Y-84.395
X56.36Y-84.415
X52.213Y-87.04
X52.181Y-87.06
X52.15Y-87.078
X47.879Y-89.498
X47.847Y-89.515
X47.814Y-89.532
X43.43Y-91.739
X43.397Y-91.755
X43.363Y-91.771
X38.876Y-93.76
X38.842Y-93.774
X38.808Y-93.788
X34.229Y-95.554
X34.194Y-95.567
X34.159Y-95.579
X29.499Y-97.119
X29.464Y-97.13
X29.428Y-97.14
X24.698Y-98.449
X24.662Y-98.459
X24.626Y-98.467
X19.837Y-99.543
X19.801Y-99.55
X19.765Y-99.557
X14.929Y-100.396
X14.893Y-100.402
X14.856Y-100.407
X9.985Y-101.008
X9.948Y-101.012
X9.912Y-101.015
X5.017Y-101.376
X4.98Y-101.378
X4.943Y-101.38
X0.036Y-101.5
X0Y-101.501
X-0.036Y-101.5
X-4.943Y-101.38
X-4.98Y-101.378
X-5.017Y-101.376
X-9.912Y-101.015
X-9.948Y-101.012
X-9.985Y-101.008
X-14.856Y-100.407
X-14.893Y-100.402
X-14.929Y-100.396
X-19.765Y-99.557
X-19.801Y-99.55
X-19.837Y-99.543
X-24.626Y-98.467
X-24.662Y-98.459
X-24.698Y-98.449
X-29.428Y-97.14
X-29.464Y-97.13
X-29.499Y-97.119
X-34.159Y-95.579
X-34.194Y-95.567
X-34.229Y-95.554
X-38.808Y-93.788
X-38.842Y-93.774
X-38.876Y-93.76
X-43.363Y-91.771
X-43.397Y-91.755
X-43.43Y-91.739
X-47.814Y-89.532
X-47.847Y-89.515
X-47.879Y-89.498
X-52.15Y-87.078
X-52.181Y-87.06
X-52.213Y-87.04
X-56.36Y-84.415
X-56.39Y-84.394
X-56.421Y-84.374
X-60.434Y-81.547
X-60.464Y-81.526
X-60.493Y-81.504
X-64.362Y-78.484
X-64.391Y-78.461
X-64.419Y-78.437
X-68.136Y-75.231
X-68.163Y-75.207
X-68.19Y-75.182
X-71.745Y-71.797
X-71.772Y-71.772
X-71.797Y-71.745
X-75.182Y-68.19
X-75.207Y-68.163
X-75.231Y-68.136
X-78.437Y-64.419
X-78.461Y-64.391
X-78.484Y-64.362
X-81.504Y-60.493
X-81.526Y-60.464
X-81.547Y-60.434
X-84.374Y-56.421
X-84.394Y-56.39
X-84.415Y-56.36
X-87.04Y-52.213
X-87.06Y-52.181
X-87.078Y-52.15
X-89.498Y-47.879
X-89.515Y-47.847
X-89.532Y-47.814
X-91.739Y-43.43
X-91.755Y-43.397
X-91.771Y-43.363
X-93.76Y-38.876
X-93.774Y-38.842
X-93.788Y-38.808
X-95.554Y-34.229
X-95.567Y-34.194
X-95.579Y-34.159
X-97.119Y-29.499
X-97.13Y-29.464
X-97.14Y-29.428
X-98.449Y-24.698
X-98.459Y-24.662
X-98.467Y-24.626
X-99.543Y-19.837
X-99.55Y-19.801
X-99.557Y-19.765
X-100.396Y-14.929
X-100.402Y-14.893
X-100.407Y-14.856
X-101.008Y-9.985
Z-2F500
X-101.012Y-9.948F1000
X-101.015Y-9.912
X-101.376Y-5.017
X-101.378Y-4.98
X-101.38Y-4.943
X-101.5Y-0.036
X-101.501Y0
X-101.5Y0.036
X-101.38Y4.943
X-101.378Y4.98
X-101.376Y5.017
X-101.015Y9.912
X-101.012Y9.948
X-101.008Y9.985
X-100.407Y14.856
X-100.402Y14.893
X-100.396Y14.929
X-99.557Y19.765
X-99.55Y19.801
X-99.543Y19.837
X-98.467Y24.626
X-98.459Y24.662
X-98.449Y24.698
X-97.14Y29.428
X-97.13Y29.464
X-97.119Y29.499
X-95.579Y34.159
X-95.567Y34.194
X-95.554Y34.229
X-93.788Y38.808
X-93.774Y38.842
X-93.76Y38.876
X-91.771Y43.363
X-91.755Y43.397
X-91.739Y43.43
X-89.532Y47.814
X-89.515Y47.847
X-89.498Y47.879
X-87.078Y52.15
X-87.06Y52.181
X-87.04Y52.213
X-84.415Y56.36
X-84.394Y56.39
X-84.374Y56.421
X-81.547Y60.434
X-81.526Y60.464
X-81.504Y60.493
X-78.484Y64.362
X-78.461Y64.391
X-78.437Y64.419
X-75.231Y68.136
X-75.207Y68.163
X-75.182Y68.19
X-71.797Y71.745
X-71.772Y71.772
X-71.745Y71.797
X-68.19Y75.182
X-68.163Y75.207
X-68.136Y75.231
X-64.419Y78.437
X-64.391Y78.461
X-64.362Y78.484
X-60.493Y81.504
X-60.464Y81.526
X-60.434Y81.547
X-56.421Y84.374
X-56.39Y84.395
X-56.36Y84.415
X-52.213Y87.04
X-52.181Y87.06
X-52.15Y87.078
X-47.879Y89.498
X-47.847Y89.515
X-47.814Y89.532
X-43.43Y91.739
X-43.397Y91.755
X-43.363Y91.771
X-38.876Y93.76
X-38.842Y93.774
X-38.808Y93.788
X-34.229Y95.554
X-34.194Y95.567
X-34.159Y95.579
X-29.499Y97.119
X-29.464Y97.13
X-29.428Y97.14
X-24.698Y98.449
X-24.662Y98.459
X-24.626Y98.467
X-19.837Y99.543
X-19.801Y99.55
X-19.765Y99.557
X-14.929Y100.396
X-14.893Y100.402
X-14.856Y100.407
X-9.985Y101.008
X-9.948Y101.012
X-9.912Y101.015
X-5.017Y101.376
X-4.98Y101.378
X-4.943Y101.38
X-0.036Y101.5
X0Y101.501
X0.036Y101.5
X4.943Y101.38
X4.98Y101.378
X5.017Y101.376
X9.912Y101.015
X9.948Y101.012
X9.985Y101.008
X14.856Y100.407
X14.893Y100.402
X14.929Y100.396
X19.765Y99.557
X19.801Y99.55
X19.837Y99.543
X24.626Y98.467
X24.662Y98.459
X24.698Y98.449
X29.428Y97.14
X29.464Y97.13
X29.499Y97.119
X34.159Y95.579
X34.194Y95.567
X34.229Y95.554
X38.808Y93.788
X38.842Y93.774
X38.876Y93.76
X43.363Y91.771
X43.397Y91.755
X43.43Y91.739
X47.814Y89.532
X47.847Y89.515
X47.879Y89.498
X52.15Y87.078
X52.181Y87.06
X52.213Y87.04
X56.36Y84.415
X56.39Y84.394
X56.421Y84.374
X60.434Y81.547
X60.464Y81.526
X60.493Y81.504
X64.362Y78.484
X64.391Y78.461
X64.419Y78.437
X68.136Y75.231
X68.163Y75.207
X68.19Y75.182
X71.745Y71.797
X71.772Y71.772
X71.797Y71.745
X75.182Y68.19
X75.207Y68.163
X75.231Y68.136
X78.437Y64.419
X78.461Y64.391
X78.484Y64.362
X81.504Y60.493
X81.526Y60.464
X81.547Y60.434
X84.374Y56.421
X84.395Y56.39
X84.415Y56.36
X87.04Y52.213
X87.06Y52.181
X87.078Y52.15
X89.498Y47.879
X89.515Y47.847
X89.532Y47.814
X91.739Y43.43
X91.755Y43.397
X91.771Y43.363
X93.76Y38.876
X93.774Y38.842
X93.788Y38.808
X95.554Y34.229
X95.567Y34.194
X95.579Y34.159
X97.119Y29.499
X97.13Y29.464
X97.14Y29.428
X98.449Y24.698
X98.459Y24.662
X98.467Y24.626
X99.543Y19.837
X99.55Y19.801
X99.557Y19.765
X100.396Y14.929
X100.402Y14.893
X100.407Y14.856
X101.008Y9.985
X101.012Y9.948
X101.015Y9.912
X101.376Y5.017
X101.378Y4.98
X101.38Y4.943
X101.5Y0.036
X101.501Y0
X101.5Y-0.036
X101.38Y-4.943
X101.378Y-4.98
X101.376Y-5.017
X101.015Y-9.912
X101.012Y-9.948
X101.008Y-9.985
X100.407Y-14.856
X100.402Y-14.893
X100.396Y-14.929
X99.557Y-19.765
X99.55Y-19.801
X99.543Y-19.837
X98.467Y-24.626
X98.459Y-24.662
X98.449Y-24.698
X97.14Y-29.428
X97.13Y-29.464
X97.119Y-29.499
X95.579Y-34.159
X95.567Y-34.194
X95.554Y-34.229
X93.788Y-38.808
X93.774Y-38.842
X93.76Y-38.876
X91.771Y-43.363
X91.755Y-43.397
X91.739Y-43.43
X89.532Y-47.814
X89.515Y-47.847
X89.498Y-47.879
X87.078Y-52.15
X87.06Y-52.181
X87.04Y-52.213
X84.415Y-56.36
X84.394Y-56.39
X84.374Y-56.421
X81.547Y-60.434
X81.526Y-60.464
X81.504Y-60.493
X78.484Y-64.362
X78.461Y-64.391
X78.437Y-64.419
X75.231Y-68.136
X75.207Y-68.163
X75.182Y-68.19
X71.797Y-71.745
X71.772Y-71.772
X71.745Y-71.797
X68.19Y-75.182
X68.163Y-75.207
X68.136Y-75.231
X64.419Y-78.437
X64.391Y-78.461
X64.362Y-78.484
X60.493Y-81.504
X60.464Y-81.526
X60.434Y-81.547
X56.421Y-84.374
X56.39Y-84.395
X56.36Y-84.415
X52.213Y-87.04
X52.181Y-87.06
X52.15Y-87.078
X47.879Y-89.498
X47.847Y-89.515
X47.814Y-89.532
X43.43Y-91.739
X43.397Y-91.755
X43.363Y-91.771
X38.876Y-93.76
X38.842Y-93.774
X38.808Y-93.788
X34.229Y-95.554
X34.194Y-95.567
X34.159Y-95.579
X29.499Y-97.119
X29.464Y-97.13
X29.428Y-97.14
X24.698Y-98.449
X24.662Y-98.459
X24.626Y-98.467
X19.837Y-99.543
X19.801Y-99.55
X19.765Y-99.557
X14.929Y-100.396
X14.893Y-100.402
X14.856Y-100.407
X9.985Y-101.008
X9.948Y-101.012
X9.912Y-101.015
X5.017Y-101.376
X4.98Y-101.378
X4.943Y-101.38
X0.036Y-101.5
X0Y-101.501
X-0.036Y-101.5
X-4.943Y-101.38
X-4.98Y-101.378
X-5.017Y-101.376
X-9.912Y-101.015
X-9.948Y-101.012
X-9.985Y-101.008
X-14.856Y-100.407
X-14.893Y-100.402
X-14.929Y-100.396
X-19.765Y-99.557
X-19.801Y-99.55
X-19.837Y-99.543
X-24.626Y-98.467
X-24.662Y-98.459
X-24.698Y-98.449
X-29.428Y-97.14
X-29.464Y-97.13
X-29.499Y-97.119
X-34.159Y-95.579
X-34.194Y-95.567
X-34.229Y-95.554
X-38.808Y-93.788
X-38.842Y-93.774
X-38.876Y-93.76
X-43.363Y-91.771
X-43.397Y-91.755
X-43.43Y-91.739
X-47.814Y-89.532
X-47.847Y-89.515
X-47.879Y-89.498
X-52.15Y-87.078
X-52.181Y-87.06
X-52.213Y-87.04
X-56.36Y-84.415
X-56.39Y-84.394
X-56.421Y-84.374
X-60.434Y-81.547
X-60.464Y-81.526
X-60.493Y-81.504
X-64.362Y-78.484
X-64.391Y-78.461
X-64.419Y-78.437
X-68.136Y-75.231
X-68.163Y-75.207
X-68.19Y-75.182
X-71.745Y-71.797
X-71.772Y-71.772
X-71.797Y-71.745
X-75.182Y-68.19
X-75.207Y-68.163
X-75.231Y-68.136
X-78.437Y-64.419
X-78.461Y-64.391
X-78.484Y-64.362
X-81.504Y-60.493
X-81.526Y-60.464
X-81.547Y-60.434
X-84.374Y-56.421
X-84.394Y-56.39
X-84.415Y-56.36
X-87.04Y-52.213
X-87.06Y-52.181
X-87.078Y-52.15
X-89.498Y-47.879
X-89.515Y-47.847
X-89.532Y-47.814
X-91.739Y-43.43
X-91.755Y-43.397
X-91.771Y-43.363
X-93.76Y-38.876
X-93.774Y-38.842
X-93.788Y-38.808
X-95.554Y-34.229
X-95.567Y-34.194
X-95.579Y-34.159
X-97.119Y-29.499
X-97.13Y-29.464
X-97.14Y-29.428
X-98.449Y-24.698
X-98.459Y-24.662
X-98.467Y-24.626
X-99.543Y-19.837
X-99.55Y-19.801
X-99.557Y-19.765
X-100.396Y-14.929
X-100.402Y-14.893
X-100.407Y-14.856
X-101.008Y-9.985
Z-3F500
X-101.012Y-9.948F1000
X-101.015Y-9.912
X-101.376Y-5.017
X-101.378Y-4.98
X-101.38Y-4.943
X-101.5Y-0.036
X-101.501Y0
X-101.5Y0.036
X-101.38Y4.943
X-101.378Y4.98
X-101.376Y5.017
X-101.015Y9.912
X-101.012Y9.948
X-101.008Y9.985
X-100.407Y14.856
X-100.402Y14.893
X-100.396Y14.929
X-99.557Y19.765
X-99.55Y19.801
X-99.543Y19.837
X-98.467Y24.626
X-98.459Y24.662
X-98.449Y24.698
X-97.14Y29.428
X-97.13Y29.464
X-97.119Y29.499
X-95.579Y34.159
X-95.567Y34.194
X-95.554Y34.229
X-93.788Y38.808
X-93.774Y38.842
X-93.76Y38.876
X-91.771Y43.363
X-91.755Y43.397
X-91.739Y43.43
X-89.532Y47.814
X-89.515Y47.847
X-89.498Y47.879
X-87.078Y52.15
X-87.06Y52.181
X-87.04Y52.213
X-84.415Y56.36
X-84.394Y56.39
X-84.374Y56.421
X-81.547Y60.434
X-81.526Y60.464
X-81.504Y60.493
X-78.484Y64.362
X-78.461Y64.391
X-78.437Y64.419
X-75.231Y68.136
X-75.207Y68.163
X-75.182Y68.19
X-71.797Y71.745
X-71.772Y71.772
X-71.745Y71.797
X-68.19Y75.182
X-68.163Y75.207
X-68.136Y75.231
X-64.419Y78.437
X-64.391Y78.461
X-64.362Y78.484
X-60.493Y81.504
X-60.464Y81.526
X-60.434Y81.547
X-56.421Y84.374
X-56.39Y84.395
X-56.36Y84.415
X-52.213Y87.04
X-52.181Y87.06
X-52.15Y87.078
X-47.879Y89.498
X-47.847Y89.515
X-47.814Y89.532
X-43.43Y91.739
X-43.397Y91.755
X-43.363Y91.771
X-38.876Y93.76
X-38.842Y93.774
X-38.808Y93.788
X-34.229Y95.554
X-34.194Y95.567
X-34.159Y95.579
X-29.499Y97.119
X-29.464Y97.13
X-29.428Y97.14
X-24.698Y98.449
X-24.662Y98.459
X-24.626Y98.467
X-19.837Y99.543
X-19.801Y99.55
X-19.765Y99.557
X-14.929Y100.396
X-14.893Y100.402
X-14.856Y100.407
X-9.985Y101.008
X-9.948Y101.012
X-9.912Y101.015
X-5.017Y101.376
X-4.98Y101.378
X-4.943Y101.38
X-0.036Y101.5
X0Y101.501
X0.036Y101.5
X4.943Y101.38
X4.98Y101.378
X5.017Y101.376
X9.912Y101.015
X9.948Y101.012
X9.985Y101.008
X14.856Y100.407
X14.893Y100.402
X14.929Y100.396
X19.765Y99.557
X19.801Y99.55
X19.837Y99.543
X24.626Y98.467
X24.662Y98.459
X24.698Y98.449
X29.428Y97.14
X29.464Y97.13
X29.499Y97.119
X34.159Y95.579
X34.194Y95.567
X34.229Y95.554
X38.808Y93.788
X38.842Y93.774
X38.876Y93.76
X43.363Y91.771
X43.397Y91.755
X43.43Y91.739
X47.814Y89.532
X47.847Y89.515
X47.879Y89.498
X52.15Y87.078
X52.181Y87.06
X52.213Y87.04
X56.36Y84.415
X56.39Y84.394
X56.421Y84.374
X60.434Y81.547
X60.464Y81.526
X60.493Y81.504
X64.362Y78.484
X64.391Y78.461
X64.419Y78.437
X68.136Y75.231
X68.163Y75.207
X68.19Y75.182
X71.745Y71.797
X71.772Y71.772
X71.797Y71.745
X75.182Y68.19
X75.207Y68.163
X75.231Y68.136
X78.437Y64.419
X78.461Y64.391
X78.484Y64.362
X81.504Y60.493
X81.526Y60.464
X81.547Y60.434
X84.374Y56.421
X84.395Y56.39
X84.415Y56.36
X87.04Y52.213
X87.06Y52.181
X87.078Y52.15
X89.498Y47.879
X89.515Y47.847
X89.532Y47.814
X91.739Y43.43
X91.755Y43.397
X91.771Y43.363
X93.76Y38.876
X93.774Y38.842
X93.788Y38.808
X95.554Y34.229
X95.567Y34.194
X95.579Y34.159
X97.119Y29.499
X97.13Y29.464
X97.14Y29.428
X98.449Y24.698
X98.459Y24.662
X98.467Y24.626
X99.543Y19.837
X99.55Y19.801
X99.557Y19.765
X100.396Y14.929
X100.402Y14.893
X100.407Y14.856
X101.008Y9.985
X101.012Y9.948
X101.015Y9.912
X101.376Y5.017
X101.378Y4.98
X101.38Y4.943
X101.5Y0.036
X101.501Y0
X101.5Y-0.036
X101.38Y-4.943
X101.378Y-4.98
X101.376Y-5.017
X101.015Y-9.912
X101.012Y-9.948
X101.008Y-9.985
X100.407Y-14.856
X100.402Y-14.893
X100.396Y-14.929
X99.557Y-19.765
X99.55Y-19.801
X99.543Y-19.837
X98.467Y-24.626
X98.459Y-24.662
X98.449Y-24.698
X97.14Y-29.428
X97.13Y-29.464
X97.119Y-29.499
X95.579Y-34.159
X95.567Y-34.194
X95.554Y-34.229
X93.788Y-38.808
X93.774Y-38.842
X93.76Y-38.876
X91.771Y-43.363
X91.755Y-43.397
X91.739Y-43.43
X89.532Y-47.814
X89.515Y-47.847
X89.498Y-47.879
X87.078Y-52.15
X87.06Y-52.181
X87.04Y-52.213
X84.415Y-56.36
X84.394Y-56.39
X84.374Y-56.421
X81.547Y-60.434
X81.526Y-60.464
X81.504Y-60.493
X78.484Y-64.362
X78.461Y-64.391
X78.437Y-64.419
X75.231Y-68.136
X75.207Y-68.163
X75.182Y-68.19
X71.797Y-71.745
X71.772Y-71.772
X71.745Y-71.797
X68.19Y-75.182
X68.163Y-75.207
X68.136Y-75.231
X64.419Y-78.437
X64.391Y-78.461
X64.362Y-78.484
X60.493Y-81.504
X60.464Y-81.526
X60.434Y-81.547
X56.421Y-84.374
X56.39Y-84.395
X56.36Y-84.415
X52.213Y-87.04
X52.181Y-87.06
X52.15Y-87.078
X47.879Y-89.498
X47.847Y-89.515
X47.814Y-89.532
X43.43Y-91.739
X43.397Y-91.755
X43.363Y-91.771
X38.876Y-93.76
X38.842Y-93.774
X38.808Y-93.788
X34.229Y-95.554
X34.194Y-95.567
X34.159Y-95.579
X29.499Y-97.119
X29.464Y-97.13
X29.428Y-97.14
X24.698Y-98.449
X24.662Y-98.459
X24.626Y-98.467
X19.837Y-99.543
X19.801Y-99.55
X19.765Y-99.557
X14.929Y-100.396
X14.893Y-100.402
X14.856Y-100.407
X9.985Y-101.008
X9.948Y-101.012
X9.912Y-101.015
X5.017Y-101.376
X4.98Y-101.378
X4.943Y-101.38
X0.036Y-101.5
X0Y-101.501
X-0.036Y-101.5
X-4.943Y-101.38
X-4.98Y-101.378
X-5.017Y-101.376
X-9.912Y-101.015
X-9.948Y-101.012
X-9.985Y-101.008
X-14.856Y-100.407
X-14.893Y-100.402
X-14.929Y-100.396
X-19.765Y-99.557
X-19.801Y-99.55
X-19.837Y-99.543
X-24.626Y-98.467
X-24.662Y-98.459
X-24.698Y-98.449
X-29.428Y-97.14
X-29.464Y-97.13
X-29.499Y-97.119
X-34.159Y-95.579
X-34.194Y-95.567
X-34.229Y-95.554
X-38.808Y-93.788
X-38.842Y-93.774
X-38.876Y-93.76
X-43.363Y-91.771
X-43.397Y-91.755
X-43.43Y-91.739
X-47.814Y-89.532
X-47.847Y-89.515
X-47.879Y-89.498
X-52.15Y-87.078
X-52.181Y-87.06
X-52.213Y-87.04
X-56.36Y-84.415
X-56.39Y-84.394
X-56.421Y-84.374
X-60.434Y-81.547
X-60.464Y-81.526
X-60.493Y-81.504
X-64.362Y-78.484
X-64.391Y-78.461
X-64.419Y-78.437
X-68.136Y-75.231
X-68.163Y-75.207
X-68.19Y-75.182
X-71.745Y-71.797
X-71.772Y-71.772
X-71.797Y-71.745
X-75.182Y-68.19
X-75.207Y-68.163
X-75.231Y-68.136
X-78.437Y-64.419
X-78.461Y-64.391
X-78.484Y-64.362
X-81.504Y-60.493
X-81.526Y-60.464
X-81.547Y-60.434
X-84.374Y-56.421
X-84.394Y-56.39
X-84.415Y-56.36
X-87.04Y-52.213
X-87.06Y-52.181
X-87.078Y-52.15
X-89.498Y-47.879
X-89.515Y-47.847
X-89.532Y-47.814
X-91.739Y-43.43
X-91.755Y-43.397
X-91.771Y-43.363
X-93.76Y-38.876
X-93.774Y-38.842
X-93.788Y-38.808
X-95.554Y-34.229
X-95.567Y-34.194
X-95.579Y-34.159
X-97.119Y-29.499
X-97.13Y-29.464
X-97.14Y-29.428
X-98.449Y-24.698
X-98.459Y-24.662
X-98.467Y-24.626
X-99.543Y-19.837
X-99.55Y-19.801
X-99.557Y-19.765
X-100.396Y-14.929
X-100.402Y-14.893
X-100.407Y-14.856
X-101.008Y-9.985
Z-4F500
X-101.012Y-9.948F1000
X-101.015Y-9.912
X-101.376Y-5.017
X-101.378Y-4.98
X-101.38Y-4.943
X-101.5Y-0.036
X-101.501Y0
X-101.5Y0.036
X-101.38Y4.943
X-101.378Y4.98
X-101.376Y5.017
X-101.015Y9.912
X-101.012Y9.948
X-101.008Y9.985
X-100.407Y14.856
X-100.402Y14.893
X-100.396Y14.929
X-99.557Y19.765
X-99.55Y19.801
X-99.543Y19.837
X-98.467Y24.626
X-98.459Y24.662
X-98.449Y24.698
X-97.14Y29.428
X-97.13Y29.464
X-97.119Y29.499
X-95.579Y34.159
X-95.567Y34.194
X-95.554Y34.229
X-93.788Y38.808
X-93.774Y38.842
X-93.76Y38.876
X-91.771Y43.363
X-91.755Y43.397
X-91.739Y43.43
X-89.532Y47.814
X-89.515Y47.847
X-89.498Y47.879
X-87.078Y52.15
X-87.06Y52.181
X-87.04Y52.213
X-84.415Y56.36
X-84.394Y56.39
X-84.374Y56.421
X-81.547Y60.434
X-81.526Y60.464
X-81.504Y60.493
X-78.484Y64.362
X-78.461Y64.391
X-78.437Y64.419
X-75.231Y68.136
X-75.207Y68.163
X-75.182Y68.19
X-71.797Y71.745
X-71.772Y71.772
X-71.745Y71.797
X-68.19Y75.182
X-68.163Y75.207
X-68.136Y75.231
X-64.419Y78.437
X-64.391Y78.461
X-64.362Y78.484
X-60.493Y81.504
X-60.464Y81.526
X-60.434Y81.547
X-56.421Y84.374
X-56.39Y84.395
X-56.36Y84.415
X-52.213Y87.04
X-52.181Y87.06
X-52.15Y87.078
X-47.879Y89.498
X-47.847Y89.515
X-47.814Y89.532
X-43.43Y91.739
X-43.397Y91.755
X-43.363Y91.771
X-38.876Y93.76
X-38.842Y93.774
X-38.808Y93.788
X-34.229Y95.554
X-34.194Y95.567
X-34.159Y95.579
X-29.499Y97.119
X-29.464Y97.13
X-29.428Y97.14
X-24.698Y98.449
X-24.662Y98.459
X-24.626Y98.467
X-19.837Y99.543
X-19.801Y99.55
X-19.765Y99.557
X-14.929Y100.396
X-14.893Y100.402
X-14.856Y100.407
X-9.985Y101.008
X-9.948Y101.012
X-9.912Y101.015
X-5.017Y101.376
X-4.98Y101.378
X-4.943Y101.38
X-0.036Y101.5
X0Y101.501
X0.036Y101.5
X4.943Y101.38
X4.98Y101.378
X5.017Y101.376
X9.912Y101.015
X9.948Y101.012
X9.985Y101.008
X14.856Y100.407
X14.893Y100.402
X14.929Y100.396
X19.765Y99.557
X19.801Y99.55
X19.837Y99.543
X24.626Y98.467
X24.662Y98.459
X24.698Y98.449
X29.428Y97.14
X29.464Y97.13
X29.499Y97.119
X34.159Y95.579
X34.194Y95.567
X34.229Y95.554
X38.808Y93.788
X38.842Y93.774
X38.876Y93.76
X43.363Y91.771
X43.397Y91.755
X43.43Y91.739
X47.814Y89.532
X47.847Y89.515
X47.879Y89.498
X52.15Y87.078
X52.181Y87.06
X52.213Y87.04
X56.36Y84.415
X56.39Y84.394
X56.421Y84.374
X60.434Y81.547
X60.464Y81.526
X60.493Y81.504
X64.362Y78.484
X64.391Y78.461
X64.419Y78.437
X68.136Y75.231
X68.163Y75.207
X68.19Y75.182
X71.745Y71.797
X71.772Y71.772
X71.797Y71.745
X75.182Y68.19
X75.207Y68.163
X75.231Y68.136
X78.437Y64.419
X78.461Y64.391
X78.484Y64.362
X81.504Y60.493
X81.526Y60.464
X81.547Y60.434
X84.374Y56.421
X84.395Y56.39
X84.415Y56.36
X87.04Y52.213
X87.06Y52.181
X87.078Y52.15
X89.498Y47.879
X89.515Y47.847
X89.532Y47.814
X91.739Y43.43
X91.755Y43.397
X91.771Y43.363
X93.76Y38.876
X93.774Y38.842
X93.788Y38.808
X95.554Y34.229
X95.567Y34.194
X95.579Y34.159
X97.119Y29.499
X97.13Y29.464
X97.14Y29.428
X98.449Y24.698
X98.459Y24.662
X98.467Y24.626
X99.543Y19.837
X99.55Y19.801
X99.557Y19.765
X100.396Y14.929
X100.402Y14.893
X100.407Y14.856
X101.008Y9.985
X101.012Y9.948
X101.015Y9.912
X101.376Y5.017
X101.378Y4.98
X101.38Y4.943
X101.5Y0.036
X101.501Y0
X101.5Y-0.036
X101.38Y-4.943
X101.378Y-4.98
X101.376Y-5.017
X101.015Y-9.912
X101.012Y-9.948
X101.008Y-9.985
X100.407Y-14.856
X100.402Y-14.893
X100.396Y-14.929
X99.557Y-19.765
X99.55Y-19.801
X99.543Y-19.837
X98.467Y-24.626
X98.459Y-24.662
X98.449Y-24.698
X97.14Y-29.428
X97.13Y-29.464
X97.119Y-29.499
X95.579Y-34.159
X95.567Y-34.194
X95.554Y-34.229
X93.788Y-38.808
X93.774Y-38.842
X93.76Y-38.876
X91.771Y-43.363
X91.755Y-43.397
X91.739Y-43.43
X89.532Y-47.814
X89.515Y-47.847
X89.498Y-47.879
X87.078Y-52.15
X87.06Y-52.181
X87.04Y-52.213
X84.415Y-56.36
X84.394Y-56.39
X84.374Y-56.421
X81.547Y-60.434
X81.526Y-60.464
X81.504Y-60.493
X78.484Y-64.362
X78.461Y-64.391
X78.437Y-64.419
X75.231Y-68.136
X75.207Y-68.163
X75.182Y-68.19
X71.797Y-71.745
X71.772Y-71.772
X71.745Y-71.797
X68.19Y-75.182
X68.163Y-75.207
X68.136Y-75.231
X64.419Y-78.437
X64.391Y-78.461
X64.362Y-78.484
X60.493Y-81.504
X60.464Y-81.526
X60.434Y-81.547
X56.421Y-84.374
X56.39Y-84.395
X56.36Y-84.415
X52.213Y-87.04
X52.181Y-87.06
X52.15Y-87.078
X47.879Y-89.498
X47.847Y-89.515
X47.814Y-89.532
X43.43Y-91.739
X43.397Y-91.755
X43.363Y-91.771
X38.876Y-93.76
X38.842Y-93.774
X38.808Y-93.788
X34.229Y-95.554
X34.194Y-95.567
X34.159Y-95.579
X29.499Y-97.119
X29.464Y-97.13
X29.428Y-97.14
X24.698Y-98.449
X24.662Y-98.459
X24.626Y-98.467
X19.837Y-99.543
X19.801Y-99.55
X19.765Y-99.557
X14.929Y-100.396
X14.893Y-100.402
X14.856Y-100.407
X9.985Y-101.008
X9.948Y-101.012
X9.912Y-101.015
X5.017Y-101.376
X4.98Y-101.378
X4.943Y-101.38
X0.036Y-101.5
X0Y-101.501
X-0.036Y-101.5
X-4.943Y-101.38
X-4.98Y-101.378
X-5.017Y-101.376
X-9.912Y-101.015
X-9.948Y-101.012
X-9.985Y-101.008
X-14.856Y-100.407
X-14.893Y-100.402
X-14.929Y-100.396
X-19.765Y-99.557
X-19.801Y-99.55
X-19.837Y-99.543
X-24.626Y-98.467
X-24.662Y-98.459
X-24.698Y-98.449
X-29.428Y-97.14
X-29.464Y-97.13
X-29.499Y-97.119
X-34.159Y-95.579
X-34.194Y-95.567
X-34.229Y-95.554
X-38.808Y-93.788
X-38.842Y-93.774
X-38.876Y-93.76
X-43.363Y-91.771
X-43.397Y-91.755
X-43.43Y-91.739
X-47.814Y-89.532
X-47.847Y-89.515
X-47.879Y-89.498
X-52.15Y-87.078
X-52.181Y-87.06
X-52.213Y-87.04
X-56.36Y-84.415
X-56.39Y-84.394
X-56.421Y-84.374
X-60.434Y-81.547
X-60.464Y-81.526
X-60.493Y-81.504
X-64.362Y-78.484
X-64.391Y-78.461
X-64.419Y-78.437
X-68.136Y-75.231
X-68.163Y-75.207
X-68.19Y-75.182
X-71.745Y-71.797
X-71.772Y-71.772
X-71.797Y-71.745
X-75.182Y-68.19
X-75.207Y-68.163
X-75.231Y-68.136
X-78.437Y-64.419
X-78.461Y-64.391
X-78.484Y-64.362
X-81.504Y-60.493
X-81.526Y-60.464
X-81.547Y-60.434
X-84.374Y-56.421
X-84.394Y-56.39
X-84.415Y-56.36
X-87.04Y-52.213
X-87.06Y-52.181
X-87.078Y-52.15
X-89.498Y-47.879
X-89.515Y-47.847
X-89.532Y-47.814
X-91.739Y-43.43
X-91.755Y-43.397
X-91.771Y-43.363
X-93.76Y-38.876
X-93.774Y-38.842
X-93.788Y-38.808
X-95.554Y-34.229
X-95.567Y-34.194
X-95.579Y-34.159
X-97.119Y-29.499
X-97.13Y-29.464
X-97.14Y-29.428
X-98.449Y-24.698
X-98.459Y-24.662
X-98.467Y-24.626
X-99.543Y-19.837
X-99.55Y-19.801
X-99.557Y-19.765
X-100.396Y-14.929
X-100.402Y-14.893
X-100.407Y-14.856
X-101.008Y-9.985
Z-5F500
X-101.012Y-9.948F1000
X-101.015Y-9.912
X-101.376Y-5.017
X-101.378Y-4.98
X-101.38Y-4.943
X-101.5Y-0.036
X-101.501Y0
X-101.5Y0.036
X-101.38Y4.943
X-101.378Y4.98
X-101.376Y5.017
X-101.015Y9.912
X-101.012Y9.948
X-101.008Y9.985
X-100.407Y14.856
X-100.402Y14.893
X-100.396Y14.929
X-99.557Y19.765
X-99.55Y19.801
X-99.543Y19.837
X-98.467Y24.626
X-98.459Y24.662
X-98.449Y24.698
X-97.14Y29.428
X-97.13Y29.464
X-97.119Y29.499
X-95.579Y34.159
X-95.567Y34.194
X-95.554Y34.229
X-93.788Y38.808
X-93.774Y38.842
X-93.76Y38.876
X-91.771Y43.363
X-91.755Y43.397
X-91.739Y43.43
X-89.532Y47.814
X-89.515Y47.847
X-89.498Y47.879
X-87.078Y52.15
X-87.06Y52.181
X-87.04Y52.213
X-84.415Y56.36
X-84.394Y56.39
X-84.374Y56.421
X-81.547Y60.434
X-81.526Y60.464
X-81.504Y60.493
X-78.484Y64.362
X-78.461Y64.391
X-78.437Y64.419
X-75.231Y68.136
X-75.207Y68.163
X-75.182Y68.19
X-71.797Y71.745
X-71.772Y71.772
X-71.745Y71.797
X-68.19Y75.182
X-68.163Y75.207
X-68.136Y75.231
X-64.419Y78.437
X-64.391Y78.461
X-64.362Y78.484
X-60.493Y81.504
X-60.464Y81.526
X-60.434Y81.547
X-56.421Y84.374
X-56.39Y84.395
X-56.36Y84.415
X-52.213Y87.04
X-52.181Y87.06
X-52.15Y87.078
X-47.879Y89.498
X-47.847Y89.515
X-47.814Y89.532
X-43.43Y91.739
X-43.397Y91.755
X-43.363Y91.771
X-38.876Y93.76
X-38.842Y93.774
X-38.808Y93.788
X-34.229Y95.554
X-34.194Y95.567
X-34.159Y95.579
X-29.499Y97.119
X-29.464Y97.13
X-29.428Y97.14
X-24.698Y98.449
X-24.662Y98.459
X-24.626Y98.467
X-19.837Y99.543
X-19.801Y99.55
X-19.765Y99.557
X-14.929Y100.396
X-14.893Y100.402
X-14.856Y100.407
X-9.985Y101.008
X-9.948Y101.012
X-9.912Y101.015
X-5.017Y101.376
X-4.98Y101.378
X-4.943Y101.38
X-0.036Y101.5
X0Y101.501
X0.036Y101.5
X4.943Y101.38
X4.98Y101.378
X5.017Y101.376
X9.912Y101.015
X9.948Y101.012
X9.985Y101.008
X14.856Y100.407
X14.893Y100.402
X14.929Y100.396
X19.765Y99.557
X19.801Y99.55
X19.837Y99.543
X24.626Y98.467
X24.662Y98.459
X24.698Y98.449
X29.428Y97.14
X29.464Y97.13
X29.499Y97.119
X34.159Y95.579
X34.194Y95.567
X34.229Y95.554
X38.808Y93.788
X38.842Y93.774
X38.876Y93.76
X43.363Y91.771
X43.397Y91.755
X43.43Y91.739
X47.814Y89.532
X47.847Y89.515
X47.879Y89.498
X52.15Y87.078
X52.181Y87.06
X52.213Y87.04
X56.36Y84.415
X56.39Y84.394
X56.421Y84.374
X60.434Y81.547
X60.464Y81.526
X60.493Y81.504
X64.362Y78.484
X64.391Y78.461
X64.419Y78.437
X68.136Y75.231
X68.163Y75.207
X68.19Y75.182
X71.745Y71.797
X71.772Y71.772
X71.797Y71.745
X75.182Y68.19
X75.207Y68.163
X75.231Y68.136
X78.437Y64.419
X78.461Y64.391
X78.484Y64.362
X81.504Y60.493
X81.526Y60.464
X81.547Y60.434
X84.374Y56.421
X84.395Y56.39
X84.415Y56.36
X87.04Y52.213
X87.06Y52.181
X87.078Y52.15
X89.498Y47.879
X89.515Y47.847
X89.532Y47.814
X91.739Y43.43
X91.755Y43.397
X91.771Y43.363
X93.76Y38.876
X93.774Y38.842
X93.788Y38.808
X95.554Y34.229
X95.567Y34.194
X95.579Y34.159
X97.119Y29.499
X97.13Y29.464
X97.14Y29.428
X98.449Y24.698
X98.459Y24.662
X98.467Y24.626
X99.543Y19.837
X99.55Y19.801
X99.557Y19.765
X100.396Y14.929
X100.402Y14.893
X100.407Y14.856
X101.008Y9.985
X101.012Y9.948
X101.015Y9.912
X101.376Y5.017
X101.378Y4.98
X101.38Y4.943
X101.5Y0.036
X101.501Y0
X101.5Y-0.036
X101.38Y-4.943
X101.378Y-4.98
X101.376Y-5.017
X101.015Y-9.912
X101.012Y-9.948
X101.008Y-9.985
X100.407Y-14.856
X100.402Y-14.893
X100.396Y-14.929
X99.557Y-19.765
X99.55Y-19.801
X99.543Y-19.837
X98.467Y-24.626
X98.459Y-24.662
X98.449Y-24.698
X97.14Y-29.428
X97.13Y-29.464
X97.119Y-29.499
X95.579Y-34.159
X95.567Y-34.194
X95.554Y-34.229
X93.788Y-38.808
X93.774Y-38.842
X93.76Y-38.876
X91.771Y-43.363
X91.755Y-43.397
X91.739Y-43.43
X89.532Y-47.814
X89.515Y-47.847
X89.498Y-47.879
X87.078Y-52.15
X87.06Y-52.181
X87.04Y-52.213
X84.415Y-56.36
X84.394Y-56.39
X84.374Y-56.421
X81.547Y-60.434
X81.526Y-60.464
X81.504Y-60.493
X78.484Y-64.362
X78.461Y-64.391
X78.437Y-64.419
X75.231Y-68.136
X75.207Y-68.163
X75.182Y-68.19
X71.797Y-71.745
X71.772Y-71.772
X71.745Y-71.797
X68.19Y-75.182
X68.163Y-75.207
X68.136Y-75.231
X64.419Y-78.437
X64.391Y-78.461
X64.362Y-78.484
X60.493Y-81.504
X60.464Y-81.526
X60.434Y-81.547
X56.421Y-84.374
X56.39Y-84.395
X56.36Y-84.415
X52.213Y-87.04
X52.181Y-87.06
X52.15Y-87.078
X47.879Y-89.498
X47.847Y-89.515
X47.814Y-89.532
X43.43Y-91.739
X43.397Y-91.755
X43.363Y-91.771
X38.876Y-93.76
X38.842Y-93.774
X38.808Y-93.788
X34.229Y-95.554
X34.194Y-95.567
X34.159Y-95.579
X29.499Y-97.119
X29.464Y-97.13
X29.428Y-97.14
X24.698Y-98.449
X24.662Y-98.459
X24.626Y-98.467
X19.837Y-99.543
X19.801Y-99.55
X19.765Y-99.557
X14.929Y-100.396
X14.893Y-100.402
X14.856Y-100.407
X9.985Y-101.008
X9.948Y-101.012
X9.912Y-101.015
X5.017Y-101.376
X4.98Y-101.378
X4.943Y-101.38
X0.036Y-101.5
X0Y-101.501
X-0.036Y-101.5
X-4.943Y-101.38
X-4.98Y-101.378
X-5.017Y-101.376
X-9.912Y-101.015
X-9.948Y-101.012
X-9.985Y-101.008
X-14.856Y-100.407
X-14.893Y-100.402
X-14.929Y-100.396
X-19.765Y-99.557
X-19.801Y-99.55
X-19.837Y-99.543
X-24.626Y-98.467
X-24.662Y-98.459
X-24.698Y-98.449
X-29.428Y-97.14
X-29.464Y-97.13
X-29.499Y-97.119
X-34.159Y-95.579
X-34.194Y-95.567
X-34.229Y-95.554
X-38.808Y-93.788
X-38.842Y-93.774
X-38.876Y-93.76
X-43.363Y-91.771
X-43.397Y-91.755
X-43.43Y-91.739
X-47.814Y-89.532
X-47.847Y-89.515
X-47.879Y-89.498
X-52.15Y-87.078
X-52.181Y-87.06
X-52.213Y-87.04
X-56.36Y-84.415
X-56.39Y-84.394
X-56.421Y-84.374
X-60.434Y-81.547
X-60.464Y-81.526
X-60.493Y-81.504
X-64.362Y-78.484
X-64.391Y-78.461
X-64.419Y-78.437
X-68.136Y-75.231
X-68.163Y-75.207
X-68.19Y-75.182
X-71.745Y-71.797
X-71.772Y-71.772
X-71.797Y-71.745
X-75.182Y-68.19
X-75.207Y-68.163
X-75.231Y-68.136
X-78.437Y-64.419
X-78.461Y-64.391
X-78.484Y-64.362
X-81.504Y-60.493
X-81.526Y-60.464
X-81.547Y-60.434
X-84.374Y-56.421
X-84.394Y-56.39
X-84.415Y-56.36
X-87.04Y-52.213
X-87.06Y-52.181
X-87.078Y-52.15
X-89.498Y-47.879
X-89.515Y-47.847
X-89.532Y-47.814
X-91.739Y-43.43
X-91.755Y-43.397
X-91.771Y-43.363
X-93.76Y-38.876
X-93.774Y-38.842
X-93.788Y-38.808
X-95.554Y-34.229
X-95.567Y-34.194
X-95.579Y-34.159
X-97.119Y-29.499
X-97.13Y-29.464
X-97.14Y-29.428
X-98.449Y-24.698
X-98.459Y-24.662
X-98.467Y-24.626
X-99.543Y-19.837
X-99.55Y-19.801
X-99.557Y-19.765
X-100.396Y-14.929
X-100.402Y-14.893
X-100.407Y-14.856
X-101.008Y-9.985
Z-6F500
X-101.012Y-9.948F1000
X-101.015Y-9.912
X-101.376Y-5.017
X-101.378Y-4.98
X-101.38Y-4.943
X-101.5Y-0.036
X-101.501Y0
X-101.5Y0.036
X-101.38Y4.943
X-101.378Y4.98
X-101.376Y5.017
X-101.015Y9.912
X-101.012Y9.948
X-101.008Y9.985
X-100.407Y14.856
X-100.402Y14.893
X-100.396Y14.929
X-99.557Y19.765
X-99.55Y19.801
X-99.543Y19.837
X-98.467Y24.626
X-98.459Y24.662
X-98.449Y24.698
X-97.14Y29.428
X-97.13Y29.464
X-97.119Y29.499
X-95.579Y34.159
X-95.567Y34.194
X-95.554Y34.229
X-93.788Y38.808
X-93.774Y38.842
X-93.76Y38.876
X-91.771Y43.363
X-91.755Y43.397
X-91.739Y43.43
X-89.532Y47.814
X-89.515Y47.847
X-89.498Y47.879
X-87.078Y52.15
X-87.06Y52.181
X-87.04Y52.213
X-84.415Y56.36
X-84.394Y56.39
X-84.374Y56.421
X-81.547Y60.434
X-81.526Y60.464
X-81.504Y60.493
X-78.484Y64.362
X-78.461Y64.391
X-78.437Y64.419
X-75.231Y68.136
X-75.207Y68.163
X-75.182Y68.19
X-71.797Y71.745
X-71.772Y71.772
X-71.745Y71.797
X-68.19Y75.182
X-68.163Y75.207
X-68.136Y75.231
X-64.419Y78.437
X-64.391Y78.461
X-64.362Y78.484
X-60.493Y81.504
X-60.464Y81.526
X-60.434Y81.547
X-56.421Y84.374
X-56.39Y84.395
X-56.36Y84.415
X-52.213Y87.04
X-52.181Y87.06
X-52.15Y87.078
X-47.879Y89.498
X-47.847Y89.515
X-47.814Y89.532
X-43.43Y91.739
X-43.397Y91.755
X-43.363Y91.771
X-38.876Y93.76
X-38.842Y93.774
X-38.808Y93.788
X-34.229Y95.554
X-34.194Y95.567
X-34.159Y95.579
X-29.499Y97.119
X-29.464Y97.13
X-29.428Y97.14
X-24.698Y98.449
X-24.662Y98.459
X-24.626Y98.467
X-19.837Y99.543
X-19.801Y99.55
X-19.765Y99.557
X-14.929Y100.396
X-14.893Y100.402
X-14.856Y100.407
X-9.985Y101.008
X-9.948Y101.012
X-9.912Y101.015
X-5.017Y101.376
X-4.98Y101.378
X-4.943Y101.38
X-0.036Y101.5
X0Y101.501
X0.036Y101.5
X4.943Y101.38
X4.98Y101.378
X5.017Y101.376
X9.912Y101.015
X9.948Y101.012
X9.985Y101.008
X14.856Y100.407
X14.893Y100.402
X14.929Y100.396
X19.765Y99.557
X19.801Y99.55
X19.837Y99.543
X24.626Y98.467
X24.662Y98.459
X24.698Y98.449
X29.428Y97.14
X29.464Y97.13
X29.499Y97.119
X34.159Y95.579
X34.194Y95.567
X34.229Y95.554
X38.808Y93.788
X38.842Y93.774
X38.876Y93.76
X43.363Y91.771
X43.397Y91.755
X43.43Y91.739
X47.814Y89.532
X47.847Y89.515
X47.879Y89.498
X52.15Y87.078
X52.181Y87.06
X52.213Y87.04
X56.36Y84.415
X56.39Y84.394
X56.421Y84.374
X60.434Y81.547
X60.464Y81.526
X60.493Y81.504
X64.362Y78.484
X64.391Y78.461
X64.419Y78.437
X68.136Y75.231
X68.163Y75.207
X68.19Y75.182
X71.745Y71.797
X71.772Y71.772
X71.797Y71.745
X75.182Y68.19
X75.207Y68.163
X75.231Y68.136
X78.437Y64.419
X78.461Y64.391
X78.484Y64.362
X81.504Y60.493
X81.526Y60.464
X81.547Y60.434
X84.374Y56.421
X84.395Y56.39
X84.415Y56.36
X87.04Y52.213
X87.06Y52.181
X87.078Y52.15
X89.498Y47.879
X89.515Y47.847
X89.532Y47.814
X91.739Y43.43
X91.755Y43.397
X91.771Y43.363
X93.76Y38.876
X93.774Y38.842
X93.788Y38.808
X95.554Y34.229
X95.567Y34.194
X95.579Y34.159
X97.119Y29.499
X97.13Y29.464
X97.14Y29.428
X98.449Y24.698
X98.459Y24.662
X98.467Y24.626
X99.543Y19.837
X99.55Y19.801
X99.557Y19.765
X100.396Y14.929
X100.402Y14.893
X100.407Y14.856
X101.008Y9.985
X101.012Y9.948
X101.015Y9.912
X101.376Y5.017
X101.378Y4.98
X101.38Y4.943
X101.5Y0.036
X101.501Y0
X101.5Y-0.036
X101.38Y-4.943
X101.378Y-4.98
X101.376Y-5.017
X101.015Y-9.912
X101.012Y-9.948
X101.008Y-9.985
X100.407Y-14.856
X100.402Y-14.893
X100.396Y-14.929
X99.557Y-19.765
X99.55Y-19.801
X99.543Y-19.837
X98.467Y-24.626
X98.459Y-24.662
X98.449Y-24.698
X97.14Y-29.428
X97.13Y-29.464
X97.119Y-29.499
X95.579Y-34.159
X95.567Y-34.194
X95.554Y-34.229
X93.788Y-38.808
X93.774Y-38.842
X93.76Y-38.876
X91.771Y-43.363
X91.755Y-43.397
X91.739Y-43.43
X89.532Y-47.814
X89.515Y-47.847
X89.498Y-47.879
X87.078Y-52.15
X87.06Y-52.181
X87.04Y-52.213
X84.415Y-56.36
X84.394Y-56.39
X84.374Y-56.421
X81.547Y-60.434
X81.526Y-60.464
X81.504Y-60.493
X78.484Y-64.362
X78.461Y-64.391
X78.437Y-64.419
X75.231Y-68.136
X75.207Y-68.163
X75.182Y-68.19
X71.797Y-71.745
X71.772Y-71.772
X71.745Y-71.797
X68.19Y-75.182
X68.163Y-75.207
X68.136Y-75.231
X64.419Y-78.437
X64.391Y-78.461
X64.362Y-78.484
X60.493Y-81.504
X60.464Y-81.526
X60.434Y-81.547
X56.421Y-84.374
X56.39Y-84.395
X56.36Y-84.415
X52.213Y-87.04
X52.181Y-87.06
X52.15Y-87.078
X47.879Y-89.498
X47.847Y-89.515
X47.814Y-89.532
X43.43Y-91.739
X43.397Y-91.755
X43.363Y-91.771
X38.876Y-93.76
X38.842Y-93.774
X38.808Y-93.788
X34.229Y-95.554
X34.194Y-95.567
X34.159Y-95.579
X29.499Y-97.119
X29.464Y-97.13
X29.428Y-97.14
X24.698Y-98.449
X24.662Y-98.459
X24.626Y-98.467
X19.837Y-99.543
X19.801Y-99.55
X19.765Y-99.557
X14.929Y-100.396
X14.893Y-100.402
X14.856Y-100.407
X9.985Y-101.008
X9.948Y-101.012
X9.912Y-101.015
X5.017Y-101.376
X4.98Y-101.378
X4.943Y-101.38
X0.036Y-101.5
X0Y-101.501
X-0.036Y-101.5
X-4.943Y-101.38
X-4.98Y-101.378
X-5.017Y-101.376
X-9.912Y-101.015
X-9.948Y-101.012
X-9.985Y-101.008
X-14.856Y-100.407
X-14.893Y-100.402
X-14.929Y-100.396
X-19.765Y-99.557
X-19.801Y-99.55
X-19.837Y-99.543
X-24.626Y-98.467
X-24.662Y-98.459
X-24.698Y-98.449
X-29.428Y-97.14
X-29.464Y-97.13
X-29.499Y-97.119
X-34.159Y-95.579
X-34.194Y-95.567
X-34.229Y-95.554
X-38.808Y-93.788
X-38.842Y-93.774
X-38.876Y-93.76
X-43.363Y-91.771
X-43.397Y-91.755
X-43.43Y-91.739
X-47.814Y-89.532
X-47.847Y-89.515
X-47.879Y-89.498
X-52.15Y-87.078
X-52.181Y-87.06
X-52.213Y-87.04
X-56.36Y-84.415
X-56.39Y-84.394
X-56.421Y-84.374
X-60.434Y-81.547
X-60.464Y-81.526
X-60.493Y-81.504
X-64.362Y-78.484
X-64.391Y-78.461
X-64.419Y-78.437
X-68.136Y-75.231
X-68.163Y-75.207
X-68.19Y-75.182
X-71.745Y-71.797
X-71.772Y-71.772
X-71.797Y-71.745
X-75.182Y-68.19
X-75.207Y-68.163
X-75.231Y-68.136
X-78.437Y-64.419
X-78.461Y-64.391
X-78.484Y-64.362
X-81.504Y-60.493
X-81.526Y-60.464
X-81.547Y-60.434
X-84.374Y-56.421
X-84.394Y-56.39
X-84.415Y-56.36
X-87.04Y-52.213
X-87.06Y-52.181
X-87.078Y-52.15
X-89.498Y-47.879
X-89.515Y-47.847
X-89.532Y-47.814
X-91.739Y-43.43
X-91.755Y-43.397
X-91.771Y-43.363
X-93.76Y-38.876
X-93.774Y-38.842
X-93.788Y-38.808
X-95.554Y-34.229
X-95.567Y-34.194
X-95.579Y-34.159
X-97.119Y-29.499
X-97.13Y-29.464
X-97.14Y-29.428
X-98.449Y-24.698
X-98.459Y-24.662
X-98.467Y-24.626
X-99.543Y-19.837
X-99.55Y-19.801
X-99.557Y-19.765
X-100.396Y-14.929
X-100.402Y-14.893
X-100.407Y-14.856
X-101.008Y-9.985
Z-7F500
X-101.012Y-9.948F1000
X-101.015Y-9.912
X-101.376Y-5.017
X-101.378Y-4.98
X-101.38Y-4.943
X-101.5Y-0.036
X-101.501Y0
X-101.5Y0.036
X-101.38Y4.943
X-101.378Y4.98
X-101.376Y5.017
X-101.015Y9.912
X-101.012Y9.948
X-101.008Y9.985
X-100.407Y14.856
X-100.402Y14.893
X-100.396Y14.929
X-99.557Y19.765
X-99.55Y19.801
X-99.543Y19.837
X-98.467Y24.626
X-98.459Y24.662
X-98.449Y24.698
X-97.14Y29.428
X-97.13Y29.464
X-97.119Y29.499
X-95.579Y34.159
X-95.567Y34.194
X-95.554Y34.229
X-93.788Y38.808
X-93.774Y38.842
X-93.76Y38.876
X-91.771Y43.363
X-91.755Y43.397
X-91.739Y43.43
X-89.532Y47.814
X-89.515Y47.847
X-89.498Y47.879
X-87.078Y52.15
X-87.06Y52.181
X-87.04Y52.213
X-84.415Y56.36
X-84.394Y56.39
X-84.374Y56.421
X-81.547Y60.434
X-81.526Y60.464
X-81.504Y60.493
X-78.484Y64.362
X-78.461Y64.391
X-78.437Y64.419
X-75.231Y68.136
X-75.207Y68.163
X-75.182Y68.19
X-71.797Y71.745
X-71.772Y71.772
X-71.745Y71.797
X-68.19Y75.182
X-68.163Y75.207
X-68.136Y75.231
X-64.419Y78.437
X-64.391Y78.461
X-64.362Y78.484
X-60.493Y81.504
X-60.464Y81.526
X-60.434Y81.547
X-56.421Y84.374
X-56.39Y84.395
X-56.36Y84.415
X-52.213Y87.04
X-52.181Y87.06
X-52.15Y87.078
X-47.879Y89.498
X-47.847Y89.515
X-47.814Y89.532
X-43.43Y91.739
X-43.397Y91.755
X-43.363Y91.771
X-38.876Y93.76
X-38.842Y93.774
X-38.808Y93.788
X-34.229Y95.554
X-34.194Y95.567
X-34.159Y95.579
X-29.499Y97.119
X-29.464Y97.13
X-29.428Y97.14
X-24.698Y98.449
X-24.662Y98.459
X-24.626Y98.467
X-19.837Y99.543
X-19.801Y99.55
X-19.765Y99.557
X-14.929Y100.396
X-14.893Y100.402
X-14.856Y100.407
X-9.985Y101.008
X-9.948Y101.012
X-9.912Y101.015
X-5.017Y101.376
X-4.98Y101.378
X-4.943Y101.38
X-0.036Y101.5
X0Y101.501
X0.036Y101.5
X4.943Y101.38
X4.98Y101.378
X5.017Y101.376
X9.912Y101.015
X9.948Y101.012
X9.985Y101.008
X14.856Y100.407
X14.893Y100.402
X14.929Y100.396
X19.765Y99.557
X19.801Y99.55
X19.837Y99.543
X24.626Y98.467
X24.662Y98.459
X24.698Y98.449
X29.428Y97.14
X29.464Y97.13
X29.499Y97.119
X34.159Y95.579
X34.194Y95.567
X34.229Y95.554
X38.808Y93.788
X38.842Y93.774
X38.876Y93.76
X43.363Y91.771
X43.397Y91.755
X43.43Y91.739
X47.814Y89.532
X47.847Y89.515
X47.879Y89.498
X52.15Y87.078
X52.181Y87.06
X52.213Y87.04
X56.36Y84.415
X56.39Y84.394
X56.421Y84.374
X60.434Y81.547
X60.464Y81.526
X60.493Y81.504
X64.362Y78.484
X64.391Y78.461
X64.419Y78.437
X68.136Y75.231
X68.163Y75.207
X68.19Y75.182
X71.745Y71.797
X71.772Y71.772
X71.797Y71.745
X75.182Y68.19
X75.207Y68.163
X75.231Y68.136
X78.437Y64.419
X78.461Y64.391
X78.484Y64.362
X81.504Y60.493
X81.526Y60.464
X81.547Y60.434
X84.374Y56.421
X84.395Y56.39
X84.415Y56.36
X87.04Y52.213
X87.06Y52.181
X87.078Y52.15
X89.498Y47.879
X89.515Y47.847
X89.532Y47.814
X91.739Y43.43
X91.755Y43.397
X91.771Y43.363
X93.76Y38.876
X93.774Y38.842
X93.788Y38.808
X95.554Y34.229
X95.567Y34.194
X95.579Y34.159
X97.119Y29.499
X97.13Y29.464
X97.14Y29.428
X98.449Y24.698
X98.459Y24.662
X98.467Y24.626
X99.543Y19.837
X99.55Y19.801
X99.557Y19.765
X100.396Y14.929
X100.402Y14.893
X100.407Y14.856
X101.008Y9.985
X101.012Y9.948
X101.015Y9.912
X101.376Y5.017
X101.378Y4.98
X101.38Y4.943
X101.5Y0.036
X101.501Y0
X101.5Y-0.036
X101.38Y-4.943
X101.378Y-4.98
X101.376Y-5.017
X101.015Y-9.912
X101.012Y-9.948
X101.008Y-9.985
X100.407Y-14.856
X100.402Y-14.893
X100.396Y-14.929
X99.557Y-19.765
X99.55Y-19.801
X99.543Y-19.837
X98.467Y-24.626
X98.459Y-24.662
X98.449Y-24.698
X97.14Y-29.428
X97.13Y-29.464
X97.119Y-29.499
X95.579Y-34.159
X95.567Y-34.194
X95.554Y-34.229
X93.788Y-38.808
X93.774Y-38.842
X93.76Y-38.876
X91.771Y-43.363
X91.755Y-43.397
X91.739Y-43.43
X89.532Y-47.814
X89.515Y-47.847
X89.498Y-47.879
X87.078Y-52.15
X87.06Y-52.181
X87.04Y-52.213
X84.415Y-56.36
X84.394Y-56.39
X84.374Y-56.421
X81.547Y-60.434
X81.526Y-60.464
X81.504Y-60.493
X78.484Y-64.362
X78.461Y-64.391
X78.437Y-64.419
X75.231Y-68.136
X75.207Y-68.163
X75.182Y-68.19
X71.797Y-71.745
X71.772Y-71.772
X71.745Y-71.797
X68.19Y-75.182
X68.163Y-75.207
X68.136Y-75.231
X64.419Y-78.437
X64.391Y-78.461
X64.362Y-78.484
X60.493Y-81.504
X60.464Y-81.526
X60.434Y-81.547
X56.421Y-84.374
X56.39Y-84.395
X56.36Y-84.415
X52.213Y-87.04
X52.181Y-87.06
X52.15Y-87.078
X47.879Y-89.498
X47.847Y-89.515
X47.814Y-89.532
X43.43Y-91.739
X43.397Y-91.755
X43.363Y-91.771
X38.876Y-93.76
X38.842Y-93.774
X38.808Y-93.788
X34.229Y-95.554
X34.194Y-95.567
X34.159Y-95.579
X29.499Y-97.119
X29.464Y-97.13
X29.428Y-97.14
X24.698Y-98.449
X24.662Y-98.459
X24.626Y-98.467
X19.837Y-99.543
X19.801Y-99.55
X19.765Y-99.557
X14.929Y-100.396
X14.893Y-100.402
X14.856Y-100.407
X9.985Y-101.008
X9.948Y-101.012
X9.912Y-101.015
X5.017Y-101.376
X4.98Y-101.378
X4.943Y-101.38
X0.036Y-101.5
X0Y-101.501
X-0.036Y-101.5
X-4.943Y-101.38
X-4.98Y-101.378
X-5.017Y-101.376
X-9.912Y-101.015
X-9.948Y-101.012
X-9.985Y-101.008
X-14.856Y-100.407
X-14.893Y-100.402
X-14.929Y-100.396
X-19.765Y-99.557
X-19.801Y-99.55
X-19.837Y-99.543
X-24.626Y-98.467
X-24.662Y-98.459
X-24.698Y-98.449
X-29.428Y-97.14
X-29.464Y-97.13
X-29.499Y-97.119
X-34.159Y-95.579
X-34.194Y-95.567
X-34.229Y-95.554
X-38.808Y-93.788
X-38.842Y-93.774
X-38.876Y-93.76
X-43.363Y-91.771
X-43.397Y-91.755
X-43.43Y-91.739
X-47.814Y-89.532
X-47.847Y-89.515
X-47.879Y-89.498
X-52.15Y-87.078
X-52.181Y-87.06
X-52.213Y-87.04
X-56.36Y-84.415
X-56.39Y-84.394
X-56.421Y-84.374
X-60.434Y-81.547
X-60.464Y-81.526
X-60.493Y-81.504
X-64.362Y-78.484
X-64.391Y-78.461
X-64.419Y-78.437
X-68.136Y-75.231
X-68.163Y-75.207
X-68.19Y-75.182
X-71.745Y-71.797
X-71.772Y-71.772
X-71.797Y-71.745
X-75.182Y-68.19
X-75.207Y-68.163
X-75.231Y-68.136
X-78.437Y-64.419
X-78.461Y-64.391
X-78.484Y-64.362
X-81.504Y-60.493
X-81.526Y-60.464
X-81.547Y-60.434
X-84.374Y-56.421
X-84.394Y-56.39
X-84.415Y-56.36
X-87.04Y-52.213
X-87.06Y-52.181
X-87.078Y-52.15
X-89.498Y-47.879
X-89.515Y-47.847
X-89.532Y-47.814
X-91.739Y-43.43
X-91.755Y-43.397
X-91.771Y-43.363
X-93.76Y-38.876
X-93.774Y-38.842
X-93.788Y-38.808
X-95.554Y-34.229
X-95.567Y-34.194
X-95.579Y-34.159
X-97.119Y-29.499
X-97.13Y-29.464
X-97.14Y-29.428
X-98.449Y-24.698
X-98.459Y-24.662
X-98.467Y-24.626
X-99.543Y-19.837
X-99.55Y-19.801
X-99.557Y-19.765
X-100.396Y-14.929
X-100.402Y-14.893
X-100.407Y-14.856
X-101.008Y-9.985
Z-8F500
X-101.012Y-9.948F1000
X-101.015Y-9.912
X-101.376Y-5.017
X-101.378Y-4.98
X-101.38Y-4.943
X-101.5Y-0.036
X-101.501Y0
X-101.5Y0.036
X-101.38Y4.943
X-101.378Y4.98
X-101.376Y5.017
X-101.015Y9.912
X-101.012Y9.948
X-101.008Y9.985
X-100.407Y14.856
X-100.402Y14.893
X-100.396Y14.929
X-99.557Y19.765
X-99.55Y19.801
X-99.543Y19.837
X-98.467Y24.626
X-98.459Y24.662
X-98.449Y24.698
X-97.14Y29.428
X-97.13Y29.464
X-97.119Y29.499
X-95.579Y34.159
X-95.567Y34.194
X-95.554Y34.229
X-93.788Y38.808
X-93.774Y38.842
X-93.76Y38.876
X-91.771Y43.363
X-91.755Y43.397
X-91.739Y43.43
X-89.532Y47.814
X-89.515Y47.847
X-89.498Y47.879
X-87.078Y52.15
X-87.06Y52.181
X-87.04Y52.213
X-84.415Y56.36
X-84.394Y56.39
X-84.374Y56.421
X-81.547Y60.434
X-81.526Y60.464
X-81.504Y60.493
X-78.484Y64.362
X-78.461Y64.391
X-78.437Y64.419
X-75.231Y68.136
X-75.207Y68.163
X-75.182Y68.19
X-71.797Y71.745
X-71.772Y71.772
X-71.745Y71.797
X-68.19Y75.182
X-68.163Y75.207
X-68.136Y75.231
X-64.419Y78.437
X-64.391Y78.461
X-64.362Y78.484
X-60.493Y81.504
X-60.464Y81.526
X-60.434Y81.547
X-56.421Y84.374
X-56.39Y84.395
X-56.36Y84.415
X-52.213Y87.04
X-52.181Y87.06
X-52.15Y87.078
X-47.879Y89.498
X-47.847Y89.515
X-47.814Y89.532
X-43.43Y91.739
X-43.397Y91.755
X-43.363Y91.771
X-38.876Y93.76
X-38.842Y93.774
X-38.808Y93.788
X-34.229Y95.554
X-34.194Y95.567
X-34.159Y95.579
X-29.499Y97.119
X-29.464Y97.13
X-29.428Y97.14
X-24.698Y98.449
X-24.662Y98.459
X-24.626Y98.467
X-19.837Y99.543
X-19.801Y99.55
X-19.765Y99.557
X-14.929Y100.396
X-14.893Y100.402
X-14.856Y100.407
X-9.985Y101.008
X-9.948Y101.012
X-9.912Y101.015
X-5.017Y101.376
X-4.98Y101.378
X-4.943Y101.38
X-0.036Y101.5
X0Y101.501
X0.036Y101.5
X4.943Y101.38
X4.98Y101.378
X5.017Y101.376
X9.912Y101.015
X9.948Y101.012
X9.985Y101.008
X14.856Y100.407
X14.893Y100.402
X14.929Y100.396
X19.765Y99.557
X19.801Y99.55
X19.837Y99.543
X24.626Y98.467
X24.662Y98.459
X24.698Y98.449
X29.428Y97.14
X29.464Y97.13
X29.499Y97.119
X34.159Y95.579
X34.194Y95.567
X34.229Y95.554
X38.808Y93.788
X38.842Y93.774
X38.876Y93.76
X43.363Y91.771
X43.397Y91.755
X43.43Y91.739
X47.814Y89.532
X47.847Y89.515
X47.879Y89.498
X52.15Y87.078
X52.181Y87.06
X52.213Y87.04
X56.36Y84.415
X56.39Y84.394
X56.421Y84.374
X60.434Y81.547
X60.464Y81.526
X60.493Y81.504
X64.362Y78.484
X64.391Y78.461
X64.419Y78.437
X68.136Y75.231
X68.163Y75.207
X68.19Y75.182
X71.745Y71.797
X71.772Y71.772
X71.797Y71.745
X75.182Y68.19
X75.207Y68.163
X75.231Y68.136
X78.437Y64.419
X78.461Y64.391
X78.484Y64.362
X81.504Y60.493
X81.526Y60.464
X81.547Y60.434
X84.374Y56.421
X84.395Y56.39
X84.415Y56.36
X87.04Y52.213
X87.06Y52.181
X87.078Y52.15
X89.498Y47.879
X89.515Y47.847
X89.532Y47.814
X91.739Y43.43
X91.755Y43.397
X91.771Y43.363
X93.76Y38.876
X93.774Y38.842
X93.788Y38.808
X95.554Y34.229
X95.567Y34.194
X95.579Y34.159
X97.119Y29.499
X97.13Y29.464
X97.14Y29.428
X98.449Y24.698
X98.459Y24.662
X98.467Y24.626
X99.543Y19.837
X99.55Y19.801
X99.557Y19.765
X100.396Y14.929
X100.402Y14.893
X100.407Y14.856
X101.008Y9.985
X101.012Y9.948
X101.015Y9.912
X101.376Y5.017
X101.378Y4.98
X101.38Y4.943
X101.5Y0.036
X101.501Y0
X101.5Y-0.036
X101.38Y-4.943
X101.378Y-4.98
X101.376Y-5.017
X101.015Y-9.912
X101.012Y-9.948
X101.008Y-9.985
X100.407Y-14.856
X100.402Y-14.893
X100.396Y-14.929
X99.557Y-19.765
X99.55Y-19.801
X99.543Y-19.837
X98.467Y-24.626
X98.459Y-24.662
X98.449Y-24.698
X97.14Y-29.428
X97.13Y-29.464
X97.119Y-29.499
X95.579Y-34.159
X95.567Y-34.194
X95.554Y-34.229
X93.788Y-38.808
X93.774Y-38.842
X93.76Y-38.876
X91.771Y-43.363
X91.755Y-43.397
X91.739Y-43.43
X89.532Y-47.814
X89.515Y-47.847
X89.498Y-47.879
X87.078Y-52.15
X87.06Y-52.181
X87.04Y-52.213
X84.415Y-56.36
X84.394Y-56.39
X84.374Y-56.421
X81.547Y-60.434
X81.526Y-60.464
X81.504Y-60.493
X78.484Y-64.362
X78.461Y-64.391
X78.437Y-64.419
X75.231Y-68.136
X75.207Y-68.163
X75.182Y-68.19
X71.797Y-71.745
X71.772Y-71.772
X71.745Y-71.797
X68.19Y-75.182
X68.163Y-75.207
X68.136Y-75.231
X64.419Y-78.437
X64.391Y-78.461
X64.362Y-78.484
X60.493Y-81.504
X60.464Y-81.526
X60.434Y-81.547
X56.421Y-84.374
X56.39Y-84.395
X56.36Y-84.415
X52.213Y-87.04
X52.181Y-87.06
X52.15Y-87.078
X47.879Y-89.498
X47.847Y-89.515
X47.814Y-89.532
X43.43Y-91.739
X43.397Y-91.755
X43.363Y-91.771
X38.876Y-93.76
X38.842Y-93.774
X38.808Y-93.788
X34.229Y-95.554
X34.194Y-95.567
X34.159Y-95.579
X29.499Y-97.119
X29.464Y-97.13
X29.428Y-97.14
X24.698Y-98.449
X24.662Y-98.459
X24.626Y-98.467
X19.837Y-99.543
X19.801Y-99.55
X19.765Y-99.557
X14.929Y-100.396
X14.893Y-100.402
X14.856Y-100.407
X9.985Y-101.008
X9.948Y-101.012
X9.912Y-101.015
X5.017Y-101.376
X4.98Y-101.378
X4.943Y-101.38
X0.036Y-101.5
X0Y-101.501
X-0.036Y-101.5
X-4.943Y-101.38
X-4.98Y-101.378
X-5.017Y-101.376
X-9.912Y-101.015
X-9.948Y-101.012
X-9.985Y-101.008
X-14.856Y-100.407
X-14.893Y-100.402
X-14.929Y-100.396
X-19.765Y-99.557
X-19.801Y-99.55
X-19.837Y-99.543
X-24.626Y-98.467
X-24.662Y-98.459
X-24.698Y-98.449
X-29.428Y-97.14
X-29.464Y-97.13
X-29.499Y-97.119
X-34.159Y-95.579
X-34.194Y-95.567
X-34.229Y-95.554
X-38.808Y-93.788
X-38.842Y-93.774
X-38.876Y-93.76
X-43.363Y-91.771
X-43.397Y-91.755
X-43.43Y-91.739
X-47.814Y-89.532
X-47.847Y-89.515
X-47.879Y-89.498
X-52.15Y-87.078
X-52.181Y-87.06
X-52.213Y-87.04
X-56.36Y-84.415
X-56.39Y-84.394
X-56.421Y-84.374
X-60.434Y-81.547
X-60.464Y-81.526
X-60.493Y-81.504
X-64.362Y-78.484
X-64.391Y-78.461
X-64.419Y-78.437
X-68.136Y-75.231
X-68.163Y-75.207
X-68.19Y-75.182
X-71.745Y-71.797
X-71.772Y-71.772
X-71.797Y-71.745
X-75.182Y-68.19
X-75.207Y-68.163
X-75.231Y-68.136
X-78.437Y-64.419
X-78.461Y-64.391
X-78.484Y-64.362
X-81.504Y-60.493
X-81.526Y-60.464
X-81.547Y-60.434
X-84.374Y-56.421
X-84.394Y-56.39
X-84.415Y-56.36
X-87.04Y-52.213
X-87.06Y-52.181
X-87.078Y-52.15
X-89.498Y-47.879
X-89.515Y-47.847
X-89.532Y-47.814
X-91.739Y-43.43
X-91.755Y-43.397
X-91.771Y-43.363
X-93.76Y-38.876
X-93.774Y-38.842
X-93.788Y-38.808
X-95.554Y-34.229
X-95.567Y-34.194
X-95.579Y-34.159
X-97.119Y-29.499
X-97.13Y-29.464
X-97.14Y-29.428
X-98.449Y-24.698
X-98.459Y-24.662
X-98.467Y-24.626
X-99.543Y-19.837
X-99.55Y-19.801
X-99.557Y-19.765
X-100.396Y-14.929
X-100.402Y-14.893
X-100.407Y-14.856
X-101.008Y-9.985
Z-9F500
X-101.012Y-9.948F1000
X-101.015Y-9.912
X-101.376Y-5.017
X-101.378Y-4.98
X-101.38Y-4.943
X-101.5Y-0.036
X-101.501Y0
X-101.5Y0.036
X-101.38Y4.943
X-101.378Y4.98
X-101.376Y5.017
X-101.015Y9.912
X-101.012Y9.948
X-101.008Y9.985
X-100.407Y14.856
X-100.402Y14.893
X-100.396Y14.929
X-99.557Y19.765
X-99.55Y19.801
X-99.543Y19.837
X-98.467Y24.626
X-98.459Y24.662
X-98.449Y24.698
X-97.14Y29.428
X-97.13Y29.464
X-97.119Y29.499
X-95.579Y34.159
X-95.567Y34.194
X-95.554Y34.229
X-93.788Y38.808
X-93.774Y38.842
X-93.76Y38.876
X-91.771Y43.363
X-91.755Y43.397
X-91.739Y43.43
X-89.532Y47.814
X-89.515Y47.847
X-89.498Y47.879
X-87.078Y52.15
X-87.06Y52.181
X-87.04Y52.213
X-84.415Y56.36
X-84.394Y56.39
X-84.374Y56.421
X-81.547Y60.434
X-81.526Y60.464
X-81.504Y60.493
X-78.484Y64.362
X-78.461Y64.391
X-78.437Y64.419
X-75.231Y68.136
X-75.207Y68.163
X-75.182Y68.19
X-71.797Y71.745
X-71.772Y71.772
X-71.745Y71.797
X-68.19Y75.182
X-68.163Y75.207
X-68.136Y75.231
X-64.419Y78.437
X-64.391Y78.461
X-64.362Y78.484
X-60.493Y81.504
X-60.464Y81.526
X-60.434Y81.547
X-56.421Y84.374
X-56.39Y84.395
X-56.36Y84.415
X-52.213Y87.04
X-52.181Y87.06
X-52.15Y87.078
X-47.879Y89.498
X-47.847Y89.515
X-47.814Y89.532
X-43.43Y91.739
X-43.397Y91.755
X-43.363Y91.771
X-38.876Y93.76
X-38.842Y93.774
X-38.808Y93.788
X-34.229Y95.554
X-34.194Y95.567
X-34.159Y95.579
X-29.499Y97.119
X-29.464Y97.13
X-29.428Y97.14
X-24.698Y98.449
X-24.662Y98.459
X-24.626Y98.467
X-19.837Y99.543
X-19.801Y99.55
X-19.765Y99.557
X-14.929Y100.396
X-14.893Y100.402
X-14.856Y100.407
X-9.985Y101.008
X-9.948Y101.012
X-9.912Y101.015
X-5.017Y101.376
X-4.98Y101.378
X-4.943Y101.38
X-0.036Y101.5
X0Y101.501
X0.036Y101.5
X4.943Y101.38
X4.98Y101.378
X5.017Y101.376
X9.912Y101.015
X9.948Y101.012
X9.985Y101.008
X14.856Y100.407
X14.893Y100.402
X14.929Y100.396
X19.765Y99.557
X19.801Y99.55
X19.837Y99.543
X24.626Y98.467
X24.662Y98.459
X24.698Y98.449
X29.428Y97.14
X29.464Y97.13
X29.499Y97.119
X34.159Y95.579
X34.194Y95.567
X34.229Y95.554
X38.808Y93.788
X38.842Y93.774
X38.876Y93.76
X43.363Y91.771
X43.397Y91.755
X43.43Y91.739
X47.814Y89.532
X47.847Y89.515
X47.879Y89.498
X52.15Y87.078
X52.181Y87.06
X52.213Y87.04
X56.36Y84.415
X56.39Y84.394
X56.421Y84.374
X60.434Y81.547
X60.464Y81.526
X60.493Y81.504
X64.362Y78.484
X64.391Y78.461
X64.419Y78.437
X68.136Y75.231
X68.163Y75.207
X68.19Y75.182
X71.745Y71.797
X71.772Y71.772
X71.797Y71.745
X75.182Y68.19
X75.207Y68.163
X75.231Y68.136
X78.437Y64.419
X78.461Y64.391
X78.484Y64.362
X81.504Y60.493
X81.526Y60.464
X81.547Y60.434
X84.374Y56.421
X84.395Y56.39
X84.415Y56.36
X87.04Y52.213
X87.06Y52.181
X87.078Y52.15
X89.498Y47.879
X89.515Y47.847
X89.532Y47.814
X91.739Y43.43
X91.755Y43.397
X91.771Y43.363
X93.76Y38.876
X93.774Y38.842
X93.788Y38.808
X95.554Y34.229
X95.567Y34.194
X95.579Y34.159
X97.119Y29.499
X97.13Y29.464
X97.14Y29.428
X98.449Y24.698
X98.459Y24.662
X98.467Y24.626
X99.543Y19.837
X99.55Y19.801
X99.557Y19.765
X100.396Y14.929
X100.402Y14.893
X100.407Y14.856
X101.008Y9.985
X101.012Y9.948
X101.015Y9.912
X101.376Y5.017
X101.378Y4.98
X101.38Y4.943
X101.5Y0.036
X101.501Y0
X101.5Y-0.036
X101.38Y-4.943
X101.378Y-4.98
X101.376Y-5.017
X101.015Y-9.912
X101.012Y-9.948
X101.008Y-9.985
X100.407Y-14.856
X100.402Y-14.893
X100.396Y-14.929
X99.557Y-19.765
X99.55Y-19.801
X99.543Y-19.837
X98.467Y-24.626
X98.459Y-24.662
X98.449Y-24.698
X97.14Y-29.428
X97.13Y-29.464
X97.119Y-29.499
X95.579Y-34.159
X95.567Y-34.194
X95.554Y-34.229
X93.788Y-38.808
X93.774Y-38.842
X93.76Y-38.876
X91.771Y-43.363
X91.755Y-43.397
X91.739Y-43.43
X89.532Y-47.814
X89.515Y-47.847
X89.498Y-47.879
X87.078Y-52.15
X87.06Y-52.181
X87.04Y-52.213
X84.415Y-56.36
X84.394Y-56.39
X84.374Y-56.421
X81.547Y-60.434
X81.526Y-60.464
X81.504Y-60.493
X78.484Y-64.362
X78.461Y-64.391
X78.437Y-64.419
X75.231Y-68.136
X75.207Y-68.163
X75.182Y-68.19
X71.797Y-71.745
X71.772Y-71.772
X71.745Y-71.797
X68.19Y-75.182
X68.163Y-75.207
X68.136Y-75.231
X64.419Y-78.437
X64.391Y-78.461
X64.362Y-78.484
X60.493Y-81.504
X60.464Y-81.526
X60.434Y-81.547
X56.421Y-84.374
X56.39Y-84.395
X56.36Y-84.415
X52.213Y-87.04
X52.181Y-87.06
X52.15Y-87.078
X47.879Y-89.498
X47.847Y-89.515
X47.814Y-89.532
X43.43Y-91.739
X43.397Y-91.755
X43.363Y-91.771
X38.876Y-93.76
X38.842Y-93.774
X38.808Y-93.788
X34.229Y-95.554
X34.194Y-95.567
X34.159Y-95.579
X29.499Y-97.119
X29.464Y-97.13
X29.428Y-97.14
X24.698Y-98.449
X24.662Y-98.459
X24.626Y-98.467
X19.837Y-99.543
X19.801Y-99.55
X19.765Y-99.557
X14.929Y-100.396
X14.893Y-100.402
X14.856Y-100.407
X9.985Y-101.008
X9.948Y-101.012
X9.912Y-101.015
X5.017Y-101.376
X4.98Y-101.378
X4.943Y-101.38
X0.036Y-101.5
X0Y-101.501
X-0.036Y-101.5
X-4.943Y-101.38
X-4.98Y-101.378
X-5.017Y-101.376
X-9.912Y-101.015
X-9.948Y-101.012
X-9.985Y-101.008
X-14.856Y-100.407
X-14.893Y-100.402
X-14.929Y-100.396
X-19.765Y-99.557
X-19.801Y-99.55
X-19.837Y-99.543
X-24.626Y-98.467
X-24.662Y-98.459
X-24.698Y-98.449
X-29.428Y-97.14
X-29.464Y-97.13
X-29.499Y-97.119
X-34.159Y-95.579
X-34.194Y-95.567
X-34.229Y-95.554
X-38.808Y-93.788
X-38.842Y-93.774
X-38.876Y-93.76
X-43.363Y-91.771
X-43.397Y-91.755
X-43.43Y-91.739
X-47.814Y-89.532
X-47.847Y-89.515
X-47.879Y-89.498
X-52.15Y-87.078
X-52.181Y-87.06
X-52.213Y-87.04
X-56.36Y-84.415
X-56.39Y-84.394
X-56.421Y-84.374
X-60.434Y-81.547
X-60.464Y-81.526
X-60.493Y-81.504
X-64.362Y-78.484
X-64.391Y-78.461
X-64.419Y-78.437
X-68.136Y-75.231
X-68.163Y-75.207
X-68.19Y-75.182
X-71.745Y-71.797
X-71.772Y-71.772
X-71.797Y-71.745
X-75.182Y-68.19
X-75.207Y-68.163
X-75.231Y-68.136
X-78.437Y-64.419
X-78.461Y-64.391
X-78.484Y-64.362
X-81.504Y-60.493
X-81.526Y-60.464
X-81.547Y-60.434
X-84.374Y-56.421
X-84.394Y-56.39
X-84.415Y-56.36
X-87.04Y-52.213
X-87.06Y-52.181
X-87.078Y-52.15
X-89.498Y-47.879
X-89.515Y-47.847
X-89.532Y-47.814
X-91.739Y-43.43
X-91.755Y-43.397
X-91.771Y-43.363
X-93.76Y-38.876
X-93.774Y-38.842
X-93.788Y-38.808
X-95.554Y-34.229
X-95.567Y-34.194
X-95.579Y-34.159
X-97.119Y-29.499
X-97.13Y-29.464
X-97.14Y-29.428
X-98.449Y-24.698
X-98.459Y-24.662
X-98.467Y-24.626
X-99.543Y-19.837
X-99.55Y-19.801
X-99.557Y-19.765
X-100.396Y-14.929
X-100.402Y-14.893
X-100.407Y-14.856
X-101.008Y-9.985
Z-10F500
X-101.012Y-9.948F1000
X-101.015Y-9.912
X-101.376Y-5.017
X-101.378Y-4.98
X-101.38Y-4.943
X-101.5Y-0.036
X-101.501Y0
X-101.5Y0.036
X-101.38Y4.943
X-101.378Y4.98
X-101.376Y5.017
X-101.015Y9.912
X-101.012Y9.948
X-101.008Y9.985
X-100.407Y14.856
X-100.402Y14.893
X-100.396Y14.929
X-99.557Y19.765
X-99.55Y19.801
X-99.543Y19.837
X-98.467Y24.626
X-98.459Y24.662
X-98.449Y24.698
X-97.14Y29.428
X-97.13Y29.464
X-97.119Y29.499
X-95.579Y34.159
X-95.567Y34.194
X-95.554Y34.229
X-93.788Y38.808
X-93.774Y38.842
X-93.76Y38.876
X-91.771Y43.363
X-91.755Y43.397
X-91.739Y43.43
X-89.532Y47.814
X-89.515Y47.847
X-89.498Y47.879
X-87.078Y52.15
X-87.06Y52.181
X-87.04Y52.213
X-84.415Y56.36
X-84.394Y56.39
X-84.374Y56.421
X-81.547Y60.434
X-81.526Y60.464
X-81.504Y60.493
X-78.484Y64.362
X-78.461Y64.391
X-78.437Y64.419
X-75.231Y68.136
X-75.207Y68.163
X-75.182Y68.19
X-71.797Y71.745
X-71.772Y71.772
X-71.745Y71.797
X-68.19Y75.182
X-68.163Y75.207
X-68.136Y75.231
X-64.419Y78.437
X-64.391Y78.461
X-64.362Y78.484
X-60.493Y81.504
X-60.464Y81.526
X-60.434Y81.547
X-56.421Y84.374
X-56.39Y84.395
X-56.36Y84.415
X-52.213Y87.04
X-52.181Y87.06
X-52.15Y87.078
X-47.879Y89.498
X-47.847Y89.515
X-47.814Y89.532
X-43.43Y91.739
X-43.397Y91.755
X-43.363Y91.771
X-38.876Y93.76
X-38.842Y93.774
X-38.808Y93.788
X-34.229Y95.554
X-34.194Y95.567
X-34.159Y95.579
X-29.499Y97.119
X-29.464Y97.13
X-29.428Y97.14
X-24.698Y98.449
X-24.662Y98.459
X-24.626Y98.467
X-19.837Y99.543
X-19.801Y99.55
X-19.765Y99.557
X-14.929Y100.396
X-14.893Y100.402
X-14.856Y100.407
X-9.985Y101.008
X-9.948Y101.012
X-9.912Y101.015
X-5.017Y101.376
X-4.98Y101.378
X-4.943Y101.38
X-0.036Y101.5
X0Y101.501
X0.036Y101.5
X4.943Y101.38
X4.98Y101.378
X5.017Y101.376
X9.912Y101.015
X9.948Y101.012
X9.985Y101.008
X14.856Y100.407
X14.893Y100.402
X14.929Y100.396
X19.765Y99.557
X19.801Y99.55
X19.837Y99.543
X24.626Y98.467
X24.662Y98.459
X24.698Y98.449
X29.428Y97.14
X29.464Y97.13
X29.499Y97.119
X34.159Y95.579
X34.194Y95.567
X34.229Y95.554
X38.808Y93.788
X38.842Y93.774
X38.876Y93.76
X43.363Y91.771
X43.397Y91.755
X43.43Y91.739
X47.814Y89.532
X47.847Y89.515
X47.879Y89.498
X52.15Y87.078
X52.181Y87.06
X52.213Y87.04
X56.36Y84.415
X56.39Y84.394
X56.421Y84.374
X60.434Y81.547
X60.464Y81.526
X60.493Y81.504
X64.362Y78.484
X64.391Y78.461
X64.419Y78.437
X68.136Y75.231
X68.163Y75.207
X68.19Y75.182
X71.745Y71.797
X71.772Y71.772
X71.797Y71.745
X75.182Y68.19
X75.207Y68.163
X75.231Y68.136
X78.437Y64.419
X78.461Y64.391
X78.484Y64.362
X81.504Y60.493
X81.526Y60.464
X81.547Y60.434
X84.374Y56.421
X84.395Y56.39
X84.415Y56.36
X87.04Y52.213
X87.06Y52.181
X87.078Y52.15
X89.498Y47.879
X89.515Y47.847
X89.532Y47.814
X91.739Y43.43
X91.755Y43.397
X91.771Y43.363
X93.76Y38.876
X93.774Y38.842
X93.788Y38.808
X95.554Y34.229
X95.567Y34.194
X95.579Y34.159
X97.119Y29.499
X97.13Y29.464
X97.14Y29.428
X98.449Y24.698
X98.459Y24.662
X98.467Y24.626
X99.543Y19.837
X99.55Y19.801
X99.557Y19.765
X100.396Y14.929
X100.402Y14.893
X100.407Y14.856
X101.008Y9.985
X101.012Y9.948
X101.015Y9.912
X101.376Y5.017
X101.378Y4.98
X101.38Y4.943
X101.5Y0.036
X101.501Y0
X101.5Y-0.036
X101.38Y-4.943
X101.378Y-4.98
X101.376Y-5.017
X101.015Y-9.912
X101.012Y-9.948
X101.008Y-9.985
X100.407Y-14.856
X100.402Y-14.893
X100.396Y-14.929
X99.557Y-19.765
X99.55Y-19.801
X99.543Y-19.837
X98.467Y-24.626
X98.459Y-24.662
X98.449Y-24.698
X97.14Y-29.428
X97.13Y-29.464
X97.119Y-29.499
X95.579Y-34.159
X95.567Y-34.194
X95.554Y-34.229
X93.788Y-38.808
X93.774Y-38.842
X93.76Y-38.876
X91.771Y-43.363
X91.755Y-43.397
X91.739Y-43.43
X89.532Y-47.814
X89.515Y-47.847
X89.498Y-47.879
X87.078Y-52.15
X87.06Y-52.181
X87.04Y-52.213
X84.415Y-56.36
X84.394Y-56.39
X84.374Y-56.421
X81.547Y-60.434
X81.526Y-60.464
X81.504Y-60.493
X78.484Y-64.362
X78.461Y-64.391
X78.437Y-64.419
X75.231Y-68.136
X75.207Y-68.163
X75.182Y-68.19
X71.797Y-71.745
X71.772Y-71.772
X71.745Y-71.797
X68.19Y-75.182
X68.163Y-75.207
X68.136Y-75.231
X64.419Y-78.437
X64.391Y-78.461
X64.362Y-78.484
X60.493Y-81.504
X60.464Y-81.526
X60.434Y-81.547
X56.421Y-84.374
X56.39Y-84.395
X56.36Y-84.415
X52.213Y-87.04
X52.181Y-87.06
X52.15Y-87.078
X47.879Y-89.498
X47.847Y-89.515
X47.814Y-89.532
X43.43Y-91.739
X43.397Y-91.755
X43.363Y-91.771
X38.876Y-93.76
X38.842Y-93.774
X38.808Y-93.788
X34.229Y-95.554
X34.194Y-95.567
X34.159Y-95.579
X29.499Y-97.119
X29.464Y-97.13
X29.428Y-97.14
X24.698Y-98.449
X24.662Y-98.459
X24.626Y-98.467
X19.837Y-99.543
X19.801Y-99.55
X19.765Y-99.557
X14.929Y-100.396
X14.893Y-100.402
X14.856Y-100.407
X9.985Y-101.008
X9.948Y-101.012
X9.912Y-101.015
X5.017Y-101.376
X4.98Y-101.378
X4.943Y-101.38
X0.036Y-101.5
X0Y-101.501
X-0.036Y-101.5
X-4.943Y-101.38
X-4.98Y-101.378
X-5.017Y-101.376
X-9.912Y-101.015
X-9.948Y-101.012
X-9.985Y-101.008
X-14.856Y-100.407
X-14.893Y-100.402
X-14.929Y-100.396
X-19.765Y-99.557
X-19.801Y-99.55
X-19.837Y-99.543
X-24.626Y-98.467
X-24.662Y-98.459
X-24.698Y-98.449
X-29.428Y-97.14
X-29.464Y-97.13
X-29.499Y-97.119
X-34.159Y-95.579
X-34.194Y-95.567
X-34.229Y-95.554
X-38.808Y-93.788
X-38.842Y-93.774
X-38.876Y-93.76
X-43.363Y-91.771
X-43.397Y-91.755
X-43.43Y-91.739
X-47.814Y-89.532
X-47.847Y-89.515
X-47.879Y-89.498
X-52.15Y-87.078
X-52.181Y-87.06
X-52.213Y-87.04
X-56.36Y-84.415
X-56.39Y-84.394
X-56.421Y-84.374
X-60.434Y-81.547
X-60.464Y-81.526
X-60.493Y-81.504
X-64.362Y-78.484
X-64.391Y-78.461
X-64.419Y-78.437
X-68.136Y-75.231
X-68.163Y-75.207
X-68.19Y-75.182
X-71.745Y-71.797
X-71.772Y-71.772
X-71.797Y-71.745
X-75.182Y-68.19
X-75.207Y-68.163
X-75.231Y-68.136
X-78.437Y-64.419
X-78.461Y-64.391
X-78.484Y-64.362
X-81.504Y-60.493
X-81.526Y-60.464
X-81.547Y-60.434
X-84.374Y-56.421
X-84.394Y-56.39
X-84.415Y-56.36
X-87.04Y-52.213
X-87.06Y-52.181
X-87.078Y-52.15
X-89.498Y-47.879
X-89.515Y-47.847
X-89.532Y-47.814
X-91.739Y-43.43
X-91.755Y-43.397
X-91.771Y-43.363
X-93.76Y-38.876
X-93.774Y-38.842
X-93.788Y-38.808
X-95.554Y-34.229
X-95.567Y-34.194
X-95.579Y-34.159
X-97.119Y-29.499
X-97.13Y-29.464
X-97.14Y-29.428
X-98.449Y-24.698
X-98.459Y-24.662
X-98.467Y-24.626
X-99.543Y-19.837
X-99.55Y-19.801
X-99.557Y-19.765
X-100.396Y-14.929
X-100.402Y-14.893
X-100.407Y-14.856
X-101.008Y-9.985
Z-11F500
X-101.012Y-9.948F1000
X-101.015Y-9.912
X-101.376Y-5.017
X-101.378Y-4.98
X-101.38Y-4.943
X-101.5Y-0.036
X-101.501Y0
X-101.5Y0.036
X-101.38Y4.943
X-101.378Y4.98
X-101.376Y5.017
X-101.015Y9.912
X-101.012Y9.948
X-101.008Y9.985
X-100.407Y14.856
X-100.402Y14.893
X-100.396Y14.929
X-99.557Y19.765
X-99.55Y19.801
X-99.543Y19.837
X-98.467Y24.626
X-98.459Y24.662
X-98.449Y24.698
X-97.14Y29.428
X-97.13Y29.464
X-97.119Y29.499
X-95.579Y34.159
X-95.567Y34.194
X-95.554Y34.229
X-93.788Y38.808
X-93.774Y38.842
X-93.76Y38.876
X-91.771Y43.363
X-91.755Y43.397
X-91.739Y43.43
X-89.532Y47.814
X-89.515Y47.847
X-89.498Y47.879
X-87.078Y52.15
X-87.06Y52.181
X-87.04Y52.213
X-84.415Y56.36
X-84.394Y56.39
X-84.374Y56.421
X-81.547Y60.434
X-81.526Y60.464
X-81.504Y60.493
X-78.484Y64.362
X-78.461Y64.391
X-78.437Y64.419
X-75.231Y68.136
X-75.207Y68.163
X-75.182Y68.19
X-71.797Y71.745
X-71.772Y71.772
X-71.745Y71.797
X-68.19Y75.182
X-68.163Y75.207
X-68.136Y75.231
X-64.419Y78.437
X-64.391Y78.461
X-64.362Y78.484
X-60.493Y81.504
X-60.464Y81.526
X-60.434Y81.547
X-56.421Y84.374
X-56.39Y84.395
X-56.36Y84.415
X-52.213Y87.04
X-52.181Y87.06
X-52.15Y87.078
X-47.879Y89.498
X-47.847Y89.515
X-47.814Y89.532
X-43.43Y91.739
X-43.397Y91.755
X-43.363Y91.771
X-38.876Y93.76
X-38.842Y93.774
X-38.808Y93.788
X-34.229Y95.554
X-34.194Y95.567
X-34.159Y95.579
X-29.499Y97.119
X-29.464Y97.13
X-29.428Y97.14
X-24.698Y98.449
X-24.662Y98.459
X-24.626Y98.467
X-19.837Y99.543
X-19.801Y99.55
X-19.765Y99.557
X-14.929Y100.396
X-14.893Y100.402
X-14.856Y100.407
X-9.985Y101.008
X-9.948Y101.012
X-9.912Y101.015
X-5.017Y101.376
X-4.98Y101.378
X-4.943Y101.38
X-0.036Y101.5
X0Y101.501
X0.036Y101.5
X4.943Y101.38
X4.98Y101.378
X5.017Y101.376
X9.912Y101.015
X9.948Y101.012
X9.985Y101.008
X14.856Y100.407
X14.893Y100.402
X14.929Y100.396
X19.765Y99.557
X19.801Y99.55
X19.837Y99.543
X24.626Y98.467
X24.662Y98.459
X24.698Y98.449
X29.428Y97.14
X29.464Y97.13
X29.499Y97.119
X34.159Y95.579
X34.194Y95.567
X34.229Y95.554
X38.808Y93.788
X38.842Y93.774
X38.876Y93.76
X43.363Y91.771
X43.397Y91.755
X43.43Y91.739
X47.814Y89.532
X47.847Y89.515
X47.879Y89.498
X52.15Y87.078
X52.181Y87.06
X52.213Y87.04
X56.36Y84.415
X56.39Y84.394
X56.421Y84.374
X60.434Y81.547
X60.464Y81.526
X60.493Y81.504
X64.362Y78.484
X64.391Y78.461
X64.419Y78.437
X68.136Y75.231
X68.163Y75.207
X68.19Y75.182
X71.745Y71.797
X71.772Y71.772
X71.797Y71.745
X75.182Y68.19
X75.207Y68.163
X75.231Y68.136
X78.437Y64.419
X78.461Y64.391
X78.484Y64.362
X81.504Y60.493
X81.526Y60.464
X81.547Y60.434
X84.374Y56.421
X84.395Y56.39
X84.415Y56.36
X87.04Y52.213
X87.06Y52.181
X87.078Y52.15
X89.498Y47.879
X89.515Y47.847
X89.532Y47.814
X91.739Y43.43
X91.755Y43.397
X91.771Y43.363
X93.76Y38.876
X93.774Y38.842
X93.788Y38.808
X95.554Y34.229
X95.567Y34.194
X95.579Y34.159
X97.119Y29.499
X97.13Y29.464
X97.14Y29.428
X98.449Y24.698
X98.459Y24.662
X98.467Y24.626
X99.543Y19.837
X99.55Y19.801
X99.557Y19.765
X100.396Y14.929
X100.402Y14.893
X100.407Y14.856
X101.008Y9.985
X101.012Y9.948
X101.015Y9.912
X101.376Y5.017
X101.378Y4.98
X101.38Y4.943
X101.5Y0.036
X101.501Y0
X101.5Y-0.036
X101.38Y-4.943
X101.378Y-4.98
X101.376Y-5.017
X101.015Y-9.912
X101.012Y-9.948
X101.008Y-9.985
X100.407Y-14.856
X100.402Y-14.893
X100.396Y-14.929
X99.557Y-19.765
X99.55Y-19.801
X99.543Y-19.837
X98.467Y-24.626
X98.459Y-24.662
X98.449Y-24.698
X97.14Y-29.428
X97.13Y-29.464
X97.119Y-29.499
X95.579Y-34.159
X95.567Y-34.194
X95.554Y-34.229
X93.788Y-38.808
X93.774Y-38.842
X93.76Y-38.876
X91.771Y-43.363
X91.755Y-43.397
X91.739Y-43.43
X89.532Y-47.814
X89.515Y-47.847
X89.498Y-47.879
X87.078Y-52.15
X87.06Y-52.181
X87.04Y-52.213
X84.415Y-56.36
X84.394Y-56.39
X84.374Y-56.421
X81.547Y-60.434
X81.526Y-60.464
X81.504Y-60.493
X78.484Y-64.362
X78.461Y-64.391
X78.437Y-64.419
X75.231Y-68.136
X75.207Y-68.163
X75.182Y-68.19
X71.797Y-71.745
X71.772Y-71.772
X71.745Y-71.797
X68.19Y-75.182
X68.163Y-75.207
X68.136Y-75.231
X64.419Y-78.437
X64.391Y-78.461
X64.362Y-78.484
X60.493Y-81.504
X60.464Y-81.526
X60.434Y-81.547
X56.421Y-84.374
X56.39Y-84.395
X56.36Y-84.415
X52.213Y-87.04
X52.181Y-87.06
X52.15Y-87.078
X47.879Y-89.498
X47.847Y-89.515
X47.814Y-89.532
X43.43Y-91.739
X43.397Y-91.755
X43.363Y-91.771
X38.876Y-93.76
X38.842Y-93.774
X38.808Y-93.788
X34.229Y-95.554
X34.194Y-95.567
X34.159Y-95.579
X29.499Y-97.119
X29.464Y-97.13
X29.428Y-97.14
X24.698Y-98.449
X24.662Y-98.459
X24.626Y-98.467
X19.837Y-99.543
X19.801Y-99.55
X19.765Y-99.557
X14.929Y-100.396
X14.893Y-100.402
X14.856Y-100.407
X9.985Y-101.008
X9.948Y-101.012
X9.912Y-101.015
X5.017Y-101.376
X4.98Y-101.378
X4.943Y-101.38
X0.036Y-101.5
X0Y-101.501
X-0.036Y-101.5
X-4.943Y-101.38
X-4.98Y-101.378
X-5.017Y-101.376
X-9.912Y-101.015
X-9.948Y-101.012
X-9.985Y-101.008
X-14.856Y-100.407
X-14.893Y-100.402
X-14.929Y-100.396
X-19.765Y-99.557
X-19.801Y-99.55
X-19.837Y-99.543
X-24.626Y-98.467
X-24.662Y-98.459
X-24.698Y-98.449
X-29.428Y-97.14
X-29.464Y-97.13
X-29.499Y-97.119
X-34.159Y-95.579
X-34.194Y-95.567
X-34.229Y-95.554
X-38.808Y-93.788
X-38.842Y-93.774
X-38.876Y-93.76
X-43.363Y-91.771
X-43.397Y-91.755
X-43.43Y-91.739
X-47.814Y-89.532
X-47.847Y-89.515
X-47.879Y-89.498
X-52.15Y-87.078
X-52.181Y-87.06
X-52.213Y-87.04
X-56.36Y-84.415
X-56.39Y-84.394
X-56.421Y-84.374
X-60.434Y-81.547
X-60.464Y-81.526
X-60.493Y-81.504
X-64.362Y-78.484
X-64.391Y-78.461
X-64.419Y-78.437
X-68.136Y-75.231
X-68.163Y-75.207
X-68.19Y-75.182
X-71.745Y-71.797
X-71.772Y-71.772
X-71.797Y-71.745
X-75.182Y-68.19
X-75.207Y-68.163
X-75.231Y-68.136
X-78.437Y-64.419
X-78.461Y-64.391
X-78.484Y-64.362
X-81.504Y-60.493
X-81.526Y-60.464
X-81.547Y-60.434
X-84.374Y-56.421
X-84.394Y-56.39
X-84.415Y-56.36
X-87.04Y-52.213
X-87.06Y-52.181
X-87.078Y-52.15
X-89.498Y-47.879
X-89.515Y-47.847
X-89.532Y-47.814
X-91.739Y-43.43
X-91.755Y-43.397
X-91.771Y-43.363
X-93.76Y-38.876
X-93.774Y-38.842
X-93.788Y-38.808
X-95.554Y-34.229
X-95.567Y-34.194
X-95.579Y-34.159
X-97.119Y-29.499
X-97.13Y-29.464
X-97.14Y-29.428
X-98.449Y-24.698
X-98.459Y-24.662
X-98.467Y-24.626
X-99.543Y-19.837
X-99.55Y-19.801
X-99.557Y-19.765
X-100.396Y-14.929
X-100.402Y-14.893
X-100.407Y-14.856
X-101.008Y-9.985
Z-12F500
X-101.012Y-9.948F1000
X-101.015Y-9.912
X-101.376Y-5.017
X-101.378Y-4.98
X-101.38Y-4.943
X-101.5Y-0.036
X-101.501Y0
X-101.5Y0.036
X-101.38Y4.943
X-101.378Y4.98
X-101.376Y5.017
X-101.015Y9.912
X-101.012Y9.948
X-101.008Y9.985
X-100.407Y14.856
X-100.402Y14.893
X-100.396Y14.929
X-99.557Y19.765
X-99.55Y19.801
X-99.543Y19.837
X-98.467Y24.626
X-98.459Y24.662
X-98.449Y24.698
X-97.14Y29.428
X-97.13Y29.464
X-97.119Y29.499
X-95.579Y34.159
X-95.567Y34.194
X-95.554Y34.229
X-93.788Y38.808
X-93.774Y38.842
X-93.76Y38.876
X-91.771Y43.363
X-91.755Y43.397
X-91.739Y43.43
X-89.532Y47.814
X-89.515Y47.847
X-89.498Y47.879
X-87.078Y52.15
X-87.06Y52.181
X-87.04Y52.213
X-84.415Y56.36
X-84.394Y56.39
X-84.374Y56.421
X-81.547Y60.434
X-81.526Y60.464
X-81.504Y60.493
X-78.484Y64.362
X-78.461Y64.391
X-78.437Y64.419
X-75.231Y68.136
X-75.207Y68.163
X-75.182Y68.19
X-71.797Y71.745
X-71.772Y71.772
X-71.745Y71.797
X-68.19Y75.182
X-68.163Y75.207
X-68.136Y75.231
X-64.419Y78.437
X-64.391Y78.461
X-64.362Y78.484
X-60.493Y81.504
X-60.464Y81.526
X-60.434Y81.547
X-56.421Y84.374
X-56.39Y84.395
X-56.36Y84.415
X-52.213Y87.04
X-52.181Y87.06
X-52.15Y87.078
X-47.879Y89.498
X-47.847Y89.515
X-47.814Y89.532
X-43.43Y91.739
X-43.397Y91.755
X-43.363Y91.771
X-38.876Y93.76
X-38.842Y93.774
X-38.808Y93.788
X-34.229Y95.554
X-34.194Y95.567
X-34.159Y95.579
X-29.499Y97.119
X-29.464Y97.13
X-29.428Y97.14
X-24.698Y98.449
X-24.662Y98.459
X-24.626Y98.467
X-19.837Y99.543
X-19.801Y99.55
X-19.765Y99.557
X-14.929Y100.396
X-14.893Y100.402
X-14.856Y100.407
X-9.985Y101.008
X-9.948Y101.012
X-9.912Y101.015
X-5.017Y101.376
X-4.98Y101.378
X-4.943Y101.38
X-0.036Y101.5
X0Y101.501
X0.036Y101.5
X4.943Y101.38
X4.98Y101.378
X5.017Y101.376
X9.912Y101.015
X9.948Y101.012
X9.985Y101.008
X14.856Y100.407
X14.893Y100.402
X14.929Y100.396
X19.765Y99.557
X19.801Y99.55
X19.837Y99.543
X24.626Y98.467
X24.662Y98.459
X24.698Y98.449
X29.428Y97.14
X29.464Y97.13
X29.499Y97.119
X34.159Y95.579
X34.194Y95.567
X34.229Y95.554
X38.808Y93.788
X38.842Y93.774
X38.876Y93.76
X43.363Y91.771
X43.397Y91.755
X43.43Y91.739
X47.814Y89.532
X47.847Y89.515
X47.879Y89.498
X52.15Y87.078
X52.181Y87.06
X52.213Y87.04
X56.36Y84.415
X56.39Y84.394
X56.421Y84.374
X60.434Y81.547
X60.464Y81.526
X60.493Y81.504
X64.362Y78.484
X64.391Y78.461
X64.419Y78.437
X68.136Y75.231
X68.163Y75.207
X68.19Y75.182
X71.745Y71.797
X71.772Y71.772
X71.797Y71.745
X75.182Y68.19
X75.207Y68.163
X75.231Y68.136
X78.437Y64.419
X78.461Y64.391
X78.484Y64.362
X81.504Y60.493
X81.526Y60.464
X81.547Y60.434
X84.374Y56.421
X84.395Y56.39
X84.415Y56.36
X87.04Y52.213
X87.06Y52.181
X87.078Y52.15
X89.498Y47.879
X89.515Y47.847
X89.532Y47.814
X91.739Y43.43
X91.755Y43.397
X91.771Y43.363
X93.76Y38.876
X93.774Y38.842
X93.788Y38.808
X95.554Y34.229
X95.567Y34.194
X95.579Y34.159
X97.119Y29.499
X97.13Y29.464
X97.14Y29.428
X98.449Y24.698
X98.459Y24.662
X98.467Y24.626
X99.543Y19.837
X99.55Y19.801
X99.557Y19.765
X100.396Y14.929
X100.402Y14.893
X100.407Y14.856
X101.008Y9.985
X101.012Y9.948
X101.015Y9.912
X101.376Y5.017
X101.378Y4.98
X101.38Y4.943
X101.5Y0.036
X101.501Y0
X101.5Y-0.036
X101.38Y-4.943
X101.378Y-4.98
X101.376Y-5.017
X101.015Y-9.912
X101.012Y-9.948
X101.008Y-9.985
X100.407Y-14.856
X100.402Y-14.893
X100.396Y-14.929
X99.557Y-19.765
X99.55Y-19.801
X99.543Y-19.837
X98.467Y-24.626
X98.459Y-24.662
X98.449Y-24.698
X97.14Y-29.428
X97.13Y-29.464
X97.119Y-29.499
X95.579Y-34.159
X95.567Y-34.194
X95.554Y-34.229
X93.788Y-38.808
X93.774Y-38.842
X93.76Y-38.876
X91.771Y-43.363
X91.755Y-43.397
X91.739Y-43.43
X89.532Y-47.814
X89.515Y-47.847
X89.498Y-47.879
X87.078Y-52.15
X87.06Y-52.181
X87.04Y-52.213
X84.415Y-56.36
X84.394Y-56.39
X84.374Y-56.421
X81.547Y-60.434
X81.526Y-60.464
X81.504Y-60.493
X78.484Y-64.362
X78.461Y-64.391
X78.437Y-64.419
X75.231Y-68.136
X75.207Y-68.163
X75.182Y-68.19
X71.797Y-71.745
X71.772Y-71.772
X71.745Y-71.797
X68.19Y-75.182
X68.163Y-75.207
X68.136Y-75.231
X64.419Y-78.437
X64.391Y-78.461
X64.362Y-78.484
X60.493Y-81.504
X60.464Y-81.526
X60.434Y-81.547
X56.421Y-84.374
X56.39Y-84.395
X56.36Y-84.415
X52.213Y-87.04
X52.181Y-87.06
X52.15Y-87.078
X47.879Y-89.498
X47.847Y-89.515
X47.814Y-89.532
X43.43Y-91.739
X43.397Y-91.755
X43.363Y-91.771
X38.876Y-93.76
X38.842Y-93.774
X38.808Y-93.788
X34.229Y-95.554
X34.194Y-95.567
X34.159Y-95.579
X29.499Y-97.119
X29.464Y-97.13
X29.428Y-97.14
X24.698Y-98.449
X24.662Y-98.459
X24.626Y-98.467
X19.837Y-99.543
X19.801Y-99.55
X19.765Y-99.557
X14.929Y-100.396
X14.893Y-100.402
X14.856Y-100.407
X9.985Y-101.008
X9.948Y-101.012
X9.912Y-101.015
X5.017Y-101.376
X4.98Y-101.378
X4.943Y-101.38
X0.036Y-101.5
X0Y-101.501
X-0.036Y-101.5
X-4.943Y-101.38
X-4.98Y-101.378
X-5.017Y-101.376
X-9.912Y-101.015
X-9.948Y-101.012
X-9.985Y-101.008
X-14.856Y-100.407
X-14.893Y-100.402
X-14.929Y-100.396
X-19.765Y-99.557
X-19.801Y-99.55
X-19.837Y-99.543
X-24.626Y-98.467
X-24.662Y-98.459
X-24.698Y-98.449
X-29.428Y-97.14
X-29.464Y-97.13
X-29.499Y-97.119
X-34.159Y-95.579
X-34.194Y-95.567
X-34.229Y-95.554
X-38.808Y-93.788
X-38.842Y-93.774
X-38.876Y-93.76
X-43.363Y-91.771
X-43.397Y-91.755
X-43.43Y-91.739
X-47.814Y-89.532
X-47.847Y-89.515
X-47.879Y-89.498
X-52.15Y-87.078
X-52.181Y-87.06
X-52.213Y-87.04
X-56.36Y-84.415
X-56.39Y-84.394
X-56.421Y-84.374
X-60.434Y-81.547
X-60.464Y-81.526
X-60.493Y-81.504
X-64.362Y-78.484
X-64.391Y-78.461
X-64.419Y-78.437
X-68.136Y-75.231
X-68.163Y-75.207
X-68.19Y-75.182
X-71.745Y-71.797
X-71.772Y-71.772
X-71.797Y-71.745
X-75.182Y-68.19
X-75.207Y-68.163
X-75.231Y-68.136
X-78.437Y-64.419
X-78.461Y-64.391
X-78.484Y-64.362
X-81.504Y-60.493
X-81.526Y-60.464
X-81.547Y-60.434
X-84.374Y-56.421
X-84.394Y-56.39
X-84.415Y-56.36
X-87.04Y-52.213
X-87.06Y-52.181
X-87.078Y-52.15
X-89.498Y-47.879
X-89.515Y-47.847
X-89.532Y-47.814
X-91.739Y-43.43
X-91.755Y-43.397
X-91.771Y-43.363
X-93.76Y-38.876
X-93.774Y-38.842
X-93.788Y-38.808
X-95.554Y-34.229
X-95.567Y-34.194
X-95.579Y-34.159
X-97.119Y-29.499
X-97.13Y-29.464
X-97.14Y-29.428
X-98.449Y-24.698
X-98.459Y-24.662
X-98.467Y-24.626
X-99.543Y-19.837
X-99.55Y-19.801
X-99.557Y-19.765
X-100.396Y-14.929
X-100.402Y-14.893
X-100.407Y-14.856
X-101.008Y-9.985
Z-13F500
X-101.012Y-9.948F1000
X-101.015Y-9.912
X-101.376Y-5.017
X-101.378Y-4.98
X-101.38Y-4.943
X-101.5Y-0.036
X-101.501Y0
X-101.5Y0.036
X-101.38Y4.943
X-101.378Y4.98
X-101.376Y5.017
X-101.015Y9.912
X-101.012Y9.948
X-101.008Y9.985
X-100.407Y14.856
X-100.402Y14.893
X-100.396Y14.929
X-99.557Y19.765
X-99.55Y19.801
X-99.543Y19.837
X-98.467Y24.626
X-98.459Y24.662
X-98.449Y24.698
X-97.14Y29.428
X-97.13Y29.464
X-97.119Y29.499
X-95.579Y34.159
X-95.567Y34.194
X-95.554Y34.229
X-93.788Y38.808
X-93.774Y38.842
X-93.76Y38.876
X-91.771Y43.363
X-91.755Y43.397
X-91.739Y43.43
X-89.532Y47.814
X-89.515Y47.847
X-89.498Y47.879
X-87.078Y52.15
X-87.06Y52.181
X-87.04Y52.213
X-84.415Y56.36
X-84.394Y56.39
X-84.374Y56.421
X-81.547Y60.434
X-81.526Y60.464
X-81.504Y60.493
X-78.484Y64.362
X-78.461Y64.391
X-78.437Y64.419
X-75.231Y68.136
X-75.207Y68.163
X-75.182Y68.19
X-71.797Y71.745
X-71.772Y71.772
X-71.745Y71.797
X-68.19Y75.182
X-68.163Y75.207
X-68.136Y75.231
X-64.419Y78.437
X-64.391Y78.461
X-64.362Y78.484
X-60.493Y81.504
X-60.464Y81.526
X-60.434Y81.547
X-56.421Y84.374
X-56.39Y84.395
X-56.36Y84.415
X-52.213Y87.04
X-52.181Y87.06
X-52.15Y87.078
X-47.879Y89.498
X-47.847Y89.515
X-47.814Y89.532
X-43.43Y91.739
X-43.397Y91.755
X-43.363Y91.771
X-38.876Y93.76
X-38.842Y93.774
X-38.808Y93.788
X-34.229Y95.554
X-34.194Y95.567
X-34.159Y95.579
X-29.499Y97.119
X-29.464Y97.13
X-29.428Y97.14
X-24.698Y98.449
X-24.662Y98.459
X-24.626Y98.467
X-19.837Y99.543
X-19.801Y99.55
X-19.765Y99.557
X-14.929Y100.396
X-14.893Y100.402
X-14.856Y100.407
X-9.985Y101.008
X-9.948Y101.012
X-9.912Y101.015
X-5.017Y101.376
X-4.98Y101.378
X-4.943Y101.38
X-0.036Y101.5
X0Y101.501
X0.036Y101.5
X4.943Y101.38
X4.98Y101.378
X5.017Y101.376
X9.912Y101.015
X9.948Y101.012
X9.985Y101.008
X14.856Y100.407
X14.893Y100.402
X14.929Y100.396
X19.765Y99.557
X19.801Y99.55
X19.837Y99.543
X24.626Y98.467
X24.662Y98.459
X24.698Y98.449
X29.428Y97.14
X29.464Y97.13
X29.499Y97.119
X34.159Y95.579
X34.194Y95.567
X34.229Y95.554
X38.808Y93.788
X38.842Y93.774
X38.876Y93.76
X43.363Y91.771
X43.397Y91.755
X43.43Y91.739
X47.814Y89.532
X47.847Y89.515
X47.879Y89.498
X52.15Y87.078
X52.181Y87.06
X52.213Y87.04
X56.36Y84.415
X56.39Y84.394
X56.421Y84.374
X60.434Y81.547
X60.464Y81.526
X60.493Y81.504
X64.362Y78.484
X64.391Y78.461
X64.419Y78.437
X68.136Y75.231
X68.163Y75.207
X68.19Y75.182
X71.745Y71.797
X71.772Y71.772
X71.797Y71.745
X75.182Y68.19
X75.207Y68.163
X75.231Y68.136
X78.437Y64.419
X78.461Y64.391
X78.484Y64.362
X81.504Y60.493
X81.526Y60.464
X81.547Y60.434
X84.374Y56.421
X84.395Y56.39
X84.415Y56.36
X87.04Y52.213
X87.06Y52.181
X87.078Y52.15
X89.498Y47.879
X89.515Y47.847
X89.532Y47.814
X91.739Y43.43
X91.755Y43.397
X91.771Y43.363
X93.76Y38.876
X93.774Y38.842
X93.788Y38.808
X95.554Y34.229
X95.567Y34.194
X95.579Y34.159
X97.119Y29.499
X97.13Y29.464
X97.14Y29.428
X98.449Y24.698
X98.459Y24.662
X98.467Y24.626
X99.543Y19.837
X99.55Y19.801
X99.557Y19.765
X100.396Y14.929
X100.402Y14.893
X100.407Y14.856
X101.008Y9.985
X101.012Y9.948
X101.015Y9.912
X101.376Y5.017
X101.378Y4.98
X101.38Y4.943
X101.5Y0.036
X101.501Y0
X101.5Y-0.036
X101.38Y-4.943
X101.378Y-4.98
X101.376Y-5.017
X101.015Y-9.912
X101.012Y-9.948
X101.008Y-9.985
X100.407Y-14.856
X100.402Y-14.893
X100.396Y-14.929
X99.557Y-19.765
X99.55Y-19.801
X99.543Y-19.837
X98.467Y-24.626
X98.459Y-24.662
X98.449Y-24.698
X97.14Y-29.428
X97.13Y-29.464
X97.119Y-29.499
X95.579Y-34.159
X95.567Y-34.194
X95.554Y-34.229
X93.788Y-38.808
X93.774Y-38.842
X93.76Y-38.876
X91.771Y-43.363
X91.755Y-43.397
X91.739Y-43.43
X89.532Y-47.814
X89.515Y-47.847
X89.498Y-47.879
X87.078Y-52.15
X87.06Y-52.181
X87.04Y-52.213
X84.415Y-56.36
X84.394Y-56.39
X84.374Y-56.421
X81.547Y-60.434
X81.526Y-60.464
X81.504Y-60.493
X78.484Y-64.362
X78.461Y-64.391
X78.437Y-64.419
X75.231Y-68.136
X75.207Y-68.163
X75.182Y-68.19
X71.797Y-71.745
X71.772Y-71.772
X71.745Y-71.797
X68.19Y-75.182
X68.163Y-75.207
X68.136Y-75.231
X64.419Y-78.437
X64.391Y-78.461
X64.362Y-78.484
X60.493Y-81.504
X60.464Y-81.526
X60.434Y-81.547
X56.421Y-84.374
X56.39Y-84.395
X56.36Y-84.415
X52.213Y-87.04
X52.181Y-87.06
X52.15Y-87.078
X47.879Y-89.498
X47.847Y-89.515
X47.814Y-89.532
X43.43Y-91.739
X43.397Y-91.755
X43.363Y-91.771
X38.876Y-93.76
X38.842Y-93.774
X38.808Y-93.788
X34.229Y-95.554
X34.194Y-95.567
X34.159Y-95.579
X29.499Y-97.119
X29.464Y-97.13
X29.428Y-97.14
X24.698Y-98.449
X24.662Y-98.459
X24.626Y-98.467
X19.837Y-99.543
X19.801Y-99.55
X19.765Y-99.557
X14.929Y-100.396
X14.893Y-100.402
X14.856Y-100.407
X9.985Y-101.008
X9.948Y-101.012
X9.912Y-101.015
X5.017Y-101.376
X4.98Y-101.378
X4.943Y-101.38
X0.036Y-101.5
X0Y-101.501
X-0.036Y-101.5
X-4.943Y-101.38
X-4.98Y-101.378
X-5.017Y-101.376
X-9.912Y-101.015
X-9.948Y-101.012
X-9.985Y-101.008
X-14.856Y-100.407
X-14.893Y-100.402
X-14.929Y-100.396
X-19.765Y-99.557
X-19.801Y-99.55
X-19.837Y-99.543
X-24.626Y-98.467
X-24.662Y-98.459
X-24.698Y-98.449
X-29.428Y-97.14
X-29.464Y-97.13
X-29.499Y-97.119
X-34.159Y-95.579
X-34.194Y-95.567
X-34.229Y-95.554
X-38.808Y-93.788
X-38.842Y-93.774
X-38.876Y-93.76
X-43.363Y-91.771
X-43.397Y-91.755
X-43.43Y-91.739
X-47.814Y-89.532
X-47.847Y-89.515
X-47.879Y-89.498
X-52.15Y-87.078
X-52.181Y-87.06
X-52.213Y-87.04
X-56.36Y-84.415
X-56.39Y-84.394
X-56.421Y-84.374
X-60.434Y-81.547
X-60.464Y-81.526
X-60.493Y-81.504
X-64.362Y-78.484
X-64.391Y-78.461
X-64.419Y-78.437
X-68.136Y-75.231
X-68.163Y-75.207
X-68.19Y-75.182
X-71.745Y-71.797
X-71.772Y-71.772
X-71.797Y-71.745
X-75.182Y-68.19
X-75.207Y-68.163
X-75.231Y-68.136
X-78.437Y-64.419
X-78.461Y-64.391
X-78.484Y-64.362
X-81.504Y-60.493
X-81.526Y-60.464
X-81.547Y-60.434
X-84.374Y-56.421
X-84.394Y-56.39
X-84.415Y-56.36
X-87.04Y-52.213
X-87.06Y-52.181
X-87.078Y-52.15
X-89.498Y-47.879
X-89.515Y-47.847
X-89.532Y-47.814
X-91.739Y-43.43
X-91.755Y-43.397
X-91.771Y-43.363
X-93.76Y-38.876
X-93.774Y-38.842
X-93.788Y-38.808
X-95.554Y-34.229
X-95.567Y-34.194
X-95.579Y-34.159
X-97.119Y-29.499
X-97.13Y-29.464
X-97.14Y-29.428
X-98.449Y-24.698
X-98.459Y-24.662
X-98.467Y-24.626
X-99.543Y-19.837
X-99.55Y-19.801
X-99.557Y-19.765
X-100.396Y-14.929
X-100.402Y-14.893
X-100.407Y-14.856
X-101.008Y-9.985
Z-14F500
X-101.012Y-9.948F1000
X-101.015Y-9.912
X-101.376Y-5.017
X-101.378Y-4.98
X-101.38Y-4.943
X-101.5Y-0.036
X-101.501Y0
X-101.5Y0.036
X-101.38Y4.943
X-101.378Y4.98
X-101.376Y5.017
X-101.015Y9.912
X-101.012Y9.948
X-101.008Y9.985
X-100.407Y14.856
X-100.402Y14.893
X-100.396Y14.929
X-99.557Y19.765
X-99.55Y19.801
X-99.543Y19.837
X-98.467Y24.626
X-98.459Y24.662
X-98.449Y24.698
X-97.14Y29.428
X-97.13Y29.464
X-97.119Y29.499
X-95.579Y34.159
X-95.567Y34.194
X-95.554Y34.229
X-93.788Y38.808
X-93.774Y38.842
X-93.76Y38.876
X-91.771Y43.363
X-91.755Y43.397
X-91.739Y43.43
X-89.532Y47.814
X-89.515Y47.847
X-89.498Y47.879
X-87.078Y52.15
X-87.06Y52.181
X-87.04Y52.213
X-84.415Y56.36
X-84.394Y56.39
X-84.374Y56.421
X-81.547Y60.434
X-81.526Y60.464
X-81.504Y60.493
X-78.484Y64.362
X-78.461Y64.391
X-78.437Y64.419
X-75.231Y68.136
X-75.207Y68.163
X-75.182Y68.19
X-71.797Y71.745
X-71.772Y71.772
X-71.745Y71.797
X-68.19Y75.182
X-68.163Y75.207
X-68.136Y75.231
X-64.419Y78.437
X-64.391Y78.461
X-64.362Y78.484
X-60.493Y81.504
X-60.464Y81.526
X-60.434Y81.547
X-56.421Y84.374
X-56.39Y84.395
X-56.36Y84.415
X-52.213Y87.04
X-52.181Y87.06
X-52.15Y87.078
X-47.879Y89.498
X-47.847Y89.515
X-47.814Y89.532
X-43.43Y91.739
X-43.397Y91.755
X-43.363Y91.771
X-38.876Y93.76
X-38.842Y93.774
X-38.808Y93.788
X-34.229Y95.554
X-34.194Y95.567
X-34.159Y95.579
X-29.499Y97.119
X-29.464Y97.13
X-29.428Y97.14
X-24.698Y98.449
X-24.662Y98.459
X-24.626Y98.467
X-19.837Y99.543
X-19.801Y99.55
X-19.765Y99.557
X-14.929Y100.396
X-14.893Y100.402
X-14.856Y100.407
X-9.985Y101.008
X-9.948Y101.012
X-9.912Y101.015
X-5.017Y101.376
X-4.98Y101.378
X-4.943Y101.38
X-0.036Y101.5
X0Y101.501
X0.036Y101.5
X4.943Y101.38
X4.98Y101.378
X5.017Y101.376
X9.912Y101.015
X9.948Y101.012
X9.985Y101.008
X14.856Y100.407
X14.893Y100.402
X14.929Y100.396
X19.765Y99.557
X19.801Y99.55
X19.837Y99.543
X24.626Y98.467
X24.662Y98.459
X24.698Y98.449
X29.428Y97.14
X29.464Y97.13
X29.499Y97.119
X34.159Y95.579
X34.194Y95.567
X34.229Y95.554
X38.808Y93.788
X38.842Y93.774
X38.876Y93.76
X43.363Y91.771
X43.397Y91.755
X43.43Y91.739
X47.814Y89.532
X47.847Y89.515
X47.879Y89.498
X52.15Y87.078
X52.181Y87.06
X52.213Y87.04
X56.36Y84.415
X56.39Y84.394
X56.421Y84.374
X60.434Y81.547
X60.464Y81.526
X60.493Y81.504
X64.362Y78.484
X64.391Y78.461
X64.419Y78.437
X68.136Y75.231
X68.163Y75.207
X68.19Y75.182
X71.745Y71.797
X71.772Y71.772
X71.797Y71.745
X75.182Y68.19
X75.207Y68.163
X75.231Y68.136
X78.437Y64.419
X78.461Y64.391
X78.484Y64.362
X81.504Y60.493
X81.526Y60.464
X81.547Y60.434
X84.374Y56.421
X84.395Y56.39
X84.415Y56.36
X87.04Y52.213
X87.06Y52.181
X87.078Y52.15
X89.498Y47.879
X89.515Y47.847
X89.532Y47.814
X91.739Y43.43
X91.755Y43.397
X91.771Y43.363
X93.76Y38.876
X93.774Y38.842
X93.788Y38.808
X95.554Y34.229
X95.567Y34.194
X95.579Y34.159
X97.119Y29.499
X97.13Y29.464
X97.14Y29.428
X98.449Y24.698
X98.459Y24.662
X98.467Y24.626
X99.543Y19.837
X99.55Y19.801
X99.557Y19.765
X100.396Y14.929
X100.402Y14.893
X100.407Y14.856
X101.008Y9.985
X101.012Y9.948
X101.015Y9.912
X101.376Y5.017
X101.378Y4.98
X101.38Y4.943
X101.5Y0.036
X101.501Y0
X101.5Y-0.036
X101.38Y-4.943
X101.378Y-4.98
X101.376Y-5.017
X101.015Y-9.912
X101.012Y-9.948
X101.008Y-9.985
X100.407Y-14.856
X100.402Y-14.893
X100.396Y-14.929
X99.557Y-19.765
X99.55Y-19.801
X99.543Y-19.837
X98.467Y-24.626
X98.459Y-24.662
X98.449Y-24.698
X97.14Y-29.428
X97.13Y-29.464
X97.119Y-29.499
X95.579Y-34.159
X95.567Y-34.194
X95.554Y-34.229
X93.788Y-38.808
X93.774Y-38.842
X93.76Y-38.876
X91.771Y-43.363
X91.755Y-43.397
X91.739Y-43.43
X89.532Y-47.814
X89.515Y-47.847
X89.498Y-47.879
X87.078Y-52.15
X87.06Y-52.181
X87.04Y-52.213
X84.415Y-56.36
X84.394Y-56.39
X84.374Y-56.421
X81.547Y-60.434
X81.526Y-60.464
X81.504Y-60.493
X78.484Y-64.362
X78.461Y-64.391
X78.437Y-64.419
X75.231Y-68.136
X75.207Y-68.163
X75.182Y-68.19
X71.797Y-71.745
X71.772Y-71.772
X71.745Y-71.797
X68.19Y-75.182
X68.163Y-75.207
X68.136Y-75.231
X64.419Y-78.437
X64.391Y-78.461
X64.362Y-78.484
X60.493Y-81.504
X60.464Y-81.526
X60.434Y-81.547
X56.421Y-84.374
X56.39Y-84.395
X56.36Y-84.415
X52.213Y-87.04
X52.181Y-87.06
X52.15Y-87.078
X47.879Y-89.498
X47.847Y-89.515
X47.814Y-89.532
X43.43Y-91.739
X43.397Y-91.755
X43.363Y-91.771
X38.876Y-93.76
X38.842Y-93.774
X38.808Y-93.788
X34.229Y-95.554
X34.194Y-95.567
X34.159Y-95.579
X29.499Y-97.119
X29.464Y-97.13
X29.428Y-97.14
X24.698Y-98.449
X24.662Y-98.459
X24.626Y-98.467
X19.837Y-99.543
X19.801Y-99.55
X19.765Y-99.557
X14.929Y-100.396
X14.893Y-100.402
X14.856Y-100.407
X9.985Y-101.008
X9.948Y-101.012
X9.912Y-101.015
X5.017Y-101.376
X4.98Y-101.378
X4.943Y-101.38
X0.036Y-101.5
X0Y-101.501
X-0.036Y-101.5
X-4.943Y-101.38
X-4.98Y-101.378
X-5.017Y-101.376
X-9.912Y-101.015
X-9.948Y-101.012
X-9.985Y-101.008
X-14.856Y-100.407
X-14.893Y-100.402
X-14.929Y-100.396
X-19.765Y-99.557
X-19.801Y-99.55
X-19.837Y-99.543
X-24.626Y-98.467
X-24.662Y-98.459
X-24.698Y-98.449
X-29.428Y-97.14
X-29.464Y-97.13
X-29.499Y-97.119
X-34.159Y-95.579
X-34.194Y-95.567
X-34.229Y-95.554
X-38.808Y-93.788
X-38.842Y-93.774
X-38.876Y-93.76
X-43.363Y-91.771
X-43.397Y-91.755
X-43.43Y-91.739
X-47.814Y-89.532
X-47.847Y-89.515
X-47.879Y-89.498
X-52.15Y-87.078
X-52.181Y-87.06
X-52.213Y-87.04
X-56.36Y-84.415
X-56.39Y-84.394
X-56.421Y-84.374
X-60.434Y-81.547
X-60.464Y-81.526
X-60.493Y-81.504
X-64.362Y-78.484
X-64.391Y-78.461
X-64.419Y-78.437
X-68.136Y-75.231
X-68.163Y-75.207
X-68.19Y-75.182
X-71.745Y-71.797
X-71.772Y-71.772
X-71.797Y-71.745
X-75.182Y-68.19
X-75.207Y-68.163
X-75.231Y-68.136
X-78.437Y-64.419
X-78.461Y-64.391
X-78.484Y-64.362
X-81.504Y-60.493
X-81.526Y-60.464
X-81.547Y-60.434
X-84.374Y-56.421
X-84.394Y-56.39
X-84.415Y-56.36
X-87.04Y-52.213
X-87.06Y-52.181
X-87.078Y-52.15
X-89.498Y-47.879
X-89.515Y-47.847
X-89.532Y-47.814
X-91.739Y-43.43
X-91.755Y-43.397
X-91.771Y-43.363
X-93.76Y-38.876
X-93.774Y-38.842
X-93.788Y-38.808
X-95.554Y-34.229
X-95.567Y-34.194
X-95.579Y-34.159
X-97.119Y-29.499
X-97.13Y-29.464
X-97.14Y-29.428
X-98.449Y-24.698
X-98.459Y-24.662
X-98.467Y-24.626
X-99.543Y-19.837
X-99.55Y-19.801
X-99.557Y-19.765
X-100.396Y-14.929
X-100.402Y-14.893
X-100.407Y-14.856
X-101.008Y-9.985
Z-15F500
X-101.012Y-9.948F1000
X-101.015Y-9.912
X-101.376Y-5.017
X-101.378Y-4.98
X-101.38Y-4.943
X-101.5Y-0.036
X-101.501Y0
X-101.5Y0.036
X-101.38Y4.943
X-101.378Y4.98
X-101.376Y5.017
X-101.015Y9.912
X-101.012Y9.948
X-101.008Y9.985
X-100.407Y14.856
X-100.402Y14.893
X-100.396Y14.929
X-99.557Y19.765
X-99.55Y19.801
X-99.543Y19.837
X-98.467Y24.626
X-98.459Y24.662
X-98.449Y24.698
X-97.14Y29.428
X-97.13Y29.464
X-97.119Y29.499
X-95.579Y34.159
X-95.567Y34.194
X-95.554Y34.229
X-93.788Y38.808
X-93.774Y38.842
X-93.76Y38.876
X-91.771Y43.363
X-91.755Y43.397
X-91.739Y43.43
X-89.532Y47.814
X-89.515Y47.847
X-89.498Y47.879
X-87.078Y52.15
X-87.06Y52.181
X-87.04Y52.213
X-84.415Y56.36
X-84.394Y56.39
X-84.374Y56.421
X-81.547Y60.434
X-81.526Y60.464
X-81.504Y60.493
X-78.484Y64.362
X-78.461Y64.391
X-78.437Y64.419
X-75.231Y68.136
X-75.207Y68.163
X-75.182Y68.19
X-71.797Y71.745
X-71.772Y71.772
X-71.745Y71.797
X-68.19Y75.182
X-68.163Y75.207
X-68.136Y75.231
X-64.419Y78.437
X-64.391Y78.461
X-64.362Y78.484
X-60.493Y81.504
X-60.464Y81.526
X-60.434Y81.547
X-56.421Y84.374
X-56.39Y84.395
X-56.36Y84.415
X-52.213Y87.04
X-52.181Y87.06
X-52.15Y87.078
X-47.879Y89.498
X-47.847Y89.515
X-47.814Y89.532
X-43.43Y91.739
X-43.397Y91.755
X-43.363Y91.771
X-38.876Y93.76
X-38.842Y93.774
X-38.808Y93.788
X-34.229Y95.554
X-34.194Y95.567
X-34.159Y95.579
X-29.499Y97.119
X-29.464Y97.13
X-29.428Y97.14
X-24.698Y98.449
X-24.662Y98.459
X-24.626Y98.467
X-19.837Y99.543
X-19.801Y99.55
X-19.765Y99.557
X-14.929Y100.396
X-14.893Y100.402
X-14.856Y100.407
X-9.985Y101.008
X-9.948Y101.012
X-9.912Y101.015
X-5.017Y101.376
X-4.98Y101.378
X-4.943Y101.38
X-0.036Y101.5
X0Y101.501
X0.036Y101.5
X4.943Y101.38
X4.98Y101.378
X5.017Y101.376
X9.912Y101.015
X9.948Y101.012
X9.985Y101.008
X14.856Y100.407
X14.893Y100.402
X14.929Y100.396
X19.765Y99.557
X19.801Y99.55
X19.837Y99.543
X24.626Y98.467
X24.662Y98.459
X24.698Y98.449
X29.428Y97.14
X29.464Y97.13
X29.499Y97.119
X34.159Y95.579
X34.194Y95.567
X34.229Y95.554
X38.808Y93.788
X38.842Y93.774
X38.876Y93.76
X43.363Y91.771
X43.397Y91.755
X43.43Y91.739
X47.814Y89.532
X47.847Y89.515
X47.879Y89.498
X52.15Y87.078
X52.181Y87.06
X52.213Y87.04
X56.36Y84.415
X56.39Y84.394
X56.421Y84.374
X60.434Y81.547
X60.464Y81.526
X60.493Y81.504
X64.362Y78.484
X64.391Y78.461
X64.419Y78.437
X68.136Y75.231
X68.163Y75.207
X68.19Y75.182
X71.745Y71.797
X71.772Y71.772
X71.797Y71.745
X75.182Y68.19
X75.207Y68.163
X75.231Y68.136
X78.437Y64.419
X78.461Y64.391
X78.484Y64.362
X81.504Y60.493
X81.526Y60.464
X81.547Y60.434
X84.374Y56.421
X84.395Y56.39
X84.415Y56.36
X87.04Y52.213
X87.06Y52.181
X87.078Y52.15
X89.498Y47.879
X89.515Y47.847
X89.532Y47.814
X91.739Y43.43
X91.755Y43.397
X91.771Y43.363
X93.76Y38.876
X93.774Y38.842
X93.788Y38.808
X95.554Y34.229
X95.567Y34.194
X95.579Y34.159
X97.119Y29.499
X97.13Y29.464
X97.14Y29.428
X98.449Y24.698
X98.459Y24.662
X98.467Y24.626
X99.543Y19.837
X99.55Y19.801
X99.557Y19.765
X100.396Y14.929
X100.402Y14.893
X100.407Y14.856
X101.008Y9.985
X101.012Y9.948
X101.015Y9.912
X101.376Y5.017
X101.378Y4.98
X101.38Y4.943
X101.5Y0.036
X101.501Y0
X101.5Y-0.036
X101.38Y-4.943
X101.378Y-4.98
X101.376Y-5.017
X101.015Y-9.912
X101.012Y-9.948
X101.008Y-9.985
X100.407Y-14.856
X100.402Y-14.893
X100.396Y-14.929
X99.557Y-19.765
X99.55Y-19.801
X99.543Y-19.837
X98.467Y-24.626
X98.459Y-24.662
X98.449Y-24.698
X97.14Y-29.428
X97.13Y-29.464
X97.119Y-29.499
X95.579Y-34.159
X95.567Y-34.194
X95.554Y-34.229
X93.788Y-38.808
X93.774Y-38.842
X93.76Y-38.876
X91.771Y-43.363
X91.755Y-43.397
X91.739Y-43.43
X89.532Y-47.814
X89.515Y-47.847
X89.498Y-47.879
X87.078Y-52.15
X87.06Y-52.181
X87.04Y-52.213
X84.415Y-56.36
X84.394Y-56.39
X84.374Y-56.421
X81.547Y-60.434
X81.526Y-60.464
X81.504Y-60.493
X78.484Y-64.362
X78.461Y-64.391
X78.437Y-64.419
X75.231Y-68.136
X75.207Y-68.163
X75.182Y-68.19
X71.797Y-71.745
X71.772Y-71.772
X71.745Y-71.797
X68.19Y-75.182
X68.163Y-75.207
X68.136Y-75.231
X64.419Y-78.437
X64.391Y-78.461
X64.362Y-78.484
X60.493Y-81.504
X60.464Y-81.526
X60.434Y-81.547
X56.421Y-84.374
X56.39Y-84.395
X56.36Y-84.415
X52.213Y-87.04
X52.181Y-87.06
X52.15Y-87.078
X47.879Y-89.498
X47.847Y-89.515
X47.814Y-89.532
X43.43Y-91.739
X43.397Y-91.755
X43.363Y-91.771
X38.876Y-93.76
X38.842Y-93.774
X38.808Y-93.788
X34.229Y-95.554
X34.194Y-95.567
X34.159Y-95.579
X29.499Y-97.119
X29.464Y-97.13
X29.428Y-97.14
X24.698Y-98.449
X24.662Y-98.459
X24.626Y-98.467
X19.837Y-99.543
X19.801Y-99.55
X19.765Y-99.557
X14.929Y-100.396
X14.893Y-100.402
X14.856Y-100.407
X9.985Y-101.008
X9.948Y-101.012
X9.912Y-101.015
X5.017Y-101.376
X4.98Y-101.378
X4.943Y-101.38
X0.036Y-101.5
X0Y-101.501
X-0.036Y-101.5
X-4.943Y-101.38
X-4.98Y-101.378
X-5.017Y-101.376
X-9.912Y-101.015
X-9.948Y-101.012
X-9.985Y-101.008
X-14.856Y-100.407
X-14.893Y-100.402
X-14.929Y-100.396
X-19.765Y-99.557
X-19.801Y-99.55
X-19.837Y-99.543
X-24.626Y-98.467
X-24.662Y-98.459
X-24.698Y-98.449
X-29.428Y-97.14
X-29.464Y-97.13
X-29.499Y-97.119
X-34.159Y-95.579
X-34.194Y-95.567
X-34.229Y-95.554
X-38.808Y-93.788
X-38.842Y-93.774
X-38.876Y-93.76
X-43.363Y-91.771
X-43.397Y-91.755
X-43.43Y-91.739
X-47.814Y-89.532
X-47.847Y-89.515
X-47.879Y-89.498
X-52.15Y-87.078
X-52.181Y-87.06
X-52.213Y-87.04
X-56.36Y-84.415
X-56.39Y-84.394
X-56.421Y-84.374
X-60.434Y-81.547
X-60.464Y-81.526
X-60.493Y-81.504
X-64.362Y-78.484
X-64.391Y-78.461
X-64.419Y-78.437
X-68.136Y-75.231
X-68.163Y-75.207
X-68.19Y-75.182
X-71.745Y-71.797
X-71.772Y-71.772
X-71.797Y-71.745
X-75.182Y-68.19
X-75.207Y-68.163
X-75.231Y-68.136
X-78.437Y-64.419
X-78.461Y-64.391
X-78.484Y-64.362
X-81.504Y-60.493
X-81.526Y-60.464
X-81.547Y-60.434
X-84.374Y-56.421
X-84.394Y-56.39
X-84.415Y-56.36
X-87.04Y-52.213
X-87.06Y-52.181
X-87.078Y-52.15
X-89.498Y-47.879
X-89.515Y-47.847
X-89.532Y-47.814
X-91.739Y-43.43
X-91.755Y-43.397
X-91.771Y-43.363
X-93.76Y-38.876
X-93.774Y-38.842
X-93.788Y-38.808
X-95.554Y-34.229
X-95.567Y-34.194
X-95.579Y-34.159
X-97.119Y-29.499
X-97.13Y-29.464
X-97.14Y-29.428
X-98.449Y-24.698
X-98.459Y-24.662
X-98.467Y-24.626
X-99.543Y-19.837
X-99.55Y-19.801
X-99.557Y-19.765
X-100.396Y-14.929
X-100.402Y-14.893
X-100.407Y-14.856
X-101.008Y-9.985
G0Z10
 
